ea.runOutcome(
  index = 108;
  run = ea.run(
    problem = ea.p.mr.fromData(
      trainingDataset = ea.dataset.numerical.fromFile(
        filePath = "../phase2/data-ro-ga-3-008.txt";
        folds = [0];
        nFolds = 40;
        xVarNamePattern = "x.*";
        yVarNamePattern = "y.*"
      )
    );
    randomGenerator = ea.rg.defaultRG(seed = 4);
    solver = ea.s.multiSRTreeGP(
      crossoverP = 0.8;
      diversity = true;
      mapper = ea.m.treeMRF(
        dataset = ea.d.num.empty(
          xVars = [
            x0;
            x1;
            x2;
            x3;
            x4;
            x5;
            x6;
            x7;
            x8;
            x9;
            x10;
            x11;
            x12;
            x13;
            x14;
            x15
          ];
          yVars = [y0; y1; y2; y3]
        );
        postOperator = tanh
      );
      maxConst = 5;
      maxTreeH = 8;
      minConst = 0;
      minNTournament = 3;
      minTreeH = 3;
      nAttemptsDiversity = 100;
      nConst = 10;
      nEval = 10000;
      nPop = 100;
      operators = [addition; subtraction; multiplication; prot_division];
      tournamentRate = 0.05
    )
  );
  serializedGenotypes = [
    "rO0ABXNyABFqYXZhLnV0aWwuQ29sbFNlcleOq7Y6G6gRAwABSQADdGFneHAAAAAEdwQAAAAEc3IAN2lvLmdpdGh1Yi5lcmljbWVkdmV0LmpnZWEuY29yZS5yZXByZXNlbnRhdGlvbi50cmVlLlRyZWUKs7/qnQrEZQIAA0wACGNoaWxkcmVudAAQTGphdmEvdXRpbC9MaXN0O0wAB2NvbnRlbnR0ABJMamF2YS9sYW5nL09iamVjdDtMAAZwYXJlbnR0ADlMaW8vZ2l0aHViL2VyaWNtZWR2ZXQvamdlYS9jb3JlL3JlcHJlc2VudGF0aW9uL3RyZWUvVHJlZTt4cHNyABNqYXZhLnV0aWwuQXJyYXlMaXN0eIHSHZnHYZ0DAAFJAARzaXpleHAAAAAAdwQAAAAAeHNyAEtpby5naXRodWIuZXJpY21lZHZldC5qZ2VhLmNvcmUucmVwcmVzZW50YXRpb24udHJlZS5udW1lcmljLkVsZW1lbnQkVmFyaWFibGUAAAAAAAAAAAIAAUwABG5hbWV0ABJMamF2YS9sYW5nL1N0cmluZzt4cHQAAng0cHNxAH4AAnNxAH4ABwAAAAJ3BAAAAAJzcQB+AAJzcQB+AAcAAAACdwQAAAACc3EAfgACc3EAfgAHAAAAAncEAAAAAnNxAH4AAnNxAH4ABwAAAAB3BAAAAAB4c3EAfgAJdAADeDEwcQB+ABFzcQB+AAJzcQB+AAcAAAAAdwQAAAAAeHNxAH4ACXQAAngyc3EAfgACc3EAfgAHAAAAAncEAAAAAnNxAH4AAnNxAH4ABwAAAAB3BAAAAAB4cQB+ABlxAH4AG3EAfgAXeH5yAEtpby5naXRodWIuZXJpY21lZHZldC5qZ2VhLmNvcmUucmVwcmVzZW50YXRpb24udHJlZS5udW1lcmljLkVsZW1lbnQkT3BlcmF0b3IAAAAAAAAAABIAAHhyAA5qYXZhLmxhbmcuRW51bQAAAAAAAAAAEgAAeHB0AAtTVUJUUkFDVElPTnNxAH4AAnNxAH4ABwAAAAJ3BAAAAAJxAH4AG3NxAH4AAnNxAH4ABwAAAAB3BAAAAAB4cQB+ABlzcQB+AAJzcQB+AAcAAAACdwQAAAACc3EAfgACc3EAfgAHAAAAAncEAAAAAnNxAH4AAnNxAH4ABwAAAAB3BAAAAAB4cQB+ABVxAH4AKXNxAH4AAnNxAH4ABwAAAAJ3BAAAAAJzcQB+AAJzcQB+AAcAAAAAdwQAAAAAeHNyAEtpby5naXRodWIuZXJpY21lZHZldC5qZ2VhLmNvcmUucmVwcmVzZW50YXRpb24udHJlZS5udW1lcmljLkVsZW1lbnQkQ29uc3RhbnQAAAAAAAAAAAIAAUQABXZhbHVleHBAAAAAAAAAAHEAfgAtc3EAfgACc3EAfgAHAAAAAHcEAAAAAHhxAH4AMnEAfgAteH5xAH4AH3QADVBST1RfRElWSVNJT05xAH4AKXhxAH4AIXEAfgAncQB+ACV4cQB+ACFzcQB+AAJzcQB+AAcAAAACdwQAAAACcQB+ACdzcQB+AAJzcQB+AAcAAAACdwQAAAACc3EAfgACc3EAfgAHAAAAAHcEAAAAAHhzcQB+ADEAAAAAAAAAAHEAfgA5c3EAfgACc3EAfgAHAAAAAHcEAAAAAHhxAH4APXNxAH4AAnNxAH4ABwAAAAJ3BAAAAAJzcQB+AAJzcQB+AAcAAAAAdwQAAAAAeHEAfgA9cQB+AEBxAH4APnhxAH4ANXNxAH4AAnNxAH4ABwAAAAJ3BAAAAAJzcQB+AAJzcQB+AAcAAAACdwQAAAACc3EAfgACc3EAfgAHAAAAAncEAAAAAnNxAH4AAnNxAH4ABwAAAAB3BAAAAAB4cQB+ABVxAH4ASHNxAH4AAnNxAH4ABwAAAAB3BAAAAAB4cQB+ABlxAH4ASHhxAH4AIXEAfgBGc3EAfgACc3EAfgAHAAAAAHcEAAAAAHhxAH4AGXEAfgBGeHEAfgAhcQB+AERxAH4AQHhxAH4ANXB4cQB+ADVzcQB+AAJzcQB+AAcAAAACdwQAAAACc3EAfgACc3EAfgAHAAAAAHcEAAAAAHhxAH4APXEAfgBQcQB+ADl4cQB+ADVweHEAfgA1cHhxAH4AIXNxAH4AAnNxAH4ABwAAAAJ3BAAAAAJxAH4AI3EAfgA5eHEAfgA1cHhxAH4AIXEAfgAPcQB+ACV4cQB+ACFxAH4ADXEAfgA5eHEAfgA1cHNxAH4AAnNxAH4ABwAAAAJ3BAAAAAJzcQB+AAJzcQB+AAcAAAACdwQAAAACc3EAfgACc3EAfgAHAAAAAHcEAAAAAHhxAH4AMnEAfgBYc3EAfgACc3EAfgAHAAAAAncEAAAAAnNxAH4AAnNxAH4ABwAAAAB3BAAAAAB4c3EAfgAxP/AAAAAAAABxAH4AXHNxAH4AAnNxAH4ABwAAAAJ3BAAAAAJzcQB+AAJzcQB+AAcAAAACdwQAAAACc3EAfgACc3EAfgAHAAAAAHcEAAAAAHhzcQB+AAl0AAJ4MHEAfgBjc3EAfgACc3EAfgAHAAAAAncEAAAAAnNxAH4AAnNxAH4ABwAAAAB3BAAAAAB4cQB+AGdxAH4AaXNxAH4AAnNxAH4ABwAAAAJ3BAAAAAJzcQB+AAJzcQB+AAcAAAAAdwQAAAAAeHEAfgBncQB+AG1zcQB+AAJzcQB+AAcAAAAAdwQAAAAAeHNxAH4AMUASAAAAAAAAcQB+AG14fnEAfgAfdAAIQURESVRJT05xAH4AaXhxAH4AdHNxAH4AAnNxAH4ABwAAAAJ3BAAAAAJzcQB+AAJzcQB+AAcAAAAAdwQAAAAAeHEAfgBgcQB+AHZxAH4AaXhxAH4AdHNxAH4AAnNxAH4ABwAAAAJ3BAAAAAJxAH4AdnNxAH4AAnNxAH4ABwAAAAB3BAAAAAB4cQB+AGBxAH4AenhxAH4AIXNxAH4AAnNxAH4ABwAAAAJ3BAAAAAJzcQB+AAJzcQB+AAcAAAAAdwQAAAAAeHEAfgBgcQB+AH5xAH4Aenh+cQB+AB90AA5NVUxUSVBMSUNBVElPTnNxAH4AAnNxAH4ABwAAAAJ3BAAAAAJzcQB+AAJzcQB+AAcAAAAAdwQAAAAAeHEAfgAycQB+AIRxAH4AfnhxAH4ANXNxAH4AAnNxAH4ABwAAAAJ3BAAAAAJxAH4AhHNxAH4AAnNxAH4ABwAAAAB3BAAAAAB4cQB+AGdzcQB+AAJzcQB+AAcAAAACdwQAAAACc3EAfgACc3EAfgAHAAAAAncEAAAAAnNxAH4AAnNxAH4ABwAAAAB3BAAAAAB4cQB+ADJxAH4AjnNxAH4AAnNxAH4ABwAAAAJ3BAAAAAJzcQB+AAJzcQB+AAcAAAAAdwQAAAAAeHEAfgBgcQB+AJJzcQB+AAJzcQB+AAcAAAAAdwQAAAAAeHEAfgBgcQB+AJJ4cQB+AIJxAH4AjnhxAH4ANXEAfgCMcQB+AIp4cQB+AIJweHEAfgCCcHhxAH4AdHEAfgBhcQB+AHx4cQB+ACFzcQB+AAJzcQB+AAcAAAACdwQAAAACc3EAfgACc3EAfgAHAAAAAHcEAAAAAHhxAH4AZ3EAfgCYcQB+AGF4cQB+AIJzcQB+AAJzcQB+AAcAAAACdwQAAAACc3EAfgACc3EAfgAHAAAAAHcEAAAAAHhxAH4AMnEAfgCccQB+AJh4cQB+ADVzcQB+AAJzcQB+AAcAAAACdwQAAAACcQB+AJxxAH4AinhxAH4AgnB4cQB+AIJzcQB+AAJzcQB+AAcAAAACdwQAAAACc3EAfgACc3EAfgAHAAAAAHcEAAAAAHhxAH4AYHEAfgCicQB+AFx4cQB+ADVzcQB+AAJzcQB+AAcAAAACdwQAAAACcQB+AKJxAH4AinhxAH4AgnB4cQB+ADVxAH4AVnEAfgCKeHEAfgCCcHNxAH4AAnNxAH4ABwAAAAJ3BAAAAAJzcQB+AAJzcQB+AAcAAAACdwQAAAACc3EAfgACc3EAfgAHAAAAAHcEAAAAAHhxAH4AC3EAfgCqc3EAfgACc3EAfgAHAAAAAncEAAAAAnNxAH4AAnNxAH4ABwAAAAJ3BAAAAAJzcQB+AAJzcQB+AAcAAAACdwQAAAACc3EAfgACc3EAfgAHAAAAAHcEAAAAAHhzcQB+AAl0AAJ4OHEAfgCyc3EAfgACc3EAfgAHAAAAAHcEAAAAAHhxAH4AYHNxAH4AAnNxAH4ABwAAAAJ3BAAAAAJzcQB+AAJzcQB+AAcAAAACdwQAAAACc3EAfgACc3EAfgAHAAAAAncEAAAAAnNxAH4AAnNxAH4ABwAAAAB3BAAAAAB4cQB+ALZxAH4AvnNxAH4AAnNxAH4ABwAAAAB3BAAAAAB4cQB+AGBxAH4AvnhxAH4AgnEAfgC8c3EAfgACc3EAfgAHAAAAAncEAAAAAnNxAH4AAnNxAH4ABwAAAAB3BAAAAAB4cQB+AAtxAH4AxHNxAH4AAnNxAH4ABwAAAAB3BAAAAAB4cQB+AGBxAH4AxHhxAH4AdHEAfgC8eHEAfgCCcQB+ALpxAH4AuHhxAH4AgnNxAH4AAnNxAH4ABwAAAAJ3BAAAAAJxAH4AunNxAH4AAnNxAH4ABwAAAAJ3BAAAAAJzcQB+AAJzcQB+AAcAAAAAdwQAAAAAeHEAfgALcQB+AMxzcQB+AAJzcQB+AAcAAAAAdwQAAAAAeHEAfgBgcQB+AMx4cQB+AHRzcQB+AAJzcQB+AAcAAAACdwQAAAACc3EAfgACc3EAfgAHAAAAAncEAAAAAnNxAH4AAnNxAH4ABwAAAAB3BAAAAAB4cQB+AAtxAH4A1HNxAH4AAnNxAH4ABwAAAAB3BAAAAAB4cQB+AGBxAH4A1HhxAH4AdHEAfgDScQB+AMx4cQB+AIJzcQB+AAJzcQB+AAcAAAACdwQAAAACcQB+ANJzcQB+AAJzcQB+AAcAAAAAdwQAAAAAeHEAfgC2c3EAfgACc3EAfgAHAAAAAncEAAAAAnNxAH4AAnNxAH4ABwAAAAJ3BAAAAAJzcQB+AAJzcQB+AAcAAAAAdwQAAAAAeHEAfgC2cQB+AOBzcQB+AAJzcQB+AAcAAAACdwQAAAACc3EAfgACc3EAfgAHAAAAAncEAAAAAnNxAH4AAnNxAH4ABwAAAAB3BAAAAAB4cQB+ALZxAH4A5nNxAH4AAnNxAH4ABwAAAAB3BAAAAAB4cQB+AGBxAH4A5nhxAH4AgnEAfgDkc3EAfgACc3EAfgAHAAAAAncEAAAAAnNxAH4AAnNxAH4ABwAAAAB3BAAAAAB4cQB+AAtxAH4A7HNxAH4AAnNxAH4ABwAAAAB3BAAAAAB4cQB+AGBxAH4A7HhxAH4AdHEAfgDkeHEAfgCCcQB+AOB4cQB+AIJxAH4A3nEAfgDceHEAfgCCc3EAfgACc3EAfgAHAAAAAncEAAAAAnNxAH4AAnNxAH4ABwAAAAB3BAAAAAB4cQB+AAtxAH4A8nEAfgDeeHEAfgB0c3EAfgACc3EAfgAHAAAAAncEAAAAAnEAfgDyc3EAfgACc3EAfgAHAAAAAncEAAAAAnNxAH4AAnNxAH4ABwAAAAJ3BAAAAAJzcQB+AAJzcQB+AAcAAAACdwQAAAACc3EAfgACc3EAfgAHAAAAAHcEAAAAAHhxAH4AtnEAfgD8c3EAfgACc3EAfgAHAAAAAncEAAAAAnNxAH4AAnNxAH4ABwAAAAB3BAAAAAB4cQB+AAtxAH4BAHNxAH4AAnNxAH4ABwAAAAB3BAAAAAB4cQB+AGBxAH4BAHhxAH4AdHNxAH4AAnNxAH4ABwAAAAJ3BAAAAAJzcQB+AAJzcQB+AAcAAAACdwQAAAACc3EAfgACc3EAfgAHAAAAAncEAAAAAnNxAH4AAnNxAH4ABwAAAAB3BAAAAAB4cQB+ALZxAH4BCnNxAH4AAnNxAH4ABwAAAAJ3BAAAAAJzcQB+AAJzcQB+AAcAAAAAdwQAAAAAeHEAfgALcQB+AQ5zcQB+AAJzcQB+AAcAAAAAdwQAAAAAeHEAfgBgcQB+AQ54cQB+AHRxAH4BCnhxAH4AgnEAfgEIc3EAfgACc3EAfgAHAAAAAncEAAAAAnNxAH4AAnNxAH4ABwAAAAB3BAAAAAB4cQB+AAtxAH4BFHNxAH4AAnNxAH4ABwAAAAB3BAAAAAB4cQB+AGBxAH4BFHhxAH4AdHEAfgEIeHEAfgCCcQB+AQZxAH4BAHhxAH4AgnNxAH4AAnNxAH4ABwAAAAJ3BAAAAAJxAH4BBnNxAH4AAnNxAH4ABwAAAAJ3BAAAAAJzcQB+AAJzcQB+AAcAAAAAdwQAAAAAeHEAfgALcQB+ARxzcQB+AAJzcQB+AAcAAAAAdwQAAAAAeHEAfgBgcQB+ARx4cQB+AHRzcQB+AAJzcQB+AAcAAAACdwQAAAACc3EAfgACc3EAfgAHAAAAAHcEAAAAAHhxAH4AC3EAfgEicQB+ARx4cQB+AIJzcQB+AAJzcQB+AAcAAAACdwQAAAACcQB+ASJzcQB+AAJzcQB+AAcAAAAAdwQAAAAAeHEAfgC2cQB+ASZ4cQB+AIJzcQB+AAJzcQB+AAcAAAACdwQAAAACc3EAfgACc3EAfgAHAAAAAncEAAAAAnNxAH4AAnNxAH4ABwAAAAB3BAAAAAB4cQB+AAtxAH4BLHNxAH4AAnNxAH4ABwAAAAJ3BAAAAAJzcQB+AAJzcQB+AAcAAAACdwQAAAACc3EAfgACc3EAfgAHAAAAAncEAAAAAnNxAH4AAnNxAH4ABwAAAAB3BAAAAAB4cQB+ALZxAH4BNHNxAH4AAnNxAH4ABwAAAAB3BAAAAAB4cQB+AGBxAH4BNHhxAH4AgnEAfgEyc3EAfgACc3EAfgAHAAAAAncEAAAAAnNxAH4AAnNxAH4ABwAAAAB3BAAAAAB4cQB+AAtxAH4BOnNxAH4AAnNxAH4ABwAAAAB3BAAAAAB4cQB+AGBxAH4BOnhxAH4AdHEAfgEyeHEAfgCCcQB+ATBzcQB+AAJzcQB+AAcAAAAAdwQAAAAAeHEAfgC2cQB+ATB4cQB+AIJxAH4BLHhxAH4AdHEAfgEqcQB+ASZ4cQB+AHRweHEAfgCCc3EAfgACc3EAfgAHAAAAAncEAAAAAnEAfgEacQB+ASh4cQB+AIJzcQB+AAJzcQB+AAcAAAACdwQAAAACc3EAfgACc3EAfgAHAAAAAHcEAAAAAHhxAH4AC3EAfgFEcQB+AUJ4cQB+AHRweHEAfgCCcQB+APpxAH4BHHhxAH4AgnEAfgD4cQB+ASh4cQB+AIJxAH4A9nhxAH4AdHB4cQB+AIJzcQB+AAJzcQB+AAcAAAACdwQAAAACc3EAfgACc3EAfgAHAAAAAHcEAAAAAHhxAH4AC3EAfgFIcQB+ANp4cQB+AHRzcQB+AAJzcQB+AAcAAAACdwQAAAACcQB+AUhxAH4A+HhxAH4AdHB4cQB+AIJzcQB+AAJzcQB+AAcAAAACdwQAAAACcQB+AMpxAH4A3HhxAH4AgnNxAH4AAnNxAH4ABwAAAAJ3BAAAAAJzcQB+AAJzcQB+AAcAAAAAdwQAAAAAeHEAfgALcQB+AVBxAH4BTnhxAH4AdHNxAH4AAnNxAH4ABwAAAAJ3BAAAAAJxAH4BUHEAfgD4eHEAfgB0cHhxAH4AgnEAfgCwcQB+AMx4cQB+AIJxAH4ArnEAfgDceHEAfgCCc3EAfgACc3EAfgAHAAAAAncEAAAAAnNxAH4AAnNxAH4ABwAAAAJ3BAAAAAJzcQB+AAJzcQB+AAcAAAAAdwQAAAAAeHEAfgC2cQB+AVhzcQB+AAJzcQB+AAcAAAAAdwQAAAAAeHEAfgBgcQB+AVh4cQB+AIJxAH4BVnEAfgCueHEAfgB0c3EAfgACc3EAfgAHAAAAAncEAAAAAnEAfgFWcQB+APh4cQB+AHRweHEAfgB0cQB+AKhxAH4A+HhxAH4AdHB4";
    "rO0ABXNyABFqYXZhLnV0aWwuQ29sbFNlcleOq7Y6G6gRAwABSQADdGFneHAAAAAEdwQAAAAEc3IAN2lvLmdpdGh1Yi5lcmljbWVkdmV0LmpnZWEuY29yZS5yZXByZXNlbnRhdGlvbi50cmVlLlRyZWUKs7/qnQrEZQIAA0wACGNoaWxkcmVudAAQTGphdmEvdXRpbC9MaXN0O0wAB2NvbnRlbnR0ABJMamF2YS9sYW5nL09iamVjdDtMAAZwYXJlbnR0ADlMaW8vZ2l0aHViL2VyaWNtZWR2ZXQvamdlYS9jb3JlL3JlcHJlc2VudGF0aW9uL3RyZWUvVHJlZTt4cHNyABNqYXZhLnV0aWwuQXJyYXlMaXN0eIHSHZnHYZ0DAAFJAARzaXpleHAAAAAAdwQAAAAAeHNyAEtpby5naXRodWIuZXJpY21lZHZldC5qZ2VhLmNvcmUucmVwcmVzZW50YXRpb24udHJlZS5udW1lcmljLkVsZW1lbnQkVmFyaWFibGUAAAAAAAAAAAIAAUwABG5hbWV0ABJMamF2YS9sYW5nL1N0cmluZzt4cHQAAng0cHNxAH4AAnNxAH4ABwAAAAJ3BAAAAAJzcQB+AAJzcQB+AAcAAAACdwQAAAACc3EAfgACc3EAfgAHAAAAAncEAAAAAnNxAH4AAnNxAH4ABwAAAAB3BAAAAAB4c3EAfgAJdAADeDEwcQB+ABFzcQB+AAJzcQB+AAcAAAAAdwQAAAAAeHNxAH4ACXQAAngyc3EAfgACc3EAfgAHAAAAAncEAAAAAnNxAH4AAnNxAH4ABwAAAAB3BAAAAAB4cQB+ABlxAH4AG3EAfgAXeH5yAEtpby5naXRodWIuZXJpY21lZHZldC5qZ2VhLmNvcmUucmVwcmVzZW50YXRpb24udHJlZS5udW1lcmljLkVsZW1lbnQkT3BlcmF0b3IAAAAAAAAAABIAAHhyAA5qYXZhLmxhbmcuRW51bQAAAAAAAAAAEgAAeHB0AAtTVUJUUkFDVElPTnNxAH4AAnNxAH4ABwAAAAJ3BAAAAAJxAH4AG3NxAH4AAnNxAH4ABwAAAAB3BAAAAAB4cQB+ABlzcQB+AAJzcQB+AAcAAAACdwQAAAACc3EAfgACc3EAfgAHAAAAAncEAAAAAnNxAH4AAnNxAH4ABwAAAAB3BAAAAAB4cQB+ABVxAH4AKXNxAH4AAnNxAH4ABwAAAAJ3BAAAAAJzcQB+AAJzcQB+AAcAAAAAdwQAAAAAeHEAfgAVcQB+AC1zcQB+AAJzcQB+AAcAAAAAdwQAAAAAeHEAfgAZcQB+AC14cQB+ACFxAH4AKXhxAH4AIXEAfgAncQB+ACV4cQB+ACFzcQB+AAJzcQB+AAcAAAACdwQAAAACcQB+ACdzcQB+AAJzcQB+AAcAAAACdwQAAAACc3EAfgACc3EAfgAHAAAAAHcEAAAAAHhxAH4AGXEAfgA1c3EAfgACc3EAfgAHAAAAAHcEAAAAAHhzcgBLaW8uZ2l0aHViLmVyaWNtZWR2ZXQuamdlYS5jb3JlLnJlcHJlc2VudGF0aW9uLnRyZWUubnVtZXJpYy5FbGVtZW50JENvbnN0YW50AAAAAAAAAAACAAFEAAV2YWx1ZXhwAAAAAAAAAABzcQB+AAJzcQB+AAcAAAACdwQAAAACc3EAfgACc3EAfgAHAAAAAHcEAAAAAHhxAH4APHEAfgA9cQB+ADl4fnEAfgAfdAANUFJPVF9ESVZJU0lPTnNxAH4AAnNxAH4ABwAAAAJ3BAAAAAJzcQB+AAJzcQB+AAcAAAACdwQAAAACc3EAfgACc3EAfgAHAAAAAncEAAAAAnNxAH4AAnNxAH4ABwAAAAB3BAAAAAB4cQB+ABVxAH4AR3NxAH4AAnNxAH4ABwAAAAB3BAAAAAB4cQB+ABlxAH4AR3hxAH4AIXEAfgBFc3EAfgACc3EAfgAHAAAAAHcEAAAAAHhxAH4AGXEAfgBFeHEAfgAhcQB+AENxAH4APXhxAH4AQXB4cQB+AEFxAH4AM3hxAH4AQXB4cQB+ACFzcQB+AAJzcQB+AAcAAAACdwQAAAACcQB+ACNxAH4ANXhxAH4AQXB4cQB+ACFxAH4AD3EAfgAleHEAfgAhcQB+AA1xAH4ANXhxAH4AQXBzcQB+AAJzcQB+AAcAAAACdwQAAAACc3EAfgACc3EAfgAHAAAAAncEAAAAAnNxAH4AAnNxAH4ABwAAAAB3BAAAAAB4c3EAfgA7QAAAAAAAAABxAH4AU3NxAH4AAnNxAH4ABwAAAAJ3BAAAAAJzcQB+AAJzcQB+AAcAAAAAdwQAAAAAeHNxAH4AOz/wAAAAAAAAcQB+AFhzcQB+AAJzcQB+AAcAAAACdwQAAAACc3EAfgACc3EAfgAHAAAAAncEAAAAAnNxAH4AAnNxAH4ABwAAAAB3BAAAAAB4c3EAfgAJdAACeDBxAH4AX3NxAH4AAnNxAH4ABwAAAAJ3BAAAAAJzcQB+AAJzcQB+AAcAAAAAdwQAAAAAeHEAfgBjcQB+AGVzcQB+AAJzcQB+AAcAAAACdwQAAAACc3EAfgACc3EAfgAHAAAAAHcEAAAAAHhxAH4AY3EAfgBpc3EAfgACc3EAfgAHAAAAAHcEAAAAAHhzcQB+ADtAEgAAAAAAAHEAfgBpeH5xAH4AH3QACEFERElUSU9OcQB+AGV4cQB+AHBzcQB+AAJzcQB+AAcAAAACdwQAAAACc3EAfgACc3EAfgAHAAAAAncEAAAAAnNxAH4AAnNxAH4ABwAAAAB3BAAAAAB4cQB+AFdxAH4AdHNxAH4AAnNxAH4ABwAAAAJ3BAAAAAJzcQB+AAJzcQB+AAcAAAAAdwQAAAAAeHEAfgBccQB+AHhzcQB+AAJzcQB+AAcAAAACdwQAAAACc3EAfgACc3EAfgAHAAAAAncEAAAAAnNxAH4AAnNxAH4ABwAAAAB3BAAAAAB4cQB+AGNxAH4AfnNxAH4AAnNxAH4ABwAAAAJ3BAAAAAJzcQB+AAJzcQB+AAcAAAAAdwQAAAAAeHEAfgBjcQB+AIJzcQB+AAJzcQB+AAcAAAACdwQAAAACc3EAfgACc3EAfgAHAAAAAHcEAAAAAHhxAH4AY3EAfgCGc3EAfgACc3EAfgAHAAAAAHcEAAAAAHhxAH4Ab3EAfgCGeHEAfgBwcQB+AIJ4cQB+AHBxAH4AfnhxAH4AcHEAfgB8c3EAfgACc3EAfgAHAAAAAHcEAAAAAHhxAH4AXHEAfgB8eHEAfgAhcQB+AHh4fnEAfgAfdAAOTVVMVElQTElDQVRJT05xAH4AdHhxAH4AQXEAfgBycQB+AGV4cQB+AHBzcQB+AAJzcQB+AAcAAAACdwQAAAACcQB+AHJzcQB+AAJzcQB+AAcAAAAAdwQAAAAAeHEAfgBccQB+AJB4cQB+ACFzcQB+AAJzcQB+AAcAAAACdwQAAAACc3EAfgACc3EAfgAHAAAAAHcEAAAAAHhxAH4AXHEAfgCUcQB+AJB4cQB+AI5zcQB+AAJzcQB+AAcAAAACdwQAAAACc3EAfgACc3EAfgAHAAAAAHcEAAAAAHhxAH4AV3EAfgCYcQB+AJR4cQB+AEFzcQB+AAJzcQB+AAcAAAACdwQAAAACcQB+AJhzcQB+AAJzcQB+AAcAAAAAdwQAAAAAeHEAfgBjcQB+AJx4cQB+AI5weHEAfgBwcQB+AF1xAH4AknhxAH4AIXNxAH4AAnNxAH4ABwAAAAJ3BAAAAAJzcQB+AAJzcQB+AAcAAAACdwQAAAACc3EAfgACc3EAfgAHAAAAAncEAAAAAnNxAH4AAnNxAH4ABwAAAAB3BAAAAAB4cQB+AGNxAH4ApHNxAH4AAnNxAH4ABwAAAAJ3BAAAAAJzcQB+AAJzcQB+AAcAAAAAdwQAAAAAeHEAfgBjcQB+AKhzcQB+AAJzcQB+AAcAAAACdwQAAAACc3EAfgACc3EAfgAHAAAAAHcEAAAAAHhxAH4AY3EAfgCsc3EAfgACc3EAfgAHAAAAAHcEAAAAAHhxAH4Ab3EAfgCseHEAfgBwcQB+AKh4cQB+AHBxAH4ApHhxAH4AcHEAfgCic3EAfgACc3EAfgAHAAAAAHcEAAAAAHhxAH4AXHEAfgCieHEAfgAhcQB+AKBxAH4AXXhxAH4AjnNxAH4AAnNxAH4ABwAAAAJ3BAAAAAJzcQB+AAJzcQB+AAcAAAAAdwQAAAAAeHEAfgBXcQB+ALRxAH4AoHhxAH4AQXNxAH4AAnNxAH4ABwAAAAJ3BAAAAAJxAH4AtHEAfgCeeHEAfgCOcHhxAH4AjnNxAH4AAnNxAH4ABwAAAAJ3BAAAAAJzcQB+AAJzcQB+AAcAAAACdwQAAAACc3EAfgACc3EAfgAHAAAAAHcEAAAAAHhxAH4AY3EAfgC8c3EAfgACc3EAfgAHAAAAAncEAAAAAnNxAH4AAnNxAH4ABwAAAAB3BAAAAAB4cQB+AGNxAH4AwHNxAH4AAnNxAH4ABwAAAAB3BAAAAAB4cQB+AG9xAH4AwHhxAH4AcHEAfgC8eHEAfgBwcQB+ALpxAH4AWHhxAH4AQXNxAH4AAnNxAH4ABwAAAAJ3BAAAAAJxAH4AunEAfgCeeHEAfgCOcHhxAH4AQXEAfgBRcQB+AJ54cQB+AI5wc3EAfgACc3EAfgAHAAAAAncEAAAAAnNxAH4AAnNxAH4ABwAAAAJ3BAAAAAJzcQB+AAJzcQB+AAcAAAAAdwQAAAAAeHEAfgALcQB+AMpzcQB+AAJzcQB+AAcAAAACdwQAAAACc3EAfgACc3EAfgAHAAAAAncEAAAAAnNxAH4AAnNxAH4ABwAAAAJ3BAAAAAJzcQB+AAJzcQB+AAcAAAAAdwQAAAAAeHNxAH4ACXQAAng4cQB+ANJzcQB+AAJzcQB+AAcAAAAAdwQAAAAAeHEAfgBcc3EAfgACc3EAfgAHAAAAAncEAAAAAnNxAH4AAnNxAH4ABwAAAAJ3BAAAAAJzcQB+AAJzcQB+AAcAAAACdwQAAAACc3EAfgACc3EAfgAHAAAAAHcEAAAAAHhxAH4A1nEAfgDec3EAfgACc3EAfgAHAAAAAHcEAAAAAHhxAH4AXHEAfgDeeHEAfgCOcQB+ANxzcQB+AAJzcQB+AAcAAAACdwQAAAACc3EAfgACc3EAfgAHAAAAAHcEAAAAAHhxAH4AC3EAfgDkc3EAfgACc3EAfgAHAAAAAHcEAAAAAHhxAH4AXHEAfgDkeHEAfgBwcQB+ANx4cQB+AI5xAH4A2nEAfgDYeHEAfgCOc3EAfgACc3EAfgAHAAAAAncEAAAAAnEAfgDac3EAfgACc3EAfgAHAAAAAncEAAAAAnNxAH4AAnNxAH4ABwAAAAB3BAAAAAB4cQB+AAtxAH4A7HNxAH4AAnNxAH4ABwAAAAB3BAAAAAB4cQB+AFxxAH4A7HhxAH4AcHNxAH4AAnNxAH4ABwAAAAJ3BAAAAAJzcQB+AAJzcQB+AAcAAAACdwQAAAACc3EAfgACc3EAfgAHAAAAAHcEAAAAAHhxAH4AC3EAfgD0c3EAfgACc3EAfgAHAAAAAHcEAAAAAHhxAH4AXHEAfgD0eHEAfgBwcQB+APJxAH4A7HhxAH4AjnNxAH4AAnNxAH4ABwAAAAJ3BAAAAAJxAH4A8nNxAH4AAnNxAH4ABwAAAAB3BAAAAAB4cQB+ANZzcQB+AAJzcQB+AAcAAAACdwQAAAACc3EAfgACc3EAfgAHAAAAAncEAAAAAnNxAH4AAnNxAH4ABwAAAAB3BAAAAAB4cQB+ANZxAH4BAHNxAH4AAnNxAH4ABwAAAAJ3BAAAAAJzcQB+AAJzcQB+AAcAAAACdwQAAAACc3EAfgACc3EAfgAHAAAAAHcEAAAAAHhxAH4A1nEAfgEGc3EAfgACc3EAfgAHAAAAAHcEAAAAAHhxAH4AXHEAfgEGeHEAfgCOcQB+AQRzcQB+AAJzcQB+AAcAAAACdwQAAAACc3EAfgACc3EAfgAHAAAAAHcEAAAAAHhxAH4AC3EAfgEMc3EAfgACc3EAfgAHAAAAAHcEAAAAAHhxAH4AXHEAfgEMeHEAfgBwcQB+AQR4cQB+AI5xAH4BAHhxAH4AjnEAfgD+cQB+APx4cQB+AI5zcQB+AAJzcQB+AAcAAAACdwQAAAACc3EAfgACc3EAfgAHAAAAAHcEAAAAAHhxAH4AC3EAfgEScQB+AP54cQB+AHBzcQB+AAJzcQB+AAcAAAACdwQAAAACcQB+ARJzcQB+AAJzcQB+AAcAAAACdwQAAAACc3EAfgACc3EAfgAHAAAAAncEAAAAAnNxAH4AAnNxAH4ABwAAAAJ3BAAAAAJzcQB+AAJzcQB+AAcAAAAAdwQAAAAAeHEAfgDWcQB+ARxzcQB+AAJzcQB+AAcAAAACdwQAAAACc3EAfgACc3EAfgAHAAAAAHcEAAAAAHhxAH4AC3EAfgEgc3EAfgACc3EAfgAHAAAAAHcEAAAAAHhxAH4AXHEAfgEgeHEAfgBwc3EAfgACc3EAfgAHAAAAAncEAAAAAnNxAH4AAnNxAH4ABwAAAAJ3BAAAAAJzcQB+AAJzcQB+AAcAAAACdwQAAAACc3EAfgACc3EAfgAHAAAAAHcEAAAAAHhxAH4A1nEAfgEqc3EAfgACc3EAfgAHAAAAAncEAAAAAnNxAH4AAnNxAH4ABwAAAAB3BAAAAAB4cQB+AAtxAH4BLnNxAH4AAnNxAH4ABwAAAAB3BAAAAAB4cQB+AFxxAH4BLnhxAH4AcHEAfgEqeHEAfgCOcQB+AShzcQB+AAJzcQB+AAcAAAACdwQAAAACc3EAfgACc3EAfgAHAAAAAHcEAAAAAHhxAH4AC3EAfgE0c3EAfgACc3EAfgAHAAAAAHcEAAAAAHhxAH4AXHEAfgE0eHEAfgBwcQB+ASh4cQB+AI5xAH4BJnEAfgEgeHEAfgCOc3EAfgACc3EAfgAHAAAAAncEAAAAAnEAfgEmc3EAfgACc3EAfgAHAAAAAncEAAAAAnNxAH4AAnNxAH4ABwAAAAB3BAAAAAB4cQB+AAtxAH4BPHNxAH4AAnNxAH4ABwAAAAB3BAAAAAB4cQB+AFxxAH4BPHhxAH4AcHNxAH4AAnNxAH4ABwAAAAJ3BAAAAAJzcQB+AAJzcQB+AAcAAAAAdwQAAAAAeHEAfgALcQB+AUJxAH4BPHhxAH4AjnNxAH4AAnNxAH4ABwAAAAJ3BAAAAAJxAH4BQnNxAH4AAnNxAH4ABwAAAAB3BAAAAAB4cQB+ANZxAH4BRnhxAH4AjnNxAH4AAnNxAH4ABwAAAAJ3BAAAAAJzcQB+AAJzcQB+AAcAAAACdwQAAAACc3EAfgACc3EAfgAHAAAAAHcEAAAAAHhxAH4AC3EAfgFMc3EAfgACc3EAfgAHAAAAAncEAAAAAnNxAH4AAnNxAH4ABwAAAAJ3BAAAAAJzcQB+AAJzcQB+AAcAAAACdwQAAAACc3EAfgACc3EAfgAHAAAAAHcEAAAAAHhxAH4A1nEAfgFUc3EAfgACc3EAfgAHAAAAAHcEAAAAAHhxAH4AXHEAfgFUeHEAfgCOcQB+AVJzcQB+AAJzcQB+AAcAAAACdwQAAAACc3EAfgACc3EAfgAHAAAAAHcEAAAAAHhxAH4AC3EAfgFac3EAfgACc3EAfgAHAAAAAHcEAAAAAHhxAH4AXHEAfgFaeHEAfgBwcQB+AVJ4cQB+AI5xAH4BUHNxAH4AAnNxAH4ABwAAAAB3BAAAAAB4cQB+ANZxAH4BUHhxAH4AjnEAfgFMeHEAfgBwcQB+AUpxAH4BRnhxAH4AcHB4cQB+AI5zcQB+AAJzcQB+AAcAAAACdwQAAAACcQB+ATpxAH4BSHhxAH4AjnNxAH4AAnNxAH4ABwAAAAJ3BAAAAAJzcQB+AAJzcQB+AAcAAAAAdwQAAAAAeHEAfgALcQB+AWRxAH4BYnhxAH4AcHB4cQB+AI5xAH4BGnEAfgE8eHEAfgCOcQB+ARhxAH4BSHhxAH4AjnEAfgEWeHEAfgBwcHhxAH4AjnNxAH4AAnNxAH4ABwAAAAJ3BAAAAAJzcQB+AAJzcQB+AAcAAAAAdwQAAAAAeHEAfgALcQB+AWhxAH4A+nhxAH4AcHNxAH4AAnNxAH4ABwAAAAJ3BAAAAAJxAH4BaHEAfgEYeHEAfgBwcHhxAH4AjnNxAH4AAnNxAH4ABwAAAAJ3BAAAAAJxAH4A6nEAfgD8eHEAfgCOc3EAfgACc3EAfgAHAAAAAncEAAAAAnNxAH4AAnNxAH4ABwAAAAB3BAAAAAB4cQB+AAtxAH4BcHEAfgFueHEAfgBwc3EAfgACc3EAfgAHAAAAAncEAAAAAnEAfgFwcQB+ARh4cQB+AHBweHEAfgCOcQB+ANBxAH4A7HhxAH4AjnEAfgDOcQB+APx4cQB+AI5zcQB+AAJzcQB+AAcAAAACdwQAAAACc3EAfgACc3EAfgAHAAAAAncEAAAAAnNxAH4AAnNxAH4ABwAAAAB3BAAAAAB4cQB+ANZxAH4BeHNxAH4AAnNxAH4ABwAAAAB3BAAAAAB4cQB+AFxxAH4BeHhxAH4AjnEAfgF2cQB+AM54cQB+AHBzcQB+AAJzcQB+AAcAAAACdwQAAAACcQB+AXZxAH4BGHhxAH4AcHB4cQB+AHBxAH4AyHEAfgEYeHEAfgBwcHg=";
    "rO0ABXNyABFqYXZhLnV0aWwuQ29sbFNlcleOq7Y6G6gRAwABSQADdGFneHAAAAAEdwQAAAAEc3IAN2lvLmdpdGh1Yi5lcmljbWVkdmV0LmpnZWEuY29yZS5yZXByZXNlbnRhdGlvbi50cmVlLlRyZWUKs7/qnQrEZQIAA0wACGNoaWxkcmVudAAQTGphdmEvdXRpbC9MaXN0O0wAB2NvbnRlbnR0ABJMamF2YS9sYW5nL09iamVjdDtMAAZwYXJlbnR0ADlMaW8vZ2l0aHViL2VyaWNtZWR2ZXQvamdlYS9jb3JlL3JlcHJlc2VudGF0aW9uL3RyZWUvVHJlZTt4cHNyABNqYXZhLnV0aWwuQXJyYXlMaXN0eIHSHZnHYZ0DAAFJAARzaXpleHAAAAAAdwQAAAAAeHNyAEtpby5naXRodWIuZXJpY21lZHZldC5qZ2VhLmNvcmUucmVwcmVzZW50YXRpb24udHJlZS5udW1lcmljLkVsZW1lbnQkVmFyaWFibGUAAAAAAAAAAAIAAUwABG5hbWV0ABJMamF2YS9sYW5nL1N0cmluZzt4cHQAAng0cHNxAH4AAnNxAH4ABwAAAAJ3BAAAAAJzcQB+AAJzcQB+AAcAAAACdwQAAAACc3EAfgACc3EAfgAHAAAAAncEAAAAAnNxAH4AAnNxAH4ABwAAAAB3BAAAAAB4c3EAfgAJdAADeDEwcQB+ABFzcQB+AAJzcQB+AAcAAAAAdwQAAAAAeHNxAH4ACXQAAngyc3EAfgACc3EAfgAHAAAAAncEAAAAAnNxAH4AAnNxAH4ABwAAAAJ3BAAAAAJzcQB+AAJzcQB+AAcAAAAAdwQAAAAAeHNyAEtpby5naXRodWIuZXJpY21lZHZldC5qZ2VhLmNvcmUucmVwcmVzZW50YXRpb24udHJlZS5udW1lcmljLkVsZW1lbnQkQ29uc3RhbnQAAAAAAAAAAAIAAUQABXZhbHVleHAAAAAAAAAAAHEAfgAdc3EAfgACc3EAfgAHAAAAAHcEAAAAAHhxAH4AInEAfgAdeH5yAEtpby5naXRodWIuZXJpY21lZHZldC5qZ2VhLmNvcmUucmVwcmVzZW50YXRpb24udHJlZS5udW1lcmljLkVsZW1lbnQkT3BlcmF0b3IAAAAAAAAAABIAAHhyAA5qYXZhLmxhbmcuRW51bQAAAAAAAAAAEgAAeHB0AA1QUk9UX0RJVklTSU9OcQB+ABtxAH4AF3h+cQB+ACV0AAtTVUJUUkFDVElPTnNxAH4AAnNxAH4ABwAAAAJ3BAAAAAJxAH4AG3NxAH4AAnNxAH4ABwAAAAB3BAAAAAB4cQB+ABlzcQB+AAJzcQB+AAcAAAACdwQAAAACc3EAfgACc3EAfgAHAAAAAncEAAAAAnNxAH4AAnNxAH4ABwAAAAB3BAAAAAB4cQB+ABVxAH4AMXNxAH4AAnNxAH4ABwAAAAJ3BAAAAAJzcQB+AAJzcQB+AAcAAAAAdwQAAAAAeHEAfgAVcQB+ADVzcQB+AAJzcQB+AAcAAAAAdwQAAAAAeHEAfgAZcQB+ADV4cQB+AClxAH4AMXhxAH4AKXEAfgAvcQB+AC14cQB+AClzcQB+AAJzcQB+AAcAAAACdwQAAAACcQB+AC9zcQB+AAJzcQB+AAcAAAACdwQAAAACc3EAfgACc3EAfgAHAAAAAHcEAAAAAHhzcQB+ACFAAAAAAAAAAHEAfgA9c3EAfgACc3EAfgAHAAAAAHcEAAAAAHhxAH4AInNxAH4AAnNxAH4ABwAAAAJ3BAAAAAJzcQB+AAJzcQB+AAcAAAAAdwQAAAAAeHEAfgAicQB+AERxAH4AQnhxAH4AJ3NxAH4AAnNxAH4ABwAAAAJ3BAAAAAJzcQB+AAJzcQB+AAcAAAACdwQAAAACc3EAfgACc3EAfgAHAAAAAncEAAAAAnNxAH4AAnNxAH4ABwAAAAB3BAAAAAB4cQB+ABVxAH4ATHNxAH4AAnNxAH4ABwAAAAB3BAAAAAB4cQB+ABlxAH4ATHhxAH4AKXEAfgBKc3EAfgACc3EAfgAHAAAAAHcEAAAAAHhxAH4AGXEAfgBKeHEAfgApcQB+AEhxAH4ARHhxAH4AJ3B4cQB+ACdxAH4AO3hxAH4AJ3B4cQB+AClzcQB+AAJzcQB+AAcAAAACdwQAAAACcQB+ACtxAH4APXhxAH4AJ3B4cQB+AClxAH4AD3EAfgAteHEAfgApcQB+AA1xAH4APXhxAH4AJ3BzcQB+AAJzcQB+AAcAAAACdwQAAAACc3EAfgACc3EAfgAHAAAAAncEAAAAAnNxAH4AAnNxAH4ABwAAAAB3BAAAAAB4cQB+AEFxAH4AWHNxAH4AAnNxAH4ABwAAAAJ3BAAAAAJzcQB+AAJzcQB+AAcAAAAAdwQAAAAAeHNxAH4AIT/wAAAAAAAAcQB+AFxzcQB+AAJzcQB+AAcAAAACdwQAAAACc3EAfgACc3EAfgAHAAAAAncEAAAAAnNxAH4AAnNxAH4ABwAAAAB3BAAAAAB4c3EAfgAJdAACeDBxAH4AY3NxAH4AAnNxAH4ABwAAAAJ3BAAAAAJzcQB+AAJzcQB+AAcAAAAAdwQAAAAAeHEAfgBncQB+AGlzcQB+AAJzcQB+AAcAAAACdwQAAAACc3EAfgACc3EAfgAHAAAAAHcEAAAAAHhxAH4AZ3EAfgBtc3EAfgACc3EAfgAHAAAAAHcEAAAAAHhzcQB+ACFAEgAAAAAAAHEAfgBteH5xAH4AJXQACEFERElUSU9OcQB+AGl4cQB+AHRzcQB+AAJzcQB+AAcAAAACdwQAAAACc3EAfgACc3EAfgAHAAAAAncEAAAAAnNxAH4AAnNxAH4ABwAAAAB3BAAAAAB4cQB+AEFxAH4AeHNxAH4AAnNxAH4ABwAAAAJ3BAAAAAJzcQB+AAJzcQB+AAcAAAAAdwQAAAAAeHEAfgBgcQB+AHxzcQB+AAJzcQB+AAcAAAACdwQAAAACc3EAfgACc3EAfgAHAAAAAncEAAAAAnNxAH4AAnNxAH4ABwAAAAB3BAAAAAB4cQB+AGdxAH4AgnNxAH4AAnNxAH4ABwAAAAJ3BAAAAAJzcQB+AAJzcQB+AAcAAAAAdwQAAAAAeHEAfgBncQB+AIZzcQB+AAJzcQB+AAcAAAACdwQAAAACc3EAfgACc3EAfgAHAAAAAHcEAAAAAHhxAH4AZ3EAfgCKc3EAfgACc3EAfgAHAAAAAHcEAAAAAHhxAH4Ac3EAfgCKeHEAfgB0cQB+AIZ4cQB+AHRxAH4AgnhxAH4AdHEAfgCAc3EAfgACc3EAfgAHAAAAAHcEAAAAAHhxAH4AYHEAfgCAeHEAfgApcQB+AHx4fnEAfgAldAAOTVVMVElQTElDQVRJT05xAH4AeHhxAH4AJ3EAfgB2cQB+AGl4cQB+AHRzcQB+AAJzcQB+AAcAAAACdwQAAAACcQB+AHZzcQB+AAJzcQB+AAcAAAAAdwQAAAAAeHEAfgBgcQB+AJR4cQB+AClzcQB+AAJzcQB+AAcAAAACdwQAAAACc3EAfgACc3EAfgAHAAAAAHcEAAAAAHhxAH4AYHEAfgCYcQB+AJR4cQB+AJJzcQB+AAJzcQB+AAcAAAACdwQAAAACc3EAfgACc3EAfgAHAAAAAHcEAAAAAHhxAH4AQXEAfgCccQB+AJh4cQB+ACdzcQB+AAJzcQB+AAcAAAACdwQAAAACcQB+AJxzcQB+AAJzcQB+AAcAAAAAdwQAAAAAeHEAfgBncQB+AKB4cQB+AJJweHEAfgB0cQB+AGFxAH4AlnhxAH4AKXNxAH4AAnNxAH4ABwAAAAJ3BAAAAAJzcQB+AAJzcQB+AAcAAAACdwQAAAACc3EAfgACc3EAfgAHAAAAAncEAAAAAnNxAH4AAnNxAH4ABwAAAAB3BAAAAAB4cQB+AGdxAH4AqHNxAH4AAnNxAH4ABwAAAAJ3BAAAAAJzcQB+AAJzcQB+AAcAAAAAdwQAAAAAeHEAfgBncQB+AKxzcQB+AAJzcQB+AAcAAAACdwQAAAACc3EAfgACc3EAfgAHAAAAAHcEAAAAAHhxAH4AZ3EAfgCwc3EAfgACc3EAfgAHAAAAAHcEAAAAAHhxAH4Ac3EAfgCweHEAfgB0cQB+AKx4cQB+AHRxAH4AqHhxAH4AdHEAfgCmc3EAfgACc3EAfgAHAAAAAHcEAAAAAHhxAH4AYHEAfgCmeHEAfgApcQB+AKRxAH4AYXhxAH4AknNxAH4AAnNxAH4ABwAAAAJ3BAAAAAJzcQB+AAJzcQB+AAcAAAAAdwQAAAAAeHEAfgBBcQB+ALhxAH4ApHhxAH4AJ3NxAH4AAnNxAH4ABwAAAAJ3BAAAAAJxAH4AuHEAfgCieHEAfgCScHhxAH4AknNxAH4AAnNxAH4ABwAAAAJ3BAAAAAJzcQB+AAJzcQB+AAcAAAACdwQAAAACc3EAfgACc3EAfgAHAAAAAHcEAAAAAHhxAH4AZ3EAfgDAc3EAfgACc3EAfgAHAAAAAncEAAAAAnNxAH4AAnNxAH4ABwAAAAB3BAAAAAB4cQB+AGdxAH4AxHNxAH4AAnNxAH4ABwAAAAB3BAAAAAB4cQB+AHNxAH4AxHhxAH4AdHEAfgDAeHEAfgB0cQB+AL5xAH4AXHhxAH4AJ3NxAH4AAnNxAH4ABwAAAAJ3BAAAAAJxAH4AvnEAfgCieHEAfgCScHhxAH4AJ3EAfgBWcQB+AKJ4cQB+AJJwc3EAfgACc3EAfgAHAAAAAncEAAAAAnNxAH4AAnNxAH4ABwAAAAJ3BAAAAAJzcQB+AAJzcQB+AAcAAAAAdwQAAAAAeHEAfgALcQB+AM5zcQB+AAJzcQB+AAcAAAACdwQAAAACc3EAfgACc3EAfgAHAAAAAncEAAAAAnNxAH4AAnNxAH4ABwAAAAJ3BAAAAAJzcQB+AAJzcQB+AAcAAAAAdwQAAAAAeHNxAH4ACXQAAng4cQB+ANZzcQB+AAJzcQB+AAcAAAAAdwQAAAAAeHEAfgBgc3EAfgACc3EAfgAHAAAAAncEAAAAAnNxAH4AAnNxAH4ABwAAAAJ3BAAAAAJzcQB+AAJzcQB+AAcAAAACdwQAAAACc3EAfgACc3EAfgAHAAAAAHcEAAAAAHhxAH4A2nEAfgDic3EAfgACc3EAfgAHAAAAAHcEAAAAAHhxAH4AYHEAfgDieHEAfgCScQB+AOBzcQB+AAJzcQB+AAcAAAACdwQAAAACc3EAfgACc3EAfgAHAAAAAHcEAAAAAHhxAH4AC3EAfgDoc3EAfgACc3EAfgAHAAAAAHcEAAAAAHhxAH4AYHEAfgDoeHEAfgB0cQB+AOB4cQB+AJJxAH4A3nEAfgDceHEAfgCSc3EAfgACc3EAfgAHAAAAAncEAAAAAnEAfgDec3EAfgACc3EAfgAHAAAAAncEAAAAAnNxAH4AAnNxAH4ABwAAAAB3BAAAAAB4cQB+AAtxAH4A8HNxAH4AAnNxAH4ABwAAAAB3BAAAAAB4cQB+AGBxAH4A8HhxAH4AdHNxAH4AAnNxAH4ABwAAAAJ3BAAAAAJzcQB+AAJzcQB+AAcAAAACdwQAAAACc3EAfgACc3EAfgAHAAAAAHcEAAAAAHhxAH4AC3EAfgD4c3EAfgACc3EAfgAHAAAAAHcEAAAAAHhxAH4AYHEAfgD4eHEAfgB0cQB+APZxAH4A8HhxAH4AknNxAH4AAnNxAH4ABwAAAAJ3BAAAAAJxAH4A9nNxAH4AAnNxAH4ABwAAAAB3BAAAAAB4cQB+ANpzcQB+AAJzcQB+AAcAAAACdwQAAAACc3EAfgACc3EAfgAHAAAAAncEAAAAAnNxAH4AAnNxAH4ABwAAAAB3BAAAAAB4cQB+ANpxAH4BBHNxAH4AAnNxAH4ABwAAAAJ3BAAAAAJzcQB+AAJzcQB+AAcAAAACdwQAAAACc3EAfgACc3EAfgAHAAAAAHcEAAAAAHhxAH4A2nEAfgEKc3EAfgACc3EAfgAHAAAAAHcEAAAAAHhxAH4AYHEAfgEKeHEAfgCScQB+AQhzcQB+AAJzcQB+AAcAAAACdwQAAAACc3EAfgACc3EAfgAHAAAAAHcEAAAAAHhxAH4AC3EAfgEQc3EAfgACc3EAfgAHAAAAAHcEAAAAAHhxAH4AYHEAfgEQeHEAfgB0cQB+AQh4cQB+AJJxAH4BBHhxAH4AknEAfgECcQB+AQB4cQB+AJJzcQB+AAJzcQB+AAcAAAACdwQAAAACc3EAfgACc3EAfgAHAAAAAHcEAAAAAHhxAH4AC3EAfgEWcQB+AQJ4cQB+AHRzcQB+AAJzcQB+AAcAAAACdwQAAAACcQB+ARZzcQB+AAJzcQB+AAcAAAACdwQAAAACc3EAfgACc3EAfgAHAAAAAncEAAAAAnNxAH4AAnNxAH4ABwAAAAJ3BAAAAAJzcQB+AAJzcQB+AAcAAAAAdwQAAAAAeHEAfgDacQB+ASBzcQB+AAJzcQB+AAcAAAACdwQAAAACc3EAfgACc3EAfgAHAAAAAHcEAAAAAHhxAH4AC3EAfgEkc3EAfgACc3EAfgAHAAAAAHcEAAAAAHhxAH4AYHEAfgEkeHEAfgB0c3EAfgACc3EAfgAHAAAAAncEAAAAAnNxAH4AAnNxAH4ABwAAAAJ3BAAAAAJzcQB+AAJzcQB+AAcAAAACdwQAAAACc3EAfgACc3EAfgAHAAAAAHcEAAAAAHhxAH4A2nEAfgEuc3EAfgACc3EAfgAHAAAAAncEAAAAAnNxAH4AAnNxAH4ABwAAAAB3BAAAAAB4cQB+AAtxAH4BMnNxAH4AAnNxAH4ABwAAAAB3BAAAAAB4cQB+AGBxAH4BMnhxAH4AdHEAfgEueHEAfgCScQB+ASxzcQB+AAJzcQB+AAcAAAACdwQAAAACc3EAfgACc3EAfgAHAAAAAHcEAAAAAHhxAH4AC3EAfgE4c3EAfgACc3EAfgAHAAAAAHcEAAAAAHhxAH4AYHEAfgE4eHEAfgB0cQB+ASx4cQB+AJJxAH4BKnEAfgEkeHEAfgCSc3EAfgACc3EAfgAHAAAAAncEAAAAAnEAfgEqc3EAfgACc3EAfgAHAAAAAncEAAAAAnNxAH4AAnNxAH4ABwAAAAB3BAAAAAB4cQB+AAtxAH4BQHNxAH4AAnNxAH4ABwAAAAB3BAAAAAB4cQB+AGBxAH4BQHhxAH4AdHNxAH4AAnNxAH4ABwAAAAJ3BAAAAAJzcQB+AAJzcQB+AAcAAAAAdwQAAAAAeHEAfgALcQB+AUZxAH4BQHhxAH4AknNxAH4AAnNxAH4ABwAAAAJ3BAAAAAJxAH4BRnNxAH4AAnNxAH4ABwAAAAB3BAAAAAB4cQB+ANpxAH4BSnhxAH4AknNxAH4AAnNxAH4ABwAAAAJ3BAAAAAJzcQB+AAJzcQB+AAcAAAACdwQAAAACc3EAfgACc3EAfgAHAAAAAHcEAAAAAHhxAH4AC3EAfgFQc3EAfgACc3EAfgAHAAAAAncEAAAAAnNxAH4AAnNxAH4ABwAAAAJ3BAAAAAJzcQB+AAJzcQB+AAcAAAACdwQAAAACc3EAfgACc3EAfgAHAAAAAHcEAAAAAHhxAH4A2nEAfgFYc3EAfgACc3EAfgAHAAAAAHcEAAAAAHhxAH4AYHEAfgFYeHEAfgCScQB+AVZzcQB+AAJzcQB+AAcAAAACdwQAAAACc3EAfgACc3EAfgAHAAAAAHcEAAAAAHhxAH4AC3EAfgFec3EAfgACc3EAfgAHAAAAAHcEAAAAAHhxAH4AYHEAfgFeeHEAfgB0cQB+AVZ4cQB+AJJxAH4BVHNxAH4AAnNxAH4ABwAAAAB3BAAAAAB4cQB+ANpxAH4BVHhxAH4AknEAfgFQeHEAfgB0cQB+AU5xAH4BSnhxAH4AdHB4cQB+AJJzcQB+AAJzcQB+AAcAAAACdwQAAAACcQB+AT5xAH4BTHhxAH4AknNxAH4AAnNxAH4ABwAAAAJ3BAAAAAJzcQB+AAJzcQB+AAcAAAAAdwQAAAAAeHEAfgALcQB+AWhxAH4BZnhxAH4AdHB4cQB+AJJxAH4BHnEAfgFAeHEAfgCScQB+ARxxAH4BTHhxAH4AknEAfgEaeHEAfgB0cHhxAH4AknNxAH4AAnNxAH4ABwAAAAJ3BAAAAAJzcQB+AAJzcQB+AAcAAAAAdwQAAAAAeHEAfgALcQB+AWxxAH4A/nhxAH4AdHNxAH4AAnNxAH4ABwAAAAJ3BAAAAAJxAH4BbHEAfgEceHEAfgB0cHhxAH4AknNxAH4AAnNxAH4ABwAAAAJ3BAAAAAJxAH4A7nEAfgEAeHEAfgCSc3EAfgACc3EAfgAHAAAAAncEAAAAAnNxAH4AAnNxAH4ABwAAAAB3BAAAAAB4cQB+AAtxAH4BdHEAfgFyeHEAfgB0c3EAfgACc3EAfgAHAAAAAncEAAAAAnEAfgF0cQB+ARx4cQB+AHRweHEAfgCScQB+ANRxAH4A8HhxAH4AknEAfgDScQB+AQB4cQB+AJJzcQB+AAJzcQB+AAcAAAACdwQAAAACc3EAfgACc3EAfgAHAAAAAncEAAAAAnNxAH4AAnNxAH4ABwAAAAB3BAAAAAB4cQB+ANpxAH4BfHNxAH4AAnNxAH4ABwAAAAB3BAAAAAB4cQB+AGBxAH4BfHhxAH4AknEAfgF6cQB+ANJ4cQB+AHRzcQB+AAJzcQB+AAcAAAACdwQAAAACcQB+AXpxAH4BHHhxAH4AdHB4cQB+AHRxAH4AzHEAfgEceHEAfgB0cHg=";
    "rO0ABXNyABFqYXZhLnV0aWwuQ29sbFNlcleOq7Y6G6gRAwABSQADdGFneHAAAAAEdwQAAAAEc3IAN2lvLmdpdGh1Yi5lcmljbWVkdmV0LmpnZWEuY29yZS5yZXByZXNlbnRhdGlvbi50cmVlLlRyZWUKs7/qnQrEZQIAA0wACGNoaWxkcmVudAAQTGphdmEvdXRpbC9MaXN0O0wAB2NvbnRlbnR0ABJMamF2YS9sYW5nL09iamVjdDtMAAZwYXJlbnR0ADlMaW8vZ2l0aHViL2VyaWNtZWR2ZXQvamdlYS9jb3JlL3JlcHJlc2VudGF0aW9uL3RyZWUvVHJlZTt4cHNyABNqYXZhLnV0aWwuQXJyYXlMaXN0eIHSHZnHYZ0DAAFJAARzaXpleHAAAAAAdwQAAAAAeHNyAEtpby5naXRodWIuZXJpY21lZHZldC5qZ2VhLmNvcmUucmVwcmVzZW50YXRpb24udHJlZS5udW1lcmljLkVsZW1lbnQkVmFyaWFibGUAAAAAAAAAAAIAAUwABG5hbWV0ABJMamF2YS9sYW5nL1N0cmluZzt4cHQAAng0cHNxAH4AAnNxAH4ABwAAAAJ3BAAAAAJzcQB+AAJzcQB+AAcAAAACdwQAAAACc3EAfgACc3EAfgAHAAAAAncEAAAAAnNxAH4AAnNxAH4ABwAAAAB3BAAAAAB4c3EAfgAJdAADeDEwcQB+ABFzcQB+AAJzcQB+AAcAAAAAdwQAAAAAeHNxAH4ACXQAAngyc3EAfgACc3EAfgAHAAAAAncEAAAAAnNxAH4AAnNxAH4ABwAAAAJ3BAAAAAJzcQB+AAJzcQB+AAcAAAAAdwQAAAAAeHNyAEtpby5naXRodWIuZXJpY21lZHZldC5qZ2VhLmNvcmUucmVwcmVzZW50YXRpb24udHJlZS5udW1lcmljLkVsZW1lbnQkQ29uc3RhbnQAAAAAAAAAAAIAAUQABXZhbHVleHAAAAAAAAAAAHEAfgAdc3EAfgACc3EAfgAHAAAAAHcEAAAAAHhxAH4AInEAfgAdeH5yAEtpby5naXRodWIuZXJpY21lZHZldC5qZ2VhLmNvcmUucmVwcmVzZW50YXRpb24udHJlZS5udW1lcmljLkVsZW1lbnQkT3BlcmF0b3IAAAAAAAAAABIAAHhyAA5qYXZhLmxhbmcuRW51bQAAAAAAAAAAEgAAeHB0AA1QUk9UX0RJVklTSU9OcQB+ABtxAH4AF3h+cQB+ACV0AAtTVUJUUkFDVElPTnNxAH4AAnNxAH4ABwAAAAJ3BAAAAAJxAH4AG3NxAH4AAnNxAH4ABwAAAAB3BAAAAAB4cQB+ABlzcQB+AAJzcQB+AAcAAAACdwQAAAACc3EAfgACc3EAfgAHAAAAAncEAAAAAnNxAH4AAnNxAH4ABwAAAAB3BAAAAAB4cQB+ABVxAH4AMXNxAH4AAnNxAH4ABwAAAAJ3BAAAAAJzcQB+AAJzcQB+AAcAAAAAdwQAAAAAeHEAfgAVcQB+ADVzcQB+AAJzcQB+AAcAAAAAdwQAAAAAeHEAfgAZcQB+ADV4cQB+AClxAH4AMXhxAH4AKXEAfgAvcQB+AC14cQB+AClzcQB+AAJzcQB+AAcAAAACdwQAAAACcQB+AC9zcQB+AAJzcQB+AAcAAAACdwQAAAACc3EAfgACc3EAfgAHAAAAAncEAAAAAnNxAH4AAnNxAH4ABwAAAAJ3BAAAAAJzcQB+AAJzcQB+AAcAAAAAdwQAAAAAeHEAfgAVcQB+AEFzcQB+AAJzcQB+AAcAAAAAdwQAAAAAeHEAfgAZcQB+AEF4cQB+AClxAH4AP3NxAH4AAnNxAH4ABwAAAAB3BAAAAAB4cQB+ABVzcQB+AAJzcQB+AAcAAAACdwQAAAACc3EAfgACc3EAfgAHAAAAAHcEAAAAAHhxAH4AGXEAfgBJcQB+AEd4cQB+ACdzcQB+AAJzcQB+AAcAAAACdwQAAAACcQB+AElzcQB+AAJzcQB+AAcAAAAAdwQAAAAAeHEAfgAic3EAfgACc3EAfgAHAAAAAncEAAAAAnNxAH4AAnNxAH4ABwAAAAB3BAAAAAB4cQB+ABlxAH4AUXEAfgBPeHEAfgAnc3EAfgACc3EAfgAHAAAAAncEAAAAAnNxAH4AAnNxAH4ABwAAAAJ3BAAAAAJzcQB+AAJzcQB+AAcAAAACdwQAAAACc3EAfgACc3EAfgAHAAAAAHcEAAAAAHhxAH4AFXEAfgBZc3EAfgACc3EAfgAHAAAAAHcEAAAAAHhxAH4AGXEAfgBZeHEAfgApcQB+AFdzcQB+AAJzcQB+AAcAAAAAdwQAAAAAeHEAfgAZcQB+AFd4cQB+AClxAH4AVXEAfgBReHEAfgAncHhxAH4AJ3NxAH4AAnNxAH4ABwAAAAJ3BAAAAAJzcQB+AAJzcQB+AAcAAAACdwQAAAACc3EAfgACc3EAfgAHAAAAAncEAAAAAnNxAH4AAnNxAH4ABwAAAAB3BAAAAAB4cQB+ABVxAH4AZXNxAH4AAnNxAH4ABwAAAAB3BAAAAAB4cQB+ABlxAH4AZXhxAH4AKXEAfgBjc3EAfgACc3EAfgAHAAAAAHcEAAAAAHhxAH4AGXEAfgBjeHEAfgApcQB+AGFxAH4ATXhxAH4AJ3B4cQB+ACdxAH4APXEAfgBPeHEAfgAncQB+ADt4cQB+ACdweHEAfgApc3EAfgACc3EAfgAHAAAAAncEAAAAAnEAfgArcQB+AD14cQB+ACdweHEAfgApcQB+AA9xAH4ALXhxAH4AKXEAfgANcQB+AD14cQB+ACdwc3EAfgACc3EAfgAHAAAAAncEAAAAAnNxAH4AAnNxAH4ABwAAAAJ3BAAAAAJzcQB+AAJzcQB+AAcAAAAAdwQAAAAAeHNxAH4AIUAAAAAAAAAAcQB+AHFzcQB+AAJzcQB+AAcAAAACdwQAAAACc3EAfgACc3EAfgAHAAAAAHcEAAAAAHhzcQB+ACE/8AAAAAAAAHEAfgB2c3EAfgACc3EAfgAHAAAAAncEAAAAAnNxAH4AAnNxAH4ABwAAAAJ3BAAAAAJzcQB+AAJzcQB+AAcAAAAAdwQAAAAAeHNxAH4ACXQAAngwcQB+AH1zcQB+AAJzcQB+AAcAAAACdwQAAAACc3EAfgACc3EAfgAHAAAAAHcEAAAAAHhxAH4AgXEAfgCDc3EAfgACc3EAfgAHAAAAAncEAAAAAnNxAH4AAnNxAH4ABwAAAAB3BAAAAAB4cQB+AIFxAH4Ah3NxAH4AAnNxAH4ABwAAAAB3BAAAAAB4c3EAfgAhQBIAAAAAAABxAH4Ah3h+cQB+ACV0AAhBRERJVElPTnEAfgCDeHEAfgCOc3EAfgACc3EAfgAHAAAAAncEAAAAAnNxAH4AAnNxAH4ABwAAAAJ3BAAAAAJzcQB+AAJzcQB+AAcAAAAAdwQAAAAAeHEAfgB1cQB+AJJzcQB+AAJzcQB+AAcAAAACdwQAAAACc3EAfgACc3EAfgAHAAAAAHcEAAAAAHhxAH4AenEAfgCWc3EAfgACc3EAfgAHAAAAAncEAAAAAnNxAH4AAnNxAH4ABwAAAAJ3BAAAAAJzcQB+AAJzcQB+AAcAAAAAdwQAAAAAeHEAfgCBcQB+AJxzcQB+AAJzcQB+AAcAAAACdwQAAAACc3EAfgACc3EAfgAHAAAAAHcEAAAAAHhxAH4AgXEAfgCgc3EAfgACc3EAfgAHAAAAAncEAAAAAnNxAH4AAnNxAH4ABwAAAAB3BAAAAAB4cQB+AIFxAH4ApHNxAH4AAnNxAH4ABwAAAAB3BAAAAAB4cQB+AI1xAH4ApHhxAH4AjnEAfgCgeHEAfgCOcQB+AJx4cQB+AI5xAH4AmnNxAH4AAnNxAH4ABwAAAAB3BAAAAAB4cQB+AHpxAH4AmnhxAH4AKXEAfgCWeH5xAH4AJXQADk1VTFRJUExJQ0FUSU9OcQB+AJJ4cQB+ACdxAH4AkHEAfgCDeHEAfgCOc3EAfgACc3EAfgAHAAAAAncEAAAAAnEAfgCQc3EAfgACc3EAfgAHAAAAAHcEAAAAAHhxAH4AenEAfgCueHEAfgApc3EAfgACc3EAfgAHAAAAAncEAAAAAnNxAH4AAnNxAH4ABwAAAAB3BAAAAAB4cQB+AHpxAH4AsnEAfgCueHEAfgCsc3EAfgACc3EAfgAHAAAAAncEAAAAAnNxAH4AAnNxAH4ABwAAAAB3BAAAAAB4cQB+AHVxAH4AtnEAfgCyeHEAfgAnc3EAfgACc3EAfgAHAAAAAncEAAAAAnEAfgC2c3EAfgACc3EAfgAHAAAAAHcEAAAAAHhxAH4AgXEAfgC6eHEAfgCscHhxAH4AjnEAfgB7cQB+ALB4cQB+AClzcQB+AAJzcQB+AAcAAAACdwQAAAACc3EAfgACc3EAfgAHAAAAAncEAAAAAnNxAH4AAnNxAH4ABwAAAAJ3BAAAAAJzcQB+AAJzcQB+AAcAAAAAdwQAAAAAeHEAfgCBcQB+AMJzcQB+AAJzcQB+AAcAAAACdwQAAAACc3EAfgACc3EAfgAHAAAAAHcEAAAAAHhxAH4AgXEAfgDGc3EAfgACc3EAfgAHAAAAAncEAAAAAnNxAH4AAnNxAH4ABwAAAAB3BAAAAAB4cQB+AIFxAH4AynNxAH4AAnNxAH4ABwAAAAB3BAAAAAB4cQB+AI1xAH4AynhxAH4AjnEAfgDGeHEAfgCOcQB+AMJ4cQB+AI5xAH4AwHNxAH4AAnNxAH4ABwAAAAB3BAAAAAB4cQB+AHpxAH4AwHhxAH4AKXEAfgC+cQB+AHt4cQB+AKxzcQB+AAJzcQB+AAcAAAACdwQAAAACc3EAfgACc3EAfgAHAAAAAHcEAAAAAHhxAH4AdXEAfgDScQB+AL54cQB+ACdzcQB+AAJzcQB+AAcAAAACdwQAAAACcQB+ANJxAH4AvHhxAH4ArHB4cQB+AKxzcQB+AAJzcQB+AAcAAAACdwQAAAACc3EAfgACc3EAfgAHAAAAAncEAAAAAnNxAH4AAnNxAH4ABwAAAAB3BAAAAAB4cQB+AIFxAH4A2nNxAH4AAnNxAH4ABwAAAAJ3BAAAAAJzcQB+AAJzcQB+AAcAAAAAdwQAAAAAeHEAfgCBcQB+AN5zcQB+AAJzcQB+AAcAAAAAdwQAAAAAeHEAfgCNcQB+AN54cQB+AI5xAH4A2nhxAH4AjnEAfgDYcQB+AHZ4cQB+ACdzcQB+AAJzcQB+AAcAAAACdwQAAAACcQB+ANhxAH4AvHhxAH4ArHB4cQB+ACdxAH4Ab3EAfgC8eHEAfgCscHNxAH4AAnNxAH4ABwAAAAJ3BAAAAAJzcQB+AAJzcQB+AAcAAAACdwQAAAACc3EAfgACc3EAfgAHAAAAAHcEAAAAAHhxAH4AC3EAfgDoc3EAfgACc3EAfgAHAAAAAncEAAAAAnNxAH4AAnNxAH4ABwAAAAJ3BAAAAAJzcQB+AAJzcQB+AAcAAAACdwQAAAACc3EAfgACc3EAfgAHAAAAAHcEAAAAAHhzcQB+AAl0AAJ4OHEAfgDwc3EAfgACc3EAfgAHAAAAAHcEAAAAAHhxAH4AenNxAH4AAnNxAH4ABwAAAAJ3BAAAAAJzcQB+AAJzcQB+AAcAAAACdwQAAAACc3EAfgACc3EAfgAHAAAAAncEAAAAAnNxAH4AAnNxAH4ABwAAAAB3BAAAAAB4cQB+APRxAH4A/HNxAH4AAnNxAH4ABwAAAAB3BAAAAAB4cQB+AHpxAH4A/HhxAH4ArHEAfgD6c3EAfgACc3EAfgAHAAAAAncEAAAAAnNxAH4AAnNxAH4ABwAAAAB3BAAAAAB4cQB+AAtxAH4BAnNxAH4AAnNxAH4ABwAAAAB3BAAAAAB4cQB+AHpxAH4BAnhxAH4AjnEAfgD6eHEAfgCscQB+APhxAH4A9nhxAH4ArHNxAH4AAnNxAH4ABwAAAAJ3BAAAAAJxAH4A+HNxAH4AAnNxAH4ABwAAAAJ3BAAAAAJzcQB+AAJzcQB+AAcAAAAAdwQAAAAAeHEAfgALcQB+AQpzcQB+AAJzcQB+AAcAAAAAdwQAAAAAeHEAfgB6cQB+AQp4cQB+AI5zcQB+AAJzcQB+AAcAAAACdwQAAAACc3EAfgACc3EAfgAHAAAAAncEAAAAAnNxAH4AAnNxAH4ABwAAAAB3BAAAAAB4cQB+AAtxAH4BEnNxAH4AAnNxAH4ABwAAAAB3BAAAAAB4cQB+AHpxAH4BEnhxAH4AjnEAfgEQcQB+AQp4cQB+AKxzcQB+AAJzcQB+AAcAAAACdwQAAAACcQB+ARBzcQB+AAJzcQB+AAcAAAAAdwQAAAAAeHEAfgD0c3EAfgACc3EAfgAHAAAAAncEAAAAAnNxAH4AAnNxAH4ABwAAAAJ3BAAAAAJzcQB+AAJzcQB+AAcAAAAAdwQAAAAAeHEAfgD0cQB+AR5zcQB+AAJzcQB+AAcAAAACdwQAAAACc3EAfgACc3EAfgAHAAAAAncEAAAAAnNxAH4AAnNxAH4ABwAAAAB3BAAAAAB4cQB+APRxAH4BJHNxAH4AAnNxAH4ABwAAAAB3BAAAAAB4cQB+AHpxAH4BJHhxAH4ArHEAfgEic3EAfgACc3EAfgAHAAAAAncEAAAAAnNxAH4AAnNxAH4ABwAAAAB3BAAAAAB4cQB+AAtxAH4BKnNxAH4AAnNxAH4ABwAAAAB3BAAAAAB4cQB+AHpxAH4BKnhxAH4AjnEAfgEieHEAfgCscQB+AR54cQB+AKxxAH4BHHEAfgEaeHEAfgCsc3EAfgACc3EAfgAHAAAAAncEAAAAAnNxAH4AAnNxAH4ABwAAAAB3BAAAAAB4cQB+AAtxAH4BMHEAfgEceHEAfgCOc3EAfgACc3EAfgAHAAAAAncEAAAAAnEAfgEwc3EAfgACc3EAfgAHAAAAAncEAAAAAnNxAH4AAnNxAH4ABwAAAAJ3BAAAAAJzcQB+AAJzcQB+AAcAAAACdwQAAAACc3EAfgACc3EAfgAHAAAAAHcEAAAAAHhxAH4A9HEAfgE6c3EAfgACc3EAfgAHAAAAAncEAAAAAnNxAH4AAnNxAH4ABwAAAAB3BAAAAAB4cQB+AAtxAH4BPnNxAH4AAnNxAH4ABwAAAAB3BAAAAAB4cQB+AHpxAH4BPnhxAH4AjnNxAH4AAnNxAH4ABwAAAAJ3BAAAAAJzcQB+AAJzcQB+AAcAAAACdwQAAAACc3EAfgACc3EAfgAHAAAAAncEAAAAAnNxAH4AAnNxAH4ABwAAAAB3BAAAAAB4cQB+APRxAH4BSHNxAH4AAnNxAH4ABwAAAAJ3BAAAAAJzcQB+AAJzcQB+AAcAAAAAdwQAAAAAeHEAfgALcQB+AUxzcQB+AAJzcQB+AAcAAAAAdwQAAAAAeHEAfgB6cQB+AUx4cQB+AI5xAH4BSHhxAH4ArHEAfgFGc3EAfgACc3EAfgAHAAAAAncEAAAAAnNxAH4AAnNxAH4ABwAAAAB3BAAAAAB4cQB+AAtxAH4BUnNxAH4AAnNxAH4ABwAAAAB3BAAAAAB4cQB+AHpxAH4BUnhxAH4AjnEAfgFGeHEAfgCscQB+AURxAH4BPnhxAH4ArHNxAH4AAnNxAH4ABwAAAAJ3BAAAAAJxAH4BRHNxAH4AAnNxAH4ABwAAAAJ3BAAAAAJzcQB+AAJzcQB+AAcAAAAAdwQAAAAAeHEAfgALcQB+AVpzcQB+AAJzcQB+AAcAAAAAdwQAAAAAeHEAfgB6cQB+AVp4cQB+AI5zcQB+AAJzcQB+AAcAAAACdwQAAAACc3EAfgACc3EAfgAHAAAAAHcEAAAAAHhxAH4AC3EAfgFgcQB+AVp4cQB+AKxzcQB+AAJzcQB+AAcAAAACdwQAAAACcQB+AWBzcQB+AAJzcQB+AAcAAAAAdwQAAAAAeHEAfgD0cQB+AWR4cQB+AKxzcQB+AAJzcQB+AAcAAAACdwQAAAACc3EAfgACc3EAfgAHAAAAAncEAAAAAnNxAH4AAnNxAH4ABwAAAAB3BAAAAAB4cQB+AAtxAH4BanNxAH4AAnNxAH4ABwAAAAJ3BAAAAAJzcQB+AAJzcQB+AAcAAAACdwQAAAACc3EAfgACc3EAfgAHAAAAAncEAAAAAnNxAH4AAnNxAH4ABwAAAAB3BAAAAAB4cQB+APRxAH4BcnNxAH4AAnNxAH4ABwAAAAB3BAAAAAB4cQB+AHpxAH4BcnhxAH4ArHEAfgFwc3EAfgACc3EAfgAHAAAAAncEAAAAAnNxAH4AAnNxAH4ABwAAAAB3BAAAAAB4cQB+AAtxAH4BeHNxAH4AAnNxAH4ABwAAAAB3BAAAAAB4cQB+AHpxAH4BeHhxAH4AjnEAfgFweHEAfgCscQB+AW5zcQB+AAJzcQB+AAcAAAAAdwQAAAAAeHEAfgD0cQB+AW54cQB+AKxxAH4BanhxAH4AjnEAfgFocQB+AWR4cQB+AI5weHEAfgCsc3EAfgACc3EAfgAHAAAAAncEAAAAAnEAfgFYcQB+AWZ4cQB+AKxzcQB+AAJzcQB+AAcAAAACdwQAAAACc3EAfgACc3EAfgAHAAAAAHcEAAAAAHhxAH4AC3EAfgGCcQB+AYB4cQB+AI5weHEAfgCscQB+AThxAH4BWnhxAH4ArHEAfgE2cQB+AWZ4cQB+AKxxAH4BNHhxAH4AjnB4cQB+AKxzcQB+AAJzcQB+AAcAAAACdwQAAAACc3EAfgACc3EAfgAHAAAAAHcEAAAAAHhxAH4AC3EAfgGGcQB+ARh4cQB+AI5zcQB+AAJzcQB+AAcAAAACdwQAAAACcQB+AYZxAH4BNnhxAH4AjnB4cQB+AKxzcQB+AAJzcQB+AAcAAAACdwQAAAACcQB+AQhxAH4BGnhxAH4ArHNxAH4AAnNxAH4ABwAAAAJ3BAAAAAJzcQB+AAJzcQB+AAcAAAAAdwQAAAAAeHEAfgALcQB+AY5xAH4BjHhxAH4AjnNxAH4AAnNxAH4ABwAAAAJ3BAAAAAJxAH4BjnEAfgE2eHEAfgCOcHhxAH4ArHEAfgDucQB+AQp4cQB+AKxxAH4A7HEAfgEaeHEAfgCsc3EAfgACc3EAfgAHAAAAAncEAAAAAnNxAH4AAnNxAH4ABwAAAAJ3BAAAAAJzcQB+AAJzcQB+AAcAAAAAdwQAAAAAeHEAfgD0cQB+AZZzcQB+AAJzcQB+AAcAAAAAdwQAAAAAeHEAfgB6cQB+AZZ4cQB+AKxxAH4BlHEAfgDseHEAfgCOc3EAfgACc3EAfgAHAAAAAncEAAAAAnEAfgGUcQB+ATZ4cQB+AI5weHEAfgCOcQB+AOZxAH4BNnhxAH4AjnB4";
    "rO0ABXNyABFqYXZhLnV0aWwuQ29sbFNlcleOq7Y6G6gRAwABSQADdGFneHAAAAAEdwQAAAAEc3IAN2lvLmdpdGh1Yi5lcmljbWVkdmV0LmpnZWEuY29yZS5yZXByZXNlbnRhdGlvbi50cmVlLlRyZWUKs7/qnQrEZQIAA0wACGNoaWxkcmVudAAQTGphdmEvdXRpbC9MaXN0O0wAB2NvbnRlbnR0ABJMamF2YS9sYW5nL09iamVjdDtMAAZwYXJlbnR0ADlMaW8vZ2l0aHViL2VyaWNtZWR2ZXQvamdlYS9jb3JlL3JlcHJlc2VudGF0aW9uL3RyZWUvVHJlZTt4cHNyABNqYXZhLnV0aWwuQXJyYXlMaXN0eIHSHZnHYZ0DAAFJAARzaXpleHAAAAAAdwQAAAAAeHNyAEtpby5naXRodWIuZXJpY21lZHZldC5qZ2VhLmNvcmUucmVwcmVzZW50YXRpb24udHJlZS5udW1lcmljLkVsZW1lbnQkVmFyaWFibGUAAAAAAAAAAAIAAUwABG5hbWV0ABJMamF2YS9sYW5nL1N0cmluZzt4cHQAAng0cHNxAH4AAnNxAH4ABwAAAAJ3BAAAAAJzcQB+AAJzcQB+AAcAAAACdwQAAAACc3EAfgACc3EAfgAHAAAAAncEAAAAAnNxAH4AAnNxAH4ABwAAAAB3BAAAAAB4c3EAfgAJdAADeDEwcQB+ABFzcQB+AAJzcQB+AAcAAAAAdwQAAAAAeHNxAH4ACXQAAngyc3EAfgACc3EAfgAHAAAAAncEAAAAAnNxAH4AAnNxAH4ABwAAAAB3BAAAAAB4cQB+ABlxAH4AG3EAfgAXeH5yAEtpby5naXRodWIuZXJpY21lZHZldC5qZ2VhLmNvcmUucmVwcmVzZW50YXRpb24udHJlZS5udW1lcmljLkVsZW1lbnQkT3BlcmF0b3IAAAAAAAAAABIAAHhyAA5qYXZhLmxhbmcuRW51bQAAAAAAAAAAEgAAeHB0AAtTVUJUUkFDVElPTnNxAH4AAnNxAH4ABwAAAAJ3BAAAAAJxAH4AG3NxAH4AAnNxAH4ABwAAAAB3BAAAAAB4cQB+ABlxAH4AI3hxAH4AIXNxAH4AAnNxAH4ABwAAAAJ3BAAAAAJxAH4AI3NxAH4AAnNxAH4ABwAAAAJ3BAAAAAJzcQB+AAJzcQB+AAcAAAAAdwQAAAAAeHNyAEtpby5naXRodWIuZXJpY21lZHZldC5qZ2VhLmNvcmUucmVwcmVzZW50YXRpb24udHJlZS5udW1lcmljLkVsZW1lbnQkQ29uc3RhbnQAAAAAAAAAAAIAAUQABXZhbHVleHBAAAAAAAAAAHEAfgApc3EAfgACc3EAfgAHAAAAAHcEAAAAAHhzcQB+AC0AAAAAAAAAAHNxAH4AAnNxAH4ABwAAAAJ3BAAAAAJzcQB+AAJzcQB+AAcAAAAAdwQAAAAAeHEAfgAxcQB+ADJxAH4AL3h+cQB+AB90AA1QUk9UX0RJVklTSU9Oc3EAfgACc3EAfgAHAAAAAncEAAAAAnNxAH4AAnNxAH4ABwAAAAJ3BAAAAAJzcQB+AAJzcQB+AAcAAAACdwQAAAACc3EAfgACc3EAfgAHAAAAAHcEAAAAAHhxAH4AFXEAfgA8c3EAfgACc3EAfgAHAAAAAHcEAAAAAHhxAH4AGXEAfgA8eHEAfgAhcQB+ADpzcQB+AAJzcQB+AAcAAAAAdwQAAAAAeHEAfgAZcQB+ADp4cQB+ACFxAH4AOHEAfgAyeHEAfgA2cHhxAH4ANnEAfgAneHEAfgA2cHhxAH4AIXEAfgAPcQB+ACV4cQB+ACFxAH4ADXEAfgApeHEAfgA2cHNxAH4AAnNxAH4ABwAAAAJ3BAAAAAJzcQB+AAJzcQB+AAcAAAACdwQAAAACc3EAfgACc3EAfgAHAAAAAHcEAAAAAHhxAH4ALnEAfgBGc3EAfgACc3EAfgAHAAAAAncEAAAAAnNxAH4AAnNxAH4ABwAAAAB3BAAAAAB4c3EAfgAtP/AAAAAAAABxAH4ASnNxAH4AAnNxAH4ABwAAAAJ3BAAAAAJzcQB+AAJzcQB+AAcAAAACdwQAAAACc3EAfgACc3EAfgAHAAAAAHcEAAAAAHhzcQB+AAl0AAJ4MHEAfgBRc3EAfgACc3EAfgAHAAAAAncEAAAAAnNxAH4AAnNxAH4ABwAAAAB3BAAAAAB4cQB+AFVxAH4AV3NxAH4AAnNxAH4ABwAAAAJ3BAAAAAJzcQB+AAJzcQB+AAcAAAAAdwQAAAAAeHEAfgBVcQB+AFtzcQB+AAJzcQB+AAcAAAAAdwQAAAAAeHNxAH4ALUASAAAAAAAAcQB+AFt4fnEAfgAfdAAIQURESVRJT05xAH4AV3hxAH4AYnNxAH4AAnNxAH4ABwAAAAJ3BAAAAAJzcQB+AAJzcQB+AAcAAAACdwQAAAACc3EAfgACc3EAfgAHAAAAAHcEAAAAAHhxAH4ALnEAfgBmc3EAfgACc3EAfgAHAAAAAncEAAAAAnNxAH4AAnNxAH4ABwAAAAB3BAAAAAB4cQB+AE5xAH4AanNxAH4AAnNxAH4ABwAAAAJ3BAAAAAJzcQB+AAJzcQB+AAcAAAACdwQAAAACc3EAfgACc3EAfgAHAAAAAHcEAAAAAHhxAH4AVXEAfgBwc3EAfgACc3EAfgAHAAAAAncEAAAAAnNxAH4AAnNxAH4ABwAAAAB3BAAAAAB4cQB+AFVxAH4AdHNxAH4AAnNxAH4ABwAAAAJ3BAAAAAJzcQB+AAJzcQB+AAcAAAAAdwQAAAAAeHEAfgBVcQB+AHhzcQB+AAJzcQB+AAcAAAAAdwQAAAAAeHEAfgBhcQB+AHh4cQB+AGJxAH4AdHhxAH4AYnEAfgBweHEAfgBicQB+AG5zcQB+AAJzcQB+AAcAAAAAdwQAAAAAeHEAfgBOcQB+AG54cQB+ACFxAH4Aanh+cQB+AB90AA5NVUxUSVBMSUNBVElPTnEAfgBmeHEAfgA2cQB+AGRxAH4AV3hxAH4AYnNxAH4AAnNxAH4ABwAAAAJ3BAAAAAJxAH4AZHNxAH4AAnNxAH4ABwAAAAB3BAAAAAB4cQB+AE5xAH4AgnhxAH4AIXNxAH4AAnNxAH4ABwAAAAJ3BAAAAAJzcQB+AAJzcQB+AAcAAAAAdwQAAAAAeHEAfgBOcQB+AIZxAH4AgnhxAH4AgHNxAH4AAnNxAH4ABwAAAAJ3BAAAAAJzcQB+AAJzcQB+AAcAAAAAdwQAAAAAeHEAfgAucQB+AIpxAH4AhnhxAH4ANnNxAH4AAnNxAH4ABwAAAAJ3BAAAAAJxAH4AinNxAH4AAnNxAH4ABwAAAAB3BAAAAAB4cQB+AFVxAH4AjnhxAH4AgHB4cQB+AGJxAH4AT3EAfgCEeHEAfgAhc3EAfgACc3EAfgAHAAAAAncEAAAAAnNxAH4AAnNxAH4ABwAAAAJ3BAAAAAJzcQB+AAJzcQB+AAcAAAACdwQAAAACc3EAfgACc3EAfgAHAAAAAHcEAAAAAHhxAH4AVXEAfgCWc3EAfgACc3EAfgAHAAAAAncEAAAAAnNxAH4AAnNxAH4ABwAAAAB3BAAAAAB4cQB+AFVxAH4AmnNxAH4AAnNxAH4ABwAAAAJ3BAAAAAJzcQB+AAJzcQB+AAcAAAAAdwQAAAAAeHEAfgBVcQB+AJ5zcQB+AAJzcQB+AAcAAAAAdwQAAAAAeHEAfgBhcQB+AJ54cQB+AGJxAH4AmnhxAH4AYnEAfgCWeHEAfgBicQB+AJRzcQB+AAJzcQB+AAcAAAAAdwQAAAAAeHEAfgBOcQB+AJR4cQB+ACFxAH4AknEAfgBPeHEAfgCAc3EAfgACc3EAfgAHAAAAAncEAAAAAnNxAH4AAnNxAH4ABwAAAAB3BAAAAAB4cQB+AC5xAH4ApnEAfgCSeHEAfgA2c3EAfgACc3EAfgAHAAAAAncEAAAAAnEAfgCmcQB+AJB4cQB+AIBweHEAfgCAc3EAfgACc3EAfgAHAAAAAncEAAAAAnNxAH4AAnNxAH4ABwAAAAJ3BAAAAAJzcQB+AAJzcQB+AAcAAAAAdwQAAAAAeHEAfgBVcQB+AK5zcQB+AAJzcQB+AAcAAAACdwQAAAACc3EAfgACc3EAfgAHAAAAAHcEAAAAAHhxAH4AVXEAfgCyc3EAfgACc3EAfgAHAAAAAHcEAAAAAHhxAH4AYXEAfgCyeHEAfgBicQB+AK54cQB+AGJxAH4ArHEAfgBKeHEAfgA2c3EAfgACc3EAfgAHAAAAAncEAAAAAnEAfgCscQB+AJB4cQB+AIBweHEAfgA2cQB+AERxAH4AkHhxAH4AgHBzcQB+AAJzcQB+AAcAAAACdwQAAAACc3EAfgACc3EAfgAHAAAAAncEAAAAAnNxAH4AAnNxAH4ABwAAAAB3BAAAAAB4cQB+AAtxAH4AvHNxAH4AAnNxAH4ABwAAAAJ3BAAAAAJzcQB+AAJzcQB+AAcAAAACdwQAAAACc3EAfgACc3EAfgAHAAAAAncEAAAAAnNxAH4AAnNxAH4ABwAAAAB3BAAAAAB4c3EAfgAJdAACeDhxAH4AxHNxAH4AAnNxAH4ABwAAAAB3BAAAAAB4cQB+AE5zcQB+AAJzcQB+AAcAAAACdwQAAAACc3EAfgACc3EAfgAHAAAAAncEAAAAAnNxAH4AAnNxAH4ABwAAAAJ3BAAAAAJzcQB+AAJzcQB+AAcAAAAAdwQAAAAAeHEAfgDIcQB+ANBzcQB+AAJzcQB+AAcAAAAAdwQAAAAAeHEAfgBOcQB+ANB4cQB+AIBxAH4AznNxAH4AAnNxAH4ABwAAAAJ3BAAAAAJzcQB+AAJzcQB+AAcAAAAAdwQAAAAAeHEAfgALcQB+ANZzcQB+AAJzcQB+AAcAAAAAdwQAAAAAeHEAfgBOcQB+ANZ4cQB+AGJxAH4AznhxAH4AgHEAfgDMcQB+AMp4cQB+AIBzcQB+AAJzcQB+AAcAAAACdwQAAAACcQB+AMxzcQB+AAJzcQB+AAcAAAACdwQAAAACc3EAfgACc3EAfgAHAAAAAHcEAAAAAHhxAH4AC3EAfgDec3EAfgACc3EAfgAHAAAAAHcEAAAAAHhxAH4ATnEAfgDeeHEAfgBic3EAfgACc3EAfgAHAAAAAncEAAAAAnNxAH4AAnNxAH4ABwAAAAJ3BAAAAAJzcQB+AAJzcQB+AAcAAAAAdwQAAAAAeHEAfgALcQB+AOZzcQB+AAJzcQB+AAcAAAAAdwQAAAAAeHEAfgBOcQB+AOZ4cQB+AGJxAH4A5HEAfgDeeHEAfgCAc3EAfgACc3EAfgAHAAAAAncEAAAAAnEAfgDkc3EAfgACc3EAfgAHAAAAAHcEAAAAAHhxAH4AyHNxAH4AAnNxAH4ABwAAAAJ3BAAAAAJzcQB+AAJzcQB+AAcAAAACdwQAAAACc3EAfgACc3EAfgAHAAAAAHcEAAAAAHhxAH4AyHEAfgDyc3EAfgACc3EAfgAHAAAAAncEAAAAAnNxAH4AAnNxAH4ABwAAAAJ3BAAAAAJzcQB+AAJzcQB+AAcAAAAAdwQAAAAAeHEAfgDIcQB+APhzcQB+AAJzcQB+AAcAAAAAdwQAAAAAeHEAfgBOcQB+APh4cQB+AIBxAH4A9nNxAH4AAnNxAH4ABwAAAAJ3BAAAAAJzcQB+AAJzcQB+AAcAAAAAdwQAAAAAeHEAfgALcQB+AP5zcQB+AAJzcQB+AAcAAAAAdwQAAAAAeHEAfgBOcQB+AP54cQB+AGJxAH4A9nhxAH4AgHEAfgDyeHEAfgCAcQB+APBxAH4A7nhxAH4AgHNxAH4AAnNxAH4ABwAAAAJ3BAAAAAJzcQB+AAJzcQB+AAcAAAAAdwQAAAAAeHEAfgALcQB+AQRxAH4A8HhxAH4AYnNxAH4AAnNxAH4ABwAAAAJ3BAAAAAJxAH4BBHNxAH4AAnNxAH4ABwAAAAJ3BAAAAAJzcQB+AAJzcQB+AAcAAAACdwQAAAACc3EAfgACc3EAfgAHAAAAAncEAAAAAnNxAH4AAnNxAH4ABwAAAAB3BAAAAAB4cQB+AMhxAH4BDnNxAH4AAnNxAH4ABwAAAAJ3BAAAAAJzcQB+AAJzcQB+AAcAAAAAdwQAAAAAeHEAfgALcQB+ARJzcQB+AAJzcQB+AAcAAAAAdwQAAAAAeHEAfgBOcQB+ARJ4cQB+AGJzcQB+AAJzcQB+AAcAAAACdwQAAAACc3EAfgACc3EAfgAHAAAAAncEAAAAAnNxAH4AAnNxAH4ABwAAAAJ3BAAAAAJzcQB+AAJzcQB+AAcAAAAAdwQAAAAAeHEAfgDIcQB+ARxzcQB+AAJzcQB+AAcAAAACdwQAAAACc3EAfgACc3EAfgAHAAAAAHcEAAAAAHhxAH4AC3EAfgEgc3EAfgACc3EAfgAHAAAAAHcEAAAAAHhxAH4ATnEAfgEgeHEAfgBicQB+ARx4cQB+AIBxAH4BGnNxAH4AAnNxAH4ABwAAAAJ3BAAAAAJzcQB+AAJzcQB+AAcAAAAAdwQAAAAAeHEAfgALcQB+ASZzcQB+AAJzcQB+AAcAAAAAdwQAAAAAeHEAfgBOcQB+ASZ4cQB+AGJxAH4BGnhxAH4AgHEAfgEYcQB+ARJ4cQB+AIBzcQB+AAJzcQB+AAcAAAACdwQAAAACcQB+ARhzcQB+AAJzcQB+AAcAAAACdwQAAAACc3EAfgACc3EAfgAHAAAAAHcEAAAAAHhxAH4AC3EAfgEuc3EAfgACc3EAfgAHAAAAAHcEAAAAAHhxAH4ATnEAfgEueHEAfgBic3EAfgACc3EAfgAHAAAAAncEAAAAAnNxAH4AAnNxAH4ABwAAAAB3BAAAAAB4cQB+AAtxAH4BNHEAfgEueHEAfgCAc3EAfgACc3EAfgAHAAAAAncEAAAAAnEAfgE0c3EAfgACc3EAfgAHAAAAAHcEAAAAAHhxAH4AyHEAfgE4eHEAfgCAc3EAfgACc3EAfgAHAAAAAncEAAAAAnNxAH4AAnNxAH4ABwAAAAJ3BAAAAAJzcQB+AAJzcQB+AAcAAAAAdwQAAAAAeHEAfgALcQB+AT5zcQB+AAJzcQB+AAcAAAACdwQAAAACc3EAfgACc3EAfgAHAAAAAncEAAAAAnNxAH4AAnNxAH4ABwAAAAJ3BAAAAAJzcQB+AAJzcQB+AAcAAAAAdwQAAAAAeHEAfgDIcQB+AUZzcQB+AAJzcQB+AAcAAAAAdwQAAAAAeHEAfgBOcQB+AUZ4cQB+AIBxAH4BRHNxAH4AAnNxAH4ABwAAAAJ3BAAAAAJzcQB+AAJzcQB+AAcAAAAAdwQAAAAAeHEAfgALcQB+AUxzcQB+AAJzcQB+AAcAAAAAdwQAAAAAeHEAfgBOcQB+AUx4cQB+AGJxAH4BRHhxAH4AgHEAfgFCc3EAfgACc3EAfgAHAAAAAHcEAAAAAHhxAH4AyHEAfgFCeHEAfgCAcQB+AT54cQB+AGJxAH4BPHEAfgE4eHEAfgBicHhxAH4AgHNxAH4AAnNxAH4ABwAAAAJ3BAAAAAJxAH4BLHEAfgE6eHEAfgCAc3EAfgACc3EAfgAHAAAAAncEAAAAAnNxAH4AAnNxAH4ABwAAAAB3BAAAAAB4cQB+AAtxAH4BVnEAfgFUeHEAfgBicHhxAH4AgHEAfgEMcQB+AS54cQB+AIBxAH4BCnEAfgE6eHEAfgCAcQB+AQh4cQB+AGJweHEAfgCAc3EAfgACc3EAfgAHAAAAAncEAAAAAnNxAH4AAnNxAH4ABwAAAAB3BAAAAAB4cQB+AAtxAH4BWnEAfgDseHEAfgBic3EAfgACc3EAfgAHAAAAAncEAAAAAnEAfgFacQB+AQp4cQB+AGJweHEAfgCAc3EAfgACc3EAfgAHAAAAAncEAAAAAnEAfgDccQB+AO54cQB+AIBzcQB+AAJzcQB+AAcAAAACdwQAAAACc3EAfgACc3EAfgAHAAAAAHcEAAAAAHhxAH4AC3EAfgFicQB+AWB4cQB+AGJzcQB+AAJzcQB+AAcAAAACdwQAAAACcQB+AWJxAH4BCnhxAH4AYnB4cQB+AIBxAH4AwnEAfgDeeHEAfgCAcQB+AMBxAH4A7nhxAH4AgHNxAH4AAnNxAH4ABwAAAAJ3BAAAAAJzcQB+AAJzcQB+AAcAAAACdwQAAAACc3EAfgACc3EAfgAHAAAAAHcEAAAAAHhxAH4AyHEAfgFqc3EAfgACc3EAfgAHAAAAAHcEAAAAAHhxAH4ATnEAfgFqeHEAfgCAcQB+AWhxAH4AwHhxAH4AYnNxAH4AAnNxAH4ABwAAAAJ3BAAAAAJxAH4BaHEAfgEKeHEAfgBicHhxAH4AYnEAfgC6cQB+AQp4cQB+AGJweA==";
    "rO0ABXNyABFqYXZhLnV0aWwuQ29sbFNlcleOq7Y6G6gRAwABSQADdGFneHAAAAAEdwQAAAAEc3IAN2lvLmdpdGh1Yi5lcmljbWVkdmV0LmpnZWEuY29yZS5yZXByZXNlbnRhdGlvbi50cmVlLlRyZWUKs7/qnQrEZQIAA0wACGNoaWxkcmVudAAQTGphdmEvdXRpbC9MaXN0O0wAB2NvbnRlbnR0ABJMamF2YS9sYW5nL09iamVjdDtMAAZwYXJlbnR0ADlMaW8vZ2l0aHViL2VyaWNtZWR2ZXQvamdlYS9jb3JlL3JlcHJlc2VudGF0aW9uL3RyZWUvVHJlZTt4cHNyABNqYXZhLnV0aWwuQXJyYXlMaXN0eIHSHZnHYZ0DAAFJAARzaXpleHAAAAAAdwQAAAAAeHNyAEtpby5naXRodWIuZXJpY21lZHZldC5qZ2VhLmNvcmUucmVwcmVzZW50YXRpb24udHJlZS5udW1lcmljLkVsZW1lbnQkVmFyaWFibGUAAAAAAAAAAAIAAUwABG5hbWV0ABJMamF2YS9sYW5nL1N0cmluZzt4cHQAAng0cHNxAH4AAnNxAH4ABwAAAAJ3BAAAAAJzcQB+AAJzcQB+AAcAAAACdwQAAAACc3EAfgACc3EAfgAHAAAAAncEAAAAAnNxAH4AAnNxAH4ABwAAAAB3BAAAAAB4c3EAfgAJdAADeDEwcQB+ABFzcQB+AAJzcQB+AAcAAAAAdwQAAAAAeHNxAH4ACXQAAngyc3EAfgACc3EAfgAHAAAAAncEAAAAAnNxAH4AAnNxAH4ABwAAAAB3BAAAAAB4cQB+ABlxAH4AG3EAfgAXeH5yAEtpby5naXRodWIuZXJpY21lZHZldC5qZ2VhLmNvcmUucmVwcmVzZW50YXRpb24udHJlZS5udW1lcmljLkVsZW1lbnQkT3BlcmF0b3IAAAAAAAAAABIAAHhyAA5qYXZhLmxhbmcuRW51bQAAAAAAAAAAEgAAeHB0AAtTVUJUUkFDVElPTnNxAH4AAnNxAH4ABwAAAAJ3BAAAAAJxAH4AG3NxAH4AAnNxAH4ABwAAAAB3BAAAAAB4cQB+ABlzcQB+AAJzcQB+AAcAAAACdwQAAAACc3EAfgACc3EAfgAHAAAAAncEAAAAAnNxAH4AAnNxAH4ABwAAAAB3BAAAAAB4cQB+ABVxAH4AKXNxAH4AAnNxAH4ABwAAAAJ3BAAAAAJzcQB+AAJzcQB+AAcAAAAAdwQAAAAAeHNyAEtpby5naXRodWIuZXJpY21lZHZldC5qZ2VhLmNvcmUucmVwcmVzZW50YXRpb24udHJlZS5udW1lcmljLkVsZW1lbnQkQ29uc3RhbnQAAAAAAAAAAAIAAUQABXZhbHVleHBAAAAAAAAAAHEAfgAtc3EAfgACc3EAfgAHAAAAAHcEAAAAAHhxAH4AMnEAfgAteH5xAH4AH3QADVBST1RfRElWSVNJT05xAH4AKXhxAH4AIXEAfgAncQB+ACV4cQB+ACFzcQB+AAJzcQB+AAcAAAACdwQAAAACcQB+ACdzcQB+AAJzcQB+AAcAAAACdwQAAAACc3EAfgACc3EAfgAHAAAAAHcEAAAAAHhzcQB+ADEAAAAAAAAAAHEAfgA5c3EAfgACc3EAfgAHAAAAAHcEAAAAAHhxAH4APXNxAH4AAnNxAH4ABwAAAAJ3BAAAAAJzcQB+AAJzcQB+AAcAAAAAdwQAAAAAeHEAfgA9cQB+AEBxAH4APnhxAH4ANXNxAH4AAnNxAH4ABwAAAAJ3BAAAAAJzcQB+AAJzcQB+AAcAAAACdwQAAAACc3EAfgACc3EAfgAHAAAAAncEAAAAAnNxAH4AAnNxAH4ABwAAAAB3BAAAAAB4cQB+ABVxAH4ASHNxAH4AAnNxAH4ABwAAAAB3BAAAAAB4cQB+ABlxAH4ASHhxAH4AIXEAfgBGc3EAfgACc3EAfgAHAAAAAHcEAAAAAHhxAH4AGXEAfgBGeHEAfgAhcQB+AERxAH4AQHhxAH4ANXB4cQB+ADVzcQB+AAJzcQB+AAcAAAACdwQAAAACc3EAfgACc3EAfgAHAAAAAHcEAAAAAHhxAH4APXEAfgBQcQB+ADl4cQB+ADVweHEAfgA1cHhxAH4AIXNxAH4AAnNxAH4ABwAAAAJ3BAAAAAJxAH4AI3EAfgA5eHEAfgA1cHhxAH4AIXEAfgAPcQB+ACV4cQB+ACFxAH4ADXEAfgA5eHEAfgA1cHNxAH4AAnNxAH4ABwAAAAJ3BAAAAAJzcQB+AAJzcQB+AAcAAAACdwQAAAACc3EAfgACc3EAfgAHAAAAAHcEAAAAAHhxAH4AMnEAfgBYc3EAfgACc3EAfgAHAAAAAncEAAAAAnNxAH4AAnNxAH4ABwAAAAB3BAAAAAB4c3EAfgAxP/AAAAAAAABxAH4AXHNxAH4AAnNxAH4ABwAAAAJ3BAAAAAJzcQB+AAJzcQB+AAcAAAACdwQAAAACc3EAfgACc3EAfgAHAAAAAHcEAAAAAHhzcQB+AAl0AAJ4MHEAfgBjc3EAfgACc3EAfgAHAAAAAncEAAAAAnNxAH4AAnNxAH4ABwAAAAB3BAAAAAB4cQB+AGdxAH4AaXNxAH4AAnNxAH4ABwAAAAJ3BAAAAAJzcQB+AAJzcQB+AAcAAAAAdwQAAAAAeHEAfgBncQB+AG1zcQB+AAJzcQB+AAcAAAAAdwQAAAAAeHNxAH4AMUASAAAAAAAAcQB+AG14fnEAfgAfdAAIQURESVRJT05xAH4AaXhxAH4AdHNxAH4AAnNxAH4ABwAAAAJ3BAAAAAJzcQB+AAJzcQB+AAcAAAAAdwQAAAAAeHEAfgAycQB+AHZxAH4AaXhxAH4AdHNxAH4AAnNxAH4ABwAAAAJ3BAAAAAJxAH4AdnNxAH4AAnNxAH4ABwAAAAB3BAAAAAB4cQB+AGBxAH4AenhxAH4AIXNxAH4AAnNxAH4ABwAAAAJ3BAAAAAJzcQB+AAJzcQB+AAcAAAAAdwQAAAAAeHEAfgBgcQB+AH5xAH4Aenh+cQB+AB90AA5NVUxUSVBMSUNBVElPTnNxAH4AAnNxAH4ABwAAAAJ3BAAAAAJzcQB+AAJzcQB+AAcAAAAAdwQAAAAAeHEAfgAycQB+AIRxAH4AfnhxAH4ANXNxAH4AAnNxAH4ABwAAAAJ3BAAAAAJxAH4AhHNxAH4AAnNxAH4ABwAAAAB3BAAAAAB4cQB+AGdxAH4AiHhxAH4AgnB4cQB+AHRxAH4AYXEAfgB8eHEAfgAhcQB+AFx4cQB+AIJzcQB+AAJzcQB+AAcAAAACdwQAAAACc3EAfgACc3EAfgAHAAAAAHcEAAAAAHhxAH4AZ3EAfgCMcQB+AFx4cQB+ADVzcQB+AAJzcQB+AAcAAAACdwQAAAACcQB+AIxxAH4AinhxAH4AgnB4cQB+ADVxAH4AVnEAfgCKeHEAfgCCcHNxAH4AAnNxAH4ABwAAAAJ3BAAAAAJzcQB+AAJzcQB+AAcAAAACdwQAAAACc3EAfgACc3EAfgAHAAAAAHcEAAAAAHhxAH4AC3EAfgCUc3EAfgACc3EAfgAHAAAAAncEAAAAAnNxAH4AAnNxAH4ABwAAAAJ3BAAAAAJzcQB+AAJzcQB+AAcAAAACdwQAAAACc3EAfgACc3EAfgAHAAAAAHcEAAAAAHhzcQB+AAl0AAJ4OHEAfgCcc3EAfgACc3EAfgAHAAAAAHcEAAAAAHhxAH4AYHNxAH4AAnNxAH4ABwAAAAJ3BAAAAAJzcQB+AAJzcQB+AAcAAAACdwQAAAACc3EAfgACc3EAfgAHAAAAAncEAAAAAnNxAH4AAnNxAH4ABwAAAAB3BAAAAAB4cQB+AKBxAH4AqHNxAH4AAnNxAH4ABwAAAAB3BAAAAAB4cQB+AGBxAH4AqHhxAH4AgnEAfgCmc3EAfgACc3EAfgAHAAAAAncEAAAAAnNxAH4AAnNxAH4ABwAAAAB3BAAAAAB4cQB+AAtxAH4ArnNxAH4AAnNxAH4ABwAAAAB3BAAAAAB4cQB+AGBxAH4ArnhxAH4AdHEAfgCmeHEAfgCCcQB+AKRxAH4AonhxAH4AgnNxAH4AAnNxAH4ABwAAAAJ3BAAAAAJxAH4ApHNxAH4AAnNxAH4ABwAAAAJ3BAAAAAJzcQB+AAJzcQB+AAcAAAAAdwQAAAAAeHEAfgALcQB+ALZzcQB+AAJzcQB+AAcAAAAAdwQAAAAAeHEAfgBgcQB+ALZ4cQB+AHRzcQB+AAJzcQB+AAcAAAACdwQAAAACc3EAfgACc3EAfgAHAAAAAncEAAAAAnNxAH4AAnNxAH4ABwAAAAB3BAAAAAB4cQB+AAtxAH4AvnNxAH4AAnNxAH4ABwAAAAB3BAAAAAB4cQB+AGBxAH4AvnhxAH4AdHEAfgC8cQB+ALZ4cQB+AIJzcQB+AAJzcQB+AAcAAAACdwQAAAACcQB+ALxzcQB+AAJzcQB+AAcAAAAAdwQAAAAAeHEAfgCgc3EAfgACc3EAfgAHAAAAAncEAAAAAnNxAH4AAnNxAH4ABwAAAAJ3BAAAAAJzcQB+AAJzcQB+AAcAAAAAdwQAAAAAeHEAfgCgcQB+AMpzcQB+AAJzcQB+AAcAAAACdwQAAAACc3EAfgACc3EAfgAHAAAAAncEAAAAAnNxAH4AAnNxAH4ABwAAAAB3BAAAAAB4cQB+AKBxAH4A0HNxAH4AAnNxAH4ABwAAAAB3BAAAAAB4cQB+AGBxAH4A0HhxAH4AgnEAfgDOc3EAfgACc3EAfgAHAAAAAncEAAAAAnNxAH4AAnNxAH4ABwAAAAB3BAAAAAB4cQB+AAtxAH4A1nNxAH4AAnNxAH4ABwAAAAB3BAAAAAB4cQB+AGBxAH4A1nhxAH4AdHEAfgDOeHEAfgCCcQB+AMp4cQB+AIJxAH4AyHEAfgDGeHEAfgCCc3EAfgACc3EAfgAHAAAAAncEAAAAAnNxAH4AAnNxAH4ABwAAAAB3BAAAAAB4cQB+AAtxAH4A3HEAfgDIeHEAfgB0c3EAfgACc3EAfgAHAAAAAncEAAAAAnEAfgDcc3EAfgACc3EAfgAHAAAAAncEAAAAAnNxAH4AAnNxAH4ABwAAAAJ3BAAAAAJzcQB+AAJzcQB+AAcAAAACdwQAAAACc3EAfgACc3EAfgAHAAAAAHcEAAAAAHhxAH4AoHEAfgDmc3EAfgACc3EAfgAHAAAAAncEAAAAAnNxAH4AAnNxAH4ABwAAAAB3BAAAAAB4cQB+AAtxAH4A6nNxAH4AAnNxAH4ABwAAAAB3BAAAAAB4cQB+AGBxAH4A6nhxAH4AdHNxAH4AAnNxAH4ABwAAAAJ3BAAAAAJzcQB+AAJzcQB+AAcAAAACdwQAAAACc3EAfgACc3EAfgAHAAAAAncEAAAAAnNxAH4AAnNxAH4ABwAAAAB3BAAAAAB4cQB+AKBxAH4A9HNxAH4AAnNxAH4ABwAAAAJ3BAAAAAJzcQB+AAJzcQB+AAcAAAAAdwQAAAAAeHEAfgALcQB+APhzcQB+AAJzcQB+AAcAAAAAdwQAAAAAeHEAfgBgcQB+APh4cQB+AHRxAH4A9HhxAH4AgnEAfgDyc3EAfgACc3EAfgAHAAAAAncEAAAAAnNxAH4AAnNxAH4ABwAAAAB3BAAAAAB4cQB+AAtxAH4A/nNxAH4AAnNxAH4ABwAAAAB3BAAAAAB4cQB+AGBxAH4A/nhxAH4AdHEAfgDyeHEAfgCCcQB+APBxAH4A6nhxAH4AgnNxAH4AAnNxAH4ABwAAAAJ3BAAAAAJxAH4A8HNxAH4AAnNxAH4ABwAAAAJ3BAAAAAJzcQB+AAJzcQB+AAcAAAAAdwQAAAAAeHEAfgALcQB+AQZzcQB+AAJzcQB+AAcAAAAAdwQAAAAAeHEAfgBgcQB+AQZ4cQB+AHRzcQB+AAJzcQB+AAcAAAACdwQAAAACc3EAfgACc3EAfgAHAAAAAHcEAAAAAHhxAH4AC3EAfgEMcQB+AQZ4cQB+AIJzcQB+AAJzcQB+AAcAAAACdwQAAAACcQB+AQxzcQB+AAJzcQB+AAcAAAAAdwQAAAAAeHEAfgCgcQB+ARB4cQB+AIJzcQB+AAJzcQB+AAcAAAACdwQAAAACc3EAfgACc3EAfgAHAAAAAncEAAAAAnNxAH4AAnNxAH4ABwAAAAB3BAAAAAB4cQB+AAtxAH4BFnNxAH4AAnNxAH4ABwAAAAJ3BAAAAAJzcQB+AAJzcQB+AAcAAAACdwQAAAACc3EAfgACc3EAfgAHAAAAAncEAAAAAnNxAH4AAnNxAH4ABwAAAAB3BAAAAAB4cQB+AKBxAH4BHnNxAH4AAnNxAH4ABwAAAAB3BAAAAAB4cQB+AGBxAH4BHnhxAH4AgnEAfgEcc3EAfgACc3EAfgAHAAAAAncEAAAAAnNxAH4AAnNxAH4ABwAAAAB3BAAAAAB4cQB+AAtxAH4BJHNxAH4AAnNxAH4ABwAAAAB3BAAAAAB4cQB+AGBxAH4BJHhxAH4AdHEAfgEceHEAfgCCcQB+ARpzcQB+AAJzcQB+AAcAAAAAdwQAAAAAeHEAfgCgcQB+ARp4cQB+AIJxAH4BFnhxAH4AdHEAfgEUcQB+ARB4cQB+AHRweHEAfgCCc3EAfgACc3EAfgAHAAAAAncEAAAAAnEAfgEEcQB+ARJ4cQB+AIJzcQB+AAJzcQB+AAcAAAACdwQAAAACc3EAfgACc3EAfgAHAAAAAHcEAAAAAHhxAH4AC3EAfgEucQB+ASx4cQB+AHRweHEAfgCCcQB+AORxAH4BBnhxAH4AgnEAfgDicQB+ARJ4cQB+AIJxAH4A4HhxAH4AdHB4cQB+AIJzcQB+AAJzcQB+AAcAAAACdwQAAAACc3EAfgACc3EAfgAHAAAAAHcEAAAAAHhxAH4AC3EAfgEycQB+AMR4cQB+AHRzcQB+AAJzcQB+AAcAAAACdwQAAAACcQB+ATJxAH4A4nhxAH4AdHB4cQB+AIJzcQB+AAJzcQB+AAcAAAACdwQAAAACcQB+ALRxAH4AxnhxAH4AgnNxAH4AAnNxAH4ABwAAAAJ3BAAAAAJzcQB+AAJzcQB+AAcAAAAAdwQAAAAAeHEAfgALcQB+ATpxAH4BOHhxAH4AdHNxAH4AAnNxAH4ABwAAAAJ3BAAAAAJxAH4BOnEAfgDieHEAfgB0cHhxAH4AgnEAfgCacQB+ALZ4cQB+AIJxAH4AmHEAfgDGeHEAfgCCc3EAfgACc3EAfgAHAAAAAncEAAAAAnNxAH4AAnNxAH4ABwAAAAJ3BAAAAAJzcQB+AAJzcQB+AAcAAAAAdwQAAAAAeHEAfgCgcQB+AUJzcQB+AAJzcQB+AAcAAAAAdwQAAAAAeHEAfgBgcQB+AUJ4cQB+AIJxAH4BQHEAfgCYeHEAfgB0c3EAfgACc3EAfgAHAAAAAncEAAAAAnEAfgFAcQB+AOJ4cQB+AHRweHEAfgB0cQB+AJJxAH4A4nhxAH4AdHB4";
    "rO0ABXNyABFqYXZhLnV0aWwuQ29sbFNlcleOq7Y6G6gRAwABSQADdGFneHAAAAAEdwQAAAAEc3IAN2lvLmdpdGh1Yi5lcmljbWVkdmV0LmpnZWEuY29yZS5yZXByZXNlbnRhdGlvbi50cmVlLlRyZWUKs7/qnQrEZQIAA0wACGNoaWxkcmVudAAQTGphdmEvdXRpbC9MaXN0O0wAB2NvbnRlbnR0ABJMamF2YS9sYW5nL09iamVjdDtMAAZwYXJlbnR0ADlMaW8vZ2l0aHViL2VyaWNtZWR2ZXQvamdlYS9jb3JlL3JlcHJlc2VudGF0aW9uL3RyZWUvVHJlZTt4cHNyABNqYXZhLnV0aWwuQXJyYXlMaXN0eIHSHZnHYZ0DAAFJAARzaXpleHAAAAAAdwQAAAAAeHNyAEtpby5naXRodWIuZXJpY21lZHZldC5qZ2VhLmNvcmUucmVwcmVzZW50YXRpb24udHJlZS5udW1lcmljLkVsZW1lbnQkVmFyaWFibGUAAAAAAAAAAAIAAUwABG5hbWV0ABJMamF2YS9sYW5nL1N0cmluZzt4cHQAAng0cHNxAH4AAnNxAH4ABwAAAAJ3BAAAAAJzcQB+AAJzcQB+AAcAAAACdwQAAAACc3EAfgACc3EAfgAHAAAAAHcEAAAAAHhzcQB+AAl0AAN4MTBxAH4AD3NxAH4AAnNxAH4ABwAAAAB3BAAAAAB4c3EAfgAJdAACeDJzcQB+AAJzcQB+AAcAAAACdwQAAAACc3EAfgACc3EAfgAHAAAAAHcEAAAAAHhxAH4AF3EAfgAZcQB+ABV4fnIAS2lvLmdpdGh1Yi5lcmljbWVkdmV0LmpnZWEuY29yZS5yZXByZXNlbnRhdGlvbi50cmVlLm51bWVyaWMuRWxlbWVudCRPcGVyYXRvcgAAAAAAAAAAEgAAeHIADmphdmEubGFuZy5FbnVtAAAAAAAAAAASAAB4cHQAC1NVQlRSQUNUSU9Oc3EAfgACc3EAfgAHAAAAAncEAAAAAnEAfgAZc3EAfgACc3EAfgAHAAAAAHcEAAAAAHhxAH4AF3NxAH4AAnNxAH4ABwAAAAJ3BAAAAAJzcQB+AAJzcQB+AAcAAAACdwQAAAACc3EAfgACc3EAfgAHAAAAAHcEAAAAAHhxAH4AE3EAfgAnc3EAfgACc3EAfgAHAAAAAncEAAAAAnNxAH4AAnNxAH4ABwAAAAB3BAAAAAB4c3IAS2lvLmdpdGh1Yi5lcmljbWVkdmV0LmpnZWEuY29yZS5yZXByZXNlbnRhdGlvbi50cmVlLm51bWVyaWMuRWxlbWVudCRDb25zdGFudAAAAAAAAAAAAgABRAAFdmFsdWV4cAAAAAAAAAAAcQB+ACtzcQB+AAJzcQB+AAcAAAAAdwQAAAAAeHEAfgAwcQB+ACt4fnEAfgAddAANUFJPVF9ESVZJU0lPTnEAfgAneHEAfgAfcQB+ACVxAH4AI3hxAH4AH3B4cQB+AB9weHEAfgAfcQB+AA1xAH4AI3hxAH4AH3BzcQB+AAJzcQB+AAcAAAACdwQAAAACc3EAfgACc3EAfgAHAAAAAncEAAAAAnNxAH4AAnNxAH4ABwAAAAB3BAAAAAB4c3EAfgAvQAAAAAAAAABxAH4AN3NxAH4AAnNxAH4ABwAAAAJ3BAAAAAJzcQB+AAJzcQB+AAcAAAAAdwQAAAAAeHNxAH4ALz/wAAAAAAAAcQB+ADxzcQB+AAJzcQB+AAcAAAACdwQAAAACc3EAfgACc3EAfgAHAAAAAncEAAAAAnNxAH4AAnNxAH4ABwAAAAB3BAAAAAB4c3EAfgAJdAACeDBxAH4AQ3NxAH4AAnNxAH4ABwAAAAJ3BAAAAAJzcQB+AAJzcQB+AAcAAAAAdwQAAAAAeHEAfgBHcQB+AElzcQB+AAJzcQB+AAcAAAACdwQAAAACc3EAfgACc3EAfgAHAAAAAHcEAAAAAHhxAH4AR3EAfgBNc3EAfgACc3EAfgAHAAAAAHcEAAAAAHhzcQB+AC9AEgAAAAAAAHEAfgBNeH5xAH4AHXQACEFERElUSU9OcQB+AEl4cQB+AFRzcQB+AAJzcQB+AAcAAAACdwQAAAACc3EAfgACc3EAfgAHAAAAAncEAAAAAnNxAH4AAnNxAH4ABwAAAAB3BAAAAAB4cQB+ADtxAH4AWHNxAH4AAnNxAH4ABwAAAAJ3BAAAAAJzcQB+AAJzcQB+AAcAAAAAdwQAAAAAeHEAfgBAcQB+AFxzcQB+AAJzcQB+AAcAAAACdwQAAAACc3EAfgACc3EAfgAHAAAAAncEAAAAAnNxAH4AAnNxAH4ABwAAAAB3BAAAAAB4cQB+AEdxAH4AYnNxAH4AAnNxAH4ABwAAAAJ3BAAAAAJzcQB+AAJzcQB+AAcAAAAAdwQAAAAAeHEAfgBHcQB+AGZzcQB+AAJzcQB+AAcAAAACdwQAAAACc3EAfgACc3EAfgAHAAAAAHcEAAAAAHhxAH4AR3EAfgBqc3EAfgACc3EAfgAHAAAAAHcEAAAAAHhxAH4AU3EAfgBqeHEAfgBUcQB+AGZ4cQB+AFRxAH4AYnhxAH4AVHEAfgBgc3EAfgACc3EAfgAHAAAAAHcEAAAAAHhxAH4AQHEAfgBgeHEAfgAfcQB+AFx4fnEAfgAddAAOTVVMVElQTElDQVRJT05xAH4AWHhxAH4AM3EAfgBWcQB+AEl4cQB+AFRzcQB+AAJzcQB+AAcAAAACdwQAAAACcQB+AFZzcQB+AAJzcQB+AAcAAAAAdwQAAAAAeHEAfgBAcQB+AHR4cQB+AB9zcQB+AAJzcQB+AAcAAAACdwQAAAACc3EAfgACc3EAfgAHAAAAAHcEAAAAAHhxAH4AQHEAfgB4cQB+AHR4cQB+AHJzcQB+AAJzcQB+AAcAAAACdwQAAAACc3EAfgACc3EAfgAHAAAAAHcEAAAAAHhxAH4AO3EAfgB8cQB+AHh4cQB+ADNzcQB+AAJzcQB+AAcAAAACdwQAAAACcQB+AHxzcQB+AAJzcQB+AAcAAAAAdwQAAAAAeHEAfgBHcQB+AIB4cQB+AHJweHEAfgBUcQB+AEFxAH4AdnhxAH4AH3NxAH4AAnNxAH4ABwAAAAJ3BAAAAAJzcQB+AAJzcQB+AAcAAAACdwQAAAACc3EAfgACc3EAfgAHAAAAAncEAAAAAnNxAH4AAnNxAH4ABwAAAAB3BAAAAAB4cQB+AEdxAH4AiHNxAH4AAnNxAH4ABwAAAAJ3BAAAAAJzcQB+AAJzcQB+AAcAAAAAdwQAAAAAeHEAfgBHcQB+AIxzcQB+AAJzcQB+AAcAAAACdwQAAAACc3EAfgACc3EAfgAHAAAAAHcEAAAAAHhxAH4AR3EAfgCQc3EAfgACc3EAfgAHAAAAAHcEAAAAAHhxAH4AU3EAfgCQeHEAfgBUcQB+AIx4cQB+AFRxAH4AiHhxAH4AVHEAfgCGc3EAfgACc3EAfgAHAAAAAHcEAAAAAHhxAH4AQHEAfgCGeHEAfgAfcQB+AIRxAH4AQXhxAH4AcnNxAH4AAnNxAH4ABwAAAAJ3BAAAAAJzcQB+AAJzcQB+AAcAAAAAdwQAAAAAeHEAfgA7cQB+AJhxAH4AhHhxAH4AM3NxAH4AAnNxAH4ABwAAAAJ3BAAAAAJxAH4AmHEAfgCCeHEAfgBycHhxAH4AcnNxAH4AAnNxAH4ABwAAAAJ3BAAAAAJzcQB+AAJzcQB+AAcAAAACdwQAAAACc3EAfgACc3EAfgAHAAAAAHcEAAAAAHhxAH4AR3EAfgCgc3EAfgACc3EAfgAHAAAAAncEAAAAAnNxAH4AAnNxAH4ABwAAAAB3BAAAAAB4cQB+AEdxAH4ApHNxAH4AAnNxAH4ABwAAAAB3BAAAAAB4cQB+AFNxAH4ApHhxAH4AVHEAfgCgeHEAfgBUcQB+AJ5xAH4APHhxAH4AM3NxAH4AAnNxAH4ABwAAAAJ3BAAAAAJxAH4AnnEAfgCCeHEAfgBycHhxAH4AM3EAfgA1cQB+AIJ4cQB+AHJwc3EAfgACc3EAfgAHAAAAAncEAAAAAnNxAH4AAnNxAH4ABwAAAAJ3BAAAAAJzcQB+AAJzcQB+AAcAAAAAdwQAAAAAeHEAfgALcQB+AK5zcQB+AAJzcQB+AAcAAAACdwQAAAACc3EAfgACc3EAfgAHAAAAAncEAAAAAnNxAH4AAnNxAH4ABwAAAAJ3BAAAAAJzcQB+AAJzcQB+AAcAAAAAdwQAAAAAeHNxAH4ACXQAAng4cQB+ALZzcQB+AAJzcQB+AAcAAAAAdwQAAAAAeHEAfgBAc3EAfgACc3EAfgAHAAAAAncEAAAAAnNxAH4AAnNxAH4ABwAAAAJ3BAAAAAJzcQB+AAJzcQB+AAcAAAACdwQAAAACc3EAfgACc3EAfgAHAAAAAHcEAAAAAHhxAH4AunEAfgDCc3EAfgACc3EAfgAHAAAAAHcEAAAAAHhxAH4AQHEAfgDCeHEAfgBycQB+AMBzcQB+AAJzcQB+AAcAAAACdwQAAAACc3EAfgACc3EAfgAHAAAAAHcEAAAAAHhxAH4AC3EAfgDIc3EAfgACc3EAfgAHAAAAAHcEAAAAAHhxAH4AQHEAfgDIeHEAfgBUcQB+AMB4cQB+AHJxAH4AvnEAfgC8eHEAfgByc3EAfgACc3EAfgAHAAAAAncEAAAAAnEAfgC+c3EAfgACc3EAfgAHAAAAAncEAAAAAnNxAH4AAnNxAH4ABwAAAAB3BAAAAAB4cQB+AAtxAH4A0HNxAH4AAnNxAH4ABwAAAAB3BAAAAAB4cQB+AEBxAH4A0HhxAH4AVHNxAH4AAnNxAH4ABwAAAAJ3BAAAAAJzcQB+AAJzcQB+AAcAAAACdwQAAAACc3EAfgACc3EAfgAHAAAAAHcEAAAAAHhxAH4AC3EAfgDYc3EAfgACc3EAfgAHAAAAAHcEAAAAAHhxAH4AQHEAfgDYeHEAfgBUcQB+ANZxAH4A0HhxAH4AcnNxAH4AAnNxAH4ABwAAAAJ3BAAAAAJxAH4A1nNxAH4AAnNxAH4ABwAAAAB3BAAAAAB4cQB+ALpzcQB+AAJzcQB+AAcAAAACdwQAAAACc3EAfgACc3EAfgAHAAAAAncEAAAAAnNxAH4AAnNxAH4ABwAAAAB3BAAAAAB4cQB+ALpxAH4A5HNxAH4AAnNxAH4ABwAAAAJ3BAAAAAJzcQB+AAJzcQB+AAcAAAACdwQAAAACc3EAfgACc3EAfgAHAAAAAHcEAAAAAHhxAH4AunEAfgDqc3EAfgACc3EAfgAHAAAAAHcEAAAAAHhxAH4AQHEAfgDqeHEAfgBycQB+AOhzcQB+AAJzcQB+AAcAAAACdwQAAAACc3EAfgACc3EAfgAHAAAAAHcEAAAAAHhxAH4AC3EAfgDwc3EAfgACc3EAfgAHAAAAAHcEAAAAAHhxAH4AQHEAfgDweHEAfgBUcQB+AOh4cQB+AHJxAH4A5HhxAH4AcnEAfgDicQB+AOB4cQB+AHJzcQB+AAJzcQB+AAcAAAACdwQAAAACc3EAfgACc3EAfgAHAAAAAHcEAAAAAHhxAH4AC3EAfgD2cQB+AOJ4cQB+AFRzcQB+AAJzcQB+AAcAAAACdwQAAAACcQB+APZzcQB+AAJzcQB+AAcAAAACdwQAAAACc3EAfgACc3EAfgAHAAAAAncEAAAAAnNxAH4AAnNxAH4ABwAAAAJ3BAAAAAJzcQB+AAJzcQB+AAcAAAAAdwQAAAAAeHEAfgC6cQB+AQBzcQB+AAJzcQB+AAcAAAACdwQAAAACc3EAfgACc3EAfgAHAAAAAHcEAAAAAHhxAH4AC3EAfgEEc3EAfgACc3EAfgAHAAAAAHcEAAAAAHhxAH4AQHEAfgEEeHEAfgBUc3EAfgACc3EAfgAHAAAAAncEAAAAAnNxAH4AAnNxAH4ABwAAAAJ3BAAAAAJzcQB+AAJzcQB+AAcAAAACdwQAAAACc3EAfgACc3EAfgAHAAAAAHcEAAAAAHhxAH4AunEAfgEOc3EAfgACc3EAfgAHAAAAAncEAAAAAnNxAH4AAnNxAH4ABwAAAAB3BAAAAAB4cQB+AAtxAH4BEnNxAH4AAnNxAH4ABwAAAAB3BAAAAAB4cQB+AEBxAH4BEnhxAH4AVHEAfgEOeHEAfgBycQB+AQxzcQB+AAJzcQB+AAcAAAACdwQAAAACc3EAfgACc3EAfgAHAAAAAHcEAAAAAHhxAH4AC3EAfgEYc3EAfgACc3EAfgAHAAAAAHcEAAAAAHhxAH4AQHEAfgEYeHEAfgBUcQB+AQx4cQB+AHJxAH4BCnEAfgEEeHEAfgByc3EAfgACc3EAfgAHAAAAAncEAAAAAnEAfgEKc3EAfgACc3EAfgAHAAAAAncEAAAAAnNxAH4AAnNxAH4ABwAAAAB3BAAAAAB4cQB+AAtxAH4BIHNxAH4AAnNxAH4ABwAAAAB3BAAAAAB4cQB+AEBxAH4BIHhxAH4AVHNxAH4AAnNxAH4ABwAAAAJ3BAAAAAJzcQB+AAJzcQB+AAcAAAAAdwQAAAAAeHEAfgALcQB+ASZxAH4BIHhxAH4AcnNxAH4AAnNxAH4ABwAAAAJ3BAAAAAJxAH4BJnNxAH4AAnNxAH4ABwAAAAB3BAAAAAB4cQB+ALpxAH4BKnhxAH4AcnNxAH4AAnNxAH4ABwAAAAJ3BAAAAAJzcQB+AAJzcQB+AAcAAAACdwQAAAACc3EAfgACc3EAfgAHAAAAAHcEAAAAAHhxAH4AC3EAfgEwc3EAfgACc3EAfgAHAAAAAncEAAAAAnNxAH4AAnNxAH4ABwAAAAJ3BAAAAAJzcQB+AAJzcQB+AAcAAAACdwQAAAACc3EAfgACc3EAfgAHAAAAAHcEAAAAAHhxAH4AunEAfgE4c3EAfgACc3EAfgAHAAAAAHcEAAAAAHhxAH4AQHEAfgE4eHEAfgBycQB+ATZzcQB+AAJzcQB+AAcAAAACdwQAAAACc3EAfgACc3EAfgAHAAAAAHcEAAAAAHhxAH4AC3EAfgE+c3EAfgACc3EAfgAHAAAAAHcEAAAAAHhxAH4AQHEAfgE+eHEAfgBUcQB+ATZ4cQB+AHJxAH4BNHNxAH4AAnNxAH4ABwAAAAB3BAAAAAB4cQB+ALpxAH4BNHhxAH4AcnEAfgEweHEAfgBUcQB+AS5xAH4BKnhxAH4AVHB4cQB+AHJzcQB+AAJzcQB+AAcAAAACdwQAAAACcQB+AR5xAH4BLHhxAH4AcnNxAH4AAnNxAH4ABwAAAAJ3BAAAAAJzcQB+AAJzcQB+AAcAAAAAdwQAAAAAeHEAfgALcQB+AUhxAH4BRnhxAH4AVHB4cQB+AHJxAH4A/nEAfgEgeHEAfgBycQB+APxxAH4BLHhxAH4AcnEAfgD6eHEAfgBUcHhxAH4AcnNxAH4AAnNxAH4ABwAAAAJ3BAAAAAJzcQB+AAJzcQB+AAcAAAAAdwQAAAAAeHEAfgALcQB+AUxxAH4A3nhxAH4AVHNxAH4AAnNxAH4ABwAAAAJ3BAAAAAJxAH4BTHEAfgD8eHEAfgBUcHhxAH4AcnNxAH4AAnNxAH4ABwAAAAJ3BAAAAAJxAH4AznEAfgDgeHEAfgByc3EAfgACc3EAfgAHAAAAAncEAAAAAnNxAH4AAnNxAH4ABwAAAAB3BAAAAAB4cQB+AAtxAH4BVHEAfgFSeHEAfgBUc3EAfgACc3EAfgAHAAAAAncEAAAAAnEAfgFUcQB+APx4cQB+AFRweHEAfgBycQB+ALRxAH4A0HhxAH4AcnEAfgCycQB+AOB4cQB+AHJzcQB+AAJzcQB+AAcAAAACdwQAAAACc3EAfgACc3EAfgAHAAAAAncEAAAAAnNxAH4AAnNxAH4ABwAAAAB3BAAAAAB4cQB+ALpxAH4BXHNxAH4AAnNxAH4ABwAAAAB3BAAAAAB4cQB+AEBxAH4BXHhxAH4AcnEAfgFacQB+ALJ4cQB+AFRzcQB+AAJzcQB+AAcAAAACdwQAAAACcQB+AVpxAH4A/HhxAH4AVHB4cQB+AFRxAH4ArHEAfgD8eHEAfgBUcHg=";
    "rO0ABXNyABFqYXZhLnV0aWwuQ29sbFNlcleOq7Y6G6gRAwABSQADdGFneHAAAAAEdwQAAAAEc3IAN2lvLmdpdGh1Yi5lcmljbWVkdmV0LmpnZWEuY29yZS5yZXByZXNlbnRhdGlvbi50cmVlLlRyZWUKs7/qnQrEZQIAA0wACGNoaWxkcmVudAAQTGphdmEvdXRpbC9MaXN0O0wAB2NvbnRlbnR0ABJMamF2YS9sYW5nL09iamVjdDtMAAZwYXJlbnR0ADlMaW8vZ2l0aHViL2VyaWNtZWR2ZXQvamdlYS9jb3JlL3JlcHJlc2VudGF0aW9uL3RyZWUvVHJlZTt4cHNyABNqYXZhLnV0aWwuQXJyYXlMaXN0eIHSHZnHYZ0DAAFJAARzaXpleHAAAAAAdwQAAAAAeHNyAEtpby5naXRodWIuZXJpY21lZHZldC5qZ2VhLmNvcmUucmVwcmVzZW50YXRpb24udHJlZS5udW1lcmljLkVsZW1lbnQkVmFyaWFibGUAAAAAAAAAAAIAAUwABG5hbWV0ABJMamF2YS9sYW5nL1N0cmluZzt4cHQAAng0cHNxAH4AAnNxAH4ABwAAAAJ3BAAAAAJzcQB+AAJzcQB+AAcAAAACdwQAAAACc3EAfgACc3EAfgAHAAAAAncEAAAAAnNxAH4AAnNxAH4ABwAAAAB3BAAAAAB4c3EAfgAJdAADeDEwcQB+ABFzcQB+AAJzcQB+AAcAAAAAdwQAAAAAeHNxAH4ACXQAAngyc3EAfgACc3EAfgAHAAAAAncEAAAAAnNxAH4AAnNxAH4ABwAAAAB3BAAAAAB4cQB+ABlxAH4AG3EAfgAXeH5yAEtpby5naXRodWIuZXJpY21lZHZldC5qZ2VhLmNvcmUucmVwcmVzZW50YXRpb24udHJlZS5udW1lcmljLkVsZW1lbnQkT3BlcmF0b3IAAAAAAAAAABIAAHhyAA5qYXZhLmxhbmcuRW51bQAAAAAAAAAAEgAAeHB0AAtTVUJUUkFDVElPTnNxAH4AAnNxAH4ABwAAAAJ3BAAAAAJxAH4AG3NxAH4AAnNxAH4ABwAAAAB3BAAAAAB4cQB+ABlzcQB+AAJzcQB+AAcAAAACdwQAAAACc3EAfgACc3EAfgAHAAAAAncEAAAAAnNxAH4AAnNxAH4ABwAAAAB3BAAAAAB4cQB+ABVxAH4AKXNxAH4AAnNxAH4ABwAAAAJ3BAAAAAJzcQB+AAJzcQB+AAcAAAAAdwQAAAAAeHNyAEtpby5naXRodWIuZXJpY21lZHZldC5qZ2VhLmNvcmUucmVwcmVzZW50YXRpb24udHJlZS5udW1lcmljLkVsZW1lbnQkQ29uc3RhbnQAAAAAAAAAAAIAAUQABXZhbHVleHBAAAAAAAAAAHEAfgAtc3EAfgACc3EAfgAHAAAAAHcEAAAAAHhxAH4AMnEAfgAteH5xAH4AH3QADVBST1RfRElWSVNJT05xAH4AKXhxAH4AIXEAfgAncQB+ACV4cQB+ACFzcQB+AAJzcQB+AAcAAAACdwQAAAACcQB+ACdzcQB+AAJzcQB+AAcAAAACdwQAAAACc3EAfgACc3EAfgAHAAAAAHcEAAAAAHhzcQB+ADEAAAAAAAAAAHEAfgA5c3EAfgACc3EAfgAHAAAAAHcEAAAAAHhxAH4APXNxAH4AAnNxAH4ABwAAAAJ3BAAAAAJzcQB+AAJzcQB+AAcAAAAAdwQAAAAAeHEAfgA9cQB+AEBxAH4APnhxAH4ANXNxAH4AAnNxAH4ABwAAAAJ3BAAAAAJzcQB+AAJzcQB+AAcAAAACdwQAAAACc3EAfgACc3EAfgAHAAAAAncEAAAAAnNxAH4AAnNxAH4ABwAAAAB3BAAAAAB4cQB+ABVxAH4ASHNxAH4AAnNxAH4ABwAAAAB3BAAAAAB4cQB+ABlxAH4ASHhxAH4AIXEAfgBGc3EAfgACc3EAfgAHAAAAAHcEAAAAAHhxAH4AGXEAfgBGeHEAfgAhcQB+AERxAH4AQHhxAH4ANXB4cQB+ADVzcQB+AAJzcQB+AAcAAAACdwQAAAACc3EAfgACc3EAfgAHAAAAAHcEAAAAAHhxAH4APXEAfgBQcQB+ADl4cQB+ADVweHEAfgA1cHhxAH4AIXNxAH4AAnNxAH4ABwAAAAJ3BAAAAAJxAH4AI3EAfgA5eHEAfgA1cHhxAH4AIXEAfgAPcQB+ACV4cQB+ACFxAH4ADXEAfgA5eHEAfgA1cHNxAH4AAnNxAH4ABwAAAAJ3BAAAAAJzcQB+AAJzcQB+AAcAAAACdwQAAAACc3EAfgACc3EAfgAHAAAAAHcEAAAAAHhxAH4AMnEAfgBYc3EAfgACc3EAfgAHAAAAAncEAAAAAnNxAH4AAnNxAH4ABwAAAAB3BAAAAAB4c3EAfgAxP/AAAAAAAABxAH4AXHNxAH4AAnNxAH4ABwAAAAJ3BAAAAAJzcQB+AAJzcQB+AAcAAAACdwQAAAACc3EAfgACc3EAfgAHAAAAAHcEAAAAAHhzcQB+AAl0AAJ4MHEAfgBjc3EAfgACc3EAfgAHAAAAAncEAAAAAnNxAH4AAnNxAH4ABwAAAAB3BAAAAAB4cQB+AGdxAH4AaXNxAH4AAnNxAH4ABwAAAAJ3BAAAAAJzcQB+AAJzcQB+AAcAAAAAdwQAAAAAeHEAfgBncQB+AG1zcQB+AAJzcQB+AAcAAAAAdwQAAAAAeHNxAH4AMUASAAAAAAAAcQB+AG14fnEAfgAfdAAIQURESVRJT05xAH4AaXhxAH4AdHNxAH4AAnNxAH4ABwAAAAJ3BAAAAAJzcQB+AAJzcQB+AAcAAAACdwQAAAACc3EAfgACc3EAfgAHAAAAAHcEAAAAAHhxAH4AMnEAfgB4c3EAfgACc3EAfgAHAAAAAncEAAAAAnNxAH4AAnNxAH4ABwAAAAB3BAAAAAB4cQB+AGBxAH4AfHNxAH4AAnNxAH4ABwAAAAJ3BAAAAAJzcQB+AAJzcQB+AAcAAAACdwQAAAACc3EAfgACc3EAfgAHAAAAAHcEAAAAAHhxAH4AZ3EAfgCCc3EAfgACc3EAfgAHAAAAAncEAAAAAnNxAH4AAnNxAH4ABwAAAAB3BAAAAAB4cQB+AGdxAH4AhnNxAH4AAnNxAH4ABwAAAAJ3BAAAAAJzcQB+AAJzcQB+AAcAAAAAdwQAAAAAeHEAfgBncQB+AIpzcQB+AAJzcQB+AAcAAAAAdwQAAAAAeHEAfgBzcQB+AIp4cQB+AHRxAH4AhnhxAH4AdHEAfgCCeHEAfgB0cQB+AIBzcQB+AAJzcQB+AAcAAAAAdwQAAAAAeHEAfgBgcQB+AIB4cQB+ACFxAH4AfHh+cQB+AB90AA5NVUxUSVBMSUNBVElPTnEAfgB4eHEAfgA1cQB+AHZxAH4AaXhxAH4AdHNxAH4AAnNxAH4ABwAAAAJ3BAAAAAJxAH4AdnNxAH4AAnNxAH4ABwAAAAB3BAAAAAB4cQB+AGBxAH4AlHhxAH4AIXNxAH4AAnNxAH4ABwAAAAJ3BAAAAAJzcQB+AAJzcQB+AAcAAAAAdwQAAAAAeHEAfgBgcQB+AJhxAH4AlHhxAH4AknNxAH4AAnNxAH4ABwAAAAJ3BAAAAAJzcQB+AAJzcQB+AAcAAAAAdwQAAAAAeHEAfgAycQB+AJxxAH4AmHhxAH4ANXNxAH4AAnNxAH4ABwAAAAJ3BAAAAAJxAH4AnHNxAH4AAnNxAH4ABwAAAAB3BAAAAAB4cQB+AGdxAH4AoHhxAH4AknB4cQB+AHRxAH4AYXEAfgCWeHEAfgAhc3EAfgACc3EAfgAHAAAAAncEAAAAAnNxAH4AAnNxAH4ABwAAAAJ3BAAAAAJzcQB+AAJzcQB+AAcAAAACdwQAAAACc3EAfgACc3EAfgAHAAAAAHcEAAAAAHhxAH4AZ3EAfgCoc3EAfgACc3EAfgAHAAAAAncEAAAAAnNxAH4AAnNxAH4ABwAAAAB3BAAAAAB4cQB+AGdxAH4ArHNxAH4AAnNxAH4ABwAAAAJ3BAAAAAJzcQB+AAJzcQB+AAcAAAAAdwQAAAAAeHEAfgBncQB+ALBzcQB+AAJzcQB+AAcAAAAAdwQAAAAAeHEAfgBzcQB+ALB4cQB+AHRxAH4ArHhxAH4AdHEAfgCoeHEAfgB0cQB+AKZzcQB+AAJzcQB+AAcAAAAAdwQAAAAAeHEAfgBgcQB+AKZ4cQB+ACFxAH4ApHEAfgBheHEAfgCSc3EAfgACc3EAfgAHAAAAAncEAAAAAnNxAH4AAnNxAH4ABwAAAAB3BAAAAAB4cQB+ADJxAH4AuHEAfgCkeHEAfgA1c3EAfgACc3EAfgAHAAAAAncEAAAAAnEAfgC4cQB+AKJ4cQB+AJJweHEAfgCSc3EAfgACc3EAfgAHAAAAAncEAAAAAnNxAH4AAnNxAH4ABwAAAAJ3BAAAAAJzcQB+AAJzcQB+AAcAAAAAdwQAAAAAeHEAfgBncQB+AMBzcQB+AAJzcQB+AAcAAAACdwQAAAACc3EAfgACc3EAfgAHAAAAAHcEAAAAAHhxAH4AZ3EAfgDEc3EAfgACc3EAfgAHAAAAAHcEAAAAAHhxAH4Ac3EAfgDEeHEAfgB0cQB+AMB4cQB+AHRxAH4AvnEAfgBceHEAfgA1c3EAfgACc3EAfgAHAAAAAncEAAAAAnEAfgC+cQB+AKJ4cQB+AJJweHEAfgA1cQB+AFZxAH4AonhxAH4AknBzcQB+AAJzcQB+AAcAAAACdwQAAAACc3EAfgACc3EAfgAHAAAAAncEAAAAAnNxAH4AAnNxAH4ABwAAAAB3BAAAAAB4cQB+AAtxAH4AznNxAH4AAnNxAH4ABwAAAAJ3BAAAAAJzcQB+AAJzcQB+AAcAAAACdwQAAAACc3EAfgACc3EAfgAHAAAAAncEAAAAAnNxAH4AAnNxAH4ABwAAAAB3BAAAAAB4c3EAfgAJdAACeDhxAH4A1nNxAH4AAnNxAH4ABwAAAAB3BAAAAAB4cQB+AGBzcQB+AAJzcQB+AAcAAAACdwQAAAACc3EAfgACc3EAfgAHAAAAAncEAAAAAnNxAH4AAnNxAH4ABwAAAAJ3BAAAAAJzcQB+AAJzcQB+AAcAAAAAdwQAAAAAeHEAfgDacQB+AOJzcQB+AAJzcQB+AAcAAAAAdwQAAAAAeHEAfgBgcQB+AOJ4cQB+AJJxAH4A4HNxAH4AAnNxAH4ABwAAAAJ3BAAAAAJzcQB+AAJzcQB+AAcAAAAAdwQAAAAAeHEAfgALcQB+AOhzcQB+AAJzcQB+AAcAAAAAdwQAAAAAeHEAfgBgcQB+AOh4cQB+AHRxAH4A4HhxAH4AknEAfgDecQB+ANx4cQB+AJJzcQB+AAJzcQB+AAcAAAACdwQAAAACcQB+AN5zcQB+AAJzcQB+AAcAAAACdwQAAAACc3EAfgACc3EAfgAHAAAAAHcEAAAAAHhxAH4AC3EAfgDwc3EAfgACc3EAfgAHAAAAAHcEAAAAAHhxAH4AYHEAfgDweHEAfgB0c3EAfgACc3EAfgAHAAAAAncEAAAAAnNxAH4AAnNxAH4ABwAAAAJ3BAAAAAJzcQB+AAJzcQB+AAcAAAAAdwQAAAAAeHEAfgALcQB+APhzcQB+AAJzcQB+AAcAAAAAdwQAAAAAeHEAfgBgcQB+APh4cQB+AHRxAH4A9nEAfgDweHEAfgCSc3EAfgACc3EAfgAHAAAAAncEAAAAAnEAfgD2c3EAfgACc3EAfgAHAAAAAHcEAAAAAHhxAH4A2nNxAH4AAnNxAH4ABwAAAAJ3BAAAAAJzcQB+AAJzcQB+AAcAAAACdwQAAAACc3EAfgACc3EAfgAHAAAAAHcEAAAAAHhxAH4A2nEAfgEEc3EAfgACc3EAfgAHAAAAAncEAAAAAnNxAH4AAnNxAH4ABwAAAAJ3BAAAAAJzcQB+AAJzcQB+AAcAAAAAdwQAAAAAeHEAfgDacQB+AQpzcQB+AAJzcQB+AAcAAAAAdwQAAAAAeHEAfgBgcQB+AQp4cQB+AJJxAH4BCHNxAH4AAnNxAH4ABwAAAAJ3BAAAAAJzcQB+AAJzcQB+AAcAAAAAdwQAAAAAeHEAfgALcQB+ARBzcQB+AAJzcQB+AAcAAAAAdwQAAAAAeHEAfgBgcQB+ARB4cQB+AHRxAH4BCHhxAH4AknEAfgEEeHEAfgCScQB+AQJxAH4BAHhxAH4AknNxAH4AAnNxAH4ABwAAAAJ3BAAAAAJzcQB+AAJzcQB+AAcAAAAAdwQAAAAAeHEAfgALcQB+ARZxAH4BAnhxAH4AdHNxAH4AAnNxAH4ABwAAAAJ3BAAAAAJxAH4BFnNxAH4AAnNxAH4ABwAAAAJ3BAAAAAJzcQB+AAJzcQB+AAcAAAACdwQAAAACc3EAfgACc3EAfgAHAAAAAncEAAAAAnNxAH4AAnNxAH4ABwAAAAB3BAAAAAB4cQB+ANpxAH4BIHNxAH4AAnNxAH4ABwAAAAJ3BAAAAAJzcQB+AAJzcQB+AAcAAAAAdwQAAAAAeHEAfgALcQB+ASRzcQB+AAJzcQB+AAcAAAAAdwQAAAAAeHEAfgBgcQB+ASR4cQB+AHRzcQB+AAJzcQB+AAcAAAACdwQAAAACc3EAfgACc3EAfgAHAAAAAncEAAAAAnNxAH4AAnNxAH4ABwAAAAJ3BAAAAAJzcQB+AAJzcQB+AAcAAAAAdwQAAAAAeHEAfgDacQB+AS5zcQB+AAJzcQB+AAcAAAACdwQAAAACc3EAfgACc3EAfgAHAAAAAHcEAAAAAHhxAH4AC3EAfgEyc3EAfgACc3EAfgAHAAAAAHcEAAAAAHhxAH4AYHEAfgEyeHEAfgB0cQB+AS54cQB+AJJxAH4BLHNxAH4AAnNxAH4ABwAAAAJ3BAAAAAJzcQB+AAJzcQB+AAcAAAAAdwQAAAAAeHEAfgALcQB+AThzcQB+AAJzcQB+AAcAAAAAdwQAAAAAeHEAfgBgcQB+ATh4cQB+AHRxAH4BLHhxAH4AknEAfgEqcQB+ASR4cQB+AJJzcQB+AAJzcQB+AAcAAAACdwQAAAACcQB+ASpzcQB+AAJzcQB+AAcAAAACdwQAAAACc3EAfgACc3EAfgAHAAAAAHcEAAAAAHhxAH4AC3EAfgFAc3EAfgACc3EAfgAHAAAAAHcEAAAAAHhxAH4AYHEAfgFAeHEAfgB0c3EAfgACc3EAfgAHAAAAAncEAAAAAnNxAH4AAnNxAH4ABwAAAAB3BAAAAAB4cQB+AAtxAH4BRnEAfgFAeHEAfgCSc3EAfgACc3EAfgAHAAAAAncEAAAAAnEAfgFGc3EAfgACc3EAfgAHAAAAAHcEAAAAAHhxAH4A2nEAfgFKeHEAfgCSc3EAfgACc3EAfgAHAAAAAncEAAAAAnNxAH4AAnNxAH4ABwAAAAJ3BAAAAAJzcQB+AAJzcQB+AAcAAAAAdwQAAAAAeHEAfgALcQB+AVBzcQB+AAJzcQB+AAcAAAACdwQAAAACc3EAfgACc3EAfgAHAAAAAncEAAAAAnNxAH4AAnNxAH4ABwAAAAJ3BAAAAAJzcQB+AAJzcQB+AAcAAAAAdwQAAAAAeHEAfgDacQB+AVhzcQB+AAJzcQB+AAcAAAAAdwQAAAAAeHEAfgBgcQB+AVh4cQB+AJJxAH4BVnNxAH4AAnNxAH4ABwAAAAJ3BAAAAAJzcQB+AAJzcQB+AAcAAAAAdwQAAAAAeHEAfgALcQB+AV5zcQB+AAJzcQB+AAcAAAAAdwQAAAAAeHEAfgBgcQB+AV54cQB+AHRxAH4BVnhxAH4AknEAfgFUc3EAfgACc3EAfgAHAAAAAHcEAAAAAHhxAH4A2nEAfgFUeHEAfgCScQB+AVB4cQB+AHRxAH4BTnEAfgFKeHEAfgB0cHhxAH4AknNxAH4AAnNxAH4ABwAAAAJ3BAAAAAJxAH4BPnEAfgFMeHEAfgCSc3EAfgACc3EAfgAHAAAAAncEAAAAAnNxAH4AAnNxAH4ABwAAAAB3BAAAAAB4cQB+AAtxAH4BaHEAfgFmeHEAfgB0cHhxAH4AknEAfgEecQB+AUB4cQB+AJJxAH4BHHEAfgFMeHEAfgCScQB+ARp4cQB+AHRweHEAfgCSc3EAfgACc3EAfgAHAAAAAncEAAAAAnNxAH4AAnNxAH4ABwAAAAB3BAAAAAB4cQB+AAtxAH4BbHEAfgD+eHEAfgB0c3EAfgACc3EAfgAHAAAAAncEAAAAAnEAfgFscQB+ARx4cQB+AHRweHEAfgCSc3EAfgACc3EAfgAHAAAAAncEAAAAAnEAfgDucQB+AQB4cQB+AJJzcQB+AAJzcQB+AAcAAAACdwQAAAACc3EAfgACc3EAfgAHAAAAAHcEAAAAAHhxAH4AC3EAfgF0cQB+AXJ4cQB+AHRzcQB+AAJzcQB+AAcAAAACdwQAAAACcQB+AXRxAH4BHHhxAH4AdHB4cQB+AJJxAH4A1HEAfgDweHEAfgCScQB+ANJxAH4BAHhxAH4AknNxAH4AAnNxAH4ABwAAAAJ3BAAAAAJzcQB+AAJzcQB+AAcAAAACdwQAAAACc3EAfgACc3EAfgAHAAAAAHcEAAAAAHhxAH4A2nEAfgF8c3EAfgACc3EAfgAHAAAAAHcEAAAAAHhxAH4AYHEAfgF8eHEAfgCScQB+AXpxAH4A0nhxAH4AdHNxAH4AAnNxAH4ABwAAAAJ3BAAAAAJxAH4BenEAfgEceHEAfgB0cHhxAH4AdHEAfgDMcQB+ARx4cQB+AHRweA==";
    "rO0ABXNyABFqYXZhLnV0aWwuQ29sbFNlcleOq7Y6G6gRAwABSQADdGFneHAAAAAEdwQAAAAEc3IAN2lvLmdpdGh1Yi5lcmljbWVkdmV0LmpnZWEuY29yZS5yZXByZXNlbnRhdGlvbi50cmVlLlRyZWUKs7/qnQrEZQIAA0wACGNoaWxkcmVudAAQTGphdmEvdXRpbC9MaXN0O0wAB2NvbnRlbnR0ABJMamF2YS9sYW5nL09iamVjdDtMAAZwYXJlbnR0ADlMaW8vZ2l0aHViL2VyaWNtZWR2ZXQvamdlYS9jb3JlL3JlcHJlc2VudGF0aW9uL3RyZWUvVHJlZTt4cHNyABNqYXZhLnV0aWwuQXJyYXlMaXN0eIHSHZnHYZ0DAAFJAARzaXpleHAAAAAAdwQAAAAAeHNyAEtpby5naXRodWIuZXJpY21lZHZldC5qZ2VhLmNvcmUucmVwcmVzZW50YXRpb24udHJlZS5udW1lcmljLkVsZW1lbnQkVmFyaWFibGUAAAAAAAAAAAIAAUwABG5hbWV0ABJMamF2YS9sYW5nL1N0cmluZzt4cHQAAng0cHNxAH4AAnNxAH4ABwAAAAJ3BAAAAAJzcQB+AAJzcQB+AAcAAAACdwQAAAACc3EAfgACc3EAfgAHAAAAAncEAAAAAnNxAH4AAnNxAH4ABwAAAAB3BAAAAAB4c3EAfgAJdAADeDEwcQB+ABFzcQB+AAJzcQB+AAcAAAAAdwQAAAAAeHNxAH4ACXQAAngyc3EAfgACc3EAfgAHAAAAAncEAAAAAnNxAH4AAnNxAH4ABwAAAAB3BAAAAAB4cQB+ABlxAH4AG3EAfgAXeH5yAEtpby5naXRodWIuZXJpY21lZHZldC5qZ2VhLmNvcmUucmVwcmVzZW50YXRpb24udHJlZS5udW1lcmljLkVsZW1lbnQkT3BlcmF0b3IAAAAAAAAAABIAAHhyAA5qYXZhLmxhbmcuRW51bQAAAAAAAAAAEgAAeHB0AAtTVUJUUkFDVElPTnNxAH4AAnNxAH4ABwAAAAJ3BAAAAAJxAH4AG3NxAH4AAnNxAH4ABwAAAAB3BAAAAAB4cQB+ABlzcQB+AAJzcQB+AAcAAAACdwQAAAACc3EAfgACc3EAfgAHAAAAAncEAAAAAnNxAH4AAnNxAH4ABwAAAAB3BAAAAAB4cQB+ABVxAH4AKXNxAH4AAnNxAH4ABwAAAAJ3BAAAAAJzcQB+AAJzcQB+AAcAAAAAdwQAAAAAeHNyAEtpby5naXRodWIuZXJpY21lZHZldC5qZ2VhLmNvcmUucmVwcmVzZW50YXRpb24udHJlZS5udW1lcmljLkVsZW1lbnQkQ29uc3RhbnQAAAAAAAAAAAIAAUQABXZhbHVleHBAAAAAAAAAAHEAfgAtc3EAfgACc3EAfgAHAAAAAHcEAAAAAHhxAH4AMnEAfgAteH5xAH4AH3QADVBST1RfRElWSVNJT05xAH4AKXhxAH4AIXEAfgAncQB+ACV4cQB+ACFzcQB+AAJzcQB+AAcAAAACdwQAAAACcQB+ACdzcQB+AAJzcQB+AAcAAAACdwQAAAACc3EAfgACc3EAfgAHAAAAAHcEAAAAAHhzcQB+ADEAAAAAAAAAAHEAfgA5c3EAfgACc3EAfgAHAAAAAHcEAAAAAHhxAH4APXNxAH4AAnNxAH4ABwAAAAJ3BAAAAAJzcQB+AAJzcQB+AAcAAAAAdwQAAAAAeHEAfgA9cQB+AEBxAH4APnhxAH4ANXNxAH4AAnNxAH4ABwAAAAJ3BAAAAAJzcQB+AAJzcQB+AAcAAAACdwQAAAACc3EAfgACc3EAfgAHAAAAAncEAAAAAnNxAH4AAnNxAH4ABwAAAAB3BAAAAAB4cQB+ABVxAH4ASHNxAH4AAnNxAH4ABwAAAAB3BAAAAAB4cQB+ABlxAH4ASHhxAH4AIXEAfgBGc3EAfgACc3EAfgAHAAAAAHcEAAAAAHhxAH4AGXEAfgBGeHEAfgAhcQB+AERxAH4AQHhxAH4ANXB4cQB+ADVzcQB+AAJzcQB+AAcAAAACdwQAAAACc3EAfgACc3EAfgAHAAAAAHcEAAAAAHhxAH4APXEAfgBQcQB+ADl4cQB+ADVweHEAfgA1cHhxAH4AIXNxAH4AAnNxAH4ABwAAAAJ3BAAAAAJxAH4AI3EAfgA5eHEAfgA1cHhxAH4AIXEAfgAPcQB+ACV4cQB+ACFxAH4ADXEAfgA5eHEAfgA1cHNxAH4AAnNxAH4ABwAAAAJ3BAAAAAJzcQB+AAJzcQB+AAcAAAACdwQAAAACc3EAfgACc3EAfgAHAAAAAHcEAAAAAHhxAH4AMnEAfgBYc3EAfgACc3EAfgAHAAAAAncEAAAAAnNxAH4AAnNxAH4ABwAAAAB3BAAAAAB4c3EAfgAxP/AAAAAAAABxAH4AXHNxAH4AAnNxAH4ABwAAAAJ3BAAAAAJzcQB+AAJzcQB+AAcAAAACdwQAAAACc3EAfgACc3EAfgAHAAAAAHcEAAAAAHhzcQB+AAl0AAJ4MHEAfgBjc3EAfgACc3EAfgAHAAAAAncEAAAAAnNxAH4AAnNxAH4ABwAAAAB3BAAAAAB4cQB+AGdxAH4AaXNxAH4AAnNxAH4ABwAAAAJ3BAAAAAJzcQB+AAJzcQB+AAcAAAAAdwQAAAAAeHEAfgBncQB+AG1zcQB+AAJzcQB+AAcAAAAAdwQAAAAAeHNxAH4AMUASAAAAAAAAcQB+AG14fnEAfgAfdAAIQURESVRJT05xAH4AaXhxAH4AdHNxAH4AAnNxAH4ABwAAAAJ3BAAAAAJzcQB+AAJzcQB+AAcAAAAAdwQAAAAAeHEAfgBgcQB+AHZxAH4AaXhxAH4AdHNxAH4AAnNxAH4ABwAAAAJ3BAAAAAJxAH4AdnNxAH4AAnNxAH4ABwAAAAB3BAAAAAB4cQB+AGBxAH4AenhxAH4AIXNxAH4AAnNxAH4ABwAAAAJ3BAAAAAJzcQB+AAJzcQB+AAcAAAAAdwQAAAAAeHEAfgBgcQB+AH5xAH4Aenh+cQB+AB90AA5NVUxUSVBMSUNBVElPTnNxAH4AAnNxAH4ABwAAAAJ3BAAAAAJzcQB+AAJzcQB+AAcAAAAAdwQAAAAAeHEAfgAycQB+AIRxAH4AfnhxAH4ANXNxAH4AAnNxAH4ABwAAAAJ3BAAAAAJxAH4AhHNxAH4AAnNxAH4ABwAAAAB3BAAAAAB4cQB+AGdzcQB+AAJzcQB+AAcAAAACdwQAAAACc3EAfgACc3EAfgAHAAAAAncEAAAAAnNxAH4AAnNxAH4ABwAAAAB3BAAAAAB4cQB+ADJxAH4AjnNxAH4AAnNxAH4ABwAAAAJ3BAAAAAJzcQB+AAJzcQB+AAcAAAAAdwQAAAAAeHEAfgBgcQB+AJJzcQB+AAJzcQB+AAcAAAAAdwQAAAAAeHEAfgBgcQB+AJJ4cQB+AIJxAH4AjnhxAH4ANXEAfgCMcQB+AIp4cQB+AIJweHEAfgCCcHhxAH4AdHEAfgBhcQB+AHx4cQB+ACFzcQB+AAJzcQB+AAcAAAACdwQAAAACc3EAfgACc3EAfgAHAAAAAHcEAAAAAHhxAH4AZ3EAfgCYcQB+AGF4cQB+AIJzcQB+AAJzcQB+AAcAAAACdwQAAAACc3EAfgACc3EAfgAHAAAAAHcEAAAAAHhxAH4AMnEAfgCccQB+AJh4cQB+ADVzcQB+AAJzcQB+AAcAAAACdwQAAAACcQB+AJxxAH4AinhxAH4AgnB4cQB+AIJzcQB+AAJzcQB+AAcAAAACdwQAAAACc3EAfgACc3EAfgAHAAAAAHcEAAAAAHhxAH4AYHEAfgCicQB+AFx4cQB+ADVzcQB+AAJzcQB+AAcAAAACdwQAAAACcQB+AKJxAH4AinhxAH4AgnB4cQB+ADVxAH4AVnEAfgCKeHEAfgCCcHNxAH4AAnNxAH4ABwAAAAJ3BAAAAAJzcQB+AAJzcQB+AAcAAAACdwQAAAACc3EAfgACc3EAfgAHAAAAAHcEAAAAAHhxAH4AC3EAfgCqc3EAfgACc3EAfgAHAAAAAncEAAAAAnNxAH4AAnNxAH4ABwAAAAJ3BAAAAAJzcQB+AAJzcQB+AAcAAAACdwQAAAACc3EAfgACc3EAfgAHAAAAAHcEAAAAAHhzcQB+AAl0AAJ4OHEAfgCyc3EAfgACc3EAfgAHAAAAAHcEAAAAAHhxAH4AYHNxAH4AAnNxAH4ABwAAAAJ3BAAAAAJzcQB+AAJzcQB+AAcAAAACdwQAAAACc3EAfgACc3EAfgAHAAAAAncEAAAAAnNxAH4AAnNxAH4ABwAAAAB3BAAAAAB4cQB+ALZxAH4AvnNxAH4AAnNxAH4ABwAAAAB3BAAAAAB4cQB+AGBxAH4AvnhxAH4AgnEAfgC8c3EAfgACc3EAfgAHAAAAAncEAAAAAnNxAH4AAnNxAH4ABwAAAAB3BAAAAAB4cQB+AAtxAH4AxHNxAH4AAnNxAH4ABwAAAAB3BAAAAAB4cQB+AGBxAH4AxHhxAH4AdHEAfgC8eHEAfgCCcQB+ALpxAH4AuHhxAH4AgnNxAH4AAnNxAH4ABwAAAAJ3BAAAAAJxAH4AunNxAH4AAnNxAH4ABwAAAAJ3BAAAAAJzcQB+AAJzcQB+AAcAAAAAdwQAAAAAeHEAfgALcQB+AMxzcQB+AAJzcQB+AAcAAAAAdwQAAAAAeHEAfgBgcQB+AMx4cQB+AHRzcQB+AAJzcQB+AAcAAAACdwQAAAACc3EAfgACc3EAfgAHAAAAAncEAAAAAnNxAH4AAnNxAH4ABwAAAAB3BAAAAAB4cQB+AAtxAH4A1HNxAH4AAnNxAH4ABwAAAAB3BAAAAAB4cQB+AGBxAH4A1HhxAH4AdHEAfgDScQB+AMx4cQB+AIJzcQB+AAJzcQB+AAcAAAACdwQAAAACcQB+ANJzcQB+AAJzcQB+AAcAAAAAdwQAAAAAeHEAfgC2c3EAfgACc3EAfgAHAAAAAncEAAAAAnNxAH4AAnNxAH4ABwAAAAJ3BAAAAAJzcQB+AAJzcQB+AAcAAAAAdwQAAAAAeHEAfgC2cQB+AOBzcQB+AAJzcQB+AAcAAAACdwQAAAACc3EAfgACc3EAfgAHAAAAAncEAAAAAnNxAH4AAnNxAH4ABwAAAAB3BAAAAAB4cQB+ALZxAH4A5nNxAH4AAnNxAH4ABwAAAAB3BAAAAAB4cQB+AGBxAH4A5nhxAH4AgnEAfgDkc3EAfgACc3EAfgAHAAAAAncEAAAAAnNxAH4AAnNxAH4ABwAAAAB3BAAAAAB4cQB+AAtxAH4A7HNxAH4AAnNxAH4ABwAAAAB3BAAAAAB4cQB+AGBxAH4A7HhxAH4AdHEAfgDkeHEAfgCCcQB+AOB4cQB+AIJxAH4A3nEAfgDceHEAfgCCc3EAfgACc3EAfgAHAAAAAncEAAAAAnNxAH4AAnNxAH4ABwAAAAB3BAAAAAB4cQB+AAtxAH4A8nEAfgDeeHEAfgB0c3EAfgACc3EAfgAHAAAAAncEAAAAAnEAfgDyc3EAfgACc3EAfgAHAAAAAncEAAAAAnNxAH4AAnNxAH4ABwAAAAJ3BAAAAAJzcQB+AAJzcQB+AAcAAAACdwQAAAACc3EAfgACc3EAfgAHAAAAAHcEAAAAAHhxAH4AtnEAfgD8c3EAfgACc3EAfgAHAAAAAncEAAAAAnNxAH4AAnNxAH4ABwAAAAB3BAAAAAB4cQB+AAtxAH4BAHNxAH4AAnNxAH4ABwAAAAB3BAAAAAB4cQB+AGBxAH4BAHhxAH4AdHNxAH4AAnNxAH4ABwAAAAJ3BAAAAAJzcQB+AAJzcQB+AAcAAAACdwQAAAACc3EAfgACc3EAfgAHAAAAAncEAAAAAnNxAH4AAnNxAH4ABwAAAAB3BAAAAAB4cQB+ALZxAH4BCnNxAH4AAnNxAH4ABwAAAAJ3BAAAAAJzcQB+AAJzcQB+AAcAAAAAdwQAAAAAeHEAfgALcQB+AQ5zcQB+AAJzcQB+AAcAAAAAdwQAAAAAeHEAfgBgcQB+AQ54cQB+AHRxAH4BCnhxAH4AgnEAfgEIc3EAfgACc3EAfgAHAAAAAncEAAAAAnNxAH4AAnNxAH4ABwAAAAB3BAAAAAB4cQB+AAtxAH4BFHNxAH4AAnNxAH4ABwAAAAB3BAAAAAB4cQB+AGBxAH4BFHhxAH4AdHEAfgEIeHEAfgCCcQB+AQZxAH4BAHhxAH4AgnNxAH4AAnNxAH4ABwAAAAJ3BAAAAAJxAH4BBnNxAH4AAnNxAH4ABwAAAAJ3BAAAAAJzcQB+AAJzcQB+AAcAAAAAdwQAAAAAeHEAfgALcQB+ARxzcQB+AAJzcQB+AAcAAAAAdwQAAAAAeHEAfgBgcQB+ARx4cQB+AHRzcQB+AAJzcQB+AAcAAAACdwQAAAACc3EAfgACc3EAfgAHAAAAAHcEAAAAAHhxAH4AC3EAfgEicQB+ARx4cQB+AIJzcQB+AAJzcQB+AAcAAAACdwQAAAACcQB+ASJzcQB+AAJzcQB+AAcAAAAAdwQAAAAAeHEAfgC2cQB+ASZ4cQB+AIJzcQB+AAJzcQB+AAcAAAACdwQAAAACc3EAfgACc3EAfgAHAAAAAncEAAAAAnNxAH4AAnNxAH4ABwAAAAB3BAAAAAB4cQB+AAtxAH4BLHNxAH4AAnNxAH4ABwAAAAJ3BAAAAAJzcQB+AAJzcQB+AAcAAAACdwQAAAACc3EAfgACc3EAfgAHAAAAAncEAAAAAnNxAH4AAnNxAH4ABwAAAAB3BAAAAAB4cQB+ALZxAH4BNHNxAH4AAnNxAH4ABwAAAAB3BAAAAAB4cQB+AGBxAH4BNHhxAH4AgnEAfgEyc3EAfgACc3EAfgAHAAAAAncEAAAAAnNxAH4AAnNxAH4ABwAAAAB3BAAAAAB4cQB+AAtxAH4BOnNxAH4AAnNxAH4ABwAAAAB3BAAAAAB4cQB+AGBxAH4BOnhxAH4AdHEAfgEyeHEAfgCCcQB+ATBzcQB+AAJzcQB+AAcAAAAAdwQAAAAAeHEAfgC2cQB+ATB4cQB+AIJxAH4BLHhxAH4AdHEAfgEqcQB+ASZ4cQB+AHRweHEAfgCCc3EAfgACc3EAfgAHAAAAAncEAAAAAnEAfgEacQB+ASh4cQB+AIJzcQB+AAJzcQB+AAcAAAACdwQAAAACc3EAfgACc3EAfgAHAAAAAHcEAAAAAHhxAH4AC3EAfgFEcQB+AUJ4cQB+AHRweHEAfgCCcQB+APpxAH4BHHhxAH4AgnEAfgD4cQB+ASh4cQB+AIJxAH4A9nhxAH4AdHB4cQB+AIJzcQB+AAJzcQB+AAcAAAACdwQAAAACc3EAfgACc3EAfgAHAAAAAHcEAAAAAHhxAH4AC3EAfgFIcQB+ANp4cQB+AHRzcQB+AAJzcQB+AAcAAAACdwQAAAACcQB+AUhxAH4A+HhxAH4AdHB4cQB+AIJzcQB+AAJzcQB+AAcAAAACdwQAAAACcQB+AMpxAH4A3HhxAH4AgnNxAH4AAnNxAH4ABwAAAAJ3BAAAAAJzcQB+AAJzcQB+AAcAAAAAdwQAAAAAeHEAfgALcQB+AVBxAH4BTnhxAH4AdHNxAH4AAnNxAH4ABwAAAAJ3BAAAAAJxAH4BUHEAfgD4eHEAfgB0cHhxAH4AgnEAfgCwcQB+AMx4cQB+AIJxAH4ArnEAfgDceHEAfgCCc3EAfgACc3EAfgAHAAAAAncEAAAAAnNxAH4AAnNxAH4ABwAAAAJ3BAAAAAJzcQB+AAJzcQB+AAcAAAAAdwQAAAAAeHEAfgC2cQB+AVhzcQB+AAJzcQB+AAcAAAAAdwQAAAAAeHEAfgBgcQB+AVh4cQB+AIJxAH4BVnEAfgCueHEAfgB0c3EAfgACc3EAfgAHAAAAAncEAAAAAnEAfgFWcQB+APh4cQB+AHRweHEAfgB0cQB+AKhxAH4A+HhxAH4AdHB4";
    "rO0ABXNyABFqYXZhLnV0aWwuQ29sbFNlcleOq7Y6G6gRAwABSQADdGFneHAAAAAEdwQAAAAEc3IAN2lvLmdpdGh1Yi5lcmljbWVkdmV0LmpnZWEuY29yZS5yZXByZXNlbnRhdGlvbi50cmVlLlRyZWUKs7/qnQrEZQIAA0wACGNoaWxkcmVudAAQTGphdmEvdXRpbC9MaXN0O0wAB2NvbnRlbnR0ABJMamF2YS9sYW5nL09iamVjdDtMAAZwYXJlbnR0ADlMaW8vZ2l0aHViL2VyaWNtZWR2ZXQvamdlYS9jb3JlL3JlcHJlc2VudGF0aW9uL3RyZWUvVHJlZTt4cHNyABNqYXZhLnV0aWwuQXJyYXlMaXN0eIHSHZnHYZ0DAAFJAARzaXpleHAAAAAAdwQAAAAAeHNyAEtpby5naXRodWIuZXJpY21lZHZldC5qZ2VhLmNvcmUucmVwcmVzZW50YXRpb24udHJlZS5udW1lcmljLkVsZW1lbnQkVmFyaWFibGUAAAAAAAAAAAIAAUwABG5hbWV0ABJMamF2YS9sYW5nL1N0cmluZzt4cHQAAng0cHNxAH4AAnNxAH4ABwAAAAJ3BAAAAAJzcQB+AAJzcQB+AAcAAAACdwQAAAACc3EAfgACc3EAfgAHAAAAAncEAAAAAnNxAH4AAnNxAH4ABwAAAAB3BAAAAAB4c3EAfgAJdAADeDEwcQB+ABFzcQB+AAJzcQB+AAcAAAAAdwQAAAAAeHNxAH4ACXQAAngyc3EAfgACc3EAfgAHAAAAAncEAAAAAnNxAH4AAnNxAH4ABwAAAAB3BAAAAAB4cQB+ABlxAH4AG3EAfgAXeH5yAEtpby5naXRodWIuZXJpY21lZHZldC5qZ2VhLmNvcmUucmVwcmVzZW50YXRpb24udHJlZS5udW1lcmljLkVsZW1lbnQkT3BlcmF0b3IAAAAAAAAAABIAAHhyAA5qYXZhLmxhbmcuRW51bQAAAAAAAAAAEgAAeHB0AAtTVUJUUkFDVElPTnNxAH4AAnNxAH4ABwAAAAJ3BAAAAAJxAH4AG3NxAH4AAnNxAH4ABwAAAAB3BAAAAAB4cQB+ABlzcQB+AAJzcQB+AAcAAAACdwQAAAACc3EAfgACc3EAfgAHAAAAAncEAAAAAnNxAH4AAnNxAH4ABwAAAAB3BAAAAAB4cQB+ABVxAH4AKXNxAH4AAnNxAH4ABwAAAAJ3BAAAAAJzcQB+AAJzcQB+AAcAAAAAdwQAAAAAeHEAfgAVcQB+AC1zcQB+AAJzcQB+AAcAAAAAdwQAAAAAeHEAfgAZcQB+AC14cQB+ACFxAH4AKXhxAH4AIXEAfgAncQB+ACV4cQB+ACFzcQB+AAJzcQB+AAcAAAACdwQAAAACcQB+ACdzcQB+AAJzcQB+AAcAAAACdwQAAAACc3EAfgACc3EAfgAHAAAAAHcEAAAAAHhxAH4AGXEAfgA1c3EAfgACc3EAfgAHAAAAAHcEAAAAAHhzcgBLaW8uZ2l0aHViLmVyaWNtZWR2ZXQuamdlYS5jb3JlLnJlcHJlc2VudGF0aW9uLnRyZWUubnVtZXJpYy5FbGVtZW50JENvbnN0YW50AAAAAAAAAAACAAFEAAV2YWx1ZXhwAAAAAAAAAABzcQB+AAJzcQB+AAcAAAACdwQAAAACc3EAfgACc3EAfgAHAAAAAHcEAAAAAHhxAH4APHEAfgA9cQB+ADl4fnEAfgAfdAANUFJPVF9ESVZJU0lPTnNxAH4AAnNxAH4ABwAAAAJ3BAAAAAJzcQB+AAJzcQB+AAcAAAACdwQAAAACc3EAfgACc3EAfgAHAAAAAncEAAAAAnNxAH4AAnNxAH4ABwAAAAB3BAAAAAB4cQB+ABVxAH4AR3NxAH4AAnNxAH4ABwAAAAB3BAAAAAB4cQB+ABlxAH4AR3hxAH4AIXEAfgBFc3EAfgACc3EAfgAHAAAAAHcEAAAAAHhxAH4AGXEAfgBFeHEAfgAhcQB+AENxAH4APXhxAH4AQXB4cQB+AEFxAH4AM3hxAH4AQXB4cQB+ACFzcQB+AAJzcQB+AAcAAAACdwQAAAACcQB+ACNxAH4ANXhxAH4AQXB4cQB+ACFxAH4AD3EAfgAleHEAfgAhcQB+AA1xAH4ANXhxAH4AQXBzcQB+AAJzcQB+AAcAAAACdwQAAAACc3EAfgACc3EAfgAHAAAAAncEAAAAAnNxAH4AAnNxAH4ABwAAAAB3BAAAAAB4c3EAfgA7QAAAAAAAAABxAH4AU3NxAH4AAnNxAH4ABwAAAAJ3BAAAAAJzcQB+AAJzcQB+AAcAAAAAdwQAAAAAeHNxAH4AOz/wAAAAAAAAcQB+AFhzcQB+AAJzcQB+AAcAAAACdwQAAAACc3EAfgACc3EAfgAHAAAAAncEAAAAAnNxAH4AAnNxAH4ABwAAAAB3BAAAAAB4c3EAfgAJdAACeDBxAH4AX3NxAH4AAnNxAH4ABwAAAAJ3BAAAAAJzcQB+AAJzcQB+AAcAAAAAdwQAAAAAeHEAfgBjcQB+AGVzcQB+AAJzcQB+AAcAAAACdwQAAAACc3EAfgACc3EAfgAHAAAAAHcEAAAAAHhxAH4AY3EAfgBpc3EAfgACc3EAfgAHAAAAAHcEAAAAAHhzcQB+ADtAEgAAAAAAAHEAfgBpeH5xAH4AH3QACEFERElUSU9OcQB+AGV4cQB+AHBzcQB+AAJzcQB+AAcAAAACdwQAAAACc3EAfgACc3EAfgAHAAAAAHcEAAAAAHhxAH4AXHEAfgBycQB+AGV4cQB+AHBzcQB+AAJzcQB+AAcAAAACdwQAAAACcQB+AHJzcQB+AAJzcQB+AAcAAAAAdwQAAAAAeHEAfgBccQB+AHZ4cQB+ACFzcQB+AAJzcQB+AAcAAAACdwQAAAACc3EAfgACc3EAfgAHAAAAAHcEAAAAAHhxAH4AXHEAfgB6cQB+AHZ4fnEAfgAfdAAOTVVMVElQTElDQVRJT05zcQB+AAJzcQB+AAcAAAACdwQAAAACc3EAfgACc3EAfgAHAAAAAHcEAAAAAHhxAH4AV3EAfgCAcQB+AHp4cQB+AEFzcQB+AAJzcQB+AAcAAAACdwQAAAACcQB+AIBzcQB+AAJzcQB+AAcAAAAAdwQAAAAAeHEAfgBjc3EAfgACc3EAfgAHAAAAAncEAAAAAnNxAH4AAnNxAH4ABwAAAAJ3BAAAAAJzcQB+AAJzcQB+AAcAAAAAdwQAAAAAeHEAfgBXcQB+AIpzcQB+AAJzcQB+AAcAAAACdwQAAAACc3EAfgACc3EAfgAHAAAAAHcEAAAAAHhxAH4AXHEAfgCOc3EAfgACc3EAfgAHAAAAAHcEAAAAAHhxAH4AXHEAfgCOeHEAfgB+cQB+AIp4cQB+AEFxAH4AiHEAfgCGeHEAfgB+cHhxAH4AfnB4cQB+AHBxAH4AXXEAfgB4eHEAfgAhc3EAfgACc3EAfgAHAAAAAncEAAAAAnNxAH4AAnNxAH4ABwAAAAB3BAAAAAB4cQB+AGNxAH4AlHEAfgBdeHEAfgB+c3EAfgACc3EAfgAHAAAAAncEAAAAAnNxAH4AAnNxAH4ABwAAAAB3BAAAAAB4cQB+AFdxAH4AmHEAfgCUeHEAfgBBc3EAfgACc3EAfgAHAAAAAncEAAAAAnEAfgCYcQB+AIZ4cQB+AH5weHEAfgB+c3EAfgACc3EAfgAHAAAAAncEAAAAAnNxAH4AAnNxAH4ABwAAAAB3BAAAAAB4cQB+AFxxAH4AnnEAfgBYeHEAfgBBc3EAfgACc3EAfgAHAAAAAncEAAAAAnEAfgCecQB+AIZ4cQB+AH5weHEAfgBBcQB+AFFxAH4AhnhxAH4AfnBzcQB+AAJzcQB+AAcAAAACdwQAAAACc3EAfgACc3EAfgAHAAAAAncEAAAAAnNxAH4AAnNxAH4ABwAAAAB3BAAAAAB4cQB+AAtxAH4ApnNxAH4AAnNxAH4ABwAAAAJ3BAAAAAJzcQB+AAJzcQB+AAcAAAACdwQAAAACc3EAfgACc3EAfgAHAAAAAncEAAAAAnNxAH4AAnNxAH4ABwAAAAB3BAAAAAB4c3EAfgAJdAACeDhxAH4ArnNxAH4AAnNxAH4ABwAAAAB3BAAAAAB4cQB+AFxzcQB+AAJzcQB+AAcAAAACdwQAAAACc3EAfgACc3EAfgAHAAAAAncEAAAAAnNxAH4AAnNxAH4ABwAAAAJ3BAAAAAJzcQB+AAJzcQB+AAcAAAAAdwQAAAAAeHEAfgCycQB+ALpzcQB+AAJzcQB+AAcAAAAAdwQAAAAAeHEAfgBccQB+ALp4cQB+AH5xAH4AuHNxAH4AAnNxAH4ABwAAAAJ3BAAAAAJzcQB+AAJzcQB+AAcAAAAAdwQAAAAAeHEAfgALcQB+AMBzcQB+AAJzcQB+AAcAAAAAdwQAAAAAeHEAfgBccQB+AMB4cQB+AHBxAH4AuHhxAH4AfnEAfgC2cQB+ALR4cQB+AH5zcQB+AAJzcQB+AAcAAAACdwQAAAACcQB+ALZzcQB+AAJzcQB+AAcAAAACdwQAAAACc3EAfgACc3EAfgAHAAAAAHcEAAAAAHhxAH4AC3EAfgDIc3EAfgACc3EAfgAHAAAAAHcEAAAAAHhxAH4AXHEAfgDIeHEAfgBwc3EAfgACc3EAfgAHAAAAAncEAAAAAnNxAH4AAnNxAH4ABwAAAAJ3BAAAAAJzcQB+AAJzcQB+AAcAAAAAdwQAAAAAeHEAfgALcQB+ANBzcQB+AAJzcQB+AAcAAAAAdwQAAAAAeHEAfgBccQB+ANB4cQB+AHBxAH4AznEAfgDIeHEAfgB+c3EAfgACc3EAfgAHAAAAAncEAAAAAnEAfgDOc3EAfgACc3EAfgAHAAAAAHcEAAAAAHhxAH4AsnNxAH4AAnNxAH4ABwAAAAJ3BAAAAAJzcQB+AAJzcQB+AAcAAAACdwQAAAACc3EAfgACc3EAfgAHAAAAAHcEAAAAAHhxAH4AsnEAfgDcc3EAfgACc3EAfgAHAAAAAncEAAAAAnNxAH4AAnNxAH4ABwAAAAJ3BAAAAAJzcQB+AAJzcQB+AAcAAAAAdwQAAAAAeHEAfgCycQB+AOJzcQB+AAJzcQB+AAcAAAAAdwQAAAAAeHEAfgBccQB+AOJ4cQB+AH5xAH4A4HNxAH4AAnNxAH4ABwAAAAJ3BAAAAAJzcQB+AAJzcQB+AAcAAAAAdwQAAAAAeHEAfgALcQB+AOhzcQB+AAJzcQB+AAcAAAAAdwQAAAAAeHEAfgBccQB+AOh4cQB+AHBxAH4A4HhxAH4AfnEAfgDceHEAfgB+cQB+ANpxAH4A2HhxAH4AfnNxAH4AAnNxAH4ABwAAAAJ3BAAAAAJzcQB+AAJzcQB+AAcAAAAAdwQAAAAAeHEAfgALcQB+AO5xAH4A2nhxAH4AcHNxAH4AAnNxAH4ABwAAAAJ3BAAAAAJxAH4A7nNxAH4AAnNxAH4ABwAAAAJ3BAAAAAJzcQB+AAJzcQB+AAcAAAACdwQAAAACc3EAfgACc3EAfgAHAAAAAncEAAAAAnNxAH4AAnNxAH4ABwAAAAB3BAAAAAB4cQB+ALJxAH4A+HNxAH4AAnNxAH4ABwAAAAJ3BAAAAAJzcQB+AAJzcQB+AAcAAAAAdwQAAAAAeHEAfgALcQB+APxzcQB+AAJzcQB+AAcAAAAAdwQAAAAAeHEAfgBccQB+APx4cQB+AHBzcQB+AAJzcQB+AAcAAAACdwQAAAACc3EAfgACc3EAfgAHAAAAAncEAAAAAnNxAH4AAnNxAH4ABwAAAAJ3BAAAAAJzcQB+AAJzcQB+AAcAAAAAdwQAAAAAeHEAfgCycQB+AQZzcQB+AAJzcQB+AAcAAAACdwQAAAACc3EAfgACc3EAfgAHAAAAAHcEAAAAAHhxAH4AC3EAfgEKc3EAfgACc3EAfgAHAAAAAHcEAAAAAHhxAH4AXHEAfgEKeHEAfgBwcQB+AQZ4cQB+AH5xAH4BBHNxAH4AAnNxAH4ABwAAAAJ3BAAAAAJzcQB+AAJzcQB+AAcAAAAAdwQAAAAAeHEAfgALcQB+ARBzcQB+AAJzcQB+AAcAAAAAdwQAAAAAeHEAfgBccQB+ARB4cQB+AHBxAH4BBHhxAH4AfnEAfgECcQB+APx4cQB+AH5zcQB+AAJzcQB+AAcAAAACdwQAAAACcQB+AQJzcQB+AAJzcQB+AAcAAAACdwQAAAACc3EAfgACc3EAfgAHAAAAAHcEAAAAAHhxAH4AC3EAfgEYc3EAfgACc3EAfgAHAAAAAHcEAAAAAHhxAH4AXHEAfgEYeHEAfgBwc3EAfgACc3EAfgAHAAAAAncEAAAAAnNxAH4AAnNxAH4ABwAAAAB3BAAAAAB4cQB+AAtxAH4BHnEAfgEYeHEAfgB+c3EAfgACc3EAfgAHAAAAAncEAAAAAnEAfgEec3EAfgACc3EAfgAHAAAAAHcEAAAAAHhxAH4AsnEAfgEieHEAfgB+c3EAfgACc3EAfgAHAAAAAncEAAAAAnNxAH4AAnNxAH4ABwAAAAJ3BAAAAAJzcQB+AAJzcQB+AAcAAAAAdwQAAAAAeHEAfgALcQB+AShzcQB+AAJzcQB+AAcAAAACdwQAAAACc3EAfgACc3EAfgAHAAAAAncEAAAAAnNxAH4AAnNxAH4ABwAAAAJ3BAAAAAJzcQB+AAJzcQB+AAcAAAAAdwQAAAAAeHEAfgCycQB+ATBzcQB+AAJzcQB+AAcAAAAAdwQAAAAAeHEAfgBccQB+ATB4cQB+AH5xAH4BLnNxAH4AAnNxAH4ABwAAAAJ3BAAAAAJzcQB+AAJzcQB+AAcAAAAAdwQAAAAAeHEAfgALcQB+ATZzcQB+AAJzcQB+AAcAAAAAdwQAAAAAeHEAfgBccQB+ATZ4cQB+AHBxAH4BLnhxAH4AfnEAfgEsc3EAfgACc3EAfgAHAAAAAHcEAAAAAHhxAH4AsnEAfgEseHEAfgB+cQB+ASh4cQB+AHBxAH4BJnEAfgEieHEAfgBwcHhxAH4AfnNxAH4AAnNxAH4ABwAAAAJ3BAAAAAJxAH4BFnEAfgEkeHEAfgB+c3EAfgACc3EAfgAHAAAAAncEAAAAAnNxAH4AAnNxAH4ABwAAAAB3BAAAAAB4cQB+AAtxAH4BQHEAfgE+eHEAfgBwcHhxAH4AfnEAfgD2cQB+ARh4cQB+AH5xAH4A9HEAfgEkeHEAfgB+cQB+APJ4cQB+AHBweHEAfgB+c3EAfgACc3EAfgAHAAAAAncEAAAAAnNxAH4AAnNxAH4ABwAAAAB3BAAAAAB4cQB+AAtxAH4BRHEAfgDWeHEAfgBwc3EAfgACc3EAfgAHAAAAAncEAAAAAnEAfgFEcQB+APR4cQB+AHBweHEAfgB+c3EAfgACc3EAfgAHAAAAAncEAAAAAnEAfgDGcQB+ANh4cQB+AH5zcQB+AAJzcQB+AAcAAAACdwQAAAACc3EAfgACc3EAfgAHAAAAAHcEAAAAAHhxAH4AC3EAfgFMcQB+AUp4cQB+AHBzcQB+AAJzcQB+AAcAAAACdwQAAAACcQB+AUxxAH4A9HhxAH4AcHB4cQB+AH5xAH4ArHEAfgDIeHEAfgB+cQB+AKpxAH4A2HhxAH4AfnNxAH4AAnNxAH4ABwAAAAJ3BAAAAAJzcQB+AAJzcQB+AAcAAAACdwQAAAACc3EAfgACc3EAfgAHAAAAAHcEAAAAAHhxAH4AsnEAfgFUc3EAfgACc3EAfgAHAAAAAHcEAAAAAHhxAH4AXHEAfgFUeHEAfgB+cQB+AVJxAH4AqnhxAH4AcHNxAH4AAnNxAH4ABwAAAAJ3BAAAAAJxAH4BUnEAfgD0eHEAfgBwcHhxAH4AcHEAfgCkcQB+APR4cQB+AHBweA==";
    "rO0ABXNyABFqYXZhLnV0aWwuQ29sbFNlcleOq7Y6G6gRAwABSQADdGFneHAAAAAEdwQAAAAEc3IAN2lvLmdpdGh1Yi5lcmljbWVkdmV0LmpnZWEuY29yZS5yZXByZXNlbnRhdGlvbi50cmVlLlRyZWUKs7/qnQrEZQIAA0wACGNoaWxkcmVudAAQTGphdmEvdXRpbC9MaXN0O0wAB2NvbnRlbnR0ABJMamF2YS9sYW5nL09iamVjdDtMAAZwYXJlbnR0ADlMaW8vZ2l0aHViL2VyaWNtZWR2ZXQvamdlYS9jb3JlL3JlcHJlc2VudGF0aW9uL3RyZWUvVHJlZTt4cHNyABNqYXZhLnV0aWwuQXJyYXlMaXN0eIHSHZnHYZ0DAAFJAARzaXpleHAAAAAAdwQAAAAAeHNyAEtpby5naXRodWIuZXJpY21lZHZldC5qZ2VhLmNvcmUucmVwcmVzZW50YXRpb24udHJlZS5udW1lcmljLkVsZW1lbnQkVmFyaWFibGUAAAAAAAAAAAIAAUwABG5hbWV0ABJMamF2YS9sYW5nL1N0cmluZzt4cHQAAng0cHNxAH4AAnNxAH4ABwAAAAJ3BAAAAAJzcQB+AAJzcQB+AAcAAAACdwQAAAACc3EAfgACc3EAfgAHAAAAAncEAAAAAnNxAH4AAnNxAH4ABwAAAAB3BAAAAAB4c3EAfgAJdAADeDEwcQB+ABFzcQB+AAJzcQB+AAcAAAAAdwQAAAAAeHNxAH4ACXQAAngyc3EAfgACc3EAfgAHAAAAAncEAAAAAnNxAH4AAnNxAH4ABwAAAAJ3BAAAAAJzcQB+AAJzcQB+AAcAAAAAdwQAAAAAeHNyAEtpby5naXRodWIuZXJpY21lZHZldC5qZ2VhLmNvcmUucmVwcmVzZW50YXRpb24udHJlZS5udW1lcmljLkVsZW1lbnQkQ29uc3RhbnQAAAAAAAAAAAIAAUQABXZhbHVleHAAAAAAAAAAAHEAfgAdc3EAfgACc3EAfgAHAAAAAHcEAAAAAHhxAH4AInEAfgAdeH5yAEtpby5naXRodWIuZXJpY21lZHZldC5qZ2VhLmNvcmUucmVwcmVzZW50YXRpb24udHJlZS5udW1lcmljLkVsZW1lbnQkT3BlcmF0b3IAAAAAAAAAABIAAHhyAA5qYXZhLmxhbmcuRW51bQAAAAAAAAAAEgAAeHB0AA1QUk9UX0RJVklTSU9OcQB+ABtxAH4AF3h+cQB+ACV0AAtTVUJUUkFDVElPTnNxAH4AAnNxAH4ABwAAAAJ3BAAAAAJxAH4AG3NxAH4AAnNxAH4ABwAAAAB3BAAAAAB4cQB+ABlzcQB+AAJzcQB+AAcAAAACdwQAAAACc3EAfgACc3EAfgAHAAAAAncEAAAAAnNxAH4AAnNxAH4ABwAAAAB3BAAAAAB4cQB+ABVxAH4AMXNxAH4AAnNxAH4ABwAAAAJ3BAAAAAJzcQB+AAJzcQB+AAcAAAAAdwQAAAAAeHEAfgAVcQB+ADVzcQB+AAJzcQB+AAcAAAAAdwQAAAAAeHEAfgAZcQB+ADV4cQB+AClxAH4AMXhxAH4AKXEAfgAvcQB+AC14cQB+AClzcQB+AAJzcQB+AAcAAAACdwQAAAACcQB+AC9zcQB+AAJzcQB+AAcAAAACdwQAAAACc3EAfgACc3EAfgAHAAAAAncEAAAAAnNxAH4AAnNxAH4ABwAAAAJ3BAAAAAJzcQB+AAJzcQB+AAcAAAAAdwQAAAAAeHEAfgAVcQB+AEFzcQB+AAJzcQB+AAcAAAAAdwQAAAAAeHEAfgAZcQB+AEF4cQB+AClxAH4AP3NxAH4AAnNxAH4ABwAAAAB3BAAAAAB4cQB+ABVzcQB+AAJzcQB+AAcAAAACdwQAAAACc3EAfgACc3EAfgAHAAAAAHcEAAAAAHhxAH4AGXEAfgBJcQB+AEd4cQB+ACdzcQB+AAJzcQB+AAcAAAACdwQAAAACcQB+AElzcQB+AAJzcQB+AAcAAAAAdwQAAAAAeHEAfgAic3EAfgACc3EAfgAHAAAAAncEAAAAAnNxAH4AAnNxAH4ABwAAAAB3BAAAAAB4cQB+ABlxAH4AUXEAfgBPeHEAfgAnc3EAfgACc3EAfgAHAAAAAncEAAAAAnNxAH4AAnNxAH4ABwAAAAJ3BAAAAAJzcQB+AAJzcQB+AAcAAAACdwQAAAACc3EAfgACc3EAfgAHAAAAAHcEAAAAAHhxAH4AFXEAfgBZc3EAfgACc3EAfgAHAAAAAHcEAAAAAHhxAH4AGXEAfgBZeHEAfgApcQB+AFdzcQB+AAJzcQB+AAcAAAAAdwQAAAAAeHEAfgAZcQB+AFd4cQB+AClxAH4AVXEAfgBReHEAfgAncHhxAH4AJ3NxAH4AAnNxAH4ABwAAAAJ3BAAAAAJzcQB+AAJzcQB+AAcAAAACdwQAAAACc3EAfgACc3EAfgAHAAAAAncEAAAAAnNxAH4AAnNxAH4ABwAAAAB3BAAAAAB4cQB+ABVxAH4AZXNxAH4AAnNxAH4ABwAAAAB3BAAAAAB4cQB+ABlxAH4AZXhxAH4AKXEAfgBjc3EAfgACc3EAfgAHAAAAAHcEAAAAAHhxAH4AGXEAfgBjeHEAfgApcQB+AGFxAH4ATXhxAH4AJ3B4cQB+ACdxAH4APXEAfgBPeHEAfgAncQB+ADt4cQB+ACdweHEAfgApc3EAfgACc3EAfgAHAAAAAncEAAAAAnEAfgArcQB+AD14cQB+ACdweHEAfgApcQB+AA9xAH4ALXhxAH4AKXEAfgANcQB+AD14cQB+ACdwc3EAfgACc3EAfgAHAAAAAncEAAAAAnNxAH4AAnNxAH4ABwAAAAJ3BAAAAAJzcQB+AAJzcQB+AAcAAAAAdwQAAAAAeHNxAH4AIUAAAAAAAAAAcQB+AHFzcQB+AAJzcQB+AAcAAAACdwQAAAACc3EAfgACc3EAfgAHAAAAAHcEAAAAAHhzcQB+ACE/8AAAAAAAAHEAfgB2c3EAfgACc3EAfgAHAAAAAncEAAAAAnNxAH4AAnNxAH4ABwAAAAJ3BAAAAAJzcQB+AAJzcQB+AAcAAAAAdwQAAAAAeHNxAH4ACXQAAngwcQB+AH1zcQB+AAJzcQB+AAcAAAACdwQAAAACc3EAfgACc3EAfgAHAAAAAHcEAAAAAHhxAH4AgXEAfgCDc3EAfgACc3EAfgAHAAAAAncEAAAAAnNxAH4AAnNxAH4ABwAAAAB3BAAAAAB4cQB+AIFxAH4Ah3NxAH4AAnNxAH4ABwAAAAB3BAAAAAB4c3EAfgAhQBIAAAAAAABxAH4Ah3h+cQB+ACV0AAhBRERJVElPTnEAfgCDeHEAfgCOc3EAfgACc3EAfgAHAAAAAncEAAAAAnNxAH4AAnNxAH4ABwAAAAJ3BAAAAAJzcQB+AAJzcQB+AAcAAAAAdwQAAAAAeHEAfgB1cQB+AJJzcQB+AAJzcQB+AAcAAAACdwQAAAACc3EAfgACc3EAfgAHAAAAAHcEAAAAAHhxAH4AenEAfgCWc3EAfgACc3EAfgAHAAAAAncEAAAAAnNxAH4AAnNxAH4ABwAAAAJ3BAAAAAJzcQB+AAJzcQB+AAcAAAAAdwQAAAAAeHEAfgCBcQB+AJxzcQB+AAJzcQB+AAcAAAACdwQAAAACc3EAfgACc3EAfgAHAAAAAHcEAAAAAHhxAH4AgXEAfgCgc3EAfgACc3EAfgAHAAAAAncEAAAAAnNxAH4AAnNxAH4ABwAAAAB3BAAAAAB4cQB+AIFxAH4ApHNxAH4AAnNxAH4ABwAAAAB3BAAAAAB4cQB+AI1xAH4ApHhxAH4AjnEAfgCgeHEAfgCOcQB+AJx4cQB+AI5xAH4AmnNxAH4AAnNxAH4ABwAAAAB3BAAAAAB4cQB+AHpxAH4AmnhxAH4AKXEAfgCWeH5xAH4AJXQADk1VTFRJUExJQ0FUSU9OcQB+AJJ4cQB+ACdxAH4AkHEAfgCDeHEAfgCOc3EAfgACc3EAfgAHAAAAAncEAAAAAnEAfgCQc3EAfgACc3EAfgAHAAAAAHcEAAAAAHhxAH4AenEAfgCueHEAfgApc3EAfgACc3EAfgAHAAAAAncEAAAAAnNxAH4AAnNxAH4ABwAAAAB3BAAAAAB4cQB+AHpxAH4AsnEAfgCueHEAfgCsc3EAfgACc3EAfgAHAAAAAncEAAAAAnNxAH4AAnNxAH4ABwAAAAB3BAAAAAB4cQB+AHVxAH4AtnEAfgCyeHEAfgAnc3EAfgACc3EAfgAHAAAAAncEAAAAAnEAfgC2c3EAfgACc3EAfgAHAAAAAHcEAAAAAHhxAH4AgXEAfgC6eHEAfgCscHhxAH4AjnEAfgB7cQB+ALB4cQB+AClzcQB+AAJzcQB+AAcAAAACdwQAAAACc3EAfgACc3EAfgAHAAAAAncEAAAAAnNxAH4AAnNxAH4ABwAAAAJ3BAAAAAJzcQB+AAJzcQB+AAcAAAAAdwQAAAAAeHEAfgCBcQB+AMJzcQB+AAJzcQB+AAcAAAACdwQAAAACc3EAfgACc3EAfgAHAAAAAHcEAAAAAHhxAH4AgXEAfgDGc3EAfgACc3EAfgAHAAAAAncEAAAAAnNxAH4AAnNxAH4ABwAAAAB3BAAAAAB4cQB+AIFxAH4AynNxAH4AAnNxAH4ABwAAAAB3BAAAAAB4cQB+AI1xAH4AynhxAH4AjnEAfgDGeHEAfgCOcQB+AMJ4cQB+AI5xAH4AwHNxAH4AAnNxAH4ABwAAAAB3BAAAAAB4cQB+AHpxAH4AwHhxAH4AKXEAfgC+cQB+AHt4cQB+AKxzcQB+AAJzcQB+AAcAAAACdwQAAAACc3EAfgACc3EAfgAHAAAAAHcEAAAAAHhxAH4AdXEAfgDScQB+AL54cQB+ACdzcQB+AAJzcQB+AAcAAAACdwQAAAACcQB+ANJxAH4AvHhxAH4ArHB4cQB+AKxzcQB+AAJzcQB+AAcAAAACdwQAAAACc3EAfgACc3EAfgAHAAAAAncEAAAAAnNxAH4AAnNxAH4ABwAAAAB3BAAAAAB4cQB+AIFxAH4A2nNxAH4AAnNxAH4ABwAAAAJ3BAAAAAJzcQB+AAJzcQB+AAcAAAAAdwQAAAAAeHEAfgCBcQB+AN5zcQB+AAJzcQB+AAcAAAAAdwQAAAAAeHEAfgCNcQB+AN54cQB+AI5xAH4A2nhxAH4AjnEAfgDYcQB+AHZ4cQB+ACdzcQB+AAJzcQB+AAcAAAACdwQAAAACcQB+ANhxAH4AvHhxAH4ArHB4cQB+ACdxAH4Ab3EAfgC8eHEAfgCscHNxAH4AAnNxAH4ABwAAAAJ3BAAAAAJzcQB+AAJzcQB+AAcAAAACdwQAAAACc3EAfgACc3EAfgAHAAAAAHcEAAAAAHhxAH4AC3EAfgDoc3EAfgACc3EAfgAHAAAAAncEAAAAAnNxAH4AAnNxAH4ABwAAAAJ3BAAAAAJzcQB+AAJzcQB+AAcAAAACdwQAAAACc3EAfgACc3EAfgAHAAAAAHcEAAAAAHhzcQB+AAl0AAJ4OHEAfgDwc3EAfgACc3EAfgAHAAAAAHcEAAAAAHhxAH4AenNxAH4AAnNxAH4ABwAAAAJ3BAAAAAJzcQB+AAJzcQB+AAcAAAACdwQAAAACc3EAfgACc3EAfgAHAAAAAncEAAAAAnNxAH4AAnNxAH4ABwAAAAB3BAAAAAB4cQB+APRxAH4A/HNxAH4AAnNxAH4ABwAAAAB3BAAAAAB4cQB+AHpxAH4A/HhxAH4ArHEAfgD6c3EAfgACc3EAfgAHAAAAAncEAAAAAnNxAH4AAnNxAH4ABwAAAAB3BAAAAAB4cQB+AAtxAH4BAnNxAH4AAnNxAH4ABwAAAAB3BAAAAAB4cQB+AHpxAH4BAnhxAH4AjnEAfgD6eHEAfgCscQB+APhxAH4A9nhxAH4ArHNxAH4AAnNxAH4ABwAAAAJ3BAAAAAJxAH4A+HNxAH4AAnNxAH4ABwAAAAJ3BAAAAAJzcQB+AAJzcQB+AAcAAAAAdwQAAAAAeHEAfgALcQB+AQpzcQB+AAJzcQB+AAcAAAAAdwQAAAAAeHEAfgB6cQB+AQp4cQB+AI5zcQB+AAJzcQB+AAcAAAACdwQAAAACc3EAfgACc3EAfgAHAAAAAncEAAAAAnNxAH4AAnNxAH4ABwAAAAB3BAAAAAB4cQB+AAtxAH4BEnNxAH4AAnNxAH4ABwAAAAB3BAAAAAB4cQB+AHpxAH4BEnhxAH4AjnEAfgEQcQB+AQp4cQB+AKxzcQB+AAJzcQB+AAcAAAACdwQAAAACcQB+ARBzcQB+AAJzcQB+AAcAAAAAdwQAAAAAeHEAfgD0c3EAfgACc3EAfgAHAAAAAncEAAAAAnNxAH4AAnNxAH4ABwAAAAJ3BAAAAAJzcQB+AAJzcQB+AAcAAAAAdwQAAAAAeHEAfgD0cQB+AR5zcQB+AAJzcQB+AAcAAAACdwQAAAACc3EAfgACc3EAfgAHAAAAAncEAAAAAnNxAH4AAnNxAH4ABwAAAAB3BAAAAAB4cQB+APRxAH4BJHNxAH4AAnNxAH4ABwAAAAB3BAAAAAB4cQB+AHpxAH4BJHhxAH4ArHEAfgEic3EAfgACc3EAfgAHAAAAAncEAAAAAnNxAH4AAnNxAH4ABwAAAAB3BAAAAAB4cQB+AAtxAH4BKnNxAH4AAnNxAH4ABwAAAAB3BAAAAAB4cQB+AHpxAH4BKnhxAH4AjnEAfgEieHEAfgCscQB+AR54cQB+AKxxAH4BHHEAfgEaeHEAfgCsc3EAfgACc3EAfgAHAAAAAncEAAAAAnNxAH4AAnNxAH4ABwAAAAB3BAAAAAB4cQB+AAtxAH4BMHEAfgEceHEAfgCOc3EAfgACc3EAfgAHAAAAAncEAAAAAnEAfgEwc3EAfgACc3EAfgAHAAAAAncEAAAAAnNxAH4AAnNxAH4ABwAAAAJ3BAAAAAJzcQB+AAJzcQB+AAcAAAACdwQAAAACc3EAfgACc3EAfgAHAAAAAHcEAAAAAHhxAH4A9HEAfgE6c3EAfgACc3EAfgAHAAAAAncEAAAAAnNxAH4AAnNxAH4ABwAAAAB3BAAAAAB4cQB+AAtxAH4BPnNxAH4AAnNxAH4ABwAAAAB3BAAAAAB4cQB+AHpxAH4BPnhxAH4AjnNxAH4AAnNxAH4ABwAAAAJ3BAAAAAJzcQB+AAJzcQB+AAcAAAACdwQAAAACc3EAfgACc3EAfgAHAAAAAncEAAAAAnNxAH4AAnNxAH4ABwAAAAB3BAAAAAB4cQB+APRxAH4BSHNxAH4AAnNxAH4ABwAAAAJ3BAAAAAJzcQB+AAJzcQB+AAcAAAAAdwQAAAAAeHEAfgALcQB+AUxzcQB+AAJzcQB+AAcAAAAAdwQAAAAAeHEAfgB6cQB+AUx4cQB+AI5xAH4BSHhxAH4ArHEAfgFGc3EAfgACc3EAfgAHAAAAAncEAAAAAnNxAH4AAnNxAH4ABwAAAAB3BAAAAAB4cQB+AAtxAH4BUnNxAH4AAnNxAH4ABwAAAAB3BAAAAAB4cQB+AHpxAH4BUnhxAH4AjnEAfgFGeHEAfgCscQB+AURxAH4BPnhxAH4ArHNxAH4AAnNxAH4ABwAAAAJ3BAAAAAJxAH4BRHNxAH4AAnNxAH4ABwAAAAJ3BAAAAAJzcQB+AAJzcQB+AAcAAAAAdwQAAAAAeHEAfgALcQB+AVpzcQB+AAJzcQB+AAcAAAAAdwQAAAAAeHEAfgB6cQB+AVp4cQB+AI5zcQB+AAJzcQB+AAcAAAACdwQAAAACc3EAfgACc3EAfgAHAAAAAHcEAAAAAHhxAH4AC3EAfgFgcQB+AVp4cQB+AKxzcQB+AAJzcQB+AAcAAAACdwQAAAACcQB+AWBzcQB+AAJzcQB+AAcAAAAAdwQAAAAAeHEAfgD0cQB+AWR4cQB+AKxzcQB+AAJzcQB+AAcAAAACdwQAAAACc3EAfgACc3EAfgAHAAAAAncEAAAAAnNxAH4AAnNxAH4ABwAAAAB3BAAAAAB4cQB+AAtxAH4BanNxAH4AAnNxAH4ABwAAAAJ3BAAAAAJzcQB+AAJzcQB+AAcAAAACdwQAAAACc3EAfgACc3EAfgAHAAAAAncEAAAAAnNxAH4AAnNxAH4ABwAAAAB3BAAAAAB4cQB+APRxAH4BcnNxAH4AAnNxAH4ABwAAAAB3BAAAAAB4cQB+AHpxAH4BcnhxAH4ArHEAfgFwc3EAfgACc3EAfgAHAAAAAncEAAAAAnNxAH4AAnNxAH4ABwAAAAB3BAAAAAB4cQB+AAtxAH4BeHNxAH4AAnNxAH4ABwAAAAB3BAAAAAB4cQB+AHpxAH4BeHhxAH4AjnEAfgFweHEAfgCscQB+AW5zcQB+AAJzcQB+AAcAAAAAdwQAAAAAeHEAfgD0cQB+AW54cQB+AKxxAH4BanhxAH4AjnEAfgFocQB+AWR4cQB+AI5weHEAfgCsc3EAfgACc3EAfgAHAAAAAncEAAAAAnEAfgFYcQB+AWZ4cQB+AKxzcQB+AAJzcQB+AAcAAAACdwQAAAACc3EAfgACc3EAfgAHAAAAAHcEAAAAAHhxAH4AC3EAfgGCcQB+AYB4cQB+AI5weHEAfgCscQB+AThxAH4BWnhxAH4ArHEAfgE2cQB+AWZ4cQB+AKxxAH4BNHhxAH4AjnB4cQB+AKxzcQB+AAJzcQB+AAcAAAACdwQAAAACc3EAfgACc3EAfgAHAAAAAHcEAAAAAHhxAH4AC3EAfgGGcQB+ARh4cQB+AI5zcQB+AAJzcQB+AAcAAAACdwQAAAACcQB+AYZxAH4BNnhxAH4AjnB4cQB+AKxzcQB+AAJzcQB+AAcAAAACdwQAAAACcQB+AQhxAH4BGnhxAH4ArHNxAH4AAnNxAH4ABwAAAAJ3BAAAAAJzcQB+AAJzcQB+AAcAAAAAdwQAAAAAeHEAfgALcQB+AY5xAH4BjHhxAH4AjnNxAH4AAnNxAH4ABwAAAAJ3BAAAAAJxAH4BjnEAfgE2eHEAfgCOcHhxAH4ArHEAfgDucQB+AQp4cQB+AKxxAH4A7HEAfgEaeHEAfgCsc3EAfgACc3EAfgAHAAAAAncEAAAAAnNxAH4AAnNxAH4ABwAAAAJ3BAAAAAJzcQB+AAJzcQB+AAcAAAAAdwQAAAAAeHEAfgD0cQB+AZZzcQB+AAJzcQB+AAcAAAAAdwQAAAAAeHEAfgB6cQB+AZZ4cQB+AKxxAH4BlHEAfgDseHEAfgCOc3EAfgACc3EAfgAHAAAAAncEAAAAAnEAfgGUcQB+ATZ4cQB+AI5weHEAfgCOcQB+AOZxAH4BNnhxAH4AjnB4";
