ea.runOutcome(
  index = 315;
  run = ea.run(
    problem = ea.p.mr.fromData(
      trainingDataset = ea.dataset.numerical.fromFile(
        filePath = "../phase2/data-ro-ographea-3-002.txt";
        folds = [0];
        nFolds = 50;
        xVarNamePattern = "x.*";
        yVarNamePattern = "y.*"
      )
    );
    randomGenerator = ea.rg.defaultRG(seed = 1);
    solver = ea.s.multiSRTreeGP(
      crossoverP = 0.8;
      diversity = true;
      mapper = ea.m.treeMRF(
        dataset = ea.d.num.empty(
          xVars = [
            x01;
            x02;
            x03;
            x04;
            x05;
            x06;
            x07;
            x08;
            x09;
            x10;
            x11;
            x12;
            x13;
            x14;
            x15;
            x16
          ];
          yVars = [y1; y2; y3; y4]
        );
        postOperator = tanh
      );
      maxConst = 5;
      maxTreeH = 8;
      minConst = 0;
      minNTournament = 3;
      minTreeH = 3;
      nAttemptsDiversity = 100;
      nConst = 10;
      nEval = 10000;
      nPop = 100;
      operators = [
        addition;
        subtraction;
        multiplication;
        prot_division;
        prot_log
      ];
      tournamentRate = 0.05
    )
  );
  serializedGenotypes = [
    "rO0ABXNyABFqYXZhLnV0aWwuQ29sbFNlcleOq7Y6G6gRAwABSQADdGFneHAAAAAEdwQAAAAEc3IAN2lvLmdpdGh1Yi5lcmljbWVkdmV0LmpnZWEuY29yZS5yZXByZXNlbnRhdGlvbi50cmVlLlRyZWUKs7/qnQrEZQIAA0wACGNoaWxkcmVudAAQTGphdmEvdXRpbC9MaXN0O0wAB2NvbnRlbnR0ABJMamF2YS9sYW5nL09iamVjdDtMAAZwYXJlbnR0ADlMaW8vZ2l0aHViL2VyaWNtZWR2ZXQvamdlYS9jb3JlL3JlcHJlc2VudGF0aW9uL3RyZWUvVHJlZTt4cHNyABNqYXZhLnV0aWwuQXJyYXlMaXN0eIHSHZnHYZ0DAAFJAARzaXpleHAAAAAAdwQAAAAAeHNyAEtpby5naXRodWIuZXJpY21lZHZldC5qZ2VhLmNvcmUucmVwcmVzZW50YXRpb24udHJlZS5udW1lcmljLkVsZW1lbnQkVmFyaWFibGUAAAAAAAAAAAIAAUwABG5hbWV0ABJMamF2YS9sYW5nL1N0cmluZzt4cHQAA3gxNnBzcQB+AAJzcQB+AAcAAAACdwQAAAACc3EAfgACc3EAfgAHAAAAAncEAAAAAnNxAH4AAnNxAH4ABwAAAAJ3BAAAAAJzcQB+AAJzcQB+AAcAAAACdwQAAAACc3EAfgACc3EAfgAHAAAAAncEAAAAAnNxAH4AAnNxAH4ABwAAAAB3BAAAAAB4c3EAfgAJdAADeDE1cQB+ABVzcQB+AAJzcQB+AAcAAAACdwQAAAACc3EAfgACc3EAfgAHAAAAAncEAAAAAnNxAH4AAnNxAH4ABwAAAAB3BAAAAAB4cQB+ABlxAH4AHXNxAH4AAnNxAH4ABwAAAAJ3BAAAAAJzcQB+AAJzcQB+AAcAAAAAdwQAAAAAeHNxAH4ACXQAA3gwNXEAfgAhc3EAfgACc3EAfgAHAAAAAncEAAAAAnNxAH4AAnNxAH4ABwAAAAJ3BAAAAAJzcQB+AAJzcQB+AAcAAAACdwQAAAACc3EAfgACc3EAfgAHAAAAAHcEAAAAAHhxAH4AGXEAfgArc3EAfgACc3EAfgAHAAAAAHcEAAAAAHhxAH4AJXEAfgAreH5yAEtpby5naXRodWIuZXJpY21lZHZldC5qZ2VhLmNvcmUucmVwcmVzZW50YXRpb24udHJlZS5udW1lcmljLkVsZW1lbnQkT3BlcmF0b3IAAAAAAAAAABIAAHhyAA5qYXZhLmxhbmcuRW51bQAAAAAAAAAAEgAAeHB0AAtTVUJUUkFDVElPTnEAfgApc3EAfgACc3EAfgAHAAAAAHcEAAAAAHhxAH4AJXEAfgApeH5xAH4AMXQADk1VTFRJUExJQ0FUSU9OcQB+ACdzcQB+AAJzcQB+AAcAAAACdwQAAAACc3EAfgACc3EAfgAHAAAAAncEAAAAAnNxAH4AAnNxAH4ABwAAAAB3BAAAAAB4cQB+ABlxAH4AO3NxAH4AAnNxAH4ABwAAAAB3BAAAAAB4cQB+ACVxAH4AO3hxAH4AM3EAfgA5c3EAfgACc3EAfgAHAAAAAHcEAAAAAHhxAH4AJXEAfgA5eHEAfgA3cQB+ACd4fnEAfgAxdAAIQURESVRJT05zcQB+AAJzcQB+AAcAAAACdwQAAAACc3EAfgACc3EAfgAHAAAAAHcEAAAAAHhxAH4AGXEAfgBFcQB+ACd4cQB+AENzcQB+AAJzcQB+AAcAAAACdwQAAAACc3EAfgACc3EAfgAHAAAAAHcEAAAAAHhxAH4AGXEAfgBJcQB+AEV4cQB+ADNzcQB+AAJzcQB+AAcAAAACdwQAAAACcQB+AElzcQB+AAJzcQB+AAcAAAACdwQAAAACc3EAfgACc3EAfgAHAAAAAncEAAAAAnNxAH4AAnNxAH4ABwAAAAJ3BAAAAAJzcQB+AAJzcQB+AAcAAAAAdwQAAAAAeHEAfgAZcQB+AFNzcQB+AAJzcQB+AAcAAAACdwQAAAACc3EAfgACc3EAfgAHAAAAAncEAAAAAnNxAH4AAnNxAH4ABwAAAAB3BAAAAAB4cQB+ABlxAH4AWXNxAH4AAnNxAH4ABwAAAAB3BAAAAAB4cQB+ACVxAH4AWXhxAH4AM3EAfgBXc3EAfgACc3EAfgAHAAAAAHcEAAAAAHhxAH4AJXEAfgBXeHEAfgA3cQB+AFN4cQB+ADNxAH4AUXNxAH4AAnNxAH4ABwAAAAJ3BAAAAAJzcQB+AAJzcQB+AAcAAAACdwQAAAACc3EAfgACc3EAfgAHAAAAAHcEAAAAAHhxAH4AGXEAfgBjc3EAfgACc3EAfgAHAAAAAHcEAAAAAHhxAH4AJXEAfgBjeHEAfgAzcQB+AGFzcQB+AAJzcQB+AAcAAAAAdwQAAAAAeHEAfgAlcQB+AGF4cQB+ADdxAH4AUXhxAH4AM3EAfgBPc3EAfgACc3EAfgAHAAAAAncEAAAAAnNxAH4AAnNxAH4ABwAAAAJ3BAAAAAJzcQB+AAJzcQB+AAcAAAACdwQAAAACc3EAfgACc3EAfgAHAAAAAHcEAAAAAHhxAH4AGXEAfgBvc3EAfgACc3EAfgAHAAAAAHcEAAAAAHhxAH4AJXEAfgBveHEAfgAzcQB+AG1zcQB+AAJzcQB+AAcAAAAAdwQAAAAAeHEAfgAlcQB+AG14cQB+ADdxAH4Aa3NxAH4AAnNxAH4ABwAAAAJ3BAAAAAJzcQB+AAJzcQB+AAcAAAACdwQAAAACc3EAfgACc3EAfgAHAAAAAncEAAAAAnNxAH4AAnNxAH4ABwAAAAB3BAAAAAB4cQB+ABlxAH4Ae3NxAH4AAnNxAH4ABwAAAAB3BAAAAAB4cQB+ACVxAH4Ae3hxAH4AM3EAfgB5c3EAfgACc3EAfgAHAAAAAHcEAAAAAHhxAH4AJXEAfgB5eHEAfgA3cQB+AHdzcQB+AAJzcQB+AAcAAAACdwQAAAACc3EAfgACc3EAfgAHAAAAAncEAAAAAnNxAH4AAnNxAH4ABwAAAAB3BAAAAAB4cQB+ABlxAH4AhXNxAH4AAnNxAH4ABwAAAAB3BAAAAAB4cQB+ACVxAH4AhXhxAH4AM3EAfgCDc3EAfgACc3EAfgAHAAAAAHcEAAAAAHhxAH4AJXEAfgCDeHEAfgA3cQB+AHd4cQB+AENxAH4Aa3hxAH4AQ3EAfgBPeHEAfgAzcQB+AE14cQB+ADdzcQB+AAJzcQB+AAcAAAACdwQAAAACc3EAfgACc3EAfgAHAAAAAHcEAAAAAHhxAH4AGXEAfgCNcQB+AE14cQB+ADNzcQB+AAJzcQB+AAcAAAACdwQAAAACcQB+AI1zcQB+AAJzcQB+AAcAAAACdwQAAAACc3EAfgACc3EAfgAHAAAAAncEAAAAAnNxAH4AAnNxAH4ABwAAAAB3BAAAAAB4cQB+ABlxAH4AlXNxAH4AAnNxAH4ABwAAAAB3BAAAAAB4cQB+ACVxAH4AlXhxAH4AN3EAfgCTc3EAfgACc3EAfgAHAAAAAncEAAAAAnNxAH4AAnNxAH4ABwAAAAJ3BAAAAAJzcQB+AAJzcQB+AAcAAAAAdwQAAAAAeHEAfgAZcQB+AJ1zcQB+AAJzcQB+AAcAAAACdwQAAAACc3EAfgACc3EAfgAHAAAAAncEAAAAAnNxAH4AAnNxAH4ABwAAAAB3BAAAAAB4cQB+ABlxAH4Ao3NxAH4AAnNxAH4ABwAAAAB3BAAAAAB4cQB+ACVxAH4Ao3hxAH4AM3EAfgChc3EAfgACc3EAfgAHAAAAAHcEAAAAAHhxAH4AJXEAfgCheHEAfgA3cQB+AJ14cQB+ADNxAH4Am3NxAH4AAnNxAH4ABwAAAAB3BAAAAAB4cQB+ACVxAH4Am3hxAH4AN3EAfgCTeHEAfgBDcQB+AJF4cQB+ADNzcQB+AAJzcQB+AAcAAAACdwQAAAACcQB+AJFzcQB+AAJzcQB+AAcAAAACdwQAAAACc3EAfgACc3EAfgAHAAAAAHcEAAAAAHhxAH4AGXEAfgCvc3EAfgACc3EAfgAHAAAAAHcEAAAAAHhxAH4AJXEAfgCveHEAfgA3cQB+AK14cQB+ADNzcQB+AAJzcQB+AAcAAAACdwQAAAACcQB+AK1zcQB+AAJzcQB+AAcAAAAAdwQAAAAAeHEAfgAlc3EAfgACc3EAfgAHAAAAAncEAAAAAnNxAH4AAnNxAH4ABwAAAAB3BAAAAAB4cQB+ACVxAH4AuXEAfgC3eHEAfgA3c3EAfgACc3EAfgAHAAAAAncEAAAAAnEAfgC5c3EAfgACc3EAfgAHAAAAAHcEAAAAAHhzcgBLaW8uZ2l0aHViLmVyaWNtZWR2ZXQuamdlYS5jb3JlLnJlcHJlc2VudGF0aW9uLnRyZWUubnVtZXJpYy5FbGVtZW50JENvbnN0YW50AAAAAAAAAAACAAFEAAV2YWx1ZXhwAAAAAAAAAABxAH4AvXhxAH4AQ3B4cQB+ADdzcQB+AAJzcQB+AAcAAAACdwQAAAACcQB+ALVxAH4Av3hxAH4AQ3B4cQB+AENxAH4AHXhxAH4AM3EAfgAbcQB+AE94cQB+ADdxAH4AFXhxAH4AM3EAfgATcQB+AJN4cQB+ADNxAH4AEXEAfgCveHEAfgAzcQB+AA9xAH4At3hxAH4AN3EAfgANcQB+AL94cQB+AENwc3EAfgACc3EAfgAHAAAAAHcEAAAAAHhxAH4AGXBzcQB+AAJzcQB+AAcAAAAAdwQAAAAAeHNxAH4AwT/gAAAAAAAAcHg=";
    "rO0ABXNyABFqYXZhLnV0aWwuQ29sbFNlcleOq7Y6G6gRAwABSQADdGFneHAAAAAEdwQAAAAEc3IAN2lvLmdpdGh1Yi5lcmljbWVkdmV0LmpnZWEuY29yZS5yZXByZXNlbnRhdGlvbi50cmVlLlRyZWUKs7/qnQrEZQIAA0wACGNoaWxkcmVudAAQTGphdmEvdXRpbC9MaXN0O0wAB2NvbnRlbnR0ABJMamF2YS9sYW5nL09iamVjdDtMAAZwYXJlbnR0ADlMaW8vZ2l0aHViL2VyaWNtZWR2ZXQvamdlYS9jb3JlL3JlcHJlc2VudGF0aW9uL3RyZWUvVHJlZTt4cHNyABNqYXZhLnV0aWwuQXJyYXlMaXN0eIHSHZnHYZ0DAAFJAARzaXpleHAAAAAAdwQAAAAAeHNyAEtpby5naXRodWIuZXJpY21lZHZldC5qZ2VhLmNvcmUucmVwcmVzZW50YXRpb24udHJlZS5udW1lcmljLkVsZW1lbnQkVmFyaWFibGUAAAAAAAAAAAIAAUwABG5hbWV0ABJMamF2YS9sYW5nL1N0cmluZzt4cHQAA3gxNnBzcQB+AAJzcQB+AAcAAAACdwQAAAACc3EAfgACc3EAfgAHAAAAAncEAAAAAnNxAH4AAnNxAH4ABwAAAAJ3BAAAAAJzcQB+AAJzcQB+AAcAAAACdwQAAAACc3EAfgACc3EAfgAHAAAAAncEAAAAAnNxAH4AAnNxAH4ABwAAAAB3BAAAAAB4c3EAfgAJdAADeDE1cQB+ABVzcQB+AAJzcQB+AAcAAAACdwQAAAACc3EAfgACc3EAfgAHAAAAAncEAAAAAnNxAH4AAnNxAH4ABwAAAAB3BAAAAAB4cQB+ABlxAH4AHXNxAH4AAnNxAH4ABwAAAAJ3BAAAAAJzcQB+AAJzcQB+AAcAAAAAdwQAAAAAeHNxAH4ACXQAA3gwNXEAfgAhc3EAfgACc3EAfgAHAAAAAncEAAAAAnNxAH4AAnNxAH4ABwAAAAJ3BAAAAAJzcQB+AAJzcQB+AAcAAAACdwQAAAACc3EAfgACc3EAfgAHAAAAAHcEAAAAAHhxAH4AGXEAfgArc3EAfgACc3EAfgAHAAAAAHcEAAAAAHhxAH4AJXEAfgAreH5yAEtpby5naXRodWIuZXJpY21lZHZldC5qZ2VhLmNvcmUucmVwcmVzZW50YXRpb24udHJlZS5udW1lcmljLkVsZW1lbnQkT3BlcmF0b3IAAAAAAAAAABIAAHhyAA5qYXZhLmxhbmcuRW51bQAAAAAAAAAAEgAAeHB0AAtTVUJUUkFDVElPTnEAfgApc3EAfgACc3EAfgAHAAAAAHcEAAAAAHhxAH4AJXEAfgApeH5xAH4AMXQADk1VTFRJUExJQ0FUSU9OcQB+ACdzcQB+AAJzcQB+AAcAAAACdwQAAAACc3EAfgACc3EAfgAHAAAAAncEAAAAAnNxAH4AAnNxAH4ABwAAAAB3BAAAAAB4cQB+ABlxAH4AO3NxAH4AAnNxAH4ABwAAAAB3BAAAAAB4cQB+ACVxAH4AO3hxAH4AM3EAfgA5c3EAfgACc3EAfgAHAAAAAHcEAAAAAHhxAH4AJXEAfgA5eHEAfgA3cQB+ACd4fnEAfgAxdAAIQURESVRJT05zcQB+AAJzcQB+AAcAAAACdwQAAAACc3EAfgACc3EAfgAHAAAAAHcEAAAAAHhxAH4AGXEAfgBFcQB+ACd4cQB+AENzcQB+AAJzcQB+AAcAAAACdwQAAAACc3EAfgACc3EAfgAHAAAAAHcEAAAAAHhxAH4AGXEAfgBJcQB+AEV4cQB+ADNzcQB+AAJzcQB+AAcAAAACdwQAAAACcQB+AElzcQB+AAJzcQB+AAcAAAACdwQAAAACc3EAfgACc3EAfgAHAAAAAncEAAAAAnNxAH4AAnNxAH4ABwAAAAJ3BAAAAAJzcQB+AAJzcQB+AAcAAAAAdwQAAAAAeHEAfgAZcQB+AFNzcQB+AAJzcQB+AAcAAAACdwQAAAACc3EAfgACc3EAfgAHAAAAAncEAAAAAnNxAH4AAnNxAH4ABwAAAAB3BAAAAAB4cQB+ABlxAH4AWXNxAH4AAnNxAH4ABwAAAAB3BAAAAAB4cQB+ACVxAH4AWXhxAH4AM3EAfgBXc3EAfgACc3EAfgAHAAAAAHcEAAAAAHhxAH4AJXEAfgBXeHEAfgA3cQB+AFN4cQB+ADNxAH4AUXNxAH4AAnNxAH4ABwAAAAJ3BAAAAAJzcQB+AAJzcQB+AAcAAAACdwQAAAACc3EAfgACc3EAfgAHAAAAAHcEAAAAAHhxAH4AGXEAfgBjc3EAfgACc3EAfgAHAAAAAHcEAAAAAHhxAH4AJXEAfgBjeHEAfgAzcQB+AGFzcQB+AAJzcQB+AAcAAAAAdwQAAAAAeHEAfgAlcQB+AGF4cQB+ADdxAH4AUXhxAH4AM3EAfgBPc3EAfgACc3EAfgAHAAAAAncEAAAAAnNxAH4AAnNxAH4ABwAAAAJ3BAAAAAJzcQB+AAJzcQB+AAcAAAACdwQAAAACc3EAfgACc3EAfgAHAAAAAHcEAAAAAHhxAH4AGXEAfgBvc3EAfgACc3EAfgAHAAAAAHcEAAAAAHhxAH4AJXEAfgBveHEAfgAzcQB+AG1zcQB+AAJzcQB+AAcAAAAAdwQAAAAAeHEAfgAlcQB+AG14cQB+ADdxAH4Aa3NxAH4AAnNxAH4ABwAAAAJ3BAAAAAJzcQB+AAJzcQB+AAcAAAACdwQAAAACc3EAfgACc3EAfgAHAAAAAncEAAAAAnNxAH4AAnNxAH4ABwAAAAB3BAAAAAB4cQB+ABlxAH4Ae3NxAH4AAnNxAH4ABwAAAAB3BAAAAAB4cQB+ACVxAH4Ae3hxAH4AM3EAfgB5c3EAfgACc3EAfgAHAAAAAHcEAAAAAHhxAH4AJXEAfgB5eHEAfgA3cQB+AHdzcQB+AAJzcQB+AAcAAAACdwQAAAACc3EAfgACc3EAfgAHAAAAAncEAAAAAnNxAH4AAnNxAH4ABwAAAAB3BAAAAAB4cQB+ABlxAH4AhXNxAH4AAnNxAH4ABwAAAAB3BAAAAAB4cQB+ACVxAH4AhXhxAH4AM3EAfgCDc3EAfgACc3EAfgAHAAAAAHcEAAAAAHhxAH4AJXEAfgCDeHEAfgA3cQB+AHd4cQB+AENxAH4Aa3hxAH4AQ3EAfgBPeHEAfgAzcQB+AE14cQB+ADdzcQB+AAJzcQB+AAcAAAACdwQAAAACc3EAfgACc3EAfgAHAAAAAHcEAAAAAHhxAH4AGXEAfgCNcQB+AE14cQB+ADNzcQB+AAJzcQB+AAcAAAACdwQAAAACcQB+AI1zcQB+AAJzcQB+AAcAAAACdwQAAAACc3EAfgACc3EAfgAHAAAAAncEAAAAAnNxAH4AAnNxAH4ABwAAAAB3BAAAAAB4cQB+ABlxAH4AlXNxAH4AAnNxAH4ABwAAAAB3BAAAAAB4cQB+ACVxAH4AlXhxAH4AN3EAfgCTc3EAfgACc3EAfgAHAAAAAncEAAAAAnNxAH4AAnNxAH4ABwAAAAJ3BAAAAAJzcQB+AAJzcQB+AAcAAAAAdwQAAAAAeHEAfgAZcQB+AJ1zcQB+AAJzcQB+AAcAAAACdwQAAAACc3EAfgACc3EAfgAHAAAAAncEAAAAAnNxAH4AAnNxAH4ABwAAAAB3BAAAAAB4cQB+ABlxAH4Ao3NxAH4AAnNxAH4ABwAAAAB3BAAAAAB4cQB+ACVxAH4Ao3hxAH4AM3EAfgChc3EAfgACc3EAfgAHAAAAAHcEAAAAAHhxAH4AJXEAfgCheHEAfgA3cQB+AJ14cQB+ADNxAH4Am3NxAH4AAnNxAH4ABwAAAAB3BAAAAAB4cQB+ACVxAH4Am3hxAH4AN3EAfgCTeHEAfgBDcQB+AJF4cQB+ADNzcQB+AAJzcQB+AAcAAAACdwQAAAACcQB+AJFzcQB+AAJzcQB+AAcAAAACdwQAAAACc3EAfgACc3EAfgAHAAAAAHcEAAAAAHhxAH4AGXEAfgCvc3EAfgACc3EAfgAHAAAAAHcEAAAAAHhxAH4AJXEAfgCveHEAfgA3cQB+AK14cQB+ADNzcQB+AAJzcQB+AAcAAAACdwQAAAACcQB+AK1zcQB+AAJzcQB+AAcAAAAAdwQAAAAAeHEAfgAlc3EAfgACc3EAfgAHAAAAAncEAAAAAnNxAH4AAnNxAH4ABwAAAAB3BAAAAAB4cQB+ACVxAH4AuXEAfgC3eHEAfgA3c3EAfgACc3EAfgAHAAAAAncEAAAAAnEAfgC5c3EAfgACc3EAfgAHAAAAAHcEAAAAAHhzcgBLaW8uZ2l0aHViLmVyaWNtZWR2ZXQuamdlYS5jb3JlLnJlcHJlc2VudGF0aW9uLnRyZWUubnVtZXJpYy5FbGVtZW50JENvbnN0YW50AAAAAAAAAAACAAFEAAV2YWx1ZXhwAAAAAAAAAABxAH4AvXhxAH4AQ3B4cQB+ADdzcQB+AAJzcQB+AAcAAAACdwQAAAACcQB+ALVxAH4Av3hxAH4AQ3B4cQB+AENxAH4AHXhxAH4AM3EAfgAbcQB+AE94cQB+ADdxAH4AFXhxAH4AM3EAfgATcQB+AJN4cQB+ADNxAH4AEXEAfgCveHEAfgAzcQB+AA9xAH4At3hxAH4AN3EAfgANcQB+AL94cQB+AENwc3EAfgACc3EAfgAHAAAAAHcEAAAAAHhxAH4AGXBzcQB+AAJzcQB+AAcAAAAAdwQAAAAAeHNxAH4AwT/gAAAAAAAAcHg=";
    "rO0ABXNyABFqYXZhLnV0aWwuQ29sbFNlcleOq7Y6G6gRAwABSQADdGFneHAAAAAEdwQAAAAEc3IAN2lvLmdpdGh1Yi5lcmljbWVkdmV0LmpnZWEuY29yZS5yZXByZXNlbnRhdGlvbi50cmVlLlRyZWUKs7/qnQrEZQIAA0wACGNoaWxkcmVudAAQTGphdmEvdXRpbC9MaXN0O0wAB2NvbnRlbnR0ABJMamF2YS9sYW5nL09iamVjdDtMAAZwYXJlbnR0ADlMaW8vZ2l0aHViL2VyaWNtZWR2ZXQvamdlYS9jb3JlL3JlcHJlc2VudGF0aW9uL3RyZWUvVHJlZTt4cHNyABNqYXZhLnV0aWwuQXJyYXlMaXN0eIHSHZnHYZ0DAAFJAARzaXpleHAAAAAAdwQAAAAAeHNyAEtpby5naXRodWIuZXJpY21lZHZldC5qZ2VhLmNvcmUucmVwcmVzZW50YXRpb24udHJlZS5udW1lcmljLkVsZW1lbnQkVmFyaWFibGUAAAAAAAAAAAIAAUwABG5hbWV0ABJMamF2YS9sYW5nL1N0cmluZzt4cHQAA3gxNnBzcQB+AAJzcQB+AAcAAAACdwQAAAACc3EAfgACc3EAfgAHAAAAAncEAAAAAnNxAH4AAnNxAH4ABwAAAAJ3BAAAAAJzcQB+AAJzcQB+AAcAAAACdwQAAAACc3EAfgACc3EAfgAHAAAAAncEAAAAAnNxAH4AAnNxAH4ABwAAAAB3BAAAAAB4c3EAfgAJdAADeDE1cQB+ABVzcQB+AAJzcQB+AAcAAAACdwQAAAACc3EAfgACc3EAfgAHAAAAAncEAAAAAnNxAH4AAnNxAH4ABwAAAAB3BAAAAAB4cQB+ABlxAH4AHXNxAH4AAnNxAH4ABwAAAAJ3BAAAAAJzcQB+AAJzcQB+AAcAAAAAdwQAAAAAeHNxAH4ACXQAA3gwNXEAfgAhc3EAfgACc3EAfgAHAAAAAncEAAAAAnNxAH4AAnNxAH4ABwAAAAJ3BAAAAAJzcQB+AAJzcQB+AAcAAAACdwQAAAACc3EAfgACc3EAfgAHAAAAAHcEAAAAAHhxAH4AGXEAfgArc3EAfgACc3EAfgAHAAAAAHcEAAAAAHhxAH4AJXEAfgAreH5yAEtpby5naXRodWIuZXJpY21lZHZldC5qZ2VhLmNvcmUucmVwcmVzZW50YXRpb24udHJlZS5udW1lcmljLkVsZW1lbnQkT3BlcmF0b3IAAAAAAAAAABIAAHhyAA5qYXZhLmxhbmcuRW51bQAAAAAAAAAAEgAAeHB0AAtTVUJUUkFDVElPTnEAfgApc3EAfgACc3EAfgAHAAAAAHcEAAAAAHhxAH4AJXEAfgApeH5xAH4AMXQADk1VTFRJUExJQ0FUSU9OcQB+ACdzcQB+AAJzcQB+AAcAAAACdwQAAAACc3EAfgACc3EAfgAHAAAAAncEAAAAAnNxAH4AAnNxAH4ABwAAAAB3BAAAAAB4cQB+ABlxAH4AO3NxAH4AAnNxAH4ABwAAAAB3BAAAAAB4cQB+ACVxAH4AO3hxAH4AM3EAfgA5c3EAfgACc3EAfgAHAAAAAHcEAAAAAHhxAH4AJXEAfgA5eHEAfgA3c3EAfgACc3EAfgAHAAAAAncEAAAAAnNxAH4AAnNxAH4ABwAAAAB3BAAAAAB4cQB+ABlxAH4AQ3EAfgA5eH5xAH4AMXQACEFERElUSU9Oc3EAfgACc3EAfgAHAAAAAncEAAAAAnNxAH4AAnNxAH4ABwAAAAB3BAAAAAB4cQB+ACVxAH4ASXEAfgBDeHEAfgBHc3EAfgACc3EAfgAHAAAAAncEAAAAAnNxAH4AAnNxAH4ABwAAAAB3BAAAAAB4cQB+ABlxAH4ATXEAfgBJeHEAfgAzc3EAfgACc3EAfgAHAAAAAncEAAAAAnEAfgBNc3EAfgACc3EAfgAHAAAAAncEAAAAAnNxAH4AAnNxAH4ABwAAAAJ3BAAAAAJzcQB+AAJzcQB+AAcAAAACdwQAAAACc3EAfgACc3EAfgAHAAAAAHcEAAAAAHhxAH4AGXEAfgBXc3EAfgACc3EAfgAHAAAAAncEAAAAAnNxAH4AAnNxAH4ABwAAAAJ3BAAAAAJzcQB+AAJzcQB+AAcAAAAAdwQAAAAAeHEAfgAZcQB+AF1zcQB+AAJzcQB+AAcAAAAAdwQAAAAAeHEAfgAlcQB+AF14cQB+ADNxAH4AW3NxAH4AAnNxAH4ABwAAAAB3BAAAAAB4cQB+ACVxAH4AW3hxAH4AN3EAfgBXeHEAfgAzcQB+AFVzcQB+AAJzcQB+AAcAAAACdwQAAAACc3EAfgACc3EAfgAHAAAAAncEAAAAAnNxAH4AAnNxAH4ABwAAAAB3BAAAAAB4cQB+ABlxAH4AZ3NxAH4AAnNxAH4ABwAAAAB3BAAAAAB4cQB+ACVxAH4AZ3hxAH4AM3EAfgBlc3EAfgACc3EAfgAHAAAAAHcEAAAAAHhxAH4AJXEAfgBleHEAfgA3c3EAfgACc3EAfgAHAAAAAncEAAAAAnNxAH4AAnNxAH4ABwAAAAB3BAAAAAB4cQB+ACVxAH4Ab3EAfgBleHEAfgAzc3EAfgACc3EAfgAHAAAAAncEAAAAAnEAfgBvc3EAfgACc3EAfgAHAAAAAncEAAAAAnNxAH4AAnNxAH4ABwAAAAJ3BAAAAAJzcQB+AAJzcQB+AAcAAAACdwQAAAACc3EAfgACc3EAfgAHAAAAAHcEAAAAAHhxAH4AGXEAfgB5c3EAfgACc3EAfgAHAAAAAHcEAAAAAHhxAH4AJXEAfgB5eHEAfgAzcQB+AHdzcQB+AAJzcQB+AAcAAAAAdwQAAAAAeHEAfgAlcQB+AHd4cQB+ADdxAH4AdXNxAH4AAnNxAH4ABwAAAAJ3BAAAAAJzcQB+AAJzcQB+AAcAAAACdwQAAAACc3EAfgACc3EAfgAHAAAAAncEAAAAAnNxAH4AAnNxAH4ABwAAAAB3BAAAAAB4cQB+ABlxAH4AhXNxAH4AAnNxAH4ABwAAAAB3BAAAAAB4cQB+ACVxAH4AhXhxAH4AM3EAfgCDc3EAfgACc3EAfgAHAAAAAHcEAAAAAHhxAH4AJXEAfgCDeHEAfgA3cQB+AIFzcQB+AAJzcQB+AAcAAAACdwQAAAACc3EAfgACc3EAfgAHAAAAAncEAAAAAnNxAH4AAnNxAH4ABwAAAAB3BAAAAAB4cQB+ABlxAH4Aj3NxAH4AAnNxAH4ABwAAAAB3BAAAAAB4cQB+ACVxAH4Aj3hxAH4AM3EAfgCNc3EAfgACc3EAfgAHAAAAAHcEAAAAAHhxAH4AJXEAfgCNeHEAfgA3cQB+AIF4cQB+AEdzcQB+AAJzcQB+AAcAAAACdwQAAAACc3EAfgACc3EAfgAHAAAAAncEAAAAAnNxAH4AAnNxAH4ABwAAAAJ3BAAAAAJzcQB+AAJzcQB+AAcAAAAAdwQAAAAAeHEAfgAZcQB+AJtzcQB+AAJzcQB+AAcAAAAAdwQAAAAAeHEAfgAlcQB+AJt4cQB+ADNxAH4AmXNxAH4AAnNxAH4ABwAAAAB3BAAAAAB4cQB+ACVxAH4AmXhxAH4AN3EAfgCXcQB+AIF4cQB+AEdzcQB+AAJzcQB+AAcAAAACdwQAAAACc3EAfgACc3EAfgAHAAAAAncEAAAAAnNxAH4AAnNxAH4ABwAAAAJ3BAAAAAJzcQB+AAJzcQB+AAcAAAAAdwQAAAAAeHEAfgAZcQB+AKdzcQB+AAJzcQB+AAcAAAACdwQAAAACc3EAfgACc3EAfgAHAAAAAncEAAAAAnNxAH4AAnNxAH4ABwAAAAB3BAAAAAB4cQB+ABlxAH4ArXNxAH4AAnNxAH4ABwAAAAB3BAAAAAB4cQB+ACVxAH4ArXhxAH4AM3EAfgCrc3EAfgACc3EAfgAHAAAAAHcEAAAAAHhxAH4AJXEAfgCreHEAfgA3cQB+AKd4cQB+ADNxAH4ApXNxAH4AAnNxAH4ABwAAAAJ3BAAAAAJzcQB+AAJzcQB+AAcAAAACdwQAAAACc3EAfgACc3EAfgAHAAAAAHcEAAAAAHhxAH4AGXEAfgC3c3EAfgACc3EAfgAHAAAAAHcEAAAAAHhxAH4AJXEAfgC3eHEAfgAzcQB+ALVzcQB+AAJzcQB+AAcAAAAAdwQAAAAAeHEAfgAlcQB+ALV4cQB+ADdxAH4ApXhxAH4AM3EAfgCjcQB+AJd4cQB+ADNzcQB+AAJzcQB+AAcAAAACdwQAAAACc3EAfgACc3EAfgAHAAAAAncEAAAAAnNxAH4AAnNxAH4ABwAAAAB3BAAAAAB4cQB+ABlxAH4AwXNxAH4AAnNxAH4ABwAAAAJ3BAAAAAJzcQB+AAJzcQB+AAcAAAAAdwQAAAAAeHEAfgAlcQB+AMVzcQB+AAJzcQB+AAcAAAACdwQAAAACc3EAfgACc3EAfgAHAAAAAncEAAAAAnNxAH4AAnNxAH4ABwAAAAJ3BAAAAAJzcQB+AAJzcQB+AAcAAAAAdwQAAAAAeHEAfgAZcQB+AM1zcQB+AAJzcQB+AAcAAAAAdwQAAAAAeHEAfgAlcQB+AM14cQB+ADNxAH4Ay3NxAH4AAnNxAH4ABwAAAAB3BAAAAAB4cQB+ACVxAH4Ay3hxAH4AN3EAfgDJc3EAfgACc3EAfgAHAAAAAncEAAAAAnNxAH4AAnNxAH4ABwAAAAJ3BAAAAAJzcQB+AAJzcQB+AAcAAAAAdwQAAAAAeHEAfgAZcQB+ANdzcQB+AAJzcQB+AAcAAAAAdwQAAAAAeHEAfgAlcQB+ANd4cQB+ADNxAH4A1XNxAH4AAnNxAH4ABwAAAAB3BAAAAAB4cQB+ACVxAH4A1XhxAH4AN3EAfgDJeHEAfgBHcQB+AMV4cQB+AEdxAH4AwXhxAH4AM3EAfgC/cQB+AKN4cQB+ADdzcQB+AAJzcQB+AAcAAAACdwQAAAACc3EAfgACc3EAfgAHAAAAAHcEAAAAAHhxAH4AGXEAfgDfcQB+AL94cQB+ADNzcQB+AAJzcQB+AAcAAAACdwQAAAACcQB+AN9zcQB+AAJzcQB+AAcAAAACdwQAAAACc3EAfgACc3EAfgAHAAAAAncEAAAAAnNxAH4AAnNxAH4ABwAAAAB3BAAAAAB4cQB+ABlxAH4A53NxAH4AAnNxAH4ABwAAAAB3BAAAAAB4cQB+ACVxAH4A53hxAH4AN3EAfgDlc3EAfgACc3EAfgAHAAAAAncEAAAAAnNxAH4AAnNxAH4ABwAAAAJ3BAAAAAJzcQB+AAJzcQB+AAcAAAAAdwQAAAAAeHEAfgAZcQB+AO9zcQB+AAJzcQB+AAcAAAACdwQAAAACc3EAfgACc3EAfgAHAAAAAncEAAAAAnNxAH4AAnNxAH4ABwAAAAB3BAAAAAB4cQB+ABlxAH4A9XNxAH4AAnNxAH4ABwAAAAB3BAAAAAB4cQB+ACVxAH4A9XhxAH4AM3EAfgDzc3EAfgACc3EAfgAHAAAAAHcEAAAAAHhxAH4AJXEAfgDzeHEAfgA3cQB+AO94cQB+ADNxAH4A7XNxAH4AAnNxAH4ABwAAAAB3BAAAAAB4cQB+ACVzcQB+AAJzcQB+AAcAAAACdwQAAAACc3EAfgACc3EAfgAHAAAAAncEAAAAAnNxAH4AAnNxAH4ABwAAAAB3BAAAAAB4cQB+ABlxAH4BAXNxAH4AAnNxAH4ABwAAAAB3BAAAAAB4cQB+ACVxAH4BAXhxAH4AM3EAfgD/cQB+AP14cQB+ADdzcQB+AAJzcQB+AAcAAAACdwQAAAACc3EAfgACc3EAfgAHAAAAAncEAAAAAnNxAH4AAnNxAH4ABwAAAAB3BAAAAAB4cQB+ABlxAH4BCXNxAH4AAnNxAH4ABwAAAAB3BAAAAAB4cQB+ACVxAH4BCXhxAH4AN3EAfgEHcQB+AP94cQB+AEdzcQB+AAJzcQB+AAcAAAACdwQAAAACc3EAfgACc3EAfgAHAAAAAncEAAAAAnNxAH4AAnNxAH4ABwAAAAB3BAAAAAB4cQB+ABlxAH4BEXNxAH4AAnNxAH4ABwAAAAJ3BAAAAAJzcQB+AAJzcQB+AAcAAAACdwQAAAACc3EAfgACc3EAfgAHAAAAAHcEAAAAAHhxAH4AGXEAfgEXc3EAfgACc3EAfgAHAAAAAncEAAAAAnNxAH4AAnNxAH4ABwAAAAB3BAAAAAB4cQB+ACVxAH4BG3NxAH4AAnNxAH4ABwAAAAJ3BAAAAAJzcQB+AAJzcQB+AAcAAAACdwQAAAACc3EAfgACc3EAfgAHAAAAAncEAAAAAnNxAH4AAnNxAH4ABwAAAAB3BAAAAAB4cQB+ABlxAH4BI3NxAH4AAnNxAH4ABwAAAAB3BAAAAAB4cQB+ACVxAH4BI3hxAH4AM3EAfgEhc3EAfgACc3EAfgAHAAAAAHcEAAAAAHhxAH4AJXEAfgEheHEAfgA3cQB+AR9zcQB+AAJzcQB+AAcAAAACdwQAAAACc3EAfgACc3EAfgAHAAAAAncEAAAAAnNxAH4AAnNxAH4ABwAAAAB3BAAAAAB4cQB+ABlxAH4BLXNxAH4AAnNxAH4ABwAAAAB3BAAAAAB4cQB+ACVxAH4BLXhxAH4AM3EAfgErc3EAfgACc3EAfgAHAAAAAHcEAAAAAHhxAH4AJXEAfgEreHEAfgA3cQB+AR94cQB+AEdxAH4BG3hxAH4AR3EAfgEXeHEAfgAzcQB+ARVzcQB+AAJzcQB+AAcAAAACdwQAAAACc3EAfgACc3EAfgAHAAAAAncEAAAAAnNxAH4AAnNxAH4ABwAAAAJ3BAAAAAJzcQB+AAJzcQB+AAcAAAAAdwQAAAAAeHEAfgAZcQB+ATlzcQB+AAJzcQB+AAcAAAACdwQAAAACc3EAfgACc3EAfgAHAAAAAncEAAAAAnNxAH4AAnNxAH4ABwAAAAB3BAAAAAB4cQB+ABlxAH4BP3NxAH4AAnNxAH4ABwAAAAB3BAAAAAB4cQB+ACVxAH4BP3hxAH4AM3EAfgE9c3EAfgACc3EAfgAHAAAAAHcEAAAAAHhxAH4AJXEAfgE9eHEAfgA3cQB+ATl4cQB+ADNxAH4BN3NxAH4AAnNxAH4ABwAAAAJ3BAAAAAJzcQB+AAJzcQB+AAcAAAACdwQAAAACc3EAfgACc3EAfgAHAAAAAHcEAAAAAHhxAH4AGXEAfgFJc3EAfgACc3EAfgAHAAAAAHcEAAAAAHhxAH4AJXEAfgFJeHEAfgAzcQB+AUdzcQB+AAJzcQB+AAcAAAAAdwQAAAAAeHEAfgAlcQB+AUd4cQB+ADdxAH4BN3hxAH4AM3EAfgE1c3EAfgACc3EAfgAHAAAAAncEAAAAAnNxAH4AAnNxAH4ABwAAAAJ3BAAAAAJzcQB+AAJzcQB+AAcAAAACdwQAAAACc3EAfgACc3EAfgAHAAAAAHcEAAAAAHhxAH4AGXEAfgFVc3EAfgACc3EAfgAHAAAAAncEAAAAAnNxAH4AAnNxAH4ABwAAAAJ3BAAAAAJzcQB+AAJzcQB+AAcAAAAAdwQAAAAAeHEAfgAZcQB+AVtzcQB+AAJzcQB+AAcAAAAAdwQAAAAAeHEAfgAlcQB+AVt4cQB+ADNxAH4BWXNxAH4AAnNxAH4ABwAAAAB3BAAAAAB4cQB+ACVxAH4BWXhxAH4AN3EAfgFVeHEAfgAzcQB+AVNzcQB+AAJzcQB+AAcAAAAAdwQAAAAAeHEAfgAlcQB+AVN4cQB+ADdxAH4BUXNxAH4AAnNxAH4ABwAAAAJ3BAAAAAJzcQB+AAJzcQB+AAcAAAACdwQAAAACc3EAfgACc3EAfgAHAAAAAncEAAAAAnNxAH4AAnNxAH4ABwAAAAB3BAAAAAB4cQB+ABlxAH4BaXNxAH4AAnNxAH4ABwAAAAB3BAAAAAB4cQB+ACVxAH4BaXhxAH4AM3EAfgFnc3EAfgACc3EAfgAHAAAAAHcEAAAAAHhxAH4AJXEAfgFneHEAfgA3cQB+AWVzcQB+AAJzcQB+AAcAAAACdwQAAAACc3EAfgACc3EAfgAHAAAAAncEAAAAAnNxAH4AAnNxAH4ABwAAAAB3BAAAAAB4cQB+ABlxAH4Bc3NxAH4AAnNxAH4ABwAAAAB3BAAAAAB4cQB+ACVxAH4Bc3hxAH4AM3EAfgFxc3EAfgACc3EAfgAHAAAAAHcEAAAAAHhxAH4AJXEAfgFxeHEAfgA3cQB+AWV4cQB+AEdxAH4BUXhxAH4AR3EAfgE1eHEAfgAzcQB+ARV4cQB+ADdxAH4BEXhxAH4AM3EAfgEPcQB+AQd4cQB+ADNzcQB+AAJzcQB+AAcAAAACdwQAAAACcQB+AQ9zcQB+AAJzcQB+AAcAAAACdwQAAAACc3EAfgACc3EAfgAHAAAAAncEAAAAAnNxAH4AAnNxAH4ABwAAAAJ3BAAAAAJzcQB+AAJzcQB+AAcAAAAAdwQAAAAAeHEAfgAZcQB+AYFzcQB+AAJzcQB+AAcAAAAAdwQAAAAAeHNyAEtpby5naXRodWIuZXJpY21lZHZldC5qZ2VhLmNvcmUucmVwcmVzZW50YXRpb24udHJlZS5udW1lcmljLkVsZW1lbnQkQ29uc3RhbnQAAAAAAAAAAAIAAUQABXZhbHVleHAAAAAAAAAAAHEAfgGBeHEAfgAzcQB+AX9zcQB+AAJzcQB+AAcAAAAAdwQAAAAAeHEAfgAlc3EAfgACc3EAfgAHAAAAAncEAAAAAnNxAH4AAnNxAH4ABwAAAAB3BAAAAAB4cQB+ACVxAH4Bi3EAfgGJeHEAfgA3c3EAfgACc3EAfgAHAAAAAncEAAAAAnEAfgGLc3EAfgACc3EAfgAHAAAAAHcEAAAAAHhxAH4BiHEAfgGPeHEAfgBHc3EAfgACc3EAfgAHAAAAAncEAAAAAnNxAH4AAnNxAH4ABwAAAAJ3BAAAAAJzcQB+AAJzcQB+AAcAAAACdwQAAAACc3EAfgACc3EAfgAHAAAAAHcEAAAAAHhxAH4AGXEAfgGXc3EAfgACc3EAfgAHAAAAAncEAAAAAnNxAH4AAnNxAH4ABwAAAAJ3BAAAAAJzcQB+AAJzcQB+AAcAAAAAdwQAAAAAeHEAfgAZcQB+AZ1zcQB+AAJzcQB+AAcAAAACdwQAAAACc3EAfgACc3EAfgAHAAAAAHcEAAAAAHhxAH4AJXEAfgGhc3EAfgACc3EAfgAHAAAAAncEAAAAAnNxAH4AAnNxAH4ABwAAAAJ3BAAAAAJzcQB+AAJzcQB+AAcAAAACdwQAAAACc3EAfgACc3EAfgAHAAAAAHcEAAAAAHhxAH4AGXEAfgGpc3EAfgACc3EAfgAHAAAAAHcEAAAAAHhxAH4AJXEAfgGpeHEAfgAzcQB+AadzcQB+AAJzcQB+AAcAAAAAdwQAAAAAeHEAfgAlcQB+Aad4cQB+ADdxAH4BpXNxAH4AAnNxAH4ABwAAAAJ3BAAAAAJzcQB+AAJzcQB+AAcAAAACdwQAAAACc3EAfgACc3EAfgAHAAAAAHcEAAAAAHhxAH4AGXEAfgGzc3EAfgACc3EAfgAHAAAAAHcEAAAAAHhxAH4AJXEAfgGzeHEAfgAzcQB+AbFzcQB+AAJzcQB+AAcAAAAAdwQAAAAAeHEAfgAlcQB+AbF4cQB+ADdxAH4BpXhxAH4AR3EAfgGheHEAfgBHcQB+AZ14cQB+ADNxAH4Bm3NxAH4AAnNxAH4ABwAAAAJ3BAAAAAJzcQB+AAJzcQB+AAcAAAACdwQAAAACc3EAfgACc3EAfgAHAAAAAncEAAAAAnNxAH4AAnNxAH4ABwAAAAB3BAAAAAB4cQB+ABlxAH4Bv3NxAH4AAnNxAH4ABwAAAAJ3BAAAAAJzcQB+AAJzcQB+AAcAAAACdwQAAAACc3EAfgACc3EAfgAHAAAAAHcEAAAAAHhxAH4AGXEAfgHFc3EAfgACc3EAfgAHAAAAAHcEAAAAAHhxAH4AJXEAfgHFeHEAfgAzcQB+AcNzcQB+AAJzcQB+AAcAAAAAdwQAAAAAeHEAfgAlcQB+AcN4cQB+ADdxAH4Bv3hxAH4AM3EAfgG9c3EAfgACc3EAfgAHAAAAAncEAAAAAnNxAH4AAnNxAH4ABwAAAAJ3BAAAAAJzcQB+AAJzcQB+AAcAAAAAdwQAAAAAeHEAfgAZcQB+Ac9zcQB+AAJzcQB+AAcAAAAAdwQAAAAAeHEAfgAlcQB+Ac94cQB+ADNxAH4BzXNxAH4AAnNxAH4ABwAAAAB3BAAAAAB4cQB+ACVxAH4BzXhxAH4AN3EAfgG9eHEAfgAzcQB+AbtzcQB+AAJzcQB+AAcAAAACdwQAAAACc3EAfgACc3EAfgAHAAAAAncEAAAAAnNxAH4AAnNxAH4ABwAAAAJ3BAAAAAJzcQB+AAJzcQB+AAcAAAAAdwQAAAAAeHEAfgAZcQB+AdtzcQB+AAJzcQB+AAcAAAAAdwQAAAAAeHEAfgAlcQB+Adt4cQB+ADNxAH4B2XNxAH4AAnNxAH4ABwAAAAB3BAAAAAB4cQB+ACVxAH4B2XhxAH4AN3EAfgHXc3EAfgACc3EAfgAHAAAAAncEAAAAAnNxAH4AAnNxAH4ABwAAAAJ3BAAAAAJzcQB+AAJzcQB+AAcAAAACdwQAAAACc3EAfgACc3EAfgAHAAAAAHcEAAAAAHhxAH4AGXEAfgHnc3EAfgACc3EAfgAHAAAAAHcEAAAAAHhxAH4AJXEAfgHneHEAfgAzcQB+AeVzcQB+AAJzcQB+AAcAAAAAdwQAAAAAeHEAfgAlcQB+AeV4cQB+ADdxAH4B43NxAH4AAnNxAH4ABwAAAAJ3BAAAAAJzcQB+AAJzcQB+AAcAAAACdwQAAAACc3EAfgACc3EAfgAHAAAAAHcEAAAAAHhxAH4AGXEAfgHxc3EAfgACc3EAfgAHAAAAAHcEAAAAAHhxAH4AJXEAfgHxeHEAfgAzcQB+Ae9zcQB+AAJzcQB+AAcAAAAAdwQAAAAAeHEAfgAlcQB+Ae94cQB+ADdxAH4B43hxAH4AR3EAfgHXeHEAfgBHcQB+Abt4cQB+ADNxAH4Bm3hxAH4AN3EAfgGXeHEAfgAzcQB+AZVzcQB+AAJzcQB+AAcAAAACdwQAAAACc3EAfgACc3EAfgAHAAAAAncEAAAAAnNxAH4AAnNxAH4ABwAAAAB3BAAAAAB4cQB+ABlxAH4B+3NxAH4AAnNxAH4ABwAAAAB3BAAAAAB4cQB+ACVxAH4B+3hxAH4AN3EAfgH5c3EAfgACc3EAfgAHAAAAAncEAAAAAnNxAH4AAnNxAH4ABwAAAAJ3BAAAAAJzcQB+AAJzcQB+AAcAAAAAdwQAAAAAeHEAfgAZcQB+AgNzcQB+AAJzcQB+AAcAAAACdwQAAAACc3EAfgACc3EAfgAHAAAAAncEAAAAAnNxAH4AAnNxAH4ABwAAAAB3BAAAAAB4cQB+ABlxAH4CCXNxAH4AAnNxAH4ABwAAAAB3BAAAAAB4cQB+ACVxAH4CCXhxAH4AM3EAfgIHc3EAfgACc3EAfgAHAAAAAHcEAAAAAHhxAH4AJXEAfgIHeHEAfgA3cQB+AgN4cQB+ADNxAH4CAXNxAH4AAnNxAH4ABwAAAAB3BAAAAAB4cQB+ACVxAH4CAXhxAH4AN3EAfgH5eHEAfgBHcQB+AZV4cQB+ADNxAH4Bk3EAfgGPeHEAfgAzc3EAfgACc3EAfgAHAAAAAncEAAAAAnEAfgGTc3EAfgACc3EAfgAHAAAAAHcEAAAAAHhxAH4AJXNxAH4AAnNxAH4ABwAAAAJ3BAAAAAJzcQB+AAJzcQB+AAcAAAAAdwQAAAAAeHEAfgAlcQB+AhdxAH4CFXhxAH4AN3NxAH4AAnNxAH4ABwAAAAJ3BAAAAAJxAH4CF3NxAH4AAnNxAH4ABwAAAAB3BAAAAAB4cQB+AYhxAH4CG3hxAH4AR3B4cQB+ADdzcQB+AAJzcQB+AAcAAAACdwQAAAACcQB+AhNxAH4CHXhxAH4AR3B4cQB+ADdxAH4BfXEAfgGReHEAfgBHc3EAfgACc3EAfgAHAAAAAncEAAAAAnNxAH4AAnNxAH4ABwAAAAJ3BAAAAAJzcQB+AAJzcQB+AAcAAAACdwQAAAACc3EAfgACc3EAfgAHAAAAAHcEAAAAAHhxAH4AGXEAfgIlc3EAfgACc3EAfgAHAAAAAncEAAAAAnNxAH4AAnNxAH4ABwAAAAJ3BAAAAAJzcQB+AAJzcQB+AAcAAAAAdwQAAAAAeHEAfgAZcQB+AitzcQB+AAJzcQB+AAcAAAACdwQAAAACc3EAfgACc3EAfgAHAAAAAHcEAAAAAHhxAH4AJXEAfgIvc3EAfgACc3EAfgAHAAAAAncEAAAAAnNxAH4AAnNxAH4ABwAAAAJ3BAAAAAJzcQB+AAJzcQB+AAcAAAACdwQAAAACc3EAfgACc3EAfgAHAAAAAHcEAAAAAHhxAH4AGXEAfgI3c3EAfgACc3EAfgAHAAAAAHcEAAAAAHhxAH4AJXEAfgI3eHEAfgAzcQB+AjVzcQB+AAJzcQB+AAcAAAAAdwQAAAAAeHEAfgAlcQB+AjV4cQB+ADdxAH4CM3NxAH4AAnNxAH4ABwAAAAJ3BAAAAAJzcQB+AAJzcQB+AAcAAAACdwQAAAACc3EAfgACc3EAfgAHAAAAAHcEAAAAAHhxAH4AGXEAfgJBc3EAfgACc3EAfgAHAAAAAHcEAAAAAHhxAH4AJXEAfgJBeHEAfgAzcQB+Aj9zcQB+AAJzcQB+AAcAAAAAdwQAAAAAeHEAfgAlcQB+Aj94cQB+ADdxAH4CM3hxAH4AR3EAfgIveHEAfgBHcQB+Ait4cQB+ADNxAH4CKXNxAH4AAnNxAH4ABwAAAAB3BAAAAAB4cQB+ACVxAH4CKXhxAH4AN3EAfgIleHEAfgAzcQB+AiNxAH4A5XhxAH4AM3EAfgIhcQB+AX14cQB+ADNzcQB+AAJzcQB+AAcAAAACdwQAAAACcQB+AiFxAH4CFXhxAH4AN3NxAH4AAnNxAH4ABwAAAAJ3BAAAAAJxAH4CS3EAfgIdeHEAfgBHcHhxAH4AM3NxAH4AAnNxAH4ABwAAAAJ3BAAAAAJxAH4Be3EAfgIVeHEAfgA3c3EAfgACc3EAfgAHAAAAAncEAAAAAnEAfgJPcQB+Ah14cQB+AEdweHEAfgA3c3EAfgACc3EAfgAHAAAAAncEAAAAAnNxAH4AAnNxAH4ABwAAAAB3BAAAAAB4cQB+ACVxAH4CU3EAfgDteHEAfgBHc3EAfgACc3EAfgAHAAAAAncEAAAAAnNxAH4AAnNxAH4ABwAAAAJ3BAAAAAJzcQB+AAJzcQB+AAcAAAAAdwQAAAAAeHEAfgAZcQB+AllzcQB+AAJzcQB+AAcAAAACdwQAAAACc3EAfgACc3EAfgAHAAAAAncEAAAAAnNxAH4AAnNxAH4ABwAAAAB3BAAAAAB4cQB+ABlxAH4CX3NxAH4AAnNxAH4ABwAAAAJ3BAAAAAJzcQB+AAJzcQB+AAcAAAAAdwQAAAAAeHEAfgAlcQB+AmNzcQB+AAJzcQB+AAcAAAACdwQAAAACc3EAfgACc3EAfgAHAAAAAncEAAAAAnNxAH4AAnNxAH4ABwAAAAJ3BAAAAAJzcQB+AAJzcQB+AAcAAAAAdwQAAAAAeHEAfgAZcQB+AmtzcQB+AAJzcQB+AAcAAAAAdwQAAAAAeHEAfgAlcQB+Amt4cQB+ADNxAH4CaXNxAH4AAnNxAH4ABwAAAAB3BAAAAAB4cQB+ACVxAH4CaXhxAH4AN3EAfgJnc3EAfgACc3EAfgAHAAAAAncEAAAAAnNxAH4AAnNxAH4ABwAAAAJ3BAAAAAJzcQB+AAJzcQB+AAcAAAAAdwQAAAAAeHEAfgAZcQB+AnVzcQB+AAJzcQB+AAcAAAAAdwQAAAAAeHEAfgAlcQB+AnV4cQB+ADNxAH4Cc3NxAH4AAnNxAH4ABwAAAAB3BAAAAAB4cQB+ACVxAH4Cc3hxAH4AN3EAfgJneHEAfgBHcQB+AmN4cQB+AEdxAH4CX3hxAH4AM3EAfgJdc3EAfgACc3EAfgAHAAAAAncEAAAAAnNxAH4AAnNxAH4ABwAAAAJ3BAAAAAJzcQB+AAJzcQB+AAcAAAACdwQAAAACc3EAfgACc3EAfgAHAAAAAHcEAAAAAHhxAH4AGXEAfgKBc3EAfgACc3EAfgAHAAAAAncEAAAAAnNxAH4AAnNxAH4ABwAAAAJ3BAAAAAJzcQB+AAJzcQB+AAcAAAAAdwQAAAAAeHEAfgAZcQB+AodzcQB+AAJzcQB+AAcAAAAAdwQAAAAAeHEAfgAlcQB+Aod4cQB+ADNxAH4ChXNxAH4AAnNxAH4ABwAAAAB3BAAAAAB4cQB+ACVxAH4ChXhxAH4AN3EAfgKBeHEAfgAzcQB+An9zcQB+AAJzcQB+AAcAAAACdwQAAAACc3EAfgACc3EAfgAHAAAAAncEAAAAAnNxAH4AAnNxAH4ABwAAAAB3BAAAAAB4cQB+ABlxAH4CkXNxAH4AAnNxAH4ABwAAAAB3BAAAAAB4cQB+ACVxAH4CkXhxAH4AM3EAfgKPc3EAfgACc3EAfgAHAAAAAHcEAAAAAHhxAH4AJXEAfgKPeHEAfgA3cQB+An94cQB+ADNxAH4CfXNxAH4AAnNxAH4ABwAAAAJ3BAAAAAJzcQB+AAJzcQB+AAcAAAACdwQAAAACc3EAfgACc3EAfgAHAAAAAncEAAAAAnNxAH4AAnNxAH4ABwAAAAB3BAAAAAB4cQB+ABlxAH4CnXNxAH4AAnNxAH4ABwAAAAB3BAAAAAB4cQB+ACVxAH4CnXhxAH4AM3EAfgKbc3EAfgACc3EAfgAHAAAAAHcEAAAAAHhxAH4AJXEAfgKbeHEAfgA3cQB+AplzcQB+AAJzcQB+AAcAAAACdwQAAAACc3EAfgACc3EAfgAHAAAAAncEAAAAAnNxAH4AAnNxAH4ABwAAAAJ3BAAAAAJzcQB+AAJzcQB+AAcAAAAAdwQAAAAAeHEAfgAZcQB+AqlzcQB+AAJzcQB+AAcAAAAAdwQAAAAAeHEAfgAlcQB+Aql4cQB+ADNxAH4Cp3NxAH4AAnNxAH4ABwAAAAB3BAAAAAB4cQB+ACVxAH4Cp3hxAH4AN3EAfgKlc3EAfgACc3EAfgAHAAAAAncEAAAAAnNxAH4AAnNxAH4ABwAAAAJ3BAAAAAJzcQB+AAJzcQB+AAcAAAAAdwQAAAAAeHEAfgAZcQB+ArNzcQB+AAJzcQB+AAcAAAAAdwQAAAAAeHEAfgAlcQB+ArN4cQB+ADNxAH4CsXNxAH4AAnNxAH4ABwAAAAB3BAAAAAB4cQB+ACVxAH4CsXhxAH4AN3EAfgKleHEAfgBHcQB+Apl4cQB+AEdxAH4CfXhxAH4AM3EAfgJdeHEAfgA3cQB+All4cQB+ADNxAH4CV3EAfgJTeHEAfgAzc3EAfgACc3EAfgAHAAAAAncEAAAAAnEAfgJXcQB+AX14cQB+ADNzcQB+AAJzcQB+AAcAAAACdwQAAAACcQB+ArtxAH4CFXhxAH4AN3NxAH4AAnNxAH4ABwAAAAJ3BAAAAAJxAH4CvXEAfgIdeHEAfgBHcHhxAH4AR3EAfgIjeHEAfgAzc3EAfgACc3EAfgAHAAAAAncEAAAAAnEAfgDjcQB+AX14cQB+ADNzcQB+AAJzcQB+AAcAAAACdwQAAAACcQB+AsFxAH4CFXhxAH4AN3NxAH4AAnNxAH4ABwAAAAJ3BAAAAAJxAH4Cw3EAfgIdeHEAfgBHcHhxAH4AR3NxAH4AAnNxAH4ABwAAAAJ3BAAAAAJzcQB+AAJzcQB+AAcAAAAAdwQAAAAAeHEAfgAlcQB+AsdxAH4AdXhxAH4AM3NxAH4AAnNxAH4ABwAAAAJ3BAAAAAJzcQB+AAJzcQB+AAcAAAACdwQAAAACc3EAfgACc3EAfgAHAAAAAHcEAAAAAHhxAH4AGXEAfgLNc3EAfgACc3EAfgAHAAAAAncEAAAAAnNxAH4AAnNxAH4ABwAAAAB3BAAAAAB4cQB+ACVxAH4C0XNxAH4AAnNxAH4ABwAAAAJ3BAAAAAJzcQB+AAJzcQB+AAcAAAACdwQAAAACc3EAfgACc3EAfgAHAAAAAncEAAAAAnNxAH4AAnNxAH4ABwAAAAB3BAAAAAB4cQB+ABlxAH4C2XNxAH4AAnNxAH4ABwAAAAB3BAAAAAB4cQB+ACVxAH4C2XhxAH4AM3EAfgLXc3EAfgACc3EAfgAHAAAAAHcEAAAAAHhxAH4AJXEAfgLXeHEAfgA3cQB+AtVzcQB+AAJzcQB+AAcAAAACdwQAAAACc3EAfgACc3EAfgAHAAAAAncEAAAAAnNxAH4AAnNxAH4ABwAAAAB3BAAAAAB4cQB+ABlxAH4C43NxAH4AAnNxAH4ABwAAAAB3BAAAAAB4cQB+ACVxAH4C43hxAH4AM3EAfgLhc3EAfgACc3EAfgAHAAAAAHcEAAAAAHhxAH4AJXEAfgLheHEAfgA3cQB+AtV4cQB+AEdxAH4C0XhxAH4AR3EAfgLNeHEAfgAzcQB+AstxAH4Cx3hxAH4AN3NxAH4AAnNxAH4ABwAAAAJ3BAAAAAJzcQB+AAJzcQB+AAcAAAAAdwQAAAAAeHEAfgAZcQB+AutxAH4Cy3hxAH4AM3NxAH4AAnNxAH4ABwAAAAJ3BAAAAAJxAH4C63EAfgDleHEAfgAzc3EAfgACc3EAfgAHAAAAAncEAAAAAnEAfgLvcQB+AX14cQB+ADNzcQB+AAJzcQB+AAcAAAACdwQAAAACcQB+AvFxAH4CFXhxAH4AN3NxAH4AAnNxAH4ABwAAAAJ3BAAAAAJxAH4C83EAfgIdeHEAfgBHcHhxAH4AM3NxAH4AAnNxAH4ABwAAAAJ3BAAAAAJzcQB+AAJzcQB+AAcAAAACdwQAAAACc3EAfgACc3EAfgAHAAAAAHcEAAAAAHhxAH4AGXEAfgL5c3EAfgACc3EAfgAHAAAAAncEAAAAAnNxAH4AAnNxAH4ABwAAAAB3BAAAAAB4cQB+ACVxAH4C/XNxAH4AAnNxAH4ABwAAAAJ3BAAAAAJzcQB+AAJzcQB+AAcAAAACdwQAAAACc3EAfgACc3EAfgAHAAAAAncEAAAAAnNxAH4AAnNxAH4ABwAAAAB3BAAAAAB4cQB+ABlxAH4DBXNxAH4AAnNxAH4ABwAAAAB3BAAAAAB4cQB+ACVxAH4DBXhxAH4AM3EAfgMDc3EAfgACc3EAfgAHAAAAAHcEAAAAAHhxAH4AJXEAfgMDeHEAfgA3cQB+AwFzcQB+AAJzcQB+AAcAAAACdwQAAAACc3EAfgACc3EAfgAHAAAAAncEAAAAAnNxAH4AAnNxAH4ABwAAAAB3BAAAAAB4cQB+ABlxAH4DD3NxAH4AAnNxAH4ABwAAAAB3BAAAAAB4cQB+ACVxAH4DD3hxAH4AM3EAfgMNc3EAfgACc3EAfgAHAAAAAHcEAAAAAHhxAH4AJXEAfgMNeHEAfgA3cQB+AwF4cQB+AEdxAH4C/XhxAH4AR3EAfgL5eHEAfgAzcQB+AvdxAH4Ac3hxAH4AN3NxAH4AAnNxAH4ABwAAAAJ3BAAAAAJzcQB+AAJzcQB+AAcAAAAAdwQAAAAAeHEAfgAZcQB+AxdxAH4C93hxAH4AM3NxAH4AAnNxAH4ABwAAAAJ3BAAAAAJxAH4DF3EAfgDleHEAfgAzc3EAfgACc3EAfgAHAAAAAncEAAAAAnEAfgMbcQB+AX14cQB+ADNzcQB+AAJzcQB+AAcAAAACdwQAAAACcQB+Ax1xAH4CFXhxAH4AN3NxAH4AAnNxAH4ABwAAAAJ3BAAAAAJxAH4DH3EAfgIdeHEAfgBHcHhxAH4AM3EAfgBTcQB+AHV4cQB+ADNzcQB+AAJzcQB+AAcAAAACdwQAAAACc3EAfgACc3EAfgAHAAAAAncEAAAAAnNxAH4AAnNxAH4ABwAAAAB3BAAAAAB4cQB+ABlxAH4DJXNxAH4AAnNxAH4ABwAAAAJ3BAAAAAJzcQB+AAJzcQB+AAcAAAACdwQAAAACc3EAfgACc3EAfgAHAAAAAHcEAAAAAHhxAH4AGXEAfgMrc3EAfgACc3EAfgAHAAAAAHcEAAAAAHhxAH4BiHEAfgMreHEAfgAzcQB+AylxAH4AJ3hxAH4AR3EAfgMleHEAfgAzcQB+AyNxAH4AU3hxAH4AN3NxAH4AAnNxAH4ABwAAAAJ3BAAAAAJzcQB+AAJzcQB+AAcAAAAAdwQAAAAAeHEAfgAZcQB+AzFxAH4DI3hxAH4AM3NxAH4AAnNxAH4ABwAAAAJ3BAAAAAJxAH4DMXEAfgDleHEAfgAzc3EAfgACc3EAfgAHAAAAAncEAAAAAnEAfgM1cQB+AX14cQB+ADNzcQB+AAJzcQB+AAcAAAACdwQAAAACcQB+AzdxAH4CFXhxAH4AN3NxAH4AAnNxAH4ABwAAAAJ3BAAAAAJxAH4DOXEAfgIdeHEAfgBHcHhxAH4AN3NxAH4AAnNxAH4ABwAAAAJ3BAAAAAJzcQB+AAJzcQB+AAcAAAAAdwQAAAAAeHEAfgAZcQB+Az1xAH4AUXhxAH4AM3NxAH4AAnNxAH4ABwAAAAJ3BAAAAAJxAH4DPXEAfgDleHEAfgAzc3EAfgACc3EAfgAHAAAAAncEAAAAAnEAfgNBcQB+AX14cQB+ADNzcQB+AAJzcQB+AAcAAAACdwQAAAACcQB+A0NxAH4CFXhxAH4AN3NxAH4AAnNxAH4ABwAAAAJ3BAAAAAJxAH4DRXEAfgIdeHEAfgBHcHhxAH4AR3EAfgMpeHEAfgBHcQB+AB14cQB+ADNxAH4AG3EAfgBTeHEAfgA3c3EAfgACc3EAfgAHAAAAAncEAAAAAnNxAH4AAnNxAH4ABwAAAAB3BAAAAAB4cQB+ACVxAH4DSXEAfgAbeHEAfgAzc3EAfgACc3EAfgAHAAAAAncEAAAAAnEAfgNJcQB+AOV4cQB+ADNzcQB+AAJzcQB+AAcAAAACdwQAAAACcQB+A01xAH4BfXhxAH4AM3NxAH4AAnNxAH4ABwAAAAJ3BAAAAAJxAH4DT3EAfgIVeHEAfgA3c3EAfgACc3EAfgAHAAAAAncEAAAAAnEAfgNRcQB+Ah14cQB+AEdweHEAfgAzcQB+ABNxAH4A5XhxAH4AM3EAfgARcQB+AX14cQB+ADNxAH4AD3EAfgIVeHEAfgA3cQB+AA1xAH4CHXhxAH4AR3BzcQB+AAJzcQB+AAcAAAAAdwQAAAAAeHEAfgAZcHNxAH4AAnNxAH4ABwAAAAB3BAAAAAB4c3EAfgGHP+AAAAAAAABweA==";
    "rO0ABXNyABFqYXZhLnV0aWwuQ29sbFNlcleOq7Y6G6gRAwABSQADdGFneHAAAAAEdwQAAAAEc3IAN2lvLmdpdGh1Yi5lcmljbWVkdmV0LmpnZWEuY29yZS5yZXByZXNlbnRhdGlvbi50cmVlLlRyZWUKs7/qnQrEZQIAA0wACGNoaWxkcmVudAAQTGphdmEvdXRpbC9MaXN0O0wAB2NvbnRlbnR0ABJMamF2YS9sYW5nL09iamVjdDtMAAZwYXJlbnR0ADlMaW8vZ2l0aHViL2VyaWNtZWR2ZXQvamdlYS9jb3JlL3JlcHJlc2VudGF0aW9uL3RyZWUvVHJlZTt4cHNyABNqYXZhLnV0aWwuQXJyYXlMaXN0eIHSHZnHYZ0DAAFJAARzaXpleHAAAAAAdwQAAAAAeHNyAEtpby5naXRodWIuZXJpY21lZHZldC5qZ2VhLmNvcmUucmVwcmVzZW50YXRpb24udHJlZS5udW1lcmljLkVsZW1lbnQkVmFyaWFibGUAAAAAAAAAAAIAAUwABG5hbWV0ABJMamF2YS9sYW5nL1N0cmluZzt4cHQAA3gxNnBzcQB+AAJzcQB+AAcAAAACdwQAAAACc3EAfgACc3EAfgAHAAAAAncEAAAAAnNxAH4AAnNxAH4ABwAAAAJ3BAAAAAJzcQB+AAJzcQB+AAcAAAACdwQAAAACc3EAfgACc3EAfgAHAAAAAncEAAAAAnNxAH4AAnNxAH4ABwAAAAB3BAAAAAB4c3EAfgAJdAADeDE1cQB+ABVzcQB+AAJzcQB+AAcAAAACdwQAAAACc3EAfgACc3EAfgAHAAAAAncEAAAAAnNxAH4AAnNxAH4ABwAAAAB3BAAAAAB4cQB+ABlxAH4AHXNxAH4AAnNxAH4ABwAAAAJ3BAAAAAJzcQB+AAJzcQB+AAcAAAAAdwQAAAAAeHNxAH4ACXQAA3gwNXEAfgAhc3EAfgACc3EAfgAHAAAAAncEAAAAAnNxAH4AAnNxAH4ABwAAAAJ3BAAAAAJzcQB+AAJzcQB+AAcAAAACdwQAAAACc3EAfgACc3EAfgAHAAAAAHcEAAAAAHhxAH4AGXEAfgArc3EAfgACc3EAfgAHAAAAAHcEAAAAAHhxAH4AJXEAfgAreH5yAEtpby5naXRodWIuZXJpY21lZHZldC5qZ2VhLmNvcmUucmVwcmVzZW50YXRpb24udHJlZS5udW1lcmljLkVsZW1lbnQkT3BlcmF0b3IAAAAAAAAAABIAAHhyAA5qYXZhLmxhbmcuRW51bQAAAAAAAAAAEgAAeHB0AAtTVUJUUkFDVElPTnEAfgApc3EAfgACc3EAfgAHAAAAAHcEAAAAAHhxAH4AJXEAfgApeH5xAH4AMXQADk1VTFRJUExJQ0FUSU9OcQB+ACdzcQB+AAJzcQB+AAcAAAACdwQAAAACc3EAfgACc3EAfgAHAAAAAncEAAAAAnNxAH4AAnNxAH4ABwAAAAB3BAAAAAB4cQB+ABlxAH4AO3NxAH4AAnNxAH4ABwAAAAB3BAAAAAB4cQB+ACVxAH4AO3hxAH4AM3EAfgA5c3EAfgACc3EAfgAHAAAAAHcEAAAAAHhxAH4AJXEAfgA5eHEAfgA3c3EAfgACc3EAfgAHAAAAAncEAAAAAnNxAH4AAnNxAH4ABwAAAAB3BAAAAAB4cQB+ABlxAH4AQ3EAfgA5eH5xAH4AMXQACEFERElUSU9Oc3EAfgACc3EAfgAHAAAAAncEAAAAAnNxAH4AAnNxAH4ABwAAAAB3BAAAAAB4cQB+ACVxAH4ASXEAfgBDeHEAfgBHc3EAfgACc3EAfgAHAAAAAncEAAAAAnNxAH4AAnNxAH4ABwAAAAB3BAAAAAB4cQB+ABlxAH4ATXEAfgBJeHEAfgAzc3EAfgACc3EAfgAHAAAAAncEAAAAAnEAfgBNc3EAfgACc3EAfgAHAAAAAncEAAAAAnNxAH4AAnNxAH4ABwAAAAJ3BAAAAAJzcQB+AAJzcQB+AAcAAAACdwQAAAACc3EAfgACc3EAfgAHAAAAAHcEAAAAAHhxAH4AGXEAfgBXc3EAfgACc3EAfgAHAAAAAncEAAAAAnNxAH4AAnNxAH4ABwAAAAJ3BAAAAAJzcQB+AAJzcQB+AAcAAAAAdwQAAAAAeHEAfgAZcQB+AF1zcQB+AAJzcQB+AAcAAAAAdwQAAAAAeHEAfgAlcQB+AF14cQB+ADNxAH4AW3NxAH4AAnNxAH4ABwAAAAB3BAAAAAB4cQB+ACVxAH4AW3hxAH4AN3EAfgBXeHEAfgAzcQB+AFVzcQB+AAJzcQB+AAcAAAACdwQAAAACc3EAfgACc3EAfgAHAAAAAncEAAAAAnNxAH4AAnNxAH4ABwAAAAB3BAAAAAB4cQB+ABlxAH4AZ3NxAH4AAnNxAH4ABwAAAAB3BAAAAAB4cQB+ACVxAH4AZ3hxAH4AM3EAfgBlc3EAfgACc3EAfgAHAAAAAHcEAAAAAHhxAH4AJXEAfgBleHEAfgA3c3EAfgACc3EAfgAHAAAAAncEAAAAAnNxAH4AAnNxAH4ABwAAAAB3BAAAAAB4cQB+ACVxAH4Ab3EAfgBleHEAfgAzc3EAfgACc3EAfgAHAAAAAncEAAAAAnEAfgBvc3EAfgACc3EAfgAHAAAAAncEAAAAAnNxAH4AAnNxAH4ABwAAAAJ3BAAAAAJzcQB+AAJzcQB+AAcAAAACdwQAAAACc3EAfgACc3EAfgAHAAAAAHcEAAAAAHhxAH4AGXEAfgB5c3EAfgACc3EAfgAHAAAAAHcEAAAAAHhxAH4AJXEAfgB5eHEAfgAzcQB+AHdzcQB+AAJzcQB+AAcAAAAAdwQAAAAAeHEAfgAlcQB+AHd4cQB+ADdxAH4AdXNxAH4AAnNxAH4ABwAAAAJ3BAAAAAJzcQB+AAJzcQB+AAcAAAACdwQAAAACc3EAfgACc3EAfgAHAAAAAncEAAAAAnNxAH4AAnNxAH4ABwAAAAB3BAAAAAB4cQB+ABlxAH4AhXNxAH4AAnNxAH4ABwAAAAB3BAAAAAB4cQB+ACVxAH4AhXhxAH4AM3EAfgCDc3EAfgACc3EAfgAHAAAAAHcEAAAAAHhxAH4AJXEAfgCDeHEAfgA3cQB+AIFzcQB+AAJzcQB+AAcAAAACdwQAAAACc3EAfgACc3EAfgAHAAAAAncEAAAAAnNxAH4AAnNxAH4ABwAAAAB3BAAAAAB4cQB+ABlxAH4Aj3NxAH4AAnNxAH4ABwAAAAB3BAAAAAB4cQB+ACVxAH4Aj3hxAH4AM3EAfgCNc3EAfgACc3EAfgAHAAAAAHcEAAAAAHhxAH4AJXEAfgCNeHEAfgA3cQB+AIF4cQB+AEdzcQB+AAJzcQB+AAcAAAACdwQAAAACc3EAfgACc3EAfgAHAAAAAncEAAAAAnNxAH4AAnNxAH4ABwAAAAJ3BAAAAAJzcQB+AAJzcQB+AAcAAAAAdwQAAAAAeHEAfgAZcQB+AJtzcQB+AAJzcQB+AAcAAAAAdwQAAAAAeHEAfgAlcQB+AJt4cQB+ADNxAH4AmXNxAH4AAnNxAH4ABwAAAAB3BAAAAAB4cQB+ACVxAH4AmXhxAH4AN3EAfgCXcQB+AIF4cQB+AEdzcQB+AAJzcQB+AAcAAAACdwQAAAACc3EAfgACc3EAfgAHAAAAAncEAAAAAnNxAH4AAnNxAH4ABwAAAAJ3BAAAAAJzcQB+AAJzcQB+AAcAAAAAdwQAAAAAeHEAfgAZcQB+AKdzcQB+AAJzcQB+AAcAAAACdwQAAAACc3EAfgACc3EAfgAHAAAAAncEAAAAAnNxAH4AAnNxAH4ABwAAAAB3BAAAAAB4cQB+ABlxAH4ArXNxAH4AAnNxAH4ABwAAAAB3BAAAAAB4cQB+ACVxAH4ArXhxAH4AM3EAfgCrc3EAfgACc3EAfgAHAAAAAHcEAAAAAHhxAH4AJXEAfgCreHEAfgA3cQB+AKd4cQB+ADNxAH4ApXNxAH4AAnNxAH4ABwAAAAJ3BAAAAAJzcQB+AAJzcQB+AAcAAAACdwQAAAACc3EAfgACc3EAfgAHAAAAAHcEAAAAAHhxAH4AGXEAfgC3c3EAfgACc3EAfgAHAAAAAHcEAAAAAHhxAH4AJXEAfgC3eHEAfgAzcQB+ALVzcQB+AAJzcQB+AAcAAAAAdwQAAAAAeHEAfgAlcQB+ALV4cQB+ADdxAH4ApXhxAH4AM3EAfgCjcQB+AJd4cQB+ADNzcQB+AAJzcQB+AAcAAAACdwQAAAACc3EAfgACc3EAfgAHAAAAAncEAAAAAnNxAH4AAnNxAH4ABwAAAAB3BAAAAAB4cQB+ABlxAH4AwXNxAH4AAnNxAH4ABwAAAAJ3BAAAAAJzcQB+AAJzcQB+AAcAAAAAdwQAAAAAeHEAfgAlcQB+AMVzcQB+AAJzcQB+AAcAAAACdwQAAAACc3EAfgACc3EAfgAHAAAAAncEAAAAAnNxAH4AAnNxAH4ABwAAAAJ3BAAAAAJzcQB+AAJzcQB+AAcAAAAAdwQAAAAAeHEAfgAZcQB+AM1zcQB+AAJzcQB+AAcAAAAAdwQAAAAAeHEAfgAlcQB+AM14cQB+ADNxAH4Ay3NxAH4AAnNxAH4ABwAAAAB3BAAAAAB4cQB+ACVxAH4Ay3hxAH4AN3EAfgDJc3EAfgACc3EAfgAHAAAAAncEAAAAAnNxAH4AAnNxAH4ABwAAAAJ3BAAAAAJzcQB+AAJzcQB+AAcAAAAAdwQAAAAAeHEAfgAZcQB+ANdzcQB+AAJzcQB+AAcAAAAAdwQAAAAAeHEAfgAlcQB+ANd4cQB+ADNxAH4A1XNxAH4AAnNxAH4ABwAAAAB3BAAAAAB4cQB+ACVxAH4A1XhxAH4AN3EAfgDJeHEAfgBHcQB+AMV4cQB+AEdxAH4AwXhxAH4AM3EAfgC/cQB+AKN4cQB+ADdzcQB+AAJzcQB+AAcAAAACdwQAAAACc3EAfgACc3EAfgAHAAAAAHcEAAAAAHhxAH4AGXEAfgDfcQB+AL94cQB+ADNzcQB+AAJzcQB+AAcAAAACdwQAAAACcQB+AN9zcQB+AAJzcQB+AAcAAAACdwQAAAACc3EAfgACc3EAfgAHAAAAAncEAAAAAnNxAH4AAnNxAH4ABwAAAAB3BAAAAAB4cQB+ABlxAH4A53NxAH4AAnNxAH4ABwAAAAB3BAAAAAB4cQB+ACVxAH4A53hxAH4AN3EAfgDlc3EAfgACc3EAfgAHAAAAAncEAAAAAnNxAH4AAnNxAH4ABwAAAAJ3BAAAAAJzcQB+AAJzcQB+AAcAAAAAdwQAAAAAeHEAfgAZcQB+AO9zcQB+AAJzcQB+AAcAAAACdwQAAAACc3EAfgACc3EAfgAHAAAAAncEAAAAAnNxAH4AAnNxAH4ABwAAAAB3BAAAAAB4cQB+ABlxAH4A9XNxAH4AAnNxAH4ABwAAAAB3BAAAAAB4cQB+ACVxAH4A9XhxAH4AM3EAfgDzc3EAfgACc3EAfgAHAAAAAHcEAAAAAHhxAH4AJXEAfgDzeHEAfgA3cQB+AO94cQB+ADNxAH4A7XNxAH4AAnNxAH4ABwAAAAB3BAAAAAB4cQB+ACVzcQB+AAJzcQB+AAcAAAACdwQAAAACc3EAfgACc3EAfgAHAAAAAncEAAAAAnNxAH4AAnNxAH4ABwAAAAB3BAAAAAB4cQB+ABlxAH4BAXNxAH4AAnNxAH4ABwAAAAB3BAAAAAB4cQB+ACVxAH4BAXhxAH4AM3EAfgD/cQB+AP14cQB+ADdzcQB+AAJzcQB+AAcAAAACdwQAAAACc3EAfgACc3EAfgAHAAAAAncEAAAAAnNxAH4AAnNxAH4ABwAAAAB3BAAAAAB4cQB+ABlxAH4BCXNxAH4AAnNxAH4ABwAAAAB3BAAAAAB4cQB+ACVxAH4BCXhxAH4AN3EAfgEHcQB+AP94cQB+AEdzcQB+AAJzcQB+AAcAAAACdwQAAAACc3EAfgACc3EAfgAHAAAAAncEAAAAAnNxAH4AAnNxAH4ABwAAAAB3BAAAAAB4cQB+ABlxAH4BEXNxAH4AAnNxAH4ABwAAAAJ3BAAAAAJzcQB+AAJzcQB+AAcAAAACdwQAAAACc3EAfgACc3EAfgAHAAAAAHcEAAAAAHhxAH4AGXEAfgEXc3EAfgACc3EAfgAHAAAAAncEAAAAAnNxAH4AAnNxAH4ABwAAAAB3BAAAAAB4cQB+ACVxAH4BG3NxAH4AAnNxAH4ABwAAAAJ3BAAAAAJzcQB+AAJzcQB+AAcAAAACdwQAAAACc3EAfgACc3EAfgAHAAAAAncEAAAAAnNxAH4AAnNxAH4ABwAAAAB3BAAAAAB4cQB+ABlxAH4BI3NxAH4AAnNxAH4ABwAAAAB3BAAAAAB4cQB+ACVxAH4BI3hxAH4AM3EAfgEhc3EAfgACc3EAfgAHAAAAAHcEAAAAAHhxAH4AJXEAfgEheHEAfgA3cQB+AR9zcQB+AAJzcQB+AAcAAAACdwQAAAACc3EAfgACc3EAfgAHAAAAAncEAAAAAnNxAH4AAnNxAH4ABwAAAAB3BAAAAAB4cQB+ABlxAH4BLXNxAH4AAnNxAH4ABwAAAAB3BAAAAAB4cQB+ACVxAH4BLXhxAH4AM3EAfgErc3EAfgACc3EAfgAHAAAAAHcEAAAAAHhxAH4AJXEAfgEreHEAfgA3cQB+AR94cQB+AEdxAH4BG3hxAH4AR3EAfgEXeHEAfgAzcQB+ARVzcQB+AAJzcQB+AAcAAAACdwQAAAACc3EAfgACc3EAfgAHAAAAAncEAAAAAnNxAH4AAnNxAH4ABwAAAAJ3BAAAAAJzcQB+AAJzcQB+AAcAAAAAdwQAAAAAeHEAfgAZcQB+ATlzcQB+AAJzcQB+AAcAAAACdwQAAAACc3EAfgACc3EAfgAHAAAAAncEAAAAAnNxAH4AAnNxAH4ABwAAAAB3BAAAAAB4cQB+ABlxAH4BP3NxAH4AAnNxAH4ABwAAAAB3BAAAAAB4cQB+ACVxAH4BP3hxAH4AM3EAfgE9c3EAfgACc3EAfgAHAAAAAHcEAAAAAHhxAH4AJXEAfgE9eHEAfgA3cQB+ATl4cQB+ADNxAH4BN3NxAH4AAnNxAH4ABwAAAAJ3BAAAAAJzcQB+AAJzcQB+AAcAAAACdwQAAAACc3EAfgACc3EAfgAHAAAAAHcEAAAAAHhxAH4AGXEAfgFJc3EAfgACc3EAfgAHAAAAAHcEAAAAAHhxAH4AJXEAfgFJeHEAfgAzcQB+AUdzcQB+AAJzcQB+AAcAAAAAdwQAAAAAeHEAfgAlcQB+AUd4cQB+ADdxAH4BN3hxAH4AM3EAfgE1c3EAfgACc3EAfgAHAAAAAncEAAAAAnNxAH4AAnNxAH4ABwAAAAJ3BAAAAAJzcQB+AAJzcQB+AAcAAAACdwQAAAACc3EAfgACc3EAfgAHAAAAAHcEAAAAAHhxAH4AGXEAfgFVc3EAfgACc3EAfgAHAAAAAncEAAAAAnNxAH4AAnNxAH4ABwAAAAJ3BAAAAAJzcQB+AAJzcQB+AAcAAAAAdwQAAAAAeHEAfgAZcQB+AVtzcQB+AAJzcQB+AAcAAAAAdwQAAAAAeHEAfgAlcQB+AVt4cQB+ADNxAH4BWXNxAH4AAnNxAH4ABwAAAAB3BAAAAAB4cQB+ACVxAH4BWXhxAH4AN3EAfgFVeHEAfgAzcQB+AVNzcQB+AAJzcQB+AAcAAAAAdwQAAAAAeHEAfgAlcQB+AVN4cQB+ADdxAH4BUXNxAH4AAnNxAH4ABwAAAAJ3BAAAAAJzcQB+AAJzcQB+AAcAAAACdwQAAAACc3EAfgACc3EAfgAHAAAAAncEAAAAAnNxAH4AAnNxAH4ABwAAAAB3BAAAAAB4cQB+ABlxAH4BaXNxAH4AAnNxAH4ABwAAAAB3BAAAAAB4cQB+ACVxAH4BaXhxAH4AM3EAfgFnc3EAfgACc3EAfgAHAAAAAHcEAAAAAHhxAH4AJXEAfgFneHEAfgA3cQB+AWVzcQB+AAJzcQB+AAcAAAACdwQAAAACc3EAfgACc3EAfgAHAAAAAncEAAAAAnNxAH4AAnNxAH4ABwAAAAB3BAAAAAB4cQB+ABlxAH4Bc3NxAH4AAnNxAH4ABwAAAAB3BAAAAAB4cQB+ACVxAH4Bc3hxAH4AM3EAfgFxc3EAfgACc3EAfgAHAAAAAHcEAAAAAHhxAH4AJXEAfgFxeHEAfgA3cQB+AWV4cQB+AEdxAH4BUXhxAH4AR3EAfgE1eHEAfgAzcQB+ARV4cQB+ADdxAH4BEXhxAH4AM3EAfgEPcQB+AQd4cQB+ADNzcQB+AAJzcQB+AAcAAAACdwQAAAACcQB+AQ9zcQB+AAJzcQB+AAcAAAACdwQAAAACc3EAfgACc3EAfgAHAAAAAncEAAAAAnNxAH4AAnNxAH4ABwAAAAJ3BAAAAAJzcQB+AAJzcQB+AAcAAAAAdwQAAAAAeHEAfgAZcQB+AYFzcQB+AAJzcQB+AAcAAAAAdwQAAAAAeHNyAEtpby5naXRodWIuZXJpY21lZHZldC5qZ2VhLmNvcmUucmVwcmVzZW50YXRpb24udHJlZS5udW1lcmljLkVsZW1lbnQkQ29uc3RhbnQAAAAAAAAAAAIAAUQABXZhbHVleHAAAAAAAAAAAHEAfgGBeHEAfgAzcQB+AX9zcQB+AAJzcQB+AAcAAAAAdwQAAAAAeHEAfgAlc3EAfgACc3EAfgAHAAAAAncEAAAAAnNxAH4AAnNxAH4ABwAAAAB3BAAAAAB4cQB+ACVxAH4Bi3EAfgGJeHEAfgA3c3EAfgACc3EAfgAHAAAAAncEAAAAAnEAfgGLc3EAfgACc3EAfgAHAAAAAHcEAAAAAHhxAH4BiHEAfgGPeHEAfgBHc3EAfgACc3EAfgAHAAAAAncEAAAAAnNxAH4AAnNxAH4ABwAAAAJ3BAAAAAJzcQB+AAJzcQB+AAcAAAACdwQAAAACc3EAfgACc3EAfgAHAAAAAHcEAAAAAHhxAH4AGXEAfgGXc3EAfgACc3EAfgAHAAAAAncEAAAAAnNxAH4AAnNxAH4ABwAAAAJ3BAAAAAJzcQB+AAJzcQB+AAcAAAAAdwQAAAAAeHEAfgAZcQB+AZ1zcQB+AAJzcQB+AAcAAAACdwQAAAACc3EAfgACc3EAfgAHAAAAAHcEAAAAAHhxAH4AJXEAfgGhc3EAfgACc3EAfgAHAAAAAncEAAAAAnNxAH4AAnNxAH4ABwAAAAJ3BAAAAAJzcQB+AAJzcQB+AAcAAAACdwQAAAACc3EAfgACc3EAfgAHAAAAAHcEAAAAAHhxAH4AGXEAfgGpc3EAfgACc3EAfgAHAAAAAHcEAAAAAHhxAH4AJXEAfgGpeHEAfgAzcQB+AadzcQB+AAJzcQB+AAcAAAAAdwQAAAAAeHEAfgAlcQB+Aad4cQB+ADdxAH4BpXNxAH4AAnNxAH4ABwAAAAJ3BAAAAAJzcQB+AAJzcQB+AAcAAAACdwQAAAACc3EAfgACc3EAfgAHAAAAAHcEAAAAAHhxAH4AGXEAfgGzc3EAfgACc3EAfgAHAAAAAHcEAAAAAHhxAH4AJXEAfgGzeHEAfgAzcQB+AbFzcQB+AAJzcQB+AAcAAAAAdwQAAAAAeHEAfgAlcQB+AbF4cQB+ADdxAH4BpXhxAH4AR3EAfgGheHEAfgBHcQB+AZ14cQB+ADNxAH4Bm3NxAH4AAnNxAH4ABwAAAAJ3BAAAAAJzcQB+AAJzcQB+AAcAAAACdwQAAAACc3EAfgACc3EAfgAHAAAAAncEAAAAAnNxAH4AAnNxAH4ABwAAAAB3BAAAAAB4cQB+ABlxAH4Bv3NxAH4AAnNxAH4ABwAAAAJ3BAAAAAJzcQB+AAJzcQB+AAcAAAACdwQAAAACc3EAfgACc3EAfgAHAAAAAHcEAAAAAHhxAH4AGXEAfgHFc3EAfgACc3EAfgAHAAAAAHcEAAAAAHhxAH4AJXEAfgHFeHEAfgAzcQB+AcNzcQB+AAJzcQB+AAcAAAAAdwQAAAAAeHEAfgAlcQB+AcN4cQB+ADdxAH4Bv3hxAH4AM3EAfgG9c3EAfgACc3EAfgAHAAAAAncEAAAAAnNxAH4AAnNxAH4ABwAAAAJ3BAAAAAJzcQB+AAJzcQB+AAcAAAAAdwQAAAAAeHEAfgAZcQB+Ac9zcQB+AAJzcQB+AAcAAAAAdwQAAAAAeHEAfgAlcQB+Ac94cQB+ADNxAH4BzXNxAH4AAnNxAH4ABwAAAAB3BAAAAAB4cQB+ACVxAH4BzXhxAH4AN3EAfgG9eHEAfgAzcQB+AbtzcQB+AAJzcQB+AAcAAAACdwQAAAACc3EAfgACc3EAfgAHAAAAAncEAAAAAnNxAH4AAnNxAH4ABwAAAAJ3BAAAAAJzcQB+AAJzcQB+AAcAAAAAdwQAAAAAeHEAfgAZcQB+AdtzcQB+AAJzcQB+AAcAAAAAdwQAAAAAeHEAfgAlcQB+Adt4cQB+ADNxAH4B2XNxAH4AAnNxAH4ABwAAAAB3BAAAAAB4cQB+ACVxAH4B2XhxAH4AN3EAfgHXc3EAfgACc3EAfgAHAAAAAncEAAAAAnNxAH4AAnNxAH4ABwAAAAJ3BAAAAAJzcQB+AAJzcQB+AAcAAAACdwQAAAACc3EAfgACc3EAfgAHAAAAAHcEAAAAAHhxAH4AGXEAfgHnc3EAfgACc3EAfgAHAAAAAHcEAAAAAHhxAH4AJXEAfgHneHEAfgAzcQB+AeVzcQB+AAJzcQB+AAcAAAAAdwQAAAAAeHEAfgAlcQB+AeV4cQB+ADdxAH4B43NxAH4AAnNxAH4ABwAAAAJ3BAAAAAJzcQB+AAJzcQB+AAcAAAACdwQAAAACc3EAfgACc3EAfgAHAAAAAHcEAAAAAHhxAH4AGXEAfgHxc3EAfgACc3EAfgAHAAAAAHcEAAAAAHhxAH4AJXEAfgHxeHEAfgAzcQB+Ae9zcQB+AAJzcQB+AAcAAAAAdwQAAAAAeHEAfgAlcQB+Ae94cQB+ADdxAH4B43hxAH4AR3EAfgHXeHEAfgBHcQB+Abt4cQB+ADNxAH4Bm3hxAH4AN3EAfgGXeHEAfgAzcQB+AZVzcQB+AAJzcQB+AAcAAAACdwQAAAACc3EAfgACc3EAfgAHAAAAAncEAAAAAnNxAH4AAnNxAH4ABwAAAAB3BAAAAAB4cQB+ABlxAH4B+3NxAH4AAnNxAH4ABwAAAAB3BAAAAAB4cQB+ACVxAH4B+3hxAH4AN3EAfgH5c3EAfgACc3EAfgAHAAAAAncEAAAAAnNxAH4AAnNxAH4ABwAAAAJ3BAAAAAJzcQB+AAJzcQB+AAcAAAAAdwQAAAAAeHEAfgAZcQB+AgNzcQB+AAJzcQB+AAcAAAACdwQAAAACc3EAfgACc3EAfgAHAAAAAncEAAAAAnNxAH4AAnNxAH4ABwAAAAB3BAAAAAB4cQB+ABlxAH4CCXNxAH4AAnNxAH4ABwAAAAB3BAAAAAB4cQB+ACVxAH4CCXhxAH4AM3EAfgIHc3EAfgACc3EAfgAHAAAAAHcEAAAAAHhxAH4AJXEAfgIHeHEAfgA3cQB+AgN4cQB+ADNxAH4CAXNxAH4AAnNxAH4ABwAAAAB3BAAAAAB4cQB+ACVxAH4CAXhxAH4AN3EAfgH5eHEAfgBHcQB+AZV4cQB+ADNxAH4Bk3EAfgGPeHEAfgAzc3EAfgACc3EAfgAHAAAAAncEAAAAAnEAfgGTc3EAfgACc3EAfgAHAAAAAHcEAAAAAHhxAH4AJXNxAH4AAnNxAH4ABwAAAAJ3BAAAAAJzcQB+AAJzcQB+AAcAAAAAdwQAAAAAeHEAfgAlcQB+AhdxAH4CFXhxAH4AN3NxAH4AAnNxAH4ABwAAAAJ3BAAAAAJxAH4CF3NxAH4AAnNxAH4ABwAAAAB3BAAAAAB4cQB+AYhxAH4CG3hxAH4AR3B4cQB+ADdzcQB+AAJzcQB+AAcAAAACdwQAAAACcQB+AhNxAH4CHXhxAH4AR3B4cQB+ADdxAH4BfXEAfgGReHEAfgBHc3EAfgACc3EAfgAHAAAAAncEAAAAAnNxAH4AAnNxAH4ABwAAAAJ3BAAAAAJzcQB+AAJzcQB+AAcAAAACdwQAAAACc3EAfgACc3EAfgAHAAAAAHcEAAAAAHhxAH4AGXEAfgIlc3EAfgACc3EAfgAHAAAAAncEAAAAAnNxAH4AAnNxAH4ABwAAAAJ3BAAAAAJzcQB+AAJzcQB+AAcAAAAAdwQAAAAAeHEAfgAZcQB+AitzcQB+AAJzcQB+AAcAAAACdwQAAAACc3EAfgACc3EAfgAHAAAAAHcEAAAAAHhxAH4AJXEAfgIvc3EAfgACc3EAfgAHAAAAAncEAAAAAnNxAH4AAnNxAH4ABwAAAAJ3BAAAAAJzcQB+AAJzcQB+AAcAAAACdwQAAAACc3EAfgACc3EAfgAHAAAAAHcEAAAAAHhxAH4AGXEAfgI3c3EAfgACc3EAfgAHAAAAAHcEAAAAAHhxAH4AJXEAfgI3eHEAfgAzcQB+AjVzcQB+AAJzcQB+AAcAAAAAdwQAAAAAeHEAfgAlcQB+AjV4cQB+ADdxAH4CM3NxAH4AAnNxAH4ABwAAAAJ3BAAAAAJzcQB+AAJzcQB+AAcAAAACdwQAAAACc3EAfgACc3EAfgAHAAAAAHcEAAAAAHhxAH4AGXEAfgJBc3EAfgACc3EAfgAHAAAAAHcEAAAAAHhxAH4AJXEAfgJBeHEAfgAzcQB+Aj9zcQB+AAJzcQB+AAcAAAAAdwQAAAAAeHEAfgAlcQB+Aj94cQB+ADdxAH4CM3hxAH4AR3EAfgIveHEAfgBHcQB+Ait4cQB+ADNxAH4CKXNxAH4AAnNxAH4ABwAAAAB3BAAAAAB4cQB+ACVxAH4CKXhxAH4AN3EAfgIleHEAfgAzcQB+AiNxAH4A5XhxAH4AM3EAfgIhcQB+AX14cQB+ADNzcQB+AAJzcQB+AAcAAAACdwQAAAACcQB+AiFxAH4CFXhxAH4AN3NxAH4AAnNxAH4ABwAAAAJ3BAAAAAJxAH4CS3EAfgIdeHEAfgBHcHhxAH4AM3NxAH4AAnNxAH4ABwAAAAJ3BAAAAAJxAH4Be3EAfgIVeHEAfgA3c3EAfgACc3EAfgAHAAAAAncEAAAAAnEAfgJPcQB+Ah14cQB+AEdweHEAfgA3c3EAfgACc3EAfgAHAAAAAncEAAAAAnNxAH4AAnNxAH4ABwAAAAB3BAAAAAB4cQB+ACVxAH4CU3EAfgDteHEAfgBHc3EAfgACc3EAfgAHAAAAAncEAAAAAnNxAH4AAnNxAH4ABwAAAAJ3BAAAAAJzcQB+AAJzcQB+AAcAAAAAdwQAAAAAeHEAfgAZcQB+AllzcQB+AAJzcQB+AAcAAAACdwQAAAACc3EAfgACc3EAfgAHAAAAAncEAAAAAnNxAH4AAnNxAH4ABwAAAAB3BAAAAAB4cQB+ABlxAH4CX3NxAH4AAnNxAH4ABwAAAAJ3BAAAAAJzcQB+AAJzcQB+AAcAAAAAdwQAAAAAeHEAfgAlcQB+AmNzcQB+AAJzcQB+AAcAAAACdwQAAAACc3EAfgACc3EAfgAHAAAAAncEAAAAAnNxAH4AAnNxAH4ABwAAAAJ3BAAAAAJzcQB+AAJzcQB+AAcAAAAAdwQAAAAAeHEAfgAZcQB+AmtzcQB+AAJzcQB+AAcAAAAAdwQAAAAAeHEAfgAlcQB+Amt4cQB+ADNxAH4CaXNxAH4AAnNxAH4ABwAAAAB3BAAAAAB4cQB+ACVxAH4CaXhxAH4AN3EAfgJnc3EAfgACc3EAfgAHAAAAAncEAAAAAnNxAH4AAnNxAH4ABwAAAAJ3BAAAAAJzcQB+AAJzcQB+AAcAAAAAdwQAAAAAeHEAfgAZcQB+AnVzcQB+AAJzcQB+AAcAAAAAdwQAAAAAeHEAfgAlcQB+AnV4cQB+ADNxAH4Cc3NxAH4AAnNxAH4ABwAAAAB3BAAAAAB4cQB+ACVxAH4Cc3hxAH4AN3EAfgJneHEAfgBHcQB+AmN4cQB+AEdxAH4CX3hxAH4AM3EAfgJdc3EAfgACc3EAfgAHAAAAAncEAAAAAnNxAH4AAnNxAH4ABwAAAAJ3BAAAAAJzcQB+AAJzcQB+AAcAAAACdwQAAAACc3EAfgACc3EAfgAHAAAAAHcEAAAAAHhxAH4AGXEAfgKBc3EAfgACc3EAfgAHAAAAAncEAAAAAnNxAH4AAnNxAH4ABwAAAAJ3BAAAAAJzcQB+AAJzcQB+AAcAAAAAdwQAAAAAeHEAfgAZcQB+AodzcQB+AAJzcQB+AAcAAAAAdwQAAAAAeHEAfgAlcQB+Aod4cQB+ADNxAH4ChXNxAH4AAnNxAH4ABwAAAAB3BAAAAAB4cQB+ACVxAH4ChXhxAH4AN3EAfgKBeHEAfgAzcQB+An9zcQB+AAJzcQB+AAcAAAACdwQAAAACc3EAfgACc3EAfgAHAAAAAncEAAAAAnNxAH4AAnNxAH4ABwAAAAB3BAAAAAB4cQB+ABlxAH4CkXNxAH4AAnNxAH4ABwAAAAB3BAAAAAB4cQB+ACVxAH4CkXhxAH4AM3EAfgKPc3EAfgACc3EAfgAHAAAAAHcEAAAAAHhxAH4AJXEAfgKPeHEAfgA3cQB+An94cQB+ADNxAH4CfXNxAH4AAnNxAH4ABwAAAAJ3BAAAAAJzcQB+AAJzcQB+AAcAAAACdwQAAAACc3EAfgACc3EAfgAHAAAAAncEAAAAAnNxAH4AAnNxAH4ABwAAAAB3BAAAAAB4cQB+ABlxAH4CnXNxAH4AAnNxAH4ABwAAAAB3BAAAAAB4cQB+ACVxAH4CnXhxAH4AM3EAfgKbc3EAfgACc3EAfgAHAAAAAHcEAAAAAHhxAH4AJXEAfgKbeHEAfgA3cQB+AplzcQB+AAJzcQB+AAcAAAACdwQAAAACc3EAfgACc3EAfgAHAAAAAncEAAAAAnNxAH4AAnNxAH4ABwAAAAJ3BAAAAAJzcQB+AAJzcQB+AAcAAAAAdwQAAAAAeHEAfgAZcQB+AqlzcQB+AAJzcQB+AAcAAAAAdwQAAAAAeHEAfgAlcQB+Aql4cQB+ADNxAH4Cp3NxAH4AAnNxAH4ABwAAAAB3BAAAAAB4cQB+ACVxAH4Cp3hxAH4AN3EAfgKlc3EAfgACc3EAfgAHAAAAAncEAAAAAnNxAH4AAnNxAH4ABwAAAAJ3BAAAAAJzcQB+AAJzcQB+AAcAAAAAdwQAAAAAeHEAfgAZcQB+ArNzcQB+AAJzcQB+AAcAAAAAdwQAAAAAeHEAfgAlcQB+ArN4cQB+ADNxAH4CsXNxAH4AAnNxAH4ABwAAAAB3BAAAAAB4cQB+ACVxAH4CsXhxAH4AN3EAfgKleHEAfgBHcQB+Apl4cQB+AEdxAH4CfXhxAH4AM3EAfgJdeHEAfgA3cQB+All4cQB+ADNxAH4CV3EAfgJTeHEAfgAzc3EAfgACc3EAfgAHAAAAAncEAAAAAnEAfgJXcQB+AX14cQB+ADNzcQB+AAJzcQB+AAcAAAACdwQAAAACcQB+ArtxAH4CFXhxAH4AN3NxAH4AAnNxAH4ABwAAAAJ3BAAAAAJxAH4CvXEAfgIdeHEAfgBHcHhxAH4AR3EAfgIjeHEAfgAzc3EAfgACc3EAfgAHAAAAAncEAAAAAnEAfgDjcQB+AX14cQB+ADNzcQB+AAJzcQB+AAcAAAACdwQAAAACcQB+AsFxAH4CFXhxAH4AN3NxAH4AAnNxAH4ABwAAAAJ3BAAAAAJxAH4Cw3EAfgIdeHEAfgBHcHhxAH4AR3NxAH4AAnNxAH4ABwAAAAJ3BAAAAAJzcQB+AAJzcQB+AAcAAAAAdwQAAAAAeHEAfgAlcQB+AsdxAH4AdXhxAH4AM3NxAH4AAnNxAH4ABwAAAAJ3BAAAAAJzcQB+AAJzcQB+AAcAAAACdwQAAAACc3EAfgACc3EAfgAHAAAAAHcEAAAAAHhxAH4AGXEAfgLNc3EAfgACc3EAfgAHAAAAAncEAAAAAnNxAH4AAnNxAH4ABwAAAAB3BAAAAAB4cQB+ACVxAH4C0XNxAH4AAnNxAH4ABwAAAAJ3BAAAAAJzcQB+AAJzcQB+AAcAAAACdwQAAAACc3EAfgACc3EAfgAHAAAAAncEAAAAAnNxAH4AAnNxAH4ABwAAAAB3BAAAAAB4cQB+ABlxAH4C2XNxAH4AAnNxAH4ABwAAAAB3BAAAAAB4cQB+ACVxAH4C2XhxAH4AM3EAfgLXc3EAfgACc3EAfgAHAAAAAHcEAAAAAHhxAH4AJXEAfgLXeHEAfgA3cQB+AtVzcQB+AAJzcQB+AAcAAAACdwQAAAACc3EAfgACc3EAfgAHAAAAAncEAAAAAnNxAH4AAnNxAH4ABwAAAAB3BAAAAAB4cQB+ABlxAH4C43NxAH4AAnNxAH4ABwAAAAB3BAAAAAB4cQB+ACVxAH4C43hxAH4AM3EAfgLhc3EAfgACc3EAfgAHAAAAAHcEAAAAAHhxAH4AJXEAfgLheHEAfgA3cQB+AtV4cQB+AEdxAH4C0XhxAH4AR3EAfgLNeHEAfgAzcQB+AstxAH4Cx3hxAH4AN3NxAH4AAnNxAH4ABwAAAAJ3BAAAAAJzcQB+AAJzcQB+AAcAAAAAdwQAAAAAeHEAfgAZcQB+AutxAH4Cy3hxAH4AM3NxAH4AAnNxAH4ABwAAAAJ3BAAAAAJxAH4C63EAfgDleHEAfgAzc3EAfgACc3EAfgAHAAAAAncEAAAAAnEAfgLvcQB+AX14cQB+ADNzcQB+AAJzcQB+AAcAAAACdwQAAAACcQB+AvFxAH4CFXhxAH4AN3NxAH4AAnNxAH4ABwAAAAJ3BAAAAAJxAH4C83EAfgIdeHEAfgBHcHhxAH4AM3NxAH4AAnNxAH4ABwAAAAJ3BAAAAAJzcQB+AAJzcQB+AAcAAAACdwQAAAACc3EAfgACc3EAfgAHAAAAAHcEAAAAAHhxAH4AGXEAfgL5c3EAfgACc3EAfgAHAAAAAncEAAAAAnNxAH4AAnNxAH4ABwAAAAB3BAAAAAB4cQB+ACVxAH4C/XNxAH4AAnNxAH4ABwAAAAJ3BAAAAAJzcQB+AAJzcQB+AAcAAAACdwQAAAACc3EAfgACc3EAfgAHAAAAAncEAAAAAnNxAH4AAnNxAH4ABwAAAAB3BAAAAAB4cQB+ABlxAH4DBXNxAH4AAnNxAH4ABwAAAAB3BAAAAAB4cQB+ACVxAH4DBXhxAH4AM3EAfgMDc3EAfgACc3EAfgAHAAAAAHcEAAAAAHhxAH4AJXEAfgMDeHEAfgA3cQB+AwFzcQB+AAJzcQB+AAcAAAACdwQAAAACc3EAfgACc3EAfgAHAAAAAncEAAAAAnNxAH4AAnNxAH4ABwAAAAB3BAAAAAB4cQB+ABlxAH4DD3NxAH4AAnNxAH4ABwAAAAB3BAAAAAB4cQB+ACVxAH4DD3hxAH4AM3EAfgMNc3EAfgACc3EAfgAHAAAAAHcEAAAAAHhxAH4AJXEAfgMNeHEAfgA3cQB+AwF4cQB+AEdxAH4C/XhxAH4AR3EAfgL5eHEAfgAzcQB+AvdxAH4Ac3hxAH4AN3NxAH4AAnNxAH4ABwAAAAJ3BAAAAAJzcQB+AAJzcQB+AAcAAAAAdwQAAAAAeHEAfgAZcQB+AxdxAH4C93hxAH4AM3NxAH4AAnNxAH4ABwAAAAJ3BAAAAAJxAH4DF3EAfgDleHEAfgAzc3EAfgACc3EAfgAHAAAAAncEAAAAAnEAfgMbcQB+AX14cQB+ADNzcQB+AAJzcQB+AAcAAAACdwQAAAACcQB+Ax1xAH4CFXhxAH4AN3NxAH4AAnNxAH4ABwAAAAJ3BAAAAAJxAH4DH3EAfgIdeHEAfgBHcHhxAH4AM3EAfgBTcQB+AHV4cQB+ADNzcQB+AAJzcQB+AAcAAAACdwQAAAACc3EAfgACc3EAfgAHAAAAAncEAAAAAnNxAH4AAnNxAH4ABwAAAAB3BAAAAAB4cQB+ABlxAH4DJXNxAH4AAnNxAH4ABwAAAAJ3BAAAAAJzcQB+AAJzcQB+AAcAAAACdwQAAAACc3EAfgACc3EAfgAHAAAAAHcEAAAAAHhxAH4AGXEAfgMrc3EAfgACc3EAfgAHAAAAAHcEAAAAAHhxAH4BiHEAfgMreHEAfgAzcQB+AylxAH4AJ3hxAH4AR3EAfgMleHEAfgAzcQB+AyNxAH4AU3hxAH4AN3NxAH4AAnNxAH4ABwAAAAJ3BAAAAAJzcQB+AAJzcQB+AAcAAAAAdwQAAAAAeHEAfgAZcQB+AzFxAH4DI3hxAH4AM3NxAH4AAnNxAH4ABwAAAAJ3BAAAAAJxAH4DMXEAfgDleHEAfgAzc3EAfgACc3EAfgAHAAAAAncEAAAAAnEAfgM1cQB+AX14cQB+ADNzcQB+AAJzcQB+AAcAAAACdwQAAAACcQB+AzdxAH4CFXhxAH4AN3NxAH4AAnNxAH4ABwAAAAJ3BAAAAAJxAH4DOXEAfgIdeHEAfgBHcHhxAH4AN3NxAH4AAnNxAH4ABwAAAAJ3BAAAAAJzcQB+AAJzcQB+AAcAAAAAdwQAAAAAeHEAfgAZcQB+Az1xAH4AUXhxAH4AM3NxAH4AAnNxAH4ABwAAAAJ3BAAAAAJxAH4DPXEAfgDleHEAfgAzc3EAfgACc3EAfgAHAAAAAncEAAAAAnEAfgNBcQB+AX14cQB+ADNzcQB+AAJzcQB+AAcAAAACdwQAAAACcQB+A0NxAH4CFXhxAH4AN3NxAH4AAnNxAH4ABwAAAAJ3BAAAAAJxAH4DRXEAfgIdeHEAfgBHcHhxAH4AR3EAfgMpeHEAfgBHcQB+AB14cQB+ADNxAH4AG3EAfgBTeHEAfgA3c3EAfgACc3EAfgAHAAAAAncEAAAAAnNxAH4AAnNxAH4ABwAAAAB3BAAAAAB4cQB+ACVxAH4DSXEAfgAbeHEAfgAzc3EAfgACc3EAfgAHAAAAAncEAAAAAnEAfgNJcQB+AOV4cQB+ADNzcQB+AAJzcQB+AAcAAAACdwQAAAACcQB+A01xAH4BfXhxAH4AM3NxAH4AAnNxAH4ABwAAAAJ3BAAAAAJxAH4DT3EAfgIVeHEAfgA3c3EAfgACc3EAfgAHAAAAAncEAAAAAnEAfgNRcQB+Ah14cQB+AEdweHEAfgAzcQB+ABNxAH4A5XhxAH4AM3EAfgARcQB+AX14cQB+ADNxAH4AD3EAfgIVeHEAfgA3cQB+AA1xAH4CHXhxAH4AR3BzcQB+AAJzcQB+AAcAAAAAdwQAAAAAeHEAfgAZcHNxAH4AAnNxAH4ABwAAAAB3BAAAAAB4c3EAfgGHP+AAAAAAAABweA==";
    "rO0ABXNyABFqYXZhLnV0aWwuQ29sbFNlcleOq7Y6G6gRAwABSQADdGFneHAAAAAEdwQAAAAEc3IAN2lvLmdpdGh1Yi5lcmljbWVkdmV0LmpnZWEuY29yZS5yZXByZXNlbnRhdGlvbi50cmVlLlRyZWUKs7/qnQrEZQIAA0wACGNoaWxkcmVudAAQTGphdmEvdXRpbC9MaXN0O0wAB2NvbnRlbnR0ABJMamF2YS9sYW5nL09iamVjdDtMAAZwYXJlbnR0ADlMaW8vZ2l0aHViL2VyaWNtZWR2ZXQvamdlYS9jb3JlL3JlcHJlc2VudGF0aW9uL3RyZWUvVHJlZTt4cHNyABNqYXZhLnV0aWwuQXJyYXlMaXN0eIHSHZnHYZ0DAAFJAARzaXpleHAAAAAAdwQAAAAAeHNyAEtpby5naXRodWIuZXJpY21lZHZldC5qZ2VhLmNvcmUucmVwcmVzZW50YXRpb24udHJlZS5udW1lcmljLkVsZW1lbnQkVmFyaWFibGUAAAAAAAAAAAIAAUwABG5hbWV0ABJMamF2YS9sYW5nL1N0cmluZzt4cHQAA3gxNnBzcQB+AAJzcQB+AAcAAAACdwQAAAACc3EAfgACc3EAfgAHAAAAAncEAAAAAnNxAH4AAnNxAH4ABwAAAAJ3BAAAAAJzcQB+AAJzcQB+AAcAAAACdwQAAAACc3EAfgACc3EAfgAHAAAAAncEAAAAAnNxAH4AAnNxAH4ABwAAAAB3BAAAAAB4c3EAfgAJdAADeDE1cQB+ABVzcQB+AAJzcQB+AAcAAAACdwQAAAACc3EAfgACc3EAfgAHAAAAAncEAAAAAnNxAH4AAnNxAH4ABwAAAAB3BAAAAAB4cQB+ABlxAH4AHXNxAH4AAnNxAH4ABwAAAAJ3BAAAAAJzcQB+AAJzcQB+AAcAAAAAdwQAAAAAeHNxAH4ACXQAA3gwNXEAfgAhc3EAfgACc3EAfgAHAAAAAncEAAAAAnNxAH4AAnNxAH4ABwAAAAJ3BAAAAAJzcQB+AAJzcQB+AAcAAAACdwQAAAACc3EAfgACc3EAfgAHAAAAAHcEAAAAAHhxAH4AGXEAfgArc3EAfgACc3EAfgAHAAAAAHcEAAAAAHhxAH4AJXEAfgAreH5yAEtpby5naXRodWIuZXJpY21lZHZldC5qZ2VhLmNvcmUucmVwcmVzZW50YXRpb24udHJlZS5udW1lcmljLkVsZW1lbnQkT3BlcmF0b3IAAAAAAAAAABIAAHhyAA5qYXZhLmxhbmcuRW51bQAAAAAAAAAAEgAAeHB0AAtTVUJUUkFDVElPTnEAfgApc3EAfgACc3EAfgAHAAAAAHcEAAAAAHhxAH4AJXEAfgApeH5xAH4AMXQADk1VTFRJUExJQ0FUSU9OcQB+ACdzcQB+AAJzcQB+AAcAAAACdwQAAAACc3EAfgACc3EAfgAHAAAAAncEAAAAAnNxAH4AAnNxAH4ABwAAAAB3BAAAAAB4cQB+ABlxAH4AO3NxAH4AAnNxAH4ABwAAAAB3BAAAAAB4cQB+ACVxAH4AO3hxAH4AM3EAfgA5c3EAfgACc3EAfgAHAAAAAHcEAAAAAHhxAH4AJXEAfgA5eHEAfgA3c3EAfgACc3EAfgAHAAAAAncEAAAAAnNxAH4AAnNxAH4ABwAAAAB3BAAAAAB4cQB+ABlxAH4AQ3EAfgA5eH5xAH4AMXQACEFERElUSU9Oc3EAfgACc3EAfgAHAAAAAncEAAAAAnNxAH4AAnNxAH4ABwAAAAB3BAAAAAB4cQB+ACVxAH4ASXEAfgBDeHEAfgBHc3EAfgACc3EAfgAHAAAAAncEAAAAAnNxAH4AAnNxAH4ABwAAAAB3BAAAAAB4cQB+ABlxAH4ATXEAfgBJeHEAfgAzc3EAfgACc3EAfgAHAAAAAncEAAAAAnEAfgBNc3EAfgACc3EAfgAHAAAAAncEAAAAAnNxAH4AAnNxAH4ABwAAAAJ3BAAAAAJzcQB+AAJzcQB+AAcAAAACdwQAAAACc3EAfgACc3EAfgAHAAAAAHcEAAAAAHhxAH4AGXEAfgBXc3EAfgACc3EAfgAHAAAAAncEAAAAAnNxAH4AAnNxAH4ABwAAAAJ3BAAAAAJzcQB+AAJzcQB+AAcAAAAAdwQAAAAAeHEAfgAZcQB+AF1zcQB+AAJzcQB+AAcAAAAAdwQAAAAAeHEAfgAlcQB+AF14cQB+ADNxAH4AW3NxAH4AAnNxAH4ABwAAAAB3BAAAAAB4cQB+ACVxAH4AW3hxAH4AN3EAfgBXeHEAfgAzcQB+AFVzcQB+AAJzcQB+AAcAAAACdwQAAAACc3EAfgACc3EAfgAHAAAAAncEAAAAAnNxAH4AAnNxAH4ABwAAAAB3BAAAAAB4cQB+ABlxAH4AZ3NxAH4AAnNxAH4ABwAAAAB3BAAAAAB4cQB+ACVxAH4AZ3hxAH4AM3EAfgBlc3EAfgACc3EAfgAHAAAAAHcEAAAAAHhxAH4AJXEAfgBleHEAfgA3c3EAfgACc3EAfgAHAAAAAncEAAAAAnNxAH4AAnNxAH4ABwAAAAB3BAAAAAB4cQB+ACVxAH4Ab3EAfgBleHEAfgAzc3EAfgACc3EAfgAHAAAAAncEAAAAAnEAfgBvc3EAfgACc3EAfgAHAAAAAncEAAAAAnNxAH4AAnNxAH4ABwAAAAJ3BAAAAAJzcQB+AAJzcQB+AAcAAAACdwQAAAACc3EAfgACc3EAfgAHAAAAAHcEAAAAAHhxAH4AGXEAfgB5c3EAfgACc3EAfgAHAAAAAHcEAAAAAHhxAH4AJXEAfgB5eHEAfgAzcQB+AHdzcQB+AAJzcQB+AAcAAAAAdwQAAAAAeHEAfgAlcQB+AHd4cQB+ADdxAH4AdXNxAH4AAnNxAH4ABwAAAAJ3BAAAAAJzcQB+AAJzcQB+AAcAAAACdwQAAAACc3EAfgACc3EAfgAHAAAAAncEAAAAAnNxAH4AAnNxAH4ABwAAAAB3BAAAAAB4cQB+ABlxAH4AhXNxAH4AAnNxAH4ABwAAAAB3BAAAAAB4cQB+ACVxAH4AhXhxAH4AM3EAfgCDc3EAfgACc3EAfgAHAAAAAHcEAAAAAHhxAH4AJXEAfgCDeHEAfgA3cQB+AIFzcQB+AAJzcQB+AAcAAAACdwQAAAACc3EAfgACc3EAfgAHAAAAAncEAAAAAnNxAH4AAnNxAH4ABwAAAAB3BAAAAAB4cQB+ABlxAH4Aj3NxAH4AAnNxAH4ABwAAAAB3BAAAAAB4cQB+ACVxAH4Aj3hxAH4AM3EAfgCNc3EAfgACc3EAfgAHAAAAAHcEAAAAAHhxAH4AJXEAfgCNeHEAfgA3cQB+AIF4cQB+AEdzcQB+AAJzcQB+AAcAAAACdwQAAAACc3EAfgACc3EAfgAHAAAAAncEAAAAAnNxAH4AAnNxAH4ABwAAAAJ3BAAAAAJzcQB+AAJzcQB+AAcAAAAAdwQAAAAAeHEAfgAZcQB+AJtzcQB+AAJzcQB+AAcAAAAAdwQAAAAAeHEAfgAlcQB+AJt4cQB+ADNxAH4AmXNxAH4AAnNxAH4ABwAAAAB3BAAAAAB4cQB+ACVxAH4AmXhxAH4AN3EAfgCXcQB+AIF4cQB+AEdzcQB+AAJzcQB+AAcAAAACdwQAAAACc3EAfgACc3EAfgAHAAAAAncEAAAAAnNxAH4AAnNxAH4ABwAAAAJ3BAAAAAJzcQB+AAJzcQB+AAcAAAAAdwQAAAAAeHEAfgAZcQB+AKdzcQB+AAJzcQB+AAcAAAACdwQAAAACc3EAfgACc3EAfgAHAAAAAncEAAAAAnNxAH4AAnNxAH4ABwAAAAB3BAAAAAB4cQB+ABlxAH4ArXNxAH4AAnNxAH4ABwAAAAB3BAAAAAB4cQB+ACVxAH4ArXhxAH4AM3EAfgCrc3EAfgACc3EAfgAHAAAAAHcEAAAAAHhxAH4AJXEAfgCreHEAfgA3cQB+AKd4cQB+ADNxAH4ApXNxAH4AAnNxAH4ABwAAAAJ3BAAAAAJzcQB+AAJzcQB+AAcAAAACdwQAAAACc3EAfgACc3EAfgAHAAAAAHcEAAAAAHhxAH4AGXEAfgC3c3EAfgACc3EAfgAHAAAAAHcEAAAAAHhxAH4AJXEAfgC3eHEAfgAzcQB+ALVzcQB+AAJzcQB+AAcAAAAAdwQAAAAAeHEAfgAlcQB+ALV4cQB+ADdxAH4ApXhxAH4AM3EAfgCjcQB+AJd4cQB+ADNzcQB+AAJzcQB+AAcAAAACdwQAAAACc3EAfgACc3EAfgAHAAAAAncEAAAAAnNxAH4AAnNxAH4ABwAAAAB3BAAAAAB4cQB+ABlxAH4AwXNxAH4AAnNxAH4ABwAAAAJ3BAAAAAJzcQB+AAJzcQB+AAcAAAAAdwQAAAAAeHEAfgAlcQB+AMVzcQB+AAJzcQB+AAcAAAACdwQAAAACc3EAfgACc3EAfgAHAAAAAncEAAAAAnNxAH4AAnNxAH4ABwAAAAJ3BAAAAAJzcQB+AAJzcQB+AAcAAAAAdwQAAAAAeHEAfgAZcQB+AM1zcQB+AAJzcQB+AAcAAAAAdwQAAAAAeHEAfgAlcQB+AM14cQB+ADNxAH4Ay3NxAH4AAnNxAH4ABwAAAAB3BAAAAAB4cQB+ACVxAH4Ay3hxAH4AN3EAfgDJc3EAfgACc3EAfgAHAAAAAncEAAAAAnNxAH4AAnNxAH4ABwAAAAJ3BAAAAAJzcQB+AAJzcQB+AAcAAAAAdwQAAAAAeHEAfgAZcQB+ANdzcQB+AAJzcQB+AAcAAAAAdwQAAAAAeHEAfgAlcQB+ANd4cQB+ADNxAH4A1XNxAH4AAnNxAH4ABwAAAAB3BAAAAAB4cQB+ACVxAH4A1XhxAH4AN3EAfgDJeHEAfgBHcQB+AMV4cQB+AEdxAH4AwXhxAH4AM3EAfgC/cQB+AKN4cQB+ADdzcQB+AAJzcQB+AAcAAAACdwQAAAACc3EAfgACc3EAfgAHAAAAAHcEAAAAAHhxAH4AGXEAfgDfcQB+AL94cQB+ADNzcQB+AAJzcQB+AAcAAAACdwQAAAACcQB+AN9zcQB+AAJzcQB+AAcAAAACdwQAAAACc3EAfgACc3EAfgAHAAAAAncEAAAAAnNxAH4AAnNxAH4ABwAAAAB3BAAAAAB4cQB+ABlxAH4A53NxAH4AAnNxAH4ABwAAAAB3BAAAAAB4cQB+ACVxAH4A53hxAH4AN3EAfgDlc3EAfgACc3EAfgAHAAAAAncEAAAAAnNxAH4AAnNxAH4ABwAAAAJ3BAAAAAJzcQB+AAJzcQB+AAcAAAAAdwQAAAAAeHEAfgAZcQB+AO9zcQB+AAJzcQB+AAcAAAACdwQAAAACc3EAfgACc3EAfgAHAAAAAncEAAAAAnNxAH4AAnNxAH4ABwAAAAB3BAAAAAB4cQB+ABlxAH4A9XNxAH4AAnNxAH4ABwAAAAB3BAAAAAB4cQB+ACVxAH4A9XhxAH4AM3EAfgDzc3EAfgACc3EAfgAHAAAAAHcEAAAAAHhxAH4AJXEAfgDzeHEAfgA3cQB+AO94cQB+ADNxAH4A7XNxAH4AAnNxAH4ABwAAAAB3BAAAAAB4cQB+ACVzcQB+AAJzcQB+AAcAAAACdwQAAAACc3EAfgACc3EAfgAHAAAAAncEAAAAAnNxAH4AAnNxAH4ABwAAAAB3BAAAAAB4cQB+ABlxAH4BAXNxAH4AAnNxAH4ABwAAAAB3BAAAAAB4cQB+ACVxAH4BAXhxAH4AM3EAfgD/cQB+AP14cQB+ADdzcQB+AAJzcQB+AAcAAAACdwQAAAACc3EAfgACc3EAfgAHAAAAAncEAAAAAnNxAH4AAnNxAH4ABwAAAAB3BAAAAAB4cQB+ABlxAH4BCXNxAH4AAnNxAH4ABwAAAAB3BAAAAAB4cQB+ACVxAH4BCXhxAH4AN3EAfgEHcQB+AP94cQB+AEdzcQB+AAJzcQB+AAcAAAACdwQAAAACc3EAfgACc3EAfgAHAAAAAncEAAAAAnNxAH4AAnNxAH4ABwAAAAB3BAAAAAB4cQB+ABlxAH4BEXNxAH4AAnNxAH4ABwAAAAJ3BAAAAAJzcQB+AAJzcQB+AAcAAAACdwQAAAACc3EAfgACc3EAfgAHAAAAAHcEAAAAAHhxAH4AGXEAfgEXc3EAfgACc3EAfgAHAAAAAncEAAAAAnNxAH4AAnNxAH4ABwAAAAB3BAAAAAB4cQB+ACVxAH4BG3NxAH4AAnNxAH4ABwAAAAJ3BAAAAAJzcQB+AAJzcQB+AAcAAAACdwQAAAACc3EAfgACc3EAfgAHAAAAAncEAAAAAnNxAH4AAnNxAH4ABwAAAAB3BAAAAAB4cQB+ABlxAH4BI3NxAH4AAnNxAH4ABwAAAAB3BAAAAAB4cQB+ACVxAH4BI3hxAH4AM3EAfgEhc3EAfgACc3EAfgAHAAAAAHcEAAAAAHhxAH4AJXEAfgEheHEAfgA3cQB+AR9zcQB+AAJzcQB+AAcAAAACdwQAAAACc3EAfgACc3EAfgAHAAAAAncEAAAAAnNxAH4AAnNxAH4ABwAAAAB3BAAAAAB4cQB+ABlxAH4BLXNxAH4AAnNxAH4ABwAAAAB3BAAAAAB4cQB+ACVxAH4BLXhxAH4AM3EAfgErc3EAfgACc3EAfgAHAAAAAHcEAAAAAHhxAH4AJXEAfgEreHEAfgA3cQB+AR94cQB+AEdxAH4BG3hxAH4AR3EAfgEXeHEAfgAzcQB+ARVzcQB+AAJzcQB+AAcAAAACdwQAAAACc3EAfgACc3EAfgAHAAAAAncEAAAAAnNxAH4AAnNxAH4ABwAAAAJ3BAAAAAJzcQB+AAJzcQB+AAcAAAAAdwQAAAAAeHEAfgAZcQB+ATlzcQB+AAJzcQB+AAcAAAACdwQAAAACc3EAfgACc3EAfgAHAAAAAncEAAAAAnNxAH4AAnNxAH4ABwAAAAB3BAAAAAB4cQB+ABlxAH4BP3NxAH4AAnNxAH4ABwAAAAB3BAAAAAB4cQB+ACVxAH4BP3hxAH4AM3EAfgE9c3EAfgACc3EAfgAHAAAAAHcEAAAAAHhxAH4AJXEAfgE9eHEAfgA3cQB+ATl4cQB+ADNxAH4BN3NxAH4AAnNxAH4ABwAAAAJ3BAAAAAJzcQB+AAJzcQB+AAcAAAACdwQAAAACc3EAfgACc3EAfgAHAAAAAHcEAAAAAHhxAH4AGXEAfgFJc3EAfgACc3EAfgAHAAAAAHcEAAAAAHhxAH4AJXEAfgFJeHEAfgAzcQB+AUdzcQB+AAJzcQB+AAcAAAAAdwQAAAAAeHEAfgAlcQB+AUd4cQB+ADdxAH4BN3hxAH4AM3EAfgE1c3EAfgACc3EAfgAHAAAAAncEAAAAAnNxAH4AAnNxAH4ABwAAAAJ3BAAAAAJzcQB+AAJzcQB+AAcAAAACdwQAAAACc3EAfgACc3EAfgAHAAAAAHcEAAAAAHhxAH4AGXEAfgFVc3EAfgACc3EAfgAHAAAAAncEAAAAAnNxAH4AAnNxAH4ABwAAAAJ3BAAAAAJzcQB+AAJzcQB+AAcAAAAAdwQAAAAAeHEAfgAZcQB+AVtzcQB+AAJzcQB+AAcAAAAAdwQAAAAAeHEAfgAlcQB+AVt4cQB+ADNxAH4BWXNxAH4AAnNxAH4ABwAAAAB3BAAAAAB4cQB+ACVxAH4BWXhxAH4AN3EAfgFVeHEAfgAzcQB+AVNzcQB+AAJzcQB+AAcAAAAAdwQAAAAAeHEAfgAlcQB+AVN4cQB+ADdxAH4BUXNxAH4AAnNxAH4ABwAAAAJ3BAAAAAJzcQB+AAJzcQB+AAcAAAACdwQAAAACc3EAfgACc3EAfgAHAAAAAncEAAAAAnNxAH4AAnNxAH4ABwAAAAB3BAAAAAB4cQB+ABlxAH4BaXNxAH4AAnNxAH4ABwAAAAB3BAAAAAB4cQB+ACVxAH4BaXhxAH4AM3EAfgFnc3EAfgACc3EAfgAHAAAAAHcEAAAAAHhxAH4AJXEAfgFneHEAfgA3cQB+AWVzcQB+AAJzcQB+AAcAAAACdwQAAAACc3EAfgACc3EAfgAHAAAAAncEAAAAAnNxAH4AAnNxAH4ABwAAAAB3BAAAAAB4cQB+ABlxAH4Bc3NxAH4AAnNxAH4ABwAAAAB3BAAAAAB4cQB+ACVxAH4Bc3hxAH4AM3EAfgFxc3EAfgACc3EAfgAHAAAAAHcEAAAAAHhxAH4AJXEAfgFxeHEAfgA3cQB+AWV4cQB+AEdxAH4BUXhxAH4AR3EAfgE1eHEAfgAzcQB+ARV4cQB+ADdxAH4BEXhxAH4AM3EAfgEPcQB+AQd4cQB+ADNzcQB+AAJzcQB+AAcAAAACdwQAAAACcQB+AQ9zcQB+AAJzcQB+AAcAAAACdwQAAAACc3EAfgACc3EAfgAHAAAAAncEAAAAAnNxAH4AAnNxAH4ABwAAAAJ3BAAAAAJzcQB+AAJzcQB+AAcAAAAAdwQAAAAAeHEAfgAZcQB+AYFzcQB+AAJzcQB+AAcAAAAAdwQAAAAAeHNyAEtpby5naXRodWIuZXJpY21lZHZldC5qZ2VhLmNvcmUucmVwcmVzZW50YXRpb24udHJlZS5udW1lcmljLkVsZW1lbnQkQ29uc3RhbnQAAAAAAAAAAAIAAUQABXZhbHVleHAAAAAAAAAAAHEAfgGBeHEAfgAzcQB+AX9zcQB+AAJzcQB+AAcAAAAAdwQAAAAAeHEAfgAlc3EAfgACc3EAfgAHAAAAAncEAAAAAnNxAH4AAnNxAH4ABwAAAAB3BAAAAAB4cQB+ACVxAH4Bi3EAfgGJeHEAfgA3c3EAfgACc3EAfgAHAAAAAncEAAAAAnEAfgGLc3EAfgACc3EAfgAHAAAAAHcEAAAAAHhxAH4BiHEAfgGPeHEAfgBHc3EAfgACc3EAfgAHAAAAAncEAAAAAnNxAH4AAnNxAH4ABwAAAAJ3BAAAAAJzcQB+AAJzcQB+AAcAAAACdwQAAAACc3EAfgACc3EAfgAHAAAAAHcEAAAAAHhxAH4AGXEAfgGXc3EAfgACc3EAfgAHAAAAAncEAAAAAnNxAH4AAnNxAH4ABwAAAAJ3BAAAAAJzcQB+AAJzcQB+AAcAAAAAdwQAAAAAeHEAfgAZcQB+AZ1zcQB+AAJzcQB+AAcAAAACdwQAAAACc3EAfgACc3EAfgAHAAAAAHcEAAAAAHhxAH4AJXEAfgGhc3EAfgACc3EAfgAHAAAAAncEAAAAAnNxAH4AAnNxAH4ABwAAAAJ3BAAAAAJzcQB+AAJzcQB+AAcAAAACdwQAAAACc3EAfgACc3EAfgAHAAAAAHcEAAAAAHhxAH4AGXEAfgGpc3EAfgACc3EAfgAHAAAAAHcEAAAAAHhxAH4AJXEAfgGpeHEAfgAzcQB+AadzcQB+AAJzcQB+AAcAAAAAdwQAAAAAeHEAfgAlcQB+Aad4cQB+ADdxAH4BpXNxAH4AAnNxAH4ABwAAAAJ3BAAAAAJzcQB+AAJzcQB+AAcAAAACdwQAAAACc3EAfgACc3EAfgAHAAAAAHcEAAAAAHhxAH4AGXEAfgGzc3EAfgACc3EAfgAHAAAAAHcEAAAAAHhxAH4AJXEAfgGzeHEAfgAzcQB+AbFzcQB+AAJzcQB+AAcAAAAAdwQAAAAAeHEAfgAlcQB+AbF4cQB+ADdxAH4BpXhxAH4AR3EAfgGheHEAfgBHcQB+AZ14cQB+ADNxAH4Bm3NxAH4AAnNxAH4ABwAAAAJ3BAAAAAJzcQB+AAJzcQB+AAcAAAACdwQAAAACc3EAfgACc3EAfgAHAAAAAncEAAAAAnNxAH4AAnNxAH4ABwAAAAB3BAAAAAB4cQB+ABlxAH4Bv3NxAH4AAnNxAH4ABwAAAAJ3BAAAAAJzcQB+AAJzcQB+AAcAAAACdwQAAAACc3EAfgACc3EAfgAHAAAAAHcEAAAAAHhxAH4AGXEAfgHFc3EAfgACc3EAfgAHAAAAAHcEAAAAAHhxAH4AJXEAfgHFeHEAfgAzcQB+AcNzcQB+AAJzcQB+AAcAAAAAdwQAAAAAeHEAfgAlcQB+AcN4cQB+ADdxAH4Bv3hxAH4AM3EAfgG9c3EAfgACc3EAfgAHAAAAAncEAAAAAnNxAH4AAnNxAH4ABwAAAAJ3BAAAAAJzcQB+AAJzcQB+AAcAAAAAdwQAAAAAeHEAfgAZcQB+Ac9zcQB+AAJzcQB+AAcAAAAAdwQAAAAAeHEAfgAlcQB+Ac94cQB+ADNxAH4BzXNxAH4AAnNxAH4ABwAAAAB3BAAAAAB4cQB+ACVxAH4BzXhxAH4AN3EAfgG9eHEAfgAzcQB+AbtzcQB+AAJzcQB+AAcAAAACdwQAAAACc3EAfgACc3EAfgAHAAAAAncEAAAAAnNxAH4AAnNxAH4ABwAAAAJ3BAAAAAJzcQB+AAJzcQB+AAcAAAAAdwQAAAAAeHEAfgAZcQB+AdtzcQB+AAJzcQB+AAcAAAAAdwQAAAAAeHEAfgAlcQB+Adt4cQB+ADNxAH4B2XNxAH4AAnNxAH4ABwAAAAB3BAAAAAB4cQB+ACVxAH4B2XhxAH4AN3EAfgHXc3EAfgACc3EAfgAHAAAAAncEAAAAAnNxAH4AAnNxAH4ABwAAAAJ3BAAAAAJzcQB+AAJzcQB+AAcAAAACdwQAAAACc3EAfgACc3EAfgAHAAAAAHcEAAAAAHhxAH4AGXEAfgHnc3EAfgACc3EAfgAHAAAAAHcEAAAAAHhxAH4AJXEAfgHneHEAfgAzcQB+AeVzcQB+AAJzcQB+AAcAAAAAdwQAAAAAeHEAfgAlcQB+AeV4cQB+ADdxAH4B43NxAH4AAnNxAH4ABwAAAAJ3BAAAAAJzcQB+AAJzcQB+AAcAAAACdwQAAAACc3EAfgACc3EAfgAHAAAAAHcEAAAAAHhxAH4AGXEAfgHxc3EAfgACc3EAfgAHAAAAAHcEAAAAAHhxAH4AJXEAfgHxeHEAfgAzcQB+Ae9zcQB+AAJzcQB+AAcAAAAAdwQAAAAAeHEAfgAlcQB+Ae94cQB+ADdxAH4B43hxAH4AR3EAfgHXeHEAfgBHcQB+Abt4cQB+ADNxAH4Bm3hxAH4AN3EAfgGXeHEAfgAzcQB+AZVzcQB+AAJzcQB+AAcAAAACdwQAAAACc3EAfgACc3EAfgAHAAAAAncEAAAAAnNxAH4AAnNxAH4ABwAAAAB3BAAAAAB4cQB+ABlxAH4B+3NxAH4AAnNxAH4ABwAAAAB3BAAAAAB4cQB+ACVxAH4B+3hxAH4AN3EAfgH5c3EAfgACc3EAfgAHAAAAAncEAAAAAnNxAH4AAnNxAH4ABwAAAAJ3BAAAAAJzcQB+AAJzcQB+AAcAAAAAdwQAAAAAeHEAfgAZcQB+AgNzcQB+AAJzcQB+AAcAAAACdwQAAAACc3EAfgACc3EAfgAHAAAAAncEAAAAAnNxAH4AAnNxAH4ABwAAAAB3BAAAAAB4cQB+ABlxAH4CCXNxAH4AAnNxAH4ABwAAAAB3BAAAAAB4cQB+ACVxAH4CCXhxAH4AM3EAfgIHc3EAfgACc3EAfgAHAAAAAHcEAAAAAHhxAH4AJXEAfgIHeHEAfgA3cQB+AgN4cQB+ADNxAH4CAXNxAH4AAnNxAH4ABwAAAAB3BAAAAAB4cQB+ACVxAH4CAXhxAH4AN3EAfgH5eHEAfgBHcQB+AZV4cQB+ADNxAH4Bk3EAfgGPeHEAfgAzc3EAfgACc3EAfgAHAAAAAncEAAAAAnEAfgGTc3EAfgACc3EAfgAHAAAAAHcEAAAAAHhxAH4AJXNxAH4AAnNxAH4ABwAAAAJ3BAAAAAJzcQB+AAJzcQB+AAcAAAAAdwQAAAAAeHEAfgAlcQB+AhdxAH4CFXhxAH4AN3NxAH4AAnNxAH4ABwAAAAJ3BAAAAAJxAH4CF3NxAH4AAnNxAH4ABwAAAAB3BAAAAAB4cQB+AYhxAH4CG3hxAH4AR3B4cQB+ADdzcQB+AAJzcQB+AAcAAAACdwQAAAACcQB+AhNxAH4CHXhxAH4AR3B4cQB+ADdxAH4BfXEAfgGReHEAfgBHc3EAfgACc3EAfgAHAAAAAncEAAAAAnNxAH4AAnNxAH4ABwAAAAJ3BAAAAAJzcQB+AAJzcQB+AAcAAAACdwQAAAACc3EAfgACc3EAfgAHAAAAAHcEAAAAAHhxAH4AGXEAfgIlc3EAfgACc3EAfgAHAAAAAncEAAAAAnNxAH4AAnNxAH4ABwAAAAJ3BAAAAAJzcQB+AAJzcQB+AAcAAAAAdwQAAAAAeHEAfgAZcQB+AitzcQB+AAJzcQB+AAcAAAACdwQAAAACc3EAfgACc3EAfgAHAAAAAHcEAAAAAHhxAH4AJXEAfgIvc3EAfgACc3EAfgAHAAAAAncEAAAAAnNxAH4AAnNxAH4ABwAAAAJ3BAAAAAJzcQB+AAJzcQB+AAcAAAACdwQAAAACc3EAfgACc3EAfgAHAAAAAHcEAAAAAHhxAH4AGXEAfgI3c3EAfgACc3EAfgAHAAAAAHcEAAAAAHhxAH4AJXEAfgI3eHEAfgAzcQB+AjVzcQB+AAJzcQB+AAcAAAAAdwQAAAAAeHEAfgAlcQB+AjV4cQB+ADdxAH4CM3NxAH4AAnNxAH4ABwAAAAJ3BAAAAAJzcQB+AAJzcQB+AAcAAAACdwQAAAACc3EAfgACc3EAfgAHAAAAAHcEAAAAAHhxAH4AGXEAfgJBc3EAfgACc3EAfgAHAAAAAHcEAAAAAHhxAH4AJXEAfgJBeHEAfgAzcQB+Aj9zcQB+AAJzcQB+AAcAAAAAdwQAAAAAeHEAfgAlcQB+Aj94cQB+ADdxAH4CM3hxAH4AR3EAfgIveHEAfgBHcQB+Ait4cQB+ADNxAH4CKXNxAH4AAnNxAH4ABwAAAAB3BAAAAAB4cQB+ACVxAH4CKXhxAH4AN3EAfgIleHEAfgAzcQB+AiNxAH4A5XhxAH4AM3EAfgIhcQB+AX14cQB+ADNzcQB+AAJzcQB+AAcAAAACdwQAAAACcQB+AiFxAH4CFXhxAH4AN3NxAH4AAnNxAH4ABwAAAAJ3BAAAAAJxAH4CS3EAfgIdeHEAfgBHcHhxAH4AM3NxAH4AAnNxAH4ABwAAAAJ3BAAAAAJxAH4Be3EAfgIVeHEAfgA3c3EAfgACc3EAfgAHAAAAAncEAAAAAnEAfgJPcQB+Ah14cQB+AEdweHEAfgA3c3EAfgACc3EAfgAHAAAAAncEAAAAAnNxAH4AAnNxAH4ABwAAAAB3BAAAAAB4cQB+ACVxAH4CU3EAfgDteHEAfgBHc3EAfgACc3EAfgAHAAAAAncEAAAAAnNxAH4AAnNxAH4ABwAAAAJ3BAAAAAJzcQB+AAJzcQB+AAcAAAAAdwQAAAAAeHEAfgAZcQB+AllzcQB+AAJzcQB+AAcAAAACdwQAAAACc3EAfgACc3EAfgAHAAAAAncEAAAAAnNxAH4AAnNxAH4ABwAAAAB3BAAAAAB4cQB+ABlxAH4CX3NxAH4AAnNxAH4ABwAAAAJ3BAAAAAJzcQB+AAJzcQB+AAcAAAAAdwQAAAAAeHEAfgAlcQB+AmNzcQB+AAJzcQB+AAcAAAACdwQAAAACc3EAfgACc3EAfgAHAAAAAncEAAAAAnNxAH4AAnNxAH4ABwAAAAJ3BAAAAAJzcQB+AAJzcQB+AAcAAAAAdwQAAAAAeHEAfgAZcQB+AmtzcQB+AAJzcQB+AAcAAAAAdwQAAAAAeHEAfgAlcQB+Amt4cQB+ADNxAH4CaXNxAH4AAnNxAH4ABwAAAAB3BAAAAAB4cQB+ACVxAH4CaXhxAH4AN3EAfgJnc3EAfgACc3EAfgAHAAAAAncEAAAAAnNxAH4AAnNxAH4ABwAAAAJ3BAAAAAJzcQB+AAJzcQB+AAcAAAAAdwQAAAAAeHEAfgAZcQB+AnVzcQB+AAJzcQB+AAcAAAAAdwQAAAAAeHEAfgAlcQB+AnV4cQB+ADNxAH4Cc3NxAH4AAnNxAH4ABwAAAAB3BAAAAAB4cQB+ACVxAH4Cc3hxAH4AN3EAfgJneHEAfgBHcQB+AmN4cQB+AEdxAH4CX3hxAH4AM3EAfgJdc3EAfgACc3EAfgAHAAAAAncEAAAAAnNxAH4AAnNxAH4ABwAAAAJ3BAAAAAJzcQB+AAJzcQB+AAcAAAACdwQAAAACc3EAfgACc3EAfgAHAAAAAHcEAAAAAHhxAH4AGXEAfgKBc3EAfgACc3EAfgAHAAAAAncEAAAAAnNxAH4AAnNxAH4ABwAAAAJ3BAAAAAJzcQB+AAJzcQB+AAcAAAAAdwQAAAAAeHEAfgAZcQB+AodzcQB+AAJzcQB+AAcAAAAAdwQAAAAAeHEAfgAlcQB+Aod4cQB+ADNxAH4ChXNxAH4AAnNxAH4ABwAAAAB3BAAAAAB4cQB+ACVxAH4ChXhxAH4AN3EAfgKBeHEAfgAzcQB+An9zcQB+AAJzcQB+AAcAAAACdwQAAAACc3EAfgACc3EAfgAHAAAAAncEAAAAAnNxAH4AAnNxAH4ABwAAAAB3BAAAAAB4cQB+ABlxAH4CkXNxAH4AAnNxAH4ABwAAAAB3BAAAAAB4cQB+ACVxAH4CkXhxAH4AM3EAfgKPc3EAfgACc3EAfgAHAAAAAHcEAAAAAHhxAH4AJXEAfgKPeHEAfgA3cQB+An94cQB+ADNxAH4CfXNxAH4AAnNxAH4ABwAAAAJ3BAAAAAJzcQB+AAJzcQB+AAcAAAACdwQAAAACc3EAfgACc3EAfgAHAAAAAncEAAAAAnNxAH4AAnNxAH4ABwAAAAB3BAAAAAB4cQB+ABlxAH4CnXNxAH4AAnNxAH4ABwAAAAB3BAAAAAB4cQB+ACVxAH4CnXhxAH4AM3EAfgKbc3EAfgACc3EAfgAHAAAAAHcEAAAAAHhxAH4AJXEAfgKbeHEAfgA3cQB+AplzcQB+AAJzcQB+AAcAAAACdwQAAAACc3EAfgACc3EAfgAHAAAAAncEAAAAAnNxAH4AAnNxAH4ABwAAAAJ3BAAAAAJzcQB+AAJzcQB+AAcAAAAAdwQAAAAAeHEAfgAZcQB+AqlzcQB+AAJzcQB+AAcAAAAAdwQAAAAAeHEAfgAlcQB+Aql4cQB+ADNxAH4Cp3NxAH4AAnNxAH4ABwAAAAB3BAAAAAB4cQB+ACVxAH4Cp3hxAH4AN3EAfgKlc3EAfgACc3EAfgAHAAAAAncEAAAAAnNxAH4AAnNxAH4ABwAAAAJ3BAAAAAJzcQB+AAJzcQB+AAcAAAAAdwQAAAAAeHEAfgAZcQB+ArNzcQB+AAJzcQB+AAcAAAAAdwQAAAAAeHEAfgAlcQB+ArN4cQB+ADNxAH4CsXNxAH4AAnNxAH4ABwAAAAB3BAAAAAB4cQB+ACVxAH4CsXhxAH4AN3EAfgKleHEAfgBHcQB+Apl4cQB+AEdxAH4CfXhxAH4AM3EAfgJdeHEAfgA3cQB+All4cQB+ADNxAH4CV3EAfgJTeHEAfgAzc3EAfgACc3EAfgAHAAAAAncEAAAAAnEAfgJXcQB+AX14cQB+ADNzcQB+AAJzcQB+AAcAAAACdwQAAAACcQB+ArtxAH4CFXhxAH4AN3NxAH4AAnNxAH4ABwAAAAJ3BAAAAAJxAH4CvXEAfgIdeHEAfgBHcHhxAH4AR3EAfgIjeHEAfgAzc3EAfgACc3EAfgAHAAAAAncEAAAAAnEAfgDjcQB+AX14cQB+ADNzcQB+AAJzcQB+AAcAAAACdwQAAAACcQB+AsFxAH4CFXhxAH4AN3NxAH4AAnNxAH4ABwAAAAJ3BAAAAAJxAH4Cw3EAfgIdeHEAfgBHcHhxAH4AR3NxAH4AAnNxAH4ABwAAAAJ3BAAAAAJzcQB+AAJzcQB+AAcAAAAAdwQAAAAAeHEAfgAlcQB+AsdxAH4AdXhxAH4AM3NxAH4AAnNxAH4ABwAAAAJ3BAAAAAJzcQB+AAJzcQB+AAcAAAACdwQAAAACc3EAfgACc3EAfgAHAAAAAHcEAAAAAHhxAH4AGXEAfgLNc3EAfgACc3EAfgAHAAAAAncEAAAAAnNxAH4AAnNxAH4ABwAAAAB3BAAAAAB4cQB+ACVxAH4C0XNxAH4AAnNxAH4ABwAAAAJ3BAAAAAJzcQB+AAJzcQB+AAcAAAACdwQAAAACc3EAfgACc3EAfgAHAAAAAncEAAAAAnNxAH4AAnNxAH4ABwAAAAB3BAAAAAB4cQB+ABlxAH4C2XNxAH4AAnNxAH4ABwAAAAB3BAAAAAB4cQB+ACVxAH4C2XhxAH4AM3EAfgLXc3EAfgACc3EAfgAHAAAAAHcEAAAAAHhxAH4AJXEAfgLXeHEAfgA3cQB+AtVzcQB+AAJzcQB+AAcAAAACdwQAAAACc3EAfgACc3EAfgAHAAAAAncEAAAAAnNxAH4AAnNxAH4ABwAAAAB3BAAAAAB4cQB+ABlxAH4C43NxAH4AAnNxAH4ABwAAAAB3BAAAAAB4cQB+ACVxAH4C43hxAH4AM3EAfgLhc3EAfgACc3EAfgAHAAAAAHcEAAAAAHhxAH4AJXEAfgLheHEAfgA3cQB+AtV4cQB+AEdxAH4C0XhxAH4AR3EAfgLNeHEAfgAzcQB+AstxAH4Cx3hxAH4AN3NxAH4AAnNxAH4ABwAAAAJ3BAAAAAJzcQB+AAJzcQB+AAcAAAAAdwQAAAAAeHEAfgAZcQB+AutxAH4Cy3hxAH4AM3NxAH4AAnNxAH4ABwAAAAJ3BAAAAAJxAH4C63EAfgDleHEAfgAzc3EAfgACc3EAfgAHAAAAAncEAAAAAnEAfgLvcQB+AX14cQB+ADNzcQB+AAJzcQB+AAcAAAACdwQAAAACcQB+AvFxAH4CFXhxAH4AN3NxAH4AAnNxAH4ABwAAAAJ3BAAAAAJxAH4C83EAfgIdeHEAfgBHcHhxAH4AM3NxAH4AAnNxAH4ABwAAAAJ3BAAAAAJzcQB+AAJzcQB+AAcAAAACdwQAAAACc3EAfgACc3EAfgAHAAAAAHcEAAAAAHhxAH4AGXEAfgL5c3EAfgACc3EAfgAHAAAAAncEAAAAAnNxAH4AAnNxAH4ABwAAAAB3BAAAAAB4cQB+ACVxAH4C/XNxAH4AAnNxAH4ABwAAAAJ3BAAAAAJzcQB+AAJzcQB+AAcAAAACdwQAAAACc3EAfgACc3EAfgAHAAAAAncEAAAAAnNxAH4AAnNxAH4ABwAAAAB3BAAAAAB4cQB+ABlxAH4DBXNxAH4AAnNxAH4ABwAAAAB3BAAAAAB4cQB+ACVxAH4DBXhxAH4AM3EAfgMDc3EAfgACc3EAfgAHAAAAAHcEAAAAAHhxAH4AJXEAfgMDeHEAfgA3cQB+AwFzcQB+AAJzcQB+AAcAAAACdwQAAAACc3EAfgACc3EAfgAHAAAAAncEAAAAAnNxAH4AAnNxAH4ABwAAAAB3BAAAAAB4cQB+ABlxAH4DD3NxAH4AAnNxAH4ABwAAAAB3BAAAAAB4cQB+ACVxAH4DD3hxAH4AM3EAfgMNc3EAfgACc3EAfgAHAAAAAHcEAAAAAHhxAH4AJXEAfgMNeHEAfgA3cQB+AwF4cQB+AEdxAH4C/XhxAH4AR3EAfgL5eHEAfgAzcQB+AvdxAH4Ac3hxAH4AN3NxAH4AAnNxAH4ABwAAAAJ3BAAAAAJzcQB+AAJzcQB+AAcAAAAAdwQAAAAAeHEAfgAZcQB+AxdxAH4C93hxAH4AM3NxAH4AAnNxAH4ABwAAAAJ3BAAAAAJxAH4DF3EAfgDleHEAfgAzc3EAfgACc3EAfgAHAAAAAncEAAAAAnEAfgMbcQB+AX14cQB+ADNzcQB+AAJzcQB+AAcAAAACdwQAAAACcQB+Ax1xAH4CFXhxAH4AN3NxAH4AAnNxAH4ABwAAAAJ3BAAAAAJxAH4DH3EAfgIdeHEAfgBHcHhxAH4AM3EAfgBTcQB+AHV4cQB+ADNzcQB+AAJzcQB+AAcAAAACdwQAAAACc3EAfgACc3EAfgAHAAAAAncEAAAAAnNxAH4AAnNxAH4ABwAAAAB3BAAAAAB4cQB+ABlxAH4DJXNxAH4AAnNxAH4ABwAAAAJ3BAAAAAJzcQB+AAJzcQB+AAcAAAACdwQAAAACc3EAfgACc3EAfgAHAAAAAHcEAAAAAHhxAH4AGXEAfgMrc3EAfgACc3EAfgAHAAAAAHcEAAAAAHhxAH4BiHEAfgMreHEAfgAzcQB+AylxAH4AJ3hxAH4AR3EAfgMleHEAfgAzcQB+AyNxAH4AU3hxAH4AN3NxAH4AAnNxAH4ABwAAAAJ3BAAAAAJzcQB+AAJzcQB+AAcAAAAAdwQAAAAAeHEAfgAZcQB+AzFxAH4DI3hxAH4AM3NxAH4AAnNxAH4ABwAAAAJ3BAAAAAJxAH4DMXEAfgDleHEAfgAzc3EAfgACc3EAfgAHAAAAAncEAAAAAnEAfgM1cQB+AX14cQB+ADNzcQB+AAJzcQB+AAcAAAACdwQAAAACcQB+AzdxAH4CFXhxAH4AN3NxAH4AAnNxAH4ABwAAAAJ3BAAAAAJxAH4DOXEAfgIdeHEAfgBHcHhxAH4AN3NxAH4AAnNxAH4ABwAAAAJ3BAAAAAJzcQB+AAJzcQB+AAcAAAAAdwQAAAAAeHEAfgAZcQB+Az1xAH4AUXhxAH4AM3NxAH4AAnNxAH4ABwAAAAJ3BAAAAAJxAH4DPXEAfgDleHEAfgAzc3EAfgACc3EAfgAHAAAAAncEAAAAAnEAfgNBcQB+AX14cQB+ADNzcQB+AAJzcQB+AAcAAAACdwQAAAACcQB+A0NxAH4CFXhxAH4AN3NxAH4AAnNxAH4ABwAAAAJ3BAAAAAJxAH4DRXEAfgIdeHEAfgBHcHhxAH4AR3EAfgMpeHEAfgBHcQB+AB14cQB+ADNxAH4AG3EAfgBTeHEAfgA3c3EAfgACc3EAfgAHAAAAAncEAAAAAnNxAH4AAnNxAH4ABwAAAAB3BAAAAAB4cQB+ACVxAH4DSXEAfgAbeHEAfgAzc3EAfgACc3EAfgAHAAAAAncEAAAAAnEAfgNJcQB+AOV4cQB+ADNzcQB+AAJzcQB+AAcAAAACdwQAAAACcQB+A01xAH4BfXhxAH4AM3NxAH4AAnNxAH4ABwAAAAJ3BAAAAAJxAH4DT3EAfgIVeHEAfgA3c3EAfgACc3EAfgAHAAAAAncEAAAAAnEAfgNRcQB+Ah14cQB+AEdweHEAfgAzcQB+ABNxAH4A5XhxAH4AM3EAfgARcQB+AX14cQB+ADNxAH4AD3EAfgIVeHEAfgA3cQB+AA1xAH4CHXhxAH4AR3BzcQB+AAJzcQB+AAcAAAAAdwQAAAAAeHEAfgAZcHNxAH4AAnNxAH4ABwAAAAB3BAAAAAB4c3EAfgGHP+AAAAAAAABweA==";
    "rO0ABXNyABFqYXZhLnV0aWwuQ29sbFNlcleOq7Y6G6gRAwABSQADdGFneHAAAAAEdwQAAAAEc3IAN2lvLmdpdGh1Yi5lcmljbWVkdmV0LmpnZWEuY29yZS5yZXByZXNlbnRhdGlvbi50cmVlLlRyZWUKs7/qnQrEZQIAA0wACGNoaWxkcmVudAAQTGphdmEvdXRpbC9MaXN0O0wAB2NvbnRlbnR0ABJMamF2YS9sYW5nL09iamVjdDtMAAZwYXJlbnR0ADlMaW8vZ2l0aHViL2VyaWNtZWR2ZXQvamdlYS9jb3JlL3JlcHJlc2VudGF0aW9uL3RyZWUvVHJlZTt4cHNyABNqYXZhLnV0aWwuQXJyYXlMaXN0eIHSHZnHYZ0DAAFJAARzaXpleHAAAAAAdwQAAAAAeHNyAEtpby5naXRodWIuZXJpY21lZHZldC5qZ2VhLmNvcmUucmVwcmVzZW50YXRpb24udHJlZS5udW1lcmljLkVsZW1lbnQkVmFyaWFibGUAAAAAAAAAAAIAAUwABG5hbWV0ABJMamF2YS9sYW5nL1N0cmluZzt4cHQAA3gxNnBzcQB+AAJzcQB+AAcAAAACdwQAAAACc3EAfgACc3EAfgAHAAAAAncEAAAAAnNxAH4AAnNxAH4ABwAAAAJ3BAAAAAJzcQB+AAJzcQB+AAcAAAACdwQAAAACc3EAfgACc3EAfgAHAAAAAncEAAAAAnNxAH4AAnNxAH4ABwAAAAB3BAAAAAB4c3EAfgAJdAADeDE1cQB+ABVzcQB+AAJzcQB+AAcAAAACdwQAAAACc3EAfgACc3EAfgAHAAAAAncEAAAAAnNxAH4AAnNxAH4ABwAAAAB3BAAAAAB4cQB+ABlxAH4AHXNxAH4AAnNxAH4ABwAAAAJ3BAAAAAJzcQB+AAJzcQB+AAcAAAAAdwQAAAAAeHNxAH4ACXQAA3gwNXEAfgAhc3EAfgACc3EAfgAHAAAAAncEAAAAAnNxAH4AAnNxAH4ABwAAAAJ3BAAAAAJzcQB+AAJzcQB+AAcAAAACdwQAAAACc3EAfgACc3EAfgAHAAAAAHcEAAAAAHhxAH4AGXEAfgArc3EAfgACc3EAfgAHAAAAAHcEAAAAAHhxAH4AJXEAfgAreH5yAEtpby5naXRodWIuZXJpY21lZHZldC5qZ2VhLmNvcmUucmVwcmVzZW50YXRpb24udHJlZS5udW1lcmljLkVsZW1lbnQkT3BlcmF0b3IAAAAAAAAAABIAAHhyAA5qYXZhLmxhbmcuRW51bQAAAAAAAAAAEgAAeHB0AAtTVUJUUkFDVElPTnEAfgApc3EAfgACc3EAfgAHAAAAAHcEAAAAAHhxAH4AJXEAfgApeH5xAH4AMXQADk1VTFRJUExJQ0FUSU9OcQB+ACdzcQB+AAJzcQB+AAcAAAACdwQAAAACc3EAfgACc3EAfgAHAAAAAncEAAAAAnNxAH4AAnNxAH4ABwAAAAB3BAAAAAB4cQB+ABlxAH4AO3NxAH4AAnNxAH4ABwAAAAB3BAAAAAB4cQB+ACVxAH4AO3hxAH4AM3EAfgA5c3EAfgACc3EAfgAHAAAAAHcEAAAAAHhxAH4AJXEAfgA5eHEAfgA3c3EAfgACc3EAfgAHAAAAAncEAAAAAnNxAH4AAnNxAH4ABwAAAAB3BAAAAAB4cQB+ABlxAH4AQ3EAfgA5eH5xAH4AMXQACEFERElUSU9Oc3EAfgACc3EAfgAHAAAAAncEAAAAAnNxAH4AAnNxAH4ABwAAAAB3BAAAAAB4cQB+ACVxAH4ASXEAfgBDeHEAfgBHc3EAfgACc3EAfgAHAAAAAncEAAAAAnNxAH4AAnNxAH4ABwAAAAB3BAAAAAB4cQB+ABlxAH4ATXEAfgBJeHEAfgAzc3EAfgACc3EAfgAHAAAAAncEAAAAAnEAfgBNc3EAfgACc3EAfgAHAAAAAncEAAAAAnNxAH4AAnNxAH4ABwAAAAJ3BAAAAAJzcQB+AAJzcQB+AAcAAAACdwQAAAACc3EAfgACc3EAfgAHAAAAAHcEAAAAAHhxAH4AGXEAfgBXc3EAfgACc3EAfgAHAAAAAncEAAAAAnNxAH4AAnNxAH4ABwAAAAJ3BAAAAAJzcQB+AAJzcQB+AAcAAAAAdwQAAAAAeHEAfgAZcQB+AF1zcQB+AAJzcQB+AAcAAAAAdwQAAAAAeHEAfgAlcQB+AF14cQB+ADNxAH4AW3NxAH4AAnNxAH4ABwAAAAB3BAAAAAB4cQB+ACVxAH4AW3hxAH4AN3EAfgBXeHEAfgAzcQB+AFVzcQB+AAJzcQB+AAcAAAACdwQAAAACc3EAfgACc3EAfgAHAAAAAncEAAAAAnNxAH4AAnNxAH4ABwAAAAB3BAAAAAB4cQB+ABlxAH4AZ3NxAH4AAnNxAH4ABwAAAAB3BAAAAAB4cQB+ACVxAH4AZ3hxAH4AM3EAfgBlc3EAfgACc3EAfgAHAAAAAHcEAAAAAHhxAH4AJXEAfgBleHEAfgA3c3EAfgACc3EAfgAHAAAAAncEAAAAAnNxAH4AAnNxAH4ABwAAAAB3BAAAAAB4cQB+ACVxAH4Ab3EAfgBleHEAfgAzc3EAfgACc3EAfgAHAAAAAncEAAAAAnEAfgBvc3EAfgACc3EAfgAHAAAAAncEAAAAAnNxAH4AAnNxAH4ABwAAAAJ3BAAAAAJzcQB+AAJzcQB+AAcAAAACdwQAAAACc3EAfgACc3EAfgAHAAAAAHcEAAAAAHhxAH4AGXEAfgB5c3EAfgACc3EAfgAHAAAAAHcEAAAAAHhxAH4AJXEAfgB5eHEAfgAzcQB+AHdzcQB+AAJzcQB+AAcAAAAAdwQAAAAAeHEAfgAlcQB+AHd4cQB+ADdxAH4AdXNxAH4AAnNxAH4ABwAAAAJ3BAAAAAJzcQB+AAJzcQB+AAcAAAACdwQAAAACc3EAfgACc3EAfgAHAAAAAncEAAAAAnNxAH4AAnNxAH4ABwAAAAB3BAAAAAB4cQB+ABlxAH4AhXNxAH4AAnNxAH4ABwAAAAB3BAAAAAB4cQB+ACVxAH4AhXhxAH4AM3EAfgCDc3EAfgACc3EAfgAHAAAAAHcEAAAAAHhxAH4AJXEAfgCDeHEAfgA3cQB+AIFzcQB+AAJzcQB+AAcAAAACdwQAAAACc3EAfgACc3EAfgAHAAAAAncEAAAAAnNxAH4AAnNxAH4ABwAAAAB3BAAAAAB4cQB+ABlxAH4Aj3NxAH4AAnNxAH4ABwAAAAB3BAAAAAB4cQB+ACVxAH4Aj3hxAH4AM3EAfgCNc3EAfgACc3EAfgAHAAAAAHcEAAAAAHhxAH4AJXEAfgCNeHEAfgA3cQB+AIF4cQB+AEdzcQB+AAJzcQB+AAcAAAACdwQAAAACc3EAfgACc3EAfgAHAAAAAncEAAAAAnNxAH4AAnNxAH4ABwAAAAJ3BAAAAAJzcQB+AAJzcQB+AAcAAAAAdwQAAAAAeHEAfgAZcQB+AJtzcQB+AAJzcQB+AAcAAAAAdwQAAAAAeHEAfgAlcQB+AJt4cQB+ADNxAH4AmXNxAH4AAnNxAH4ABwAAAAB3BAAAAAB4cQB+ACVxAH4AmXhxAH4AN3EAfgCXcQB+AIF4cQB+AEdzcQB+AAJzcQB+AAcAAAACdwQAAAACc3EAfgACc3EAfgAHAAAAAncEAAAAAnNxAH4AAnNxAH4ABwAAAAJ3BAAAAAJzcQB+AAJzcQB+AAcAAAAAdwQAAAAAeHEAfgAZcQB+AKdzcQB+AAJzcQB+AAcAAAACdwQAAAACc3EAfgACc3EAfgAHAAAAAncEAAAAAnNxAH4AAnNxAH4ABwAAAAB3BAAAAAB4cQB+ABlxAH4ArXNxAH4AAnNxAH4ABwAAAAB3BAAAAAB4cQB+ACVxAH4ArXhxAH4AM3EAfgCrc3EAfgACc3EAfgAHAAAAAHcEAAAAAHhxAH4AJXEAfgCreHEAfgA3cQB+AKd4cQB+ADNxAH4ApXNxAH4AAnNxAH4ABwAAAAJ3BAAAAAJzcQB+AAJzcQB+AAcAAAACdwQAAAACc3EAfgACc3EAfgAHAAAAAHcEAAAAAHhxAH4AGXEAfgC3c3EAfgACc3EAfgAHAAAAAHcEAAAAAHhxAH4AJXEAfgC3eHEAfgAzcQB+ALVzcQB+AAJzcQB+AAcAAAAAdwQAAAAAeHEAfgAlcQB+ALV4cQB+ADdxAH4ApXhxAH4AM3EAfgCjcQB+AJd4cQB+ADNzcQB+AAJzcQB+AAcAAAACdwQAAAACc3EAfgACc3EAfgAHAAAAAncEAAAAAnNxAH4AAnNxAH4ABwAAAAB3BAAAAAB4cQB+ABlxAH4AwXNxAH4AAnNxAH4ABwAAAAJ3BAAAAAJzcQB+AAJzcQB+AAcAAAAAdwQAAAAAeHEAfgAlcQB+AMVzcQB+AAJzcQB+AAcAAAACdwQAAAACc3EAfgACc3EAfgAHAAAAAncEAAAAAnNxAH4AAnNxAH4ABwAAAAJ3BAAAAAJzcQB+AAJzcQB+AAcAAAAAdwQAAAAAeHEAfgAZcQB+AM1zcQB+AAJzcQB+AAcAAAAAdwQAAAAAeHEAfgAlcQB+AM14cQB+ADNxAH4Ay3NxAH4AAnNxAH4ABwAAAAB3BAAAAAB4cQB+ACVxAH4Ay3hxAH4AN3EAfgDJc3EAfgACc3EAfgAHAAAAAncEAAAAAnNxAH4AAnNxAH4ABwAAAAJ3BAAAAAJzcQB+AAJzcQB+AAcAAAAAdwQAAAAAeHEAfgAZcQB+ANdzcQB+AAJzcQB+AAcAAAAAdwQAAAAAeHEAfgAlcQB+ANd4cQB+ADNxAH4A1XNxAH4AAnNxAH4ABwAAAAB3BAAAAAB4cQB+ACVxAH4A1XhxAH4AN3EAfgDJeHEAfgBHcQB+AMV4cQB+AEdxAH4AwXhxAH4AM3EAfgC/cQB+AKN4cQB+ADdzcQB+AAJzcQB+AAcAAAACdwQAAAACc3EAfgACc3EAfgAHAAAAAHcEAAAAAHhxAH4AGXEAfgDfcQB+AL94cQB+ADNzcQB+AAJzcQB+AAcAAAACdwQAAAACcQB+AN9zcQB+AAJzcQB+AAcAAAACdwQAAAACc3EAfgACc3EAfgAHAAAAAncEAAAAAnNxAH4AAnNxAH4ABwAAAAB3BAAAAAB4cQB+ABlxAH4A53NxAH4AAnNxAH4ABwAAAAB3BAAAAAB4cQB+ACVxAH4A53hxAH4AN3EAfgDlc3EAfgACc3EAfgAHAAAAAncEAAAAAnNxAH4AAnNxAH4ABwAAAAJ3BAAAAAJzcQB+AAJzcQB+AAcAAAAAdwQAAAAAeHEAfgAZcQB+AO9zcQB+AAJzcQB+AAcAAAACdwQAAAACc3EAfgACc3EAfgAHAAAAAncEAAAAAnNxAH4AAnNxAH4ABwAAAAB3BAAAAAB4cQB+ABlxAH4A9XNxAH4AAnNxAH4ABwAAAAB3BAAAAAB4cQB+ACVxAH4A9XhxAH4AM3EAfgDzc3EAfgACc3EAfgAHAAAAAHcEAAAAAHhxAH4AJXEAfgDzeHEAfgA3cQB+AO94cQB+ADNxAH4A7XNxAH4AAnNxAH4ABwAAAAB3BAAAAAB4cQB+ACVzcQB+AAJzcQB+AAcAAAACdwQAAAACc3EAfgACc3EAfgAHAAAAAncEAAAAAnNxAH4AAnNxAH4ABwAAAAB3BAAAAAB4cQB+ABlxAH4BAXNxAH4AAnNxAH4ABwAAAAB3BAAAAAB4cQB+ACVxAH4BAXhxAH4AM3EAfgD/cQB+AP14cQB+ADdzcQB+AAJzcQB+AAcAAAACdwQAAAACc3EAfgACc3EAfgAHAAAAAncEAAAAAnNxAH4AAnNxAH4ABwAAAAB3BAAAAAB4cQB+ABlxAH4BCXNxAH4AAnNxAH4ABwAAAAB3BAAAAAB4cQB+ACVxAH4BCXhxAH4AN3EAfgEHcQB+AP94cQB+AEdzcQB+AAJzcQB+AAcAAAACdwQAAAACc3EAfgACc3EAfgAHAAAAAncEAAAAAnNxAH4AAnNxAH4ABwAAAAB3BAAAAAB4cQB+ABlxAH4BEXNxAH4AAnNxAH4ABwAAAAJ3BAAAAAJzcQB+AAJzcQB+AAcAAAACdwQAAAACc3EAfgACc3EAfgAHAAAAAHcEAAAAAHhxAH4AGXEAfgEXc3EAfgACc3EAfgAHAAAAAncEAAAAAnNxAH4AAnNxAH4ABwAAAAB3BAAAAAB4cQB+ACVxAH4BG3NxAH4AAnNxAH4ABwAAAAJ3BAAAAAJzcQB+AAJzcQB+AAcAAAACdwQAAAACc3EAfgACc3EAfgAHAAAAAncEAAAAAnNxAH4AAnNxAH4ABwAAAAB3BAAAAAB4cQB+ABlxAH4BI3NxAH4AAnNxAH4ABwAAAAB3BAAAAAB4cQB+ACVxAH4BI3hxAH4AM3EAfgEhc3EAfgACc3EAfgAHAAAAAHcEAAAAAHhxAH4AJXEAfgEheHEAfgA3cQB+AR9zcQB+AAJzcQB+AAcAAAACdwQAAAACc3EAfgACc3EAfgAHAAAAAncEAAAAAnNxAH4AAnNxAH4ABwAAAAB3BAAAAAB4cQB+ABlxAH4BLXNxAH4AAnNxAH4ABwAAAAB3BAAAAAB4cQB+ACVxAH4BLXhxAH4AM3EAfgErc3EAfgACc3EAfgAHAAAAAHcEAAAAAHhxAH4AJXEAfgEreHEAfgA3cQB+AR94cQB+AEdxAH4BG3hxAH4AR3EAfgEXeHEAfgAzcQB+ARVzcQB+AAJzcQB+AAcAAAACdwQAAAACc3EAfgACc3EAfgAHAAAAAncEAAAAAnNxAH4AAnNxAH4ABwAAAAJ3BAAAAAJzcQB+AAJzcQB+AAcAAAAAdwQAAAAAeHEAfgAZcQB+ATlzcQB+AAJzcQB+AAcAAAACdwQAAAACc3EAfgACc3EAfgAHAAAAAncEAAAAAnNxAH4AAnNxAH4ABwAAAAB3BAAAAAB4cQB+ABlxAH4BP3NxAH4AAnNxAH4ABwAAAAB3BAAAAAB4cQB+ACVxAH4BP3hxAH4AM3EAfgE9c3EAfgACc3EAfgAHAAAAAHcEAAAAAHhxAH4AJXEAfgE9eHEAfgA3cQB+ATl4cQB+ADNxAH4BN3NxAH4AAnNxAH4ABwAAAAJ3BAAAAAJzcQB+AAJzcQB+AAcAAAACdwQAAAACc3EAfgACc3EAfgAHAAAAAHcEAAAAAHhxAH4AGXEAfgFJc3EAfgACc3EAfgAHAAAAAHcEAAAAAHhxAH4AJXEAfgFJeHEAfgAzcQB+AUdzcQB+AAJzcQB+AAcAAAAAdwQAAAAAeHEAfgAlcQB+AUd4cQB+ADdxAH4BN3hxAH4AM3EAfgE1c3EAfgACc3EAfgAHAAAAAncEAAAAAnNxAH4AAnNxAH4ABwAAAAJ3BAAAAAJzcQB+AAJzcQB+AAcAAAACdwQAAAACc3EAfgACc3EAfgAHAAAAAHcEAAAAAHhxAH4AGXEAfgFVc3EAfgACc3EAfgAHAAAAAncEAAAAAnNxAH4AAnNxAH4ABwAAAAJ3BAAAAAJzcQB+AAJzcQB+AAcAAAAAdwQAAAAAeHEAfgAZcQB+AVtzcQB+AAJzcQB+AAcAAAAAdwQAAAAAeHEAfgAlcQB+AVt4cQB+ADNxAH4BWXNxAH4AAnNxAH4ABwAAAAB3BAAAAAB4cQB+ACVxAH4BWXhxAH4AN3EAfgFVeHEAfgAzcQB+AVNzcQB+AAJzcQB+AAcAAAAAdwQAAAAAeHEAfgAlcQB+AVN4cQB+ADdxAH4BUXNxAH4AAnNxAH4ABwAAAAJ3BAAAAAJzcQB+AAJzcQB+AAcAAAACdwQAAAACc3EAfgACc3EAfgAHAAAAAncEAAAAAnNxAH4AAnNxAH4ABwAAAAB3BAAAAAB4cQB+ABlxAH4BaXNxAH4AAnNxAH4ABwAAAAB3BAAAAAB4cQB+ACVxAH4BaXhxAH4AM3EAfgFnc3EAfgACc3EAfgAHAAAAAHcEAAAAAHhxAH4AJXEAfgFneHEAfgA3cQB+AWVzcQB+AAJzcQB+AAcAAAACdwQAAAACc3EAfgACc3EAfgAHAAAAAncEAAAAAnNxAH4AAnNxAH4ABwAAAAB3BAAAAAB4cQB+ABlxAH4Bc3NxAH4AAnNxAH4ABwAAAAB3BAAAAAB4cQB+ACVxAH4Bc3hxAH4AM3EAfgFxc3EAfgACc3EAfgAHAAAAAHcEAAAAAHhxAH4AJXEAfgFxeHEAfgA3cQB+AWV4cQB+AEdxAH4BUXhxAH4AR3EAfgE1eHEAfgAzcQB+ARV4cQB+ADdxAH4BEXhxAH4AM3EAfgEPcQB+AQd4cQB+ADNzcQB+AAJzcQB+AAcAAAACdwQAAAACcQB+AQ9zcQB+AAJzcQB+AAcAAAACdwQAAAACc3EAfgACc3EAfgAHAAAAAncEAAAAAnNxAH4AAnNxAH4ABwAAAAJ3BAAAAAJzcQB+AAJzcQB+AAcAAAAAdwQAAAAAeHEAfgAZcQB+AYFzcQB+AAJzcQB+AAcAAAAAdwQAAAAAeHNyAEtpby5naXRodWIuZXJpY21lZHZldC5qZ2VhLmNvcmUucmVwcmVzZW50YXRpb24udHJlZS5udW1lcmljLkVsZW1lbnQkQ29uc3RhbnQAAAAAAAAAAAIAAUQABXZhbHVleHAAAAAAAAAAAHEAfgGBeHEAfgAzcQB+AX9zcQB+AAJzcQB+AAcAAAAAdwQAAAAAeHEAfgAlc3EAfgACc3EAfgAHAAAAAncEAAAAAnNxAH4AAnNxAH4ABwAAAAB3BAAAAAB4cQB+ACVxAH4Bi3EAfgGJeHEAfgA3c3EAfgACc3EAfgAHAAAAAncEAAAAAnEAfgGLc3EAfgACc3EAfgAHAAAAAHcEAAAAAHhxAH4BiHEAfgGPeHEAfgBHc3EAfgACc3EAfgAHAAAAAncEAAAAAnNxAH4AAnNxAH4ABwAAAAJ3BAAAAAJzcQB+AAJzcQB+AAcAAAACdwQAAAACc3EAfgACc3EAfgAHAAAAAHcEAAAAAHhxAH4AGXEAfgGXc3EAfgACc3EAfgAHAAAAAncEAAAAAnNxAH4AAnNxAH4ABwAAAAJ3BAAAAAJzcQB+AAJzcQB+AAcAAAAAdwQAAAAAeHEAfgAZcQB+AZ1zcQB+AAJzcQB+AAcAAAACdwQAAAACc3EAfgACc3EAfgAHAAAAAHcEAAAAAHhxAH4AJXEAfgGhc3EAfgACc3EAfgAHAAAAAncEAAAAAnNxAH4AAnNxAH4ABwAAAAJ3BAAAAAJzcQB+AAJzcQB+AAcAAAACdwQAAAACc3EAfgACc3EAfgAHAAAAAHcEAAAAAHhxAH4AGXEAfgGpc3EAfgACc3EAfgAHAAAAAHcEAAAAAHhxAH4AJXEAfgGpeHEAfgAzcQB+AadzcQB+AAJzcQB+AAcAAAAAdwQAAAAAeHEAfgAlcQB+Aad4cQB+ADdxAH4BpXNxAH4AAnNxAH4ABwAAAAJ3BAAAAAJzcQB+AAJzcQB+AAcAAAACdwQAAAACc3EAfgACc3EAfgAHAAAAAHcEAAAAAHhxAH4AGXEAfgGzc3EAfgACc3EAfgAHAAAAAHcEAAAAAHhxAH4AJXEAfgGzeHEAfgAzcQB+AbFzcQB+AAJzcQB+AAcAAAAAdwQAAAAAeHEAfgAlcQB+AbF4cQB+ADdxAH4BpXhxAH4AR3EAfgGheHEAfgBHcQB+AZ14cQB+ADNxAH4Bm3NxAH4AAnNxAH4ABwAAAAJ3BAAAAAJzcQB+AAJzcQB+AAcAAAACdwQAAAACc3EAfgACc3EAfgAHAAAAAncEAAAAAnNxAH4AAnNxAH4ABwAAAAB3BAAAAAB4cQB+ABlxAH4Bv3NxAH4AAnNxAH4ABwAAAAJ3BAAAAAJzcQB+AAJzcQB+AAcAAAACdwQAAAACc3EAfgACc3EAfgAHAAAAAHcEAAAAAHhxAH4AGXEAfgHFc3EAfgACc3EAfgAHAAAAAHcEAAAAAHhxAH4AJXEAfgHFeHEAfgAzcQB+AcNzcQB+AAJzcQB+AAcAAAAAdwQAAAAAeHEAfgAlcQB+AcN4cQB+ADdxAH4Bv3hxAH4AM3EAfgG9c3EAfgACc3EAfgAHAAAAAncEAAAAAnNxAH4AAnNxAH4ABwAAAAJ3BAAAAAJzcQB+AAJzcQB+AAcAAAAAdwQAAAAAeHEAfgAZcQB+Ac9zcQB+AAJzcQB+AAcAAAAAdwQAAAAAeHEAfgAlcQB+Ac94cQB+ADNxAH4BzXNxAH4AAnNxAH4ABwAAAAB3BAAAAAB4cQB+ACVxAH4BzXhxAH4AN3EAfgG9eHEAfgAzcQB+AbtzcQB+AAJzcQB+AAcAAAACdwQAAAACc3EAfgACc3EAfgAHAAAAAncEAAAAAnNxAH4AAnNxAH4ABwAAAAJ3BAAAAAJzcQB+AAJzcQB+AAcAAAAAdwQAAAAAeHEAfgAZcQB+AdtzcQB+AAJzcQB+AAcAAAAAdwQAAAAAeHEAfgAlcQB+Adt4cQB+ADNxAH4B2XNxAH4AAnNxAH4ABwAAAAB3BAAAAAB4cQB+ACVxAH4B2XhxAH4AN3EAfgHXc3EAfgACc3EAfgAHAAAAAncEAAAAAnNxAH4AAnNxAH4ABwAAAAJ3BAAAAAJzcQB+AAJzcQB+AAcAAAACdwQAAAACc3EAfgACc3EAfgAHAAAAAHcEAAAAAHhxAH4AGXEAfgHnc3EAfgACc3EAfgAHAAAAAHcEAAAAAHhxAH4AJXEAfgHneHEAfgAzcQB+AeVzcQB+AAJzcQB+AAcAAAAAdwQAAAAAeHEAfgAlcQB+AeV4cQB+ADdxAH4B43NxAH4AAnNxAH4ABwAAAAJ3BAAAAAJzcQB+AAJzcQB+AAcAAAACdwQAAAACc3EAfgACc3EAfgAHAAAAAHcEAAAAAHhxAH4AGXEAfgHxc3EAfgACc3EAfgAHAAAAAHcEAAAAAHhxAH4AJXEAfgHxeHEAfgAzcQB+Ae9zcQB+AAJzcQB+AAcAAAAAdwQAAAAAeHEAfgAlcQB+Ae94cQB+ADdxAH4B43hxAH4AR3EAfgHXeHEAfgBHcQB+Abt4cQB+ADNxAH4Bm3hxAH4AN3EAfgGXeHEAfgAzcQB+AZVzcQB+AAJzcQB+AAcAAAACdwQAAAACc3EAfgACc3EAfgAHAAAAAncEAAAAAnNxAH4AAnNxAH4ABwAAAAB3BAAAAAB4cQB+ABlxAH4B+3NxAH4AAnNxAH4ABwAAAAB3BAAAAAB4cQB+ACVxAH4B+3hxAH4AN3EAfgH5c3EAfgACc3EAfgAHAAAAAncEAAAAAnNxAH4AAnNxAH4ABwAAAAJ3BAAAAAJzcQB+AAJzcQB+AAcAAAAAdwQAAAAAeHEAfgAZcQB+AgNzcQB+AAJzcQB+AAcAAAACdwQAAAACc3EAfgACc3EAfgAHAAAAAncEAAAAAnNxAH4AAnNxAH4ABwAAAAB3BAAAAAB4cQB+ABlxAH4CCXNxAH4AAnNxAH4ABwAAAAB3BAAAAAB4cQB+ACVxAH4CCXhxAH4AM3EAfgIHc3EAfgACc3EAfgAHAAAAAHcEAAAAAHhxAH4AJXEAfgIHeHEAfgA3cQB+AgN4cQB+ADNxAH4CAXNxAH4AAnNxAH4ABwAAAAB3BAAAAAB4cQB+ACVxAH4CAXhxAH4AN3EAfgH5eHEAfgBHcQB+AZV4cQB+ADNxAH4Bk3EAfgGPeHEAfgAzc3EAfgACc3EAfgAHAAAAAncEAAAAAnEAfgGTc3EAfgACc3EAfgAHAAAAAHcEAAAAAHhxAH4AJXNxAH4AAnNxAH4ABwAAAAJ3BAAAAAJzcQB+AAJzcQB+AAcAAAAAdwQAAAAAeHEAfgAlcQB+AhdxAH4CFXhxAH4AN3NxAH4AAnNxAH4ABwAAAAJ3BAAAAAJxAH4CF3NxAH4AAnNxAH4ABwAAAAB3BAAAAAB4cQB+AYhxAH4CG3hxAH4AR3B4cQB+ADdzcQB+AAJzcQB+AAcAAAACdwQAAAACcQB+AhNxAH4CHXhxAH4AR3B4cQB+ADdxAH4BfXEAfgGReHEAfgBHc3EAfgACc3EAfgAHAAAAAncEAAAAAnNxAH4AAnNxAH4ABwAAAAJ3BAAAAAJzcQB+AAJzcQB+AAcAAAACdwQAAAACc3EAfgACc3EAfgAHAAAAAHcEAAAAAHhxAH4AGXEAfgIlc3EAfgACc3EAfgAHAAAAAncEAAAAAnNxAH4AAnNxAH4ABwAAAAJ3BAAAAAJzcQB+AAJzcQB+AAcAAAAAdwQAAAAAeHEAfgAZcQB+AitzcQB+AAJzcQB+AAcAAAACdwQAAAACc3EAfgACc3EAfgAHAAAAAHcEAAAAAHhxAH4AJXEAfgIvc3EAfgACc3EAfgAHAAAAAncEAAAAAnNxAH4AAnNxAH4ABwAAAAJ3BAAAAAJzcQB+AAJzcQB+AAcAAAACdwQAAAACc3EAfgACc3EAfgAHAAAAAHcEAAAAAHhxAH4AGXEAfgI3c3EAfgACc3EAfgAHAAAAAHcEAAAAAHhxAH4AJXEAfgI3eHEAfgAzcQB+AjVzcQB+AAJzcQB+AAcAAAAAdwQAAAAAeHEAfgAlcQB+AjV4cQB+ADdxAH4CM3NxAH4AAnNxAH4ABwAAAAJ3BAAAAAJzcQB+AAJzcQB+AAcAAAACdwQAAAACc3EAfgACc3EAfgAHAAAAAHcEAAAAAHhxAH4AGXEAfgJBc3EAfgACc3EAfgAHAAAAAHcEAAAAAHhxAH4AJXEAfgJBeHEAfgAzcQB+Aj9zcQB+AAJzcQB+AAcAAAAAdwQAAAAAeHEAfgAlcQB+Aj94cQB+ADdxAH4CM3hxAH4AR3EAfgIveHEAfgBHcQB+Ait4cQB+ADNxAH4CKXNxAH4AAnNxAH4ABwAAAAB3BAAAAAB4cQB+ACVxAH4CKXhxAH4AN3EAfgIleHEAfgAzcQB+AiNxAH4A5XhxAH4AM3EAfgIhcQB+AX14cQB+ADNzcQB+AAJzcQB+AAcAAAACdwQAAAACcQB+AiFxAH4CFXhxAH4AN3NxAH4AAnNxAH4ABwAAAAJ3BAAAAAJxAH4CS3EAfgIdeHEAfgBHcHhxAH4AM3NxAH4AAnNxAH4ABwAAAAJ3BAAAAAJxAH4Be3EAfgIVeHEAfgA3c3EAfgACc3EAfgAHAAAAAncEAAAAAnEAfgJPcQB+Ah14cQB+AEdweHEAfgA3c3EAfgACc3EAfgAHAAAAAncEAAAAAnNxAH4AAnNxAH4ABwAAAAB3BAAAAAB4cQB+ACVxAH4CU3EAfgDteHEAfgBHc3EAfgACc3EAfgAHAAAAAncEAAAAAnNxAH4AAnNxAH4ABwAAAAJ3BAAAAAJzcQB+AAJzcQB+AAcAAAAAdwQAAAAAeHEAfgAZcQB+AllzcQB+AAJzcQB+AAcAAAACdwQAAAACc3EAfgACc3EAfgAHAAAAAncEAAAAAnNxAH4AAnNxAH4ABwAAAAB3BAAAAAB4cQB+ABlxAH4CX3NxAH4AAnNxAH4ABwAAAAJ3BAAAAAJzcQB+AAJzcQB+AAcAAAAAdwQAAAAAeHEAfgAlcQB+AmNzcQB+AAJzcQB+AAcAAAACdwQAAAACc3EAfgACc3EAfgAHAAAAAncEAAAAAnNxAH4AAnNxAH4ABwAAAAJ3BAAAAAJzcQB+AAJzcQB+AAcAAAAAdwQAAAAAeHEAfgAZcQB+AmtzcQB+AAJzcQB+AAcAAAAAdwQAAAAAeHEAfgAlcQB+Amt4cQB+ADNxAH4CaXNxAH4AAnNxAH4ABwAAAAB3BAAAAAB4cQB+ACVxAH4CaXhxAH4AN3EAfgJnc3EAfgACc3EAfgAHAAAAAncEAAAAAnNxAH4AAnNxAH4ABwAAAAJ3BAAAAAJzcQB+AAJzcQB+AAcAAAAAdwQAAAAAeHEAfgAZcQB+AnVzcQB+AAJzcQB+AAcAAAAAdwQAAAAAeHEAfgAlcQB+AnV4cQB+ADNxAH4Cc3NxAH4AAnNxAH4ABwAAAAB3BAAAAAB4cQB+ACVxAH4Cc3hxAH4AN3EAfgJneHEAfgBHcQB+AmN4cQB+AEdxAH4CX3hxAH4AM3EAfgJdc3EAfgACc3EAfgAHAAAAAncEAAAAAnNxAH4AAnNxAH4ABwAAAAJ3BAAAAAJzcQB+AAJzcQB+AAcAAAACdwQAAAACc3EAfgACc3EAfgAHAAAAAHcEAAAAAHhxAH4AGXEAfgKBc3EAfgACc3EAfgAHAAAAAncEAAAAAnNxAH4AAnNxAH4ABwAAAAJ3BAAAAAJzcQB+AAJzcQB+AAcAAAAAdwQAAAAAeHEAfgAZcQB+AodzcQB+AAJzcQB+AAcAAAAAdwQAAAAAeHEAfgAlcQB+Aod4cQB+ADNxAH4ChXNxAH4AAnNxAH4ABwAAAAB3BAAAAAB4cQB+ACVxAH4ChXhxAH4AN3EAfgKBeHEAfgAzcQB+An9zcQB+AAJzcQB+AAcAAAACdwQAAAACc3EAfgACc3EAfgAHAAAAAncEAAAAAnNxAH4AAnNxAH4ABwAAAAB3BAAAAAB4cQB+ABlxAH4CkXNxAH4AAnNxAH4ABwAAAAB3BAAAAAB4cQB+ACVxAH4CkXhxAH4AM3EAfgKPc3EAfgACc3EAfgAHAAAAAHcEAAAAAHhxAH4AJXEAfgKPeHEAfgA3cQB+An94cQB+ADNxAH4CfXNxAH4AAnNxAH4ABwAAAAJ3BAAAAAJzcQB+AAJzcQB+AAcAAAACdwQAAAACc3EAfgACc3EAfgAHAAAAAncEAAAAAnNxAH4AAnNxAH4ABwAAAAB3BAAAAAB4cQB+ABlxAH4CnXNxAH4AAnNxAH4ABwAAAAB3BAAAAAB4cQB+ACVxAH4CnXhxAH4AM3EAfgKbc3EAfgACc3EAfgAHAAAAAHcEAAAAAHhxAH4AJXEAfgKbeHEAfgA3cQB+AplzcQB+AAJzcQB+AAcAAAACdwQAAAACc3EAfgACc3EAfgAHAAAAAncEAAAAAnNxAH4AAnNxAH4ABwAAAAJ3BAAAAAJzcQB+AAJzcQB+AAcAAAAAdwQAAAAAeHEAfgAZcQB+AqlzcQB+AAJzcQB+AAcAAAAAdwQAAAAAeHEAfgAlcQB+Aql4cQB+ADNxAH4Cp3NxAH4AAnNxAH4ABwAAAAB3BAAAAAB4cQB+ACVxAH4Cp3hxAH4AN3EAfgKlc3EAfgACc3EAfgAHAAAAAncEAAAAAnNxAH4AAnNxAH4ABwAAAAJ3BAAAAAJzcQB+AAJzcQB+AAcAAAAAdwQAAAAAeHEAfgAZcQB+ArNzcQB+AAJzcQB+AAcAAAAAdwQAAAAAeHEAfgAlcQB+ArN4cQB+ADNxAH4CsXNxAH4AAnNxAH4ABwAAAAB3BAAAAAB4cQB+ACVxAH4CsXhxAH4AN3EAfgKleHEAfgBHcQB+Apl4cQB+AEdxAH4CfXhxAH4AM3EAfgJdeHEAfgA3cQB+All4cQB+ADNxAH4CV3EAfgJTeHEAfgAzc3EAfgACc3EAfgAHAAAAAncEAAAAAnEAfgJXcQB+AX14cQB+ADNzcQB+AAJzcQB+AAcAAAACdwQAAAACcQB+ArtxAH4CFXhxAH4AN3NxAH4AAnNxAH4ABwAAAAJ3BAAAAAJxAH4CvXEAfgIdeHEAfgBHcHhxAH4AR3EAfgIjeHEAfgAzc3EAfgACc3EAfgAHAAAAAncEAAAAAnEAfgDjcQB+AX14cQB+ADNzcQB+AAJzcQB+AAcAAAACdwQAAAACcQB+AsFxAH4CFXhxAH4AN3NxAH4AAnNxAH4ABwAAAAJ3BAAAAAJxAH4Cw3EAfgIdeHEAfgBHcHhxAH4AR3NxAH4AAnNxAH4ABwAAAAJ3BAAAAAJzcQB+AAJzcQB+AAcAAAAAdwQAAAAAeHEAfgAlcQB+AsdxAH4AdXhxAH4AM3NxAH4AAnNxAH4ABwAAAAJ3BAAAAAJzcQB+AAJzcQB+AAcAAAACdwQAAAACc3EAfgACc3EAfgAHAAAAAHcEAAAAAHhxAH4AGXEAfgLNc3EAfgACc3EAfgAHAAAAAncEAAAAAnNxAH4AAnNxAH4ABwAAAAB3BAAAAAB4cQB+ACVxAH4C0XNxAH4AAnNxAH4ABwAAAAJ3BAAAAAJzcQB+AAJzcQB+AAcAAAACdwQAAAACc3EAfgACc3EAfgAHAAAAAncEAAAAAnNxAH4AAnNxAH4ABwAAAAB3BAAAAAB4cQB+ABlxAH4C2XNxAH4AAnNxAH4ABwAAAAB3BAAAAAB4cQB+ACVxAH4C2XhxAH4AM3EAfgLXc3EAfgACc3EAfgAHAAAAAHcEAAAAAHhxAH4AJXEAfgLXeHEAfgA3cQB+AtVzcQB+AAJzcQB+AAcAAAACdwQAAAACc3EAfgACc3EAfgAHAAAAAncEAAAAAnNxAH4AAnNxAH4ABwAAAAB3BAAAAAB4cQB+ABlxAH4C43NxAH4AAnNxAH4ABwAAAAB3BAAAAAB4cQB+ACVxAH4C43hxAH4AM3EAfgLhc3EAfgACc3EAfgAHAAAAAHcEAAAAAHhxAH4AJXEAfgLheHEAfgA3cQB+AtV4cQB+AEdxAH4C0XhxAH4AR3EAfgLNeHEAfgAzcQB+AstxAH4Cx3hxAH4AN3NxAH4AAnNxAH4ABwAAAAJ3BAAAAAJzcQB+AAJzcQB+AAcAAAAAdwQAAAAAeHEAfgAZcQB+AutxAH4Cy3hxAH4AM3NxAH4AAnNxAH4ABwAAAAJ3BAAAAAJxAH4C63EAfgDleHEAfgAzc3EAfgACc3EAfgAHAAAAAncEAAAAAnEAfgLvcQB+AX14cQB+ADNzcQB+AAJzcQB+AAcAAAACdwQAAAACcQB+AvFxAH4CFXhxAH4AN3NxAH4AAnNxAH4ABwAAAAJ3BAAAAAJxAH4C83EAfgIdeHEAfgBHcHhxAH4AM3NxAH4AAnNxAH4ABwAAAAJ3BAAAAAJzcQB+AAJzcQB+AAcAAAACdwQAAAACc3EAfgACc3EAfgAHAAAAAHcEAAAAAHhxAH4AGXEAfgL5c3EAfgACc3EAfgAHAAAAAncEAAAAAnNxAH4AAnNxAH4ABwAAAAB3BAAAAAB4cQB+ACVxAH4C/XNxAH4AAnNxAH4ABwAAAAJ3BAAAAAJzcQB+AAJzcQB+AAcAAAACdwQAAAACc3EAfgACc3EAfgAHAAAAAncEAAAAAnNxAH4AAnNxAH4ABwAAAAB3BAAAAAB4cQB+ABlxAH4DBXNxAH4AAnNxAH4ABwAAAAB3BAAAAAB4cQB+ACVxAH4DBXhxAH4AM3EAfgMDc3EAfgACc3EAfgAHAAAAAHcEAAAAAHhxAH4AJXEAfgMDeHEAfgA3cQB+AwFzcQB+AAJzcQB+AAcAAAACdwQAAAACc3EAfgACc3EAfgAHAAAAAncEAAAAAnNxAH4AAnNxAH4ABwAAAAB3BAAAAAB4cQB+ABlxAH4DD3NxAH4AAnNxAH4ABwAAAAB3BAAAAAB4cQB+ACVxAH4DD3hxAH4AM3EAfgMNc3EAfgACc3EAfgAHAAAAAHcEAAAAAHhxAH4AJXEAfgMNeHEAfgA3cQB+AwF4cQB+AEdxAH4C/XhxAH4AR3EAfgL5eHEAfgAzcQB+AvdxAH4Ac3hxAH4AN3NxAH4AAnNxAH4ABwAAAAJ3BAAAAAJzcQB+AAJzcQB+AAcAAAAAdwQAAAAAeHEAfgAZcQB+AxdxAH4C93hxAH4AM3NxAH4AAnNxAH4ABwAAAAJ3BAAAAAJxAH4DF3EAfgDleHEAfgAzc3EAfgACc3EAfgAHAAAAAncEAAAAAnEAfgMbcQB+AX14cQB+ADNzcQB+AAJzcQB+AAcAAAACdwQAAAACcQB+Ax1xAH4CFXhxAH4AN3NxAH4AAnNxAH4ABwAAAAJ3BAAAAAJxAH4DH3EAfgIdeHEAfgBHcHhxAH4AM3EAfgBTcQB+AHV4cQB+ADNzcQB+AAJzcQB+AAcAAAACdwQAAAACc3EAfgACc3EAfgAHAAAAAncEAAAAAnNxAH4AAnNxAH4ABwAAAAB3BAAAAAB4cQB+ABlxAH4DJXNxAH4AAnNxAH4ABwAAAAJ3BAAAAAJzcQB+AAJzcQB+AAcAAAACdwQAAAACc3EAfgACc3EAfgAHAAAAAHcEAAAAAHhxAH4AGXEAfgMrc3EAfgACc3EAfgAHAAAAAHcEAAAAAHhxAH4BiHEAfgMreHEAfgAzcQB+AylxAH4AJ3hxAH4AR3EAfgMleHEAfgAzcQB+AyNxAH4AU3hxAH4AN3NxAH4AAnNxAH4ABwAAAAJ3BAAAAAJzcQB+AAJzcQB+AAcAAAAAdwQAAAAAeHEAfgAZcQB+AzFxAH4DI3hxAH4AM3NxAH4AAnNxAH4ABwAAAAJ3BAAAAAJxAH4DMXEAfgDleHEAfgAzc3EAfgACc3EAfgAHAAAAAncEAAAAAnEAfgM1cQB+AX14cQB+ADNzcQB+AAJzcQB+AAcAAAACdwQAAAACcQB+AzdxAH4CFXhxAH4AN3NxAH4AAnNxAH4ABwAAAAJ3BAAAAAJxAH4DOXEAfgIdeHEAfgBHcHhxAH4AN3NxAH4AAnNxAH4ABwAAAAJ3BAAAAAJzcQB+AAJzcQB+AAcAAAAAdwQAAAAAeHEAfgAZcQB+Az1xAH4AUXhxAH4AM3NxAH4AAnNxAH4ABwAAAAJ3BAAAAAJxAH4DPXEAfgDleHEAfgAzc3EAfgACc3EAfgAHAAAAAncEAAAAAnEAfgNBcQB+AX14cQB+ADNzcQB+AAJzcQB+AAcAAAACdwQAAAACcQB+A0NxAH4CFXhxAH4AN3NxAH4AAnNxAH4ABwAAAAJ3BAAAAAJxAH4DRXEAfgIdeHEAfgBHcHhxAH4AR3EAfgMpeHEAfgBHcQB+AB14cQB+ADNxAH4AG3EAfgBTeHEAfgA3c3EAfgACc3EAfgAHAAAAAncEAAAAAnNxAH4AAnNxAH4ABwAAAAB3BAAAAAB4cQB+ACVxAH4DSXEAfgAbeHEAfgAzc3EAfgACc3EAfgAHAAAAAncEAAAAAnEAfgNJcQB+AOV4cQB+ADNzcQB+AAJzcQB+AAcAAAACdwQAAAACcQB+A01xAH4BfXhxAH4AM3NxAH4AAnNxAH4ABwAAAAJ3BAAAAAJxAH4DT3EAfgIVeHEAfgA3c3EAfgACc3EAfgAHAAAAAncEAAAAAnEAfgNRcQB+Ah14cQB+AEdweHEAfgAzcQB+ABNxAH4A5XhxAH4AM3EAfgARcQB+AX14cQB+ADNxAH4AD3EAfgIVeHEAfgA3cQB+AA1xAH4CHXhxAH4AR3BzcQB+AAJzcQB+AAcAAAAAdwQAAAAAeHEAfgAZcHNxAH4AAnNxAH4ABwAAAAB3BAAAAAB4c3EAfgGHP+AAAAAAAABweA==";
