ea.runOutcome(
  index = 319;
  run = ea.run(
    problem = ea.p.mr.fromData(
      trainingDataset = ea.dataset.numerical.fromFile(
        filePath = "../phase2/data-ro-ographea-3-002.txt";
        folds = [0];
        nFolds = 40;
        xVarNamePattern = "x.*";
        yVarNamePattern = "y.*"
      )
    );
    randomGenerator = ea.rg.defaultRG(seed = 5);
    solver = ea.s.multiSRTreeGP(
      crossoverP = 0.8;
      diversity = true;
      mapper = ea.m.treeMRF(
        dataset = ea.d.num.empty(
          xVars = [
            x0;
            x1;
            x2;
            x3;
            x4;
            x5;
            x6;
            x7;
            x8;
            x9;
            x10;
            x11;
            x12;
            x13;
            x14;
            x15
          ];
          yVars = [y0; y1; y2; y3]
        );
        postOperator = tanh
      );
      maxConst = 5;
      maxTreeH = 8;
      minConst = 0;
      minNTournament = 3;
      minTreeH = 3;
      nAttemptsDiversity = 100;
      nConst = 10;
      nEval = 10000;
      nPop = 100;
      operators = [addition; subtraction; multiplication; prot_division];
      tournamentRate = 0.05
    )
  );
  serializedGenotypes = [
    "rO0ABXNyABFqYXZhLnV0aWwuQ29sbFNlcleOq7Y6G6gRAwABSQADdGFneHAAAAAEdwQAAAAEc3IAN2lvLmdpdGh1Yi5lcmljbWVkdmV0LmpnZWEuY29yZS5yZXByZXNlbnRhdGlvbi50cmVlLlRyZWUKs7/qnQrEZQIAA0wACGNoaWxkcmVudAAQTGphdmEvdXRpbC9MaXN0O0wAB2NvbnRlbnR0ABJMamF2YS9sYW5nL09iamVjdDtMAAZwYXJlbnR0ADlMaW8vZ2l0aHViL2VyaWNtZWR2ZXQvamdlYS9jb3JlL3JlcHJlc2VudGF0aW9uL3RyZWUvVHJlZTt4cHNyABNqYXZhLnV0aWwuQXJyYXlMaXN0eIHSHZnHYZ0DAAFJAARzaXpleHAAAAACdwQAAAACc3EAfgACc3EAfgAHAAAAAncEAAAAAnNxAH4AAnNxAH4ABwAAAAB3BAAAAAB4c3IAS2lvLmdpdGh1Yi5lcmljbWVkdmV0LmpnZWEuY29yZS5yZXByZXNlbnRhdGlvbi50cmVlLm51bWVyaWMuRWxlbWVudCRWYXJpYWJsZQAAAAAAAAAAAgABTAAEbmFtZXQAEkxqYXZhL2xhbmcvU3RyaW5nO3hwdAACeDJxAH4ACXNxAH4AAnNxAH4ABwAAAAJ3BAAAAAJzcQB+AAJzcQB+AAcAAAAAdwQAAAAAeHNyAEtpby5naXRodWIuZXJpY21lZHZldC5qZ2VhLmNvcmUucmVwcmVzZW50YXRpb24udHJlZS5udW1lcmljLkVsZW1lbnQkQ29uc3RhbnQAAAAAAAAAAAIAAUQABXZhbHVleHA/8AAAAAAAAHEAfgARc3EAfgACc3EAfgAHAAAAAHcEAAAAAHhxAH4AD3NxAH4AAnNxAH4ABwAAAAJ3BAAAAAJzcQB+AAJzcQB+AAcAAAACdwQAAAACc3EAfgACc3EAfgAHAAAAAncEAAAAAnNxAH4AAnNxAH4ABwAAAAB3BAAAAAB4cQB+AA9xAH4AHXNxAH4AAnNxAH4ABwAAAAB3BAAAAAB4cQB+AA9xAH4AHXh+cgBLaW8uZ2l0aHViLmVyaWNtZWR2ZXQuamdlYS5jb3JlLnJlcHJlc2VudGF0aW9uLnRyZWUubnVtZXJpYy5FbGVtZW50JE9wZXJhdG9yAAAAAAAAAAASAAB4cgAOamF2YS5sYW5nLkVudW0AAAAAAAAAABIAAHhwdAAOTVVMVElQTElDQVRJT05xAH4AG3NxAH4AAnNxAH4ABwAAAAJ3BAAAAAJzcQB+AAJzcQB+AAcAAAAAdwQAAAAAeHEAfgAWcQB+ACdzcQB+AAJzcQB+AAcAAAAAdwQAAAAAeHNxAH4ADXQAA3gxMnEAfgAneHEAfgAlcQB+ABt4fnEAfgAjdAAIQURESVRJT05xAH4AGXEAfgAXeHEAfgAlc3EAfgACc3EAfgAHAAAAAncEAAAAAnNxAH4AAnNxAH4ABwAAAAB3BAAAAAB4cQB+AA9xAH4AMXEAfgAZeHEAfgAlc3EAfgACc3EAfgAHAAAAAncEAAAAAnEAfgAxc3EAfgACc3EAfgAHAAAAAncEAAAAAnNxAH4AAnNxAH4ABwAAAAB3BAAAAAB4cQB+ABZxAH4AN3NxAH4AAnNxAH4ABwAAAAJ3BAAAAAJzcQB+AAJzcQB+AAcAAAACdwQAAAACc3EAfgACc3EAfgAHAAAAAHcEAAAAAHhxAH4AD3EAfgA9c3EAfgACc3EAfgAHAAAAAncEAAAAAnNxAH4AAnNxAH4ABwAAAAJ3BAAAAAJzcQB+AAJzcQB+AAcAAAAAdwQAAAAAeHEAfgAPcQB+AENzcQB+AAJzcQB+AAcAAAACdwQAAAACc3EAfgACc3EAfgAHAAAAAHcEAAAAAHhxAH4AFnEAfgBHc3EAfgACc3EAfgAHAAAAAHcEAAAAAHhxAH4AD3EAfgBHeHEAfgAlcQB+AEN4cQB+ACVxAH4AQXNxAH4AAnNxAH4ABwAAAAJ3BAAAAAJzcQB+AAJzcQB+AAcAAAACdwQAAAACc3EAfgACc3EAfgAHAAAAAHcEAAAAAHhxAH4AD3EAfgBPc3EAfgACc3EAfgAHAAAAAncEAAAAAnNxAH4AAnNxAH4ABwAAAAJ3BAAAAAJzcQB+AAJzcQB+AAcAAAAAdwQAAAAAeHEAfgAPcQB+AFVzcQB+AAJzcQB+AAcAAAAAdwQAAAAAeHEAfgAPcQB+AFV4cQB+ACVxAH4AU3NxAH4AAnNxAH4ABwAAAAJ3BAAAAAJzcQB+AAJzcQB+AAcAAAAAdwQAAAAAeHEAfgAWcQB+AFtzcQB+AAJzcQB+AAcAAAAAdwQAAAAAeHEAfgAtcQB+AFt4cQB+ACVxAH4AU3hxAH4AL3EAfgBPeHEAfgAlcQB+AE1zcQB+AAJzcQB+AAcAAAACdwQAAAACc3EAfgACc3EAfgAHAAAAAHcEAAAAAHhxAH4AFnEAfgBhc3EAfgACc3EAfgAHAAAAAHcEAAAAAHhxAH4ALXEAfgBheHEAfgAlc3EAfgACc3EAfgAHAAAAAncEAAAAAnNxAH4AAnNxAH4ABwAAAAB3BAAAAAB4cQB+ABZxAH4AZ3EAfgBheHEAfgAvc3EAfgACc3EAfgAHAAAAAncEAAAAAnNxAH4AAnNxAH4ABwAAAAJ3BAAAAAJzcQB+AAJzcQB+AAcAAAAAdwQAAAAAeHEAfgAPcQB+AG1zcQB+AAJzcQB+AAcAAAACdwQAAAACc3EAfgACc3EAfgAHAAAAAHcEAAAAAHhxAH4AFnEAfgBxc3EAfgACc3EAfgAHAAAAAHcEAAAAAHhxAH4AD3EAfgBxeHEAfgAlcQB+AG14cQB+ACVxAH4Aa3EAfgBneHEAfgAvc3EAfgACc3EAfgAHAAAAAncEAAAAAnNxAH4AAnNxAH4ABwAAAAB3BAAAAAB4cQB+AA9xAH4Ad3EAfgBreHEAfgAlc3EAfgACc3EAfgAHAAAAAncEAAAAAnEAfgB3c3EAfgACc3EAfgAHAAAAAncEAAAAAnNxAH4AAnNxAH4ABwAAAAB3BAAAAAB4cQB+ABZxAH4AfXNxAH4AAnNxAH4ABwAAAAB3BAAAAAB4cQB+AC1xAH4AfXhxAH4AJXEAfgB7eHEAfgAvc3EAfgACc3EAfgAHAAAAAncEAAAAAnNxAH4AAnNxAH4ABwAAAAB3BAAAAAB4cQB+ABZxAH4Ag3EAfgB7eHEAfgAlc3EAfgACc3EAfgAHAAAAAncEAAAAAnNxAH4AAnNxAH4ABwAAAAJ3BAAAAAJzcQB+AAJzcQB+AAcAAAAAdwQAAAAAeHEAfgAPcQB+AIlzcQB+AAJzcQB+AAcAAAACdwQAAAACc3EAfgACc3EAfgAHAAAAAHcEAAAAAHhxAH4AFnEAfgCNc3EAfgACc3EAfgAHAAAAAHcEAAAAAHhxAH4AD3EAfgCNeHEAfgAlcQB+AIl4cQB+ACVxAH4Ah3EAfgCDeHEAfgAvcHhxAH4AL3EAfgBBeHEAfgAvcQB+AD14cQB+ACVxAH4AO3EAfgB9eHEAfgAvcQB+ADd4cQB+ACVxAH4ANXhxAH4AL3B4cQB+ACVzcQB+AAJzcQB+AAcAAAACdwQAAAACc3EAfgACc3EAfgAHAAAAAncEAAAAAnNxAH4AAnNxAH4ABwAAAAB3BAAAAAB4cQB+ABZxAH4AlXNxAH4AAnNxAH4ABwAAAAB3BAAAAAB4cQB+AC1xAH4AlXhxAH4AJXEAfgCTcQB+ABF4cQB+ACVzcQB+AAJzcQB+AAcAAAACdwQAAAACcQB+AJNxAH4AN3hxAH4AL3B4cQB+ACVxAH4ABnEAfgA3eHEAfgAvcHNxAH4AAnNxAH4ABwAAAAJ3BAAAAAJzcQB+AAJzcQB+AAcAAAAAdwQAAAAAeHNxAH4ADXQAA3gxNHEAfgCdc3EAfgACc3EAfgAHAAAAAncEAAAAAnNxAH4AAnNxAH4ABwAAAAJ3BAAAAAJzcQB+AAJzcQB+AAcAAAACdwQAAAACc3EAfgACc3EAfgAHAAAAAncEAAAAAnNxAH4AAnNxAH4ABwAAAAB3BAAAAAB4c3EAfgAVQAAAAAAAAABxAH4AqXNxAH4AAnNxAH4ABwAAAAB3BAAAAAB4cQB+AC1zcQB+AAJzcQB+AAcAAAACdwQAAAACc3EAfgACc3EAfgAHAAAAAHcEAAAAAHhxAH4ALXEAfgCwcQB+AK54fnEAfgAjdAANUFJPVF9ESVZJU0lPTnNxAH4AAnNxAH4ABwAAAAJ3BAAAAAJxAH4AsHNxAH4AAnNxAH4ABwAAAAB3BAAAAAB4c3EAfgANdAACeDlzcQB+AAJzcQB+AAcAAAACdwQAAAACc3EAfgACc3EAfgAHAAAAAncEAAAAAnNxAH4AAnNxAH4ABwAAAAB3BAAAAAB4cQB+AK1xAH4AvnNxAH4AAnNxAH4ABwAAAAJ3BAAAAAJzcQB+AAJzcQB+AAcAAAAAdwQAAAAAeHEAfgCtcQB+AMJzcQB+AAJzcQB+AAcAAAAAdwQAAAAAeHEAfgAtcQB+AMJ4cQB+ALRxAH4AvnhxAH4AtHEAfgC8cQB+ALh4fnEAfgAjdAALU1VCVFJBQ1RJT05zcQB+AAJzcQB+AAcAAAACdwQAAAACcQB+ALxzcQB+AAJzcQB+AAcAAAACdwQAAAACc3EAfgACc3EAfgAHAAAAAncEAAAAAnNxAH4AAnNxAH4ABwAAAAB3BAAAAAB4cQB+AK1xAH4AznNxAH4AAnNxAH4ABwAAAAB3BAAAAAB4cQB+AC1xAH4AznhxAH4AtHEAfgDMc3EAfgACc3EAfgAHAAAAAHcEAAAAAHhxAH4ALXEAfgDMeHEAfgDIcQB+AMp4cQB+AMhzcQB+AAJzcQB+AAcAAAACdwQAAAACcQB+AMpzcQB+AAJzcQB+AAcAAAAAdwQAAAAAeHNxAH4ADXQAA3gxMXEAfgDWeHEAfgDIc3EAfgACc3EAfgAHAAAAAncEAAAAAnNxAH4AAnNxAH4ABwAAAAB3BAAAAAB4cQB+AKFxAH4A3HEAfgDWeHEAfgAlcHhxAH4AyHNxAH4AAnNxAH4ABwAAAAJ3BAAAAAJxAH4AtnEAfgDMeHEAfgDIc3EAfgACc3EAfgAHAAAAAncEAAAAAnEAfgDgcQB+ANh4cQB+AMhzcQB+AAJzcQB+AAcAAAACdwQAAAACc3EAfgACc3EAfgAHAAAAAHcEAAAAAHhxAH4AoXEAfgDkcQB+AOJ4cQB+ACVweHEAfgC0cQB+AKdxAH4AuHhxAH4AyHEAfgClcQB+AMx4cQB+AMhxAH4Ao3EAfgDYeHEAfgDIc3EAfgACc3EAfgAHAAAAAncEAAAAAnNxAH4AAnNxAH4ABwAAAAB3BAAAAAB4cQB+ALpxAH4A6HEAfgCjeHEAfgAlcHhxAH4AJXBzcQB+AAJzcQB+AAcAAAACdwQAAAACc3EAfgACc3EAfgAHAAAAAncEAAAAAnNxAH4AAnNxAH4ABwAAAAB3BAAAAAB4c3EAfgAVQBIAAAAAAABxAH4A7nNxAH4AAnNxAH4ABwAAAAB3BAAAAAB4cQB+ANpzcQB+AAJzcQB+AAcAAAACdwQAAAACc3EAfgACc3EAfgAHAAAAAncEAAAAAnNxAH4AAnNxAH4ABwAAAAJ3BAAAAAJzcQB+AAJzcQB+AAcAAAAAdwQAAAAAeHEAfgDycQB+APlzcQB+AAJzcQB+AAcAAAAAdwQAAAAAeHEAfgDacQB+APl4cQB+ACVxAH4A93NxAH4AAnNxAH4ABwAAAAJ3BAAAAAJzcQB+AAJzcQB+AAcAAAAAdwQAAAAAeHEAfgAPcQB+AP9zcQB+AAJzcQB+AAcAAAAAdwQAAAAAeHNxAH4ADXQAAng1cQB+AP94cQB+ACVxAH4A93hxAH4AJXEAfgD1cQB+APN4cQB+ACVzcQB+AAJzcQB+AAcAAAACdwQAAAACcQB+APVzcQB+AAJzcQB+AAcAAAACdwQAAAACc3EAfgACc3EAfgAHAAAAAHcEAAAAAHhxAH4AD3EAfgEJc3EAfgACc3EAfgAHAAAAAHcEAAAAAHhxAH4BBXNxAH4AAnNxAH4ABwAAAAJ3BAAAAAJzcQB+AAJzcQB+AAcAAAACdwQAAAACc3EAfgACc3EAfgAHAAAAAHcEAAAAAHhxAH4AD3EAfgERc3EAfgACc3EAfgAHAAAAAHcEAAAAAHhxAH4BBXEAfgEReHEAfgAlcQB+AQ9xAH4BDXhxAH4AJXNxAH4AAnNxAH4ABwAAAAJ3BAAAAAJzcQB+AAJzcQB+AAcAAAACdwQAAAACc3EAfgACc3EAfgAHAAAAAHcEAAAAAHhxAH4A8nEAfgEZc3EAfgACc3EAfgAHAAAAAHcEAAAAAHhxAH4A2nEAfgEZeHEAfgAlcQB+ARdxAH4BD3hxAH4AJXB4cQB+ACVzcQB+AAJzcQB+AAcAAAACdwQAAAACc3EAfgACc3EAfgAHAAAAAncEAAAAAnNxAH4AAnNxAH4ABwAAAAJ3BAAAAAJzcQB+AAJzcQB+AAcAAAAAdwQAAAAAeHEAfgDycQB+ASNzcQB+AAJzcQB+AAcAAAAAdwQAAAAAeHEAfgDacQB+ASN4cQB+ACVxAH4BIXNxAH4AAnNxAH4ABwAAAAJ3BAAAAAJzcQB+AAJzcQB+AAcAAAAAdwQAAAAAeHEAfgAPcQB+ASlzcQB+AAJzcQB+AAcAAAAAdwQAAAAAeHEAfgEFcQB+ASl4cQB+ACVxAH4BIXhxAH4AJXEAfgEfcQB+AQl4cQB+ACVweHEAfgAlcHhxAH4AJXEAfgDscQB+AQl4cQB+ACVwc3EAfgACc3EAfgAHAAAAAncEAAAAAnNxAH4AAnNxAH4ABwAAAAJ3BAAAAAJzcQB+AAJzcQB+AAcAAAACdwQAAAACc3EAfgACc3EAfgAHAAAAAncEAAAAAnNxAH4AAnNxAH4ABwAAAAB3BAAAAAB4c3EAfgAVP+AAAAAAAABxAH4BNXNxAH4AAnNxAH4ABwAAAAB3BAAAAAB4c3EAfgAVAAAAAAAAAABzcQB+AAJzcQB+AAcAAAACdwQAAAACc3EAfgACc3EAfgAHAAAAAncEAAAAAnNxAH4AAnNxAH4ABwAAAAB3BAAAAAB4cQB+ATlxAH4BP3NxAH4AAnNxAH4ABwAAAAB3BAAAAAB4cQB+ATxxAH4BP3hxAH4AyHEAfgE9cQB+ATp4cQB+AMhzcQB+AAJzcQB+AAcAAAACdwQAAAACcQB+AT1zcQB+AAJzcQB+AAcAAAACdwQAAAACc3EAfgACc3EAfgAHAAAAAHcEAAAAAHhxAH4BPHEAfgFHc3EAfgACc3EAfgAHAAAAAHcEAAAAAHhxAH4A2nEAfgFHeHEAfgAlc3EAfgACc3EAfgAHAAAAAncEAAAAAnNxAH4AAnNxAH4ABwAAAAJ3BAAAAAJzcQB+AAJzcQB+AAcAAAAAdwQAAAAAeHEAfgE5cQB+AU9zcQB+AAJzcQB+AAcAAAACdwQAAAACc3EAfgACc3EAfgAHAAAAAHcEAAAAAHhxAH4BOXEAfgFTc3EAfgACc3EAfgAHAAAAAHcEAAAAAHhxAH4BPHEAfgFTeHEAfgDIcQB+AU94cQB+AMhxAH4BTXEAfgFHeHEAfgDIc3EAfgACc3EAfgAHAAAAAncEAAAAAnEAfgFNc3EAfgACc3EAfgAHAAAAAHcEAAAAAHhxAH4BPHNxAH4AAnNxAH4ABwAAAAJ3BAAAAAJzcQB+AAJzcQB+AAcAAAACdwQAAAACc3EAfgACc3EAfgAHAAAAAHcEAAAAAHhxAH4BPHEAfgFfc3EAfgACc3EAfgAHAAAAAHcEAAAAAHhxAH4A2nEAfgFfeHEAfgAlcQB+AV1xAH4BW3hxAH4AyHNxAH4AAnNxAH4ABwAAAAJ3BAAAAAJxAH4BXXNxAH4AAnNxAH4ABwAAAAJ3BAAAAAJzcQB+AAJzcQB+AAcAAAAAdwQAAAAAeHEAfgE8cQB+AWdzcQB+AAJzcQB+AAcAAAAAdwQAAAAAeHEAfgDacQB+AWd4cQB+ACVxAH4BZXhxAH4AyHB4cQB+AMhzcQB+AAJzcQB+AAcAAAACdwQAAAACcQB+AVlxAH4BZ3hxAH4AyHB4cQB+AMhzcQB+AAJzcQB+AAcAAAACdwQAAAACcQB+AUVxAH4BW3hxAH4AyHNxAH4AAnNxAH4ABwAAAAJ3BAAAAAJxAH4Bb3EAfgFneHEAfgDIcHhxAH4AyHEAfgEzcQB+AUd4cQB+AMhxAH4BMXEAfgFbeHEAfgDIcQB+AS9xAH4BZ3hxAH4AyHB4";
    "rO0ABXNyABFqYXZhLnV0aWwuQ29sbFNlcleOq7Y6G6gRAwABSQADdGFneHAAAAAEdwQAAAAEc3IAN2lvLmdpdGh1Yi5lcmljbWVkdmV0LmpnZWEuY29yZS5yZXByZXNlbnRhdGlvbi50cmVlLlRyZWUKs7/qnQrEZQIAA0wACGNoaWxkcmVudAAQTGphdmEvdXRpbC9MaXN0O0wAB2NvbnRlbnR0ABJMamF2YS9sYW5nL09iamVjdDtMAAZwYXJlbnR0ADlMaW8vZ2l0aHViL2VyaWNtZWR2ZXQvamdlYS9jb3JlL3JlcHJlc2VudGF0aW9uL3RyZWUvVHJlZTt4cHNyABNqYXZhLnV0aWwuQXJyYXlMaXN0eIHSHZnHYZ0DAAFJAARzaXpleHAAAAACdwQAAAACc3EAfgACc3EAfgAHAAAAAncEAAAAAnNxAH4AAnNxAH4ABwAAAAB3BAAAAAB4c3IAS2lvLmdpdGh1Yi5lcmljbWVkdmV0LmpnZWEuY29yZS5yZXByZXNlbnRhdGlvbi50cmVlLm51bWVyaWMuRWxlbWVudCRWYXJpYWJsZQAAAAAAAAAAAgABTAAEbmFtZXQAEkxqYXZhL2xhbmcvU3RyaW5nO3hwdAACeDJxAH4ACXNxAH4AAnNxAH4ABwAAAAJ3BAAAAAJzcQB+AAJzcQB+AAcAAAAAdwQAAAAAeHNyAEtpby5naXRodWIuZXJpY21lZHZldC5qZ2VhLmNvcmUucmVwcmVzZW50YXRpb24udHJlZS5udW1lcmljLkVsZW1lbnQkQ29uc3RhbnQAAAAAAAAAAAIAAUQABXZhbHVleHA/8AAAAAAAAHEAfgARc3EAfgACc3EAfgAHAAAAAHcEAAAAAHhxAH4AD3NxAH4AAnNxAH4ABwAAAAJ3BAAAAAJzcQB+AAJzcQB+AAcAAAACdwQAAAACc3EAfgACc3EAfgAHAAAAAncEAAAAAnNxAH4AAnNxAH4ABwAAAAB3BAAAAAB4cQB+AA9xAH4AHXNxAH4AAnNxAH4ABwAAAAB3BAAAAAB4cQB+AA9xAH4AHXh+cgBLaW8uZ2l0aHViLmVyaWNtZWR2ZXQuamdlYS5jb3JlLnJlcHJlc2VudGF0aW9uLnRyZWUubnVtZXJpYy5FbGVtZW50JE9wZXJhdG9yAAAAAAAAAAASAAB4cgAOamF2YS5sYW5nLkVudW0AAAAAAAAAABIAAHhwdAAOTVVMVElQTElDQVRJT05xAH4AG3NxAH4AAnNxAH4ABwAAAAJ3BAAAAAJzcQB+AAJzcQB+AAcAAAAAdwQAAAAAeHEAfgAWcQB+ACdzcQB+AAJzcQB+AAcAAAAAdwQAAAAAeHNxAH4ADXQAA3gxMnEAfgAneHEAfgAlcQB+ABt4fnEAfgAjdAAIQURESVRJT05xAH4AGXEAfgAXeHEAfgAlc3EAfgACc3EAfgAHAAAAAncEAAAAAnNxAH4AAnNxAH4ABwAAAAB3BAAAAAB4cQB+AA9xAH4AMXEAfgAZeHEAfgAlc3EAfgACc3EAfgAHAAAAAncEAAAAAnEAfgAxc3EAfgACc3EAfgAHAAAAAncEAAAAAnNxAH4AAnNxAH4ABwAAAAB3BAAAAAB4cQB+ABZxAH4AN3NxAH4AAnNxAH4ABwAAAAJ3BAAAAAJzcQB+AAJzcQB+AAcAAAACdwQAAAACc3EAfgACc3EAfgAHAAAAAHcEAAAAAHhxAH4AD3EAfgA9c3EAfgACc3EAfgAHAAAAAncEAAAAAnNxAH4AAnNxAH4ABwAAAAJ3BAAAAAJzcQB+AAJzcQB+AAcAAAAAdwQAAAAAeHEAfgAPcQB+AENzcQB+AAJzcQB+AAcAAAACdwQAAAACc3EAfgACc3EAfgAHAAAAAHcEAAAAAHhxAH4AFnEAfgBHc3EAfgACc3EAfgAHAAAAAHcEAAAAAHhxAH4AD3EAfgBHeHEAfgAlcQB+AEN4cQB+ACVxAH4AQXNxAH4AAnNxAH4ABwAAAAJ3BAAAAAJzcQB+AAJzcQB+AAcAAAACdwQAAAACc3EAfgACc3EAfgAHAAAAAHcEAAAAAHhxAH4AD3EAfgBPc3EAfgACc3EAfgAHAAAAAncEAAAAAnNxAH4AAnNxAH4ABwAAAAJ3BAAAAAJzcQB+AAJzcQB+AAcAAAAAdwQAAAAAeHEAfgAPcQB+AFVzcQB+AAJzcQB+AAcAAAAAdwQAAAAAeHEAfgAPcQB+AFV4cQB+ACVxAH4AU3NxAH4AAnNxAH4ABwAAAAJ3BAAAAAJzcQB+AAJzcQB+AAcAAAAAdwQAAAAAeHEAfgAWcQB+AFtzcQB+AAJzcQB+AAcAAAAAdwQAAAAAeHEAfgAtcQB+AFt4cQB+ACVxAH4AU3hxAH4AL3EAfgBPeHEAfgAlcQB+AE1zcQB+AAJzcQB+AAcAAAACdwQAAAACc3EAfgACc3EAfgAHAAAAAHcEAAAAAHhxAH4AFnEAfgBhc3EAfgACc3EAfgAHAAAAAHcEAAAAAHhxAH4ALXEAfgBheHEAfgAlc3EAfgACc3EAfgAHAAAAAncEAAAAAnNxAH4AAnNxAH4ABwAAAAB3BAAAAAB4cQB+ABZxAH4AZ3EAfgBheHEAfgAvc3EAfgACc3EAfgAHAAAAAncEAAAAAnNxAH4AAnNxAH4ABwAAAAJ3BAAAAAJzcQB+AAJzcQB+AAcAAAAAdwQAAAAAeHEAfgAPcQB+AG1zcQB+AAJzcQB+AAcAAAACdwQAAAACc3EAfgACc3EAfgAHAAAAAHcEAAAAAHhxAH4AFnEAfgBxc3EAfgACc3EAfgAHAAAAAHcEAAAAAHhxAH4AD3EAfgBxeHEAfgAlcQB+AG14cQB+ACVxAH4Aa3EAfgBneHEAfgAvc3EAfgACc3EAfgAHAAAAAncEAAAAAnNxAH4AAnNxAH4ABwAAAAB3BAAAAAB4cQB+AA9xAH4Ad3EAfgBreHEAfgAlc3EAfgACc3EAfgAHAAAAAncEAAAAAnEAfgB3c3EAfgACc3EAfgAHAAAAAncEAAAAAnNxAH4AAnNxAH4ABwAAAAB3BAAAAAB4cQB+ABZxAH4AfXNxAH4AAnNxAH4ABwAAAAB3BAAAAAB4cQB+AC1xAH4AfXhxAH4AJXEAfgB7eHEAfgAvc3EAfgACc3EAfgAHAAAAAncEAAAAAnNxAH4AAnNxAH4ABwAAAAB3BAAAAAB4cQB+ABZxAH4Ag3EAfgB7eHEAfgAlc3EAfgACc3EAfgAHAAAAAncEAAAAAnNxAH4AAnNxAH4ABwAAAAJ3BAAAAAJzcQB+AAJzcQB+AAcAAAAAdwQAAAAAeHEAfgAPcQB+AIlzcQB+AAJzcQB+AAcAAAACdwQAAAACc3EAfgACc3EAfgAHAAAAAHcEAAAAAHhxAH4AFnEAfgCNc3EAfgACc3EAfgAHAAAAAHcEAAAAAHhxAH4AD3EAfgCNeHEAfgAlcQB+AIl4cQB+ACVxAH4Ah3EAfgCDeHEAfgAvcHhxAH4AL3EAfgBBeHEAfgAvcQB+AD14cQB+ACVxAH4AO3EAfgB9eHEAfgAvcQB+ADd4cQB+ACVxAH4ANXhxAH4AL3B4cQB+ACVzcQB+AAJzcQB+AAcAAAACdwQAAAACc3EAfgACc3EAfgAHAAAAAncEAAAAAnNxAH4AAnNxAH4ABwAAAAB3BAAAAAB4cQB+ABZxAH4AlXNxAH4AAnNxAH4ABwAAAAB3BAAAAAB4cQB+AC1xAH4AlXhxAH4AJXEAfgCTcQB+ABF4cQB+ACVzcQB+AAJzcQB+AAcAAAACdwQAAAACcQB+AJNxAH4AN3hxAH4AL3B4cQB+ACVxAH4ABnEAfgA3eHEAfgAvcHNxAH4AAnNxAH4ABwAAAAJ3BAAAAAJzcQB+AAJzcQB+AAcAAAAAdwQAAAAAeHNxAH4ADXQAA3gxNHEAfgCdc3EAfgACc3EAfgAHAAAAAncEAAAAAnNxAH4AAnNxAH4ABwAAAAJ3BAAAAAJzcQB+AAJzcQB+AAcAAAACdwQAAAACc3EAfgACc3EAfgAHAAAAAncEAAAAAnNxAH4AAnNxAH4ABwAAAAB3BAAAAAB4c3EAfgAVQAAAAAAAAABxAH4AqXNxAH4AAnNxAH4ABwAAAAB3BAAAAAB4cQB+AC1zcQB+AAJzcQB+AAcAAAACdwQAAAACc3EAfgACc3EAfgAHAAAAAHcEAAAAAHhxAH4ALXEAfgCwcQB+AK54fnEAfgAjdAANUFJPVF9ESVZJU0lPTnNxAH4AAnNxAH4ABwAAAAJ3BAAAAAJxAH4AsHNxAH4AAnNxAH4ABwAAAAB3BAAAAAB4c3EAfgANdAACeDlzcQB+AAJzcQB+AAcAAAACdwQAAAACc3EAfgACc3EAfgAHAAAAAncEAAAAAnNxAH4AAnNxAH4ABwAAAAB3BAAAAAB4cQB+AK1xAH4AvnNxAH4AAnNxAH4ABwAAAAJ3BAAAAAJzcQB+AAJzcQB+AAcAAAAAdwQAAAAAeHEAfgCtcQB+AMJzcQB+AAJzcQB+AAcAAAAAdwQAAAAAeHEAfgAtcQB+AMJ4cQB+ALRxAH4AvnhxAH4AtHEAfgC8cQB+ALh4fnEAfgAjdAALU1VCVFJBQ1RJT05zcQB+AAJzcQB+AAcAAAACdwQAAAACcQB+ALxzcQB+AAJzcQB+AAcAAAACdwQAAAACc3EAfgACc3EAfgAHAAAAAncEAAAAAnNxAH4AAnNxAH4ABwAAAAB3BAAAAAB4cQB+AK1xAH4AznNxAH4AAnNxAH4ABwAAAAB3BAAAAAB4cQB+AC1xAH4AznhxAH4AtHEAfgDMc3EAfgACc3EAfgAHAAAAAHcEAAAAAHhxAH4ALXEAfgDMeHEAfgDIcQB+AMp4cQB+AMhzcQB+AAJzcQB+AAcAAAACdwQAAAACcQB+AMpzcQB+AAJzcQB+AAcAAAAAdwQAAAAAeHNxAH4ADXQAA3gxMXEAfgDWeHEAfgDIc3EAfgACc3EAfgAHAAAAAncEAAAAAnNxAH4AAnNxAH4ABwAAAAB3BAAAAAB4cQB+AKFxAH4A3HEAfgDWeHEAfgAlcHhxAH4AyHNxAH4AAnNxAH4ABwAAAAJ3BAAAAAJxAH4AtnEAfgDMeHEAfgDIc3EAfgACc3EAfgAHAAAAAncEAAAAAnEAfgDgcQB+ANh4cQB+AMhzcQB+AAJzcQB+AAcAAAACdwQAAAACc3EAfgACc3EAfgAHAAAAAHcEAAAAAHhxAH4AoXEAfgDkcQB+AOJ4cQB+ACVweHEAfgC0cQB+AKdxAH4AuHhxAH4AyHEAfgClcQB+AMx4cQB+AMhxAH4Ao3EAfgDYeHEAfgDIc3EAfgACc3EAfgAHAAAAAncEAAAAAnNxAH4AAnNxAH4ABwAAAAB3BAAAAAB4cQB+ALpxAH4A6HEAfgCjeHEAfgAlcHhxAH4AJXBzcQB+AAJzcQB+AAcAAAACdwQAAAACc3EAfgACc3EAfgAHAAAAAncEAAAAAnNxAH4AAnNxAH4ABwAAAAB3BAAAAAB4c3EAfgAVQBIAAAAAAABxAH4A7nNxAH4AAnNxAH4ABwAAAAB3BAAAAAB4cQB+ANpzcQB+AAJzcQB+AAcAAAACdwQAAAACc3EAfgACc3EAfgAHAAAAAncEAAAAAnNxAH4AAnNxAH4ABwAAAAJ3BAAAAAJzcQB+AAJzcQB+AAcAAAAAdwQAAAAAeHEAfgDycQB+APlzcQB+AAJzcQB+AAcAAAAAdwQAAAAAeHEAfgDacQB+APl4cQB+ACVxAH4A93NxAH4AAnNxAH4ABwAAAAJ3BAAAAAJzcQB+AAJzcQB+AAcAAAAAdwQAAAAAeHEAfgAPcQB+AP9zcQB+AAJzcQB+AAcAAAAAdwQAAAAAeHNxAH4ADXQAAng1cQB+AP94cQB+ACVxAH4A93hxAH4AJXEAfgD1cQB+APN4cQB+ACVzcQB+AAJzcQB+AAcAAAACdwQAAAACcQB+APVzcQB+AAJzcQB+AAcAAAACdwQAAAACc3EAfgACc3EAfgAHAAAAAHcEAAAAAHhxAH4AD3EAfgEJc3EAfgACc3EAfgAHAAAAAHcEAAAAAHhxAH4BBXNxAH4AAnNxAH4ABwAAAAJ3BAAAAAJzcQB+AAJzcQB+AAcAAAACdwQAAAACc3EAfgACc3EAfgAHAAAAAHcEAAAAAHhxAH4AD3EAfgERc3EAfgACc3EAfgAHAAAAAHcEAAAAAHhxAH4BBXEAfgEReHEAfgAlcQB+AQ9xAH4BDXhxAH4AJXNxAH4AAnNxAH4ABwAAAAJ3BAAAAAJzcQB+AAJzcQB+AAcAAAACdwQAAAACc3EAfgACc3EAfgAHAAAAAHcEAAAAAHhxAH4A8nEAfgEZc3EAfgACc3EAfgAHAAAAAHcEAAAAAHhxAH4A2nEAfgEZeHEAfgAlcQB+ARdxAH4BD3hxAH4AJXB4cQB+ACVzcQB+AAJzcQB+AAcAAAACdwQAAAACc3EAfgACc3EAfgAHAAAAAncEAAAAAnNxAH4AAnNxAH4ABwAAAAJ3BAAAAAJzcQB+AAJzcQB+AAcAAAAAdwQAAAAAeHEAfgDycQB+ASNzcQB+AAJzcQB+AAcAAAAAdwQAAAAAeHEAfgDacQB+ASN4cQB+ACVxAH4BIXNxAH4AAnNxAH4ABwAAAAJ3BAAAAAJzcQB+AAJzcQB+AAcAAAAAdwQAAAAAeHEAfgAPcQB+ASlzcQB+AAJzcQB+AAcAAAAAdwQAAAAAeHEAfgEFcQB+ASl4cQB+ACVxAH4BIXhxAH4AJXEAfgEfcQB+AQl4cQB+ACVweHEAfgAlcHhxAH4AJXEAfgDscQB+AQl4cQB+ACVwc3EAfgACc3EAfgAHAAAAAncEAAAAAnNxAH4AAnNxAH4ABwAAAAJ3BAAAAAJzcQB+AAJzcQB+AAcAAAACdwQAAAACc3EAfgACc3EAfgAHAAAAAncEAAAAAnNxAH4AAnNxAH4ABwAAAAB3BAAAAAB4c3EAfgAVP+AAAAAAAABxAH4BNXNxAH4AAnNxAH4ABwAAAAB3BAAAAAB4c3EAfgAVAAAAAAAAAABzcQB+AAJzcQB+AAcAAAACdwQAAAACc3EAfgACc3EAfgAHAAAAAHcEAAAAAHhxAH4BPHEAfgE9cQB+ATp4cQB+AMhzcQB+AAJzcQB+AAcAAAACdwQAAAACcQB+AT1zcQB+AAJzcQB+AAcAAAACdwQAAAACc3EAfgACc3EAfgAHAAAAAHcEAAAAAHhxAH4BPHEAfgFDc3EAfgACc3EAfgAHAAAAAHcEAAAAAHhxAH4A2nEAfgFDeHEAfgAlc3EAfgACc3EAfgAHAAAAAncEAAAAAnNxAH4AAnNxAH4ABwAAAAJ3BAAAAAJzcQB+AAJzcQB+AAcAAAAAdwQAAAAAeHEAfgE5cQB+AUtzcQB+AAJzcQB+AAcAAAAAdwQAAAAAeHEAfgE5cQB+AUt4cQB+AMhxAH4BSXEAfgFDeHEAfgDIc3EAfgACc3EAfgAHAAAAAncEAAAAAnEAfgFJc3EAfgACc3EAfgAHAAAAAHcEAAAAAHhxAH4BPHEAfgFReHEAfgDIc3EAfgACc3EAfgAHAAAAAncEAAAAAnEAfgFRc3EAfgACc3EAfgAHAAAAAncEAAAAAnNxAH4AAnNxAH4ABwAAAAB3BAAAAAB4cQB+ATxxAH4BV3NxAH4AAnNxAH4ABwAAAAB3BAAAAAB4cQB+ATlxAH4BV3hxAH4AJXEAfgFVeHEAfgDIcHhxAH4AyHNxAH4AAnNxAH4ABwAAAAJ3BAAAAAJxAH4BQXEAfgFTeHEAfgDIc3EAfgACc3EAfgAHAAAAAncEAAAAAnEAfgFdcQB+AVd4cQB+AMhweHEAfgDIcQB+ATNxAH4BQ3hxAH4AyHEAfgExcQB+AVN4cQB+AMhxAH4BL3EAfgFXeHEAfgDIcHg=";
    "rO0ABXNyABFqYXZhLnV0aWwuQ29sbFNlcleOq7Y6G6gRAwABSQADdGFneHAAAAAEdwQAAAAEc3IAN2lvLmdpdGh1Yi5lcmljbWVkdmV0LmpnZWEuY29yZS5yZXByZXNlbnRhdGlvbi50cmVlLlRyZWUKs7/qnQrEZQIAA0wACGNoaWxkcmVudAAQTGphdmEvdXRpbC9MaXN0O0wAB2NvbnRlbnR0ABJMamF2YS9sYW5nL09iamVjdDtMAAZwYXJlbnR0ADlMaW8vZ2l0aHViL2VyaWNtZWR2ZXQvamdlYS9jb3JlL3JlcHJlc2VudGF0aW9uL3RyZWUvVHJlZTt4cHNyABNqYXZhLnV0aWwuQXJyYXlMaXN0eIHSHZnHYZ0DAAFJAARzaXpleHAAAAACdwQAAAACc3EAfgACc3EAfgAHAAAAAncEAAAAAnNxAH4AAnNxAH4ABwAAAAB3BAAAAAB4c3IAS2lvLmdpdGh1Yi5lcmljbWVkdmV0LmpnZWEuY29yZS5yZXByZXNlbnRhdGlvbi50cmVlLm51bWVyaWMuRWxlbWVudCRWYXJpYWJsZQAAAAAAAAAAAgABTAAEbmFtZXQAEkxqYXZhL2xhbmcvU3RyaW5nO3hwdAACeDJxAH4ACXNxAH4AAnNxAH4ABwAAAAJ3BAAAAAJzcQB+AAJzcQB+AAcAAAAAdwQAAAAAeHNyAEtpby5naXRodWIuZXJpY21lZHZldC5qZ2VhLmNvcmUucmVwcmVzZW50YXRpb24udHJlZS5udW1lcmljLkVsZW1lbnQkQ29uc3RhbnQAAAAAAAAAAAIAAUQABXZhbHVleHA/8AAAAAAAAHEAfgARc3EAfgACc3EAfgAHAAAAAHcEAAAAAHhxAH4AD3NxAH4AAnNxAH4ABwAAAAJ3BAAAAAJzcQB+AAJzcQB+AAcAAAACdwQAAAACc3EAfgACc3EAfgAHAAAAAncEAAAAAnNxAH4AAnNxAH4ABwAAAAB3BAAAAAB4cQB+AA9xAH4AHXNxAH4AAnNxAH4ABwAAAAB3BAAAAAB4cQB+AA9xAH4AHXh+cgBLaW8uZ2l0aHViLmVyaWNtZWR2ZXQuamdlYS5jb3JlLnJlcHJlc2VudGF0aW9uLnRyZWUubnVtZXJpYy5FbGVtZW50JE9wZXJhdG9yAAAAAAAAAAASAAB4cgAOamF2YS5sYW5nLkVudW0AAAAAAAAAABIAAHhwdAAOTVVMVElQTElDQVRJT05xAH4AG3NxAH4AAnNxAH4ABwAAAAJ3BAAAAAJzcQB+AAJzcQB+AAcAAAAAdwQAAAAAeHEAfgAWcQB+ACdzcQB+AAJzcQB+AAcAAAAAdwQAAAAAeHNxAH4ADXQAA3gxMnEAfgAneHEAfgAlcQB+ABt4fnEAfgAjdAAIQURESVRJT05xAH4AGXEAfgAXeHEAfgAlc3EAfgACc3EAfgAHAAAAAncEAAAAAnNxAH4AAnNxAH4ABwAAAAB3BAAAAAB4cQB+AA9xAH4AMXEAfgAZeHEAfgAlc3EAfgACc3EAfgAHAAAAAncEAAAAAnEAfgAxc3EAfgACc3EAfgAHAAAAAncEAAAAAnNxAH4AAnNxAH4ABwAAAAB3BAAAAAB4cQB+ABZxAH4AN3NxAH4AAnNxAH4ABwAAAAJ3BAAAAAJzcQB+AAJzcQB+AAcAAAACdwQAAAACc3EAfgACc3EAfgAHAAAAAHcEAAAAAHhxAH4AD3EAfgA9c3EAfgACc3EAfgAHAAAAAncEAAAAAnNxAH4AAnNxAH4ABwAAAAJ3BAAAAAJzcQB+AAJzcQB+AAcAAAAAdwQAAAAAeHEAfgAPcQB+AENzcQB+AAJzcQB+AAcAAAACdwQAAAACc3EAfgACc3EAfgAHAAAAAHcEAAAAAHhxAH4AFnEAfgBHc3EAfgACc3EAfgAHAAAAAHcEAAAAAHhxAH4AD3EAfgBHeHEAfgAlcQB+AEN4cQB+ACVxAH4AQXNxAH4AAnNxAH4ABwAAAAJ3BAAAAAJzcQB+AAJzcQB+AAcAAAACdwQAAAACc3EAfgACc3EAfgAHAAAAAHcEAAAAAHhxAH4AD3EAfgBPc3EAfgACc3EAfgAHAAAAAncEAAAAAnNxAH4AAnNxAH4ABwAAAAJ3BAAAAAJzcQB+AAJzcQB+AAcAAAAAdwQAAAAAeHEAfgAPcQB+AFVzcQB+AAJzcQB+AAcAAAAAdwQAAAAAeHEAfgAPcQB+AFV4cQB+ACVxAH4AU3NxAH4AAnNxAH4ABwAAAAJ3BAAAAAJzcQB+AAJzcQB+AAcAAAAAdwQAAAAAeHEAfgAWcQB+AFtzcQB+AAJzcQB+AAcAAAAAdwQAAAAAeHEAfgAtcQB+AFt4cQB+ACVxAH4AU3hxAH4AL3EAfgBPeHEAfgAlcQB+AE1zcQB+AAJzcQB+AAcAAAACdwQAAAACc3EAfgACc3EAfgAHAAAAAHcEAAAAAHhxAH4AFnEAfgBhc3EAfgACc3EAfgAHAAAAAHcEAAAAAHhxAH4ALXEAfgBheHEAfgAlc3EAfgACc3EAfgAHAAAAAncEAAAAAnNxAH4AAnNxAH4ABwAAAAB3BAAAAAB4cQB+ABZxAH4AZ3EAfgBheHEAfgAvc3EAfgACc3EAfgAHAAAAAncEAAAAAnNxAH4AAnNxAH4ABwAAAAJ3BAAAAAJzcQB+AAJzcQB+AAcAAAAAdwQAAAAAeHEAfgAPcQB+AG1zcQB+AAJzcQB+AAcAAAACdwQAAAACc3EAfgACc3EAfgAHAAAAAHcEAAAAAHhxAH4AFnEAfgBxc3EAfgACc3EAfgAHAAAAAHcEAAAAAHhxAH4AD3EAfgBxeHEAfgAlcQB+AG14cQB+ACVxAH4Aa3EAfgBneHEAfgAvc3EAfgACc3EAfgAHAAAAAncEAAAAAnNxAH4AAnNxAH4ABwAAAAB3BAAAAAB4cQB+AA9xAH4Ad3EAfgBreHEAfgAlc3EAfgACc3EAfgAHAAAAAncEAAAAAnEAfgB3c3EAfgACc3EAfgAHAAAAAncEAAAAAnNxAH4AAnNxAH4ABwAAAAB3BAAAAAB4cQB+ABZxAH4AfXNxAH4AAnNxAH4ABwAAAAB3BAAAAAB4cQB+AC1xAH4AfXhxAH4AJXEAfgB7eHEAfgAvc3EAfgACc3EAfgAHAAAAAncEAAAAAnNxAH4AAnNxAH4ABwAAAAB3BAAAAAB4cQB+ABZxAH4Ag3EAfgB7eHEAfgAlc3EAfgACc3EAfgAHAAAAAncEAAAAAnNxAH4AAnNxAH4ABwAAAAJ3BAAAAAJzcQB+AAJzcQB+AAcAAAAAdwQAAAAAeHEAfgAPcQB+AIlzcQB+AAJzcQB+AAcAAAACdwQAAAACc3EAfgACc3EAfgAHAAAAAHcEAAAAAHhxAH4AFnEAfgCNc3EAfgACc3EAfgAHAAAAAHcEAAAAAHhxAH4AD3EAfgCNeHEAfgAlcQB+AIl4cQB+ACVxAH4Ah3EAfgCDeHEAfgAvcHhxAH4AL3EAfgBBeHEAfgAvcQB+AD14cQB+ACVxAH4AO3EAfgB9eHEAfgAvcQB+ADd4cQB+ACVxAH4ANXhxAH4AL3B4cQB+ACVzcQB+AAJzcQB+AAcAAAACdwQAAAACc3EAfgACc3EAfgAHAAAAAncEAAAAAnNxAH4AAnNxAH4ABwAAAAB3BAAAAAB4cQB+ABZxAH4AlXNxAH4AAnNxAH4ABwAAAAB3BAAAAAB4cQB+AC1xAH4AlXhxAH4AJXEAfgCTcQB+ABF4cQB+ACVzcQB+AAJzcQB+AAcAAAACdwQAAAACcQB+AJNxAH4AN3hxAH4AL3B4cQB+ACVxAH4ABnEAfgA3eHEAfgAvcHNxAH4AAnNxAH4ABwAAAAJ3BAAAAAJzcQB+AAJzcQB+AAcAAAAAdwQAAAAAeHNxAH4ADXQAA3gxNHEAfgCdc3EAfgACc3EAfgAHAAAAAncEAAAAAnNxAH4AAnNxAH4ABwAAAAJ3BAAAAAJzcQB+AAJzcQB+AAcAAAACdwQAAAACc3EAfgACc3EAfgAHAAAAAncEAAAAAnNxAH4AAnNxAH4ABwAAAAB3BAAAAAB4c3EAfgAVQAAAAAAAAABxAH4AqXNxAH4AAnNxAH4ABwAAAAB3BAAAAAB4cQB+AC1zcQB+AAJzcQB+AAcAAAACdwQAAAACc3EAfgACc3EAfgAHAAAAAHcEAAAAAHhxAH4ALXEAfgCwcQB+AK54fnEAfgAjdAANUFJPVF9ESVZJU0lPTnNxAH4AAnNxAH4ABwAAAAJ3BAAAAAJxAH4AsHNxAH4AAnNxAH4ABwAAAAB3BAAAAAB4c3EAfgANdAACeDlzcQB+AAJzcQB+AAcAAAACdwQAAAACc3EAfgACc3EAfgAHAAAAAncEAAAAAnNxAH4AAnNxAH4ABwAAAAB3BAAAAAB4cQB+AK1xAH4AvnNxAH4AAnNxAH4ABwAAAAJ3BAAAAAJzcQB+AAJzcQB+AAcAAAAAdwQAAAAAeHEAfgCtcQB+AMJzcQB+AAJzcQB+AAcAAAAAdwQAAAAAeHEAfgAtcQB+AMJ4cQB+ALRxAH4AvnhxAH4AtHEAfgC8cQB+ALh4fnEAfgAjdAALU1VCVFJBQ1RJT05zcQB+AAJzcQB+AAcAAAACdwQAAAACcQB+ALxzcQB+AAJzcQB+AAcAAAACdwQAAAACc3EAfgACc3EAfgAHAAAAAncEAAAAAnNxAH4AAnNxAH4ABwAAAAB3BAAAAAB4cQB+AK1xAH4AznNxAH4AAnNxAH4ABwAAAAB3BAAAAAB4cQB+AC1xAH4AznhxAH4AtHEAfgDMc3EAfgACc3EAfgAHAAAAAHcEAAAAAHhxAH4ALXEAfgDMeHEAfgDIcQB+AMp4cQB+AMhzcQB+AAJzcQB+AAcAAAACdwQAAAACcQB+AMpzcQB+AAJzcQB+AAcAAAAAdwQAAAAAeHNxAH4ADXQAA3gxMXEAfgDWeHEAfgDIc3EAfgACc3EAfgAHAAAAAncEAAAAAnNxAH4AAnNxAH4ABwAAAAB3BAAAAAB4cQB+AKFxAH4A3HEAfgDWeHEAfgAlcHhxAH4AyHNxAH4AAnNxAH4ABwAAAAJ3BAAAAAJxAH4AtnEAfgDMeHEAfgDIc3EAfgACc3EAfgAHAAAAAncEAAAAAnEAfgDgcQB+ANh4cQB+AMhzcQB+AAJzcQB+AAcAAAACdwQAAAACc3EAfgACc3EAfgAHAAAAAHcEAAAAAHhxAH4AoXEAfgDkcQB+AOJ4cQB+ACVweHEAfgC0cQB+AKdxAH4AuHhxAH4AyHEAfgClcQB+AMx4cQB+AMhxAH4Ao3EAfgDYeHEAfgDIc3EAfgACc3EAfgAHAAAAAncEAAAAAnNxAH4AAnNxAH4ABwAAAAB3BAAAAAB4cQB+ALpxAH4A6HEAfgCjeHEAfgAlcHhxAH4AJXBzcQB+AAJzcQB+AAcAAAACdwQAAAACc3EAfgACc3EAfgAHAAAAAncEAAAAAnNxAH4AAnNxAH4ABwAAAAB3BAAAAAB4c3EAfgAVQBIAAAAAAABxAH4A7nNxAH4AAnNxAH4ABwAAAAB3BAAAAAB4cQB+ANpzcQB+AAJzcQB+AAcAAAACdwQAAAACc3EAfgACc3EAfgAHAAAAAncEAAAAAnNxAH4AAnNxAH4ABwAAAAJ3BAAAAAJzcQB+AAJzcQB+AAcAAAAAdwQAAAAAeHEAfgDycQB+APlzcQB+AAJzcQB+AAcAAAAAdwQAAAAAeHEAfgDacQB+APl4cQB+ACVxAH4A93NxAH4AAnNxAH4ABwAAAAJ3BAAAAAJzcQB+AAJzcQB+AAcAAAAAdwQAAAAAeHEAfgAPcQB+AP9zcQB+AAJzcQB+AAcAAAAAdwQAAAAAeHNxAH4ADXQAAng1cQB+AP94cQB+ACVxAH4A93hxAH4AJXEAfgD1cQB+APN4cQB+ACVzcQB+AAJzcQB+AAcAAAACdwQAAAACcQB+APVzcQB+AAJzcQB+AAcAAAACdwQAAAACc3EAfgACc3EAfgAHAAAAAHcEAAAAAHhxAH4AD3EAfgEJc3EAfgACc3EAfgAHAAAAAHcEAAAAAHhxAH4BBXNxAH4AAnNxAH4ABwAAAAJ3BAAAAAJzcQB+AAJzcQB+AAcAAAACdwQAAAACc3EAfgACc3EAfgAHAAAAAHcEAAAAAHhxAH4AD3EAfgERc3EAfgACc3EAfgAHAAAAAHcEAAAAAHhxAH4BBXEAfgEReHEAfgAlcQB+AQ9xAH4BDXhxAH4AJXNxAH4AAnNxAH4ABwAAAAJ3BAAAAAJzcQB+AAJzcQB+AAcAAAACdwQAAAACc3EAfgACc3EAfgAHAAAAAHcEAAAAAHhxAH4A8nEAfgEZc3EAfgACc3EAfgAHAAAAAHcEAAAAAHhxAH4A2nEAfgEZeHEAfgAlcQB+ARdxAH4BD3hxAH4AJXB4cQB+ACVzcQB+AAJzcQB+AAcAAAACdwQAAAACc3EAfgACc3EAfgAHAAAAAncEAAAAAnNxAH4AAnNxAH4ABwAAAAJ3BAAAAAJzcQB+AAJzcQB+AAcAAAAAdwQAAAAAeHEAfgDycQB+ASNzcQB+AAJzcQB+AAcAAAAAdwQAAAAAeHEAfgDacQB+ASN4cQB+ACVxAH4BIXNxAH4AAnNxAH4ABwAAAAJ3BAAAAAJzcQB+AAJzcQB+AAcAAAAAdwQAAAAAeHEAfgAPcQB+ASlzcQB+AAJzcQB+AAcAAAAAdwQAAAAAeHEAfgEFcQB+ASl4cQB+ACVxAH4BIXhxAH4AJXEAfgEfcQB+AQl4cQB+ACVweHEAfgAlcHhxAH4AJXEAfgDscQB+AQl4cQB+ACVwc3EAfgACc3EAfgAHAAAAAncEAAAAAnNxAH4AAnNxAH4ABwAAAAJ3BAAAAAJzcQB+AAJzcQB+AAcAAAAAdwQAAAAAeHNxAH4AFT/gAAAAAAAAcQB+ATFzcQB+AAJzcQB+AAcAAAAAdwQAAAAAeHNxAH4AFQAAAAAAAAAAc3EAfgACc3EAfgAHAAAAAncEAAAAAnNxAH4AAnNxAH4ABwAAAAJ3BAAAAAJzcQB+AAJzcQB+AAcAAAACdwQAAAACc3EAfgACc3EAfgAHAAAAAHcEAAAAAHhxAH4BNXEAfgE9c3EAfgACc3EAfgAHAAAAAHcEAAAAAHhxAH4BOHEAfgE9eHEAfgDIcQB+ATtzcQB+AAJzcQB+AAcAAAACdwQAAAACc3EAfgACc3EAfgAHAAAAAHcEAAAAAHhxAH4BOHEAfgFDc3EAfgACc3EAfgAHAAAAAHcEAAAAAHhxAH4BNXEAfgFDeHEAfgAlcQB+ATt4cQB+AMhxAH4BOXEAfgE2eHEAfgDIc3EAfgACc3EAfgAHAAAAAncEAAAAAnEAfgE5c3EAfgACc3EAfgAHAAAAAncEAAAAAnNxAH4AAnNxAH4ABwAAAAB3BAAAAAB4cQB+AThxAH4BS3NxAH4AAnNxAH4ABwAAAAB3BAAAAAB4c3EAfgAVP/gAAAAAAABxAH4BS3hxAH4AJXNxAH4AAnNxAH4ABwAAAAJ3BAAAAAJzcQB+AAJzcQB+AAcAAAAAdwQAAAAAeHEAfgE4cQB+AVJxAH4BS3hxAH4AyHB4cQB+AMhweHEAfgDIcQB+AS9xAH4BS3hxAH4AyHB4";
    "rO0ABXNyABFqYXZhLnV0aWwuQ29sbFNlcleOq7Y6G6gRAwABSQADdGFneHAAAAAEdwQAAAAEc3IAN2lvLmdpdGh1Yi5lcmljbWVkdmV0LmpnZWEuY29yZS5yZXByZXNlbnRhdGlvbi50cmVlLlRyZWUKs7/qnQrEZQIAA0wACGNoaWxkcmVudAAQTGphdmEvdXRpbC9MaXN0O0wAB2NvbnRlbnR0ABJMamF2YS9sYW5nL09iamVjdDtMAAZwYXJlbnR0ADlMaW8vZ2l0aHViL2VyaWNtZWR2ZXQvamdlYS9jb3JlL3JlcHJlc2VudGF0aW9uL3RyZWUvVHJlZTt4cHNyABNqYXZhLnV0aWwuQXJyYXlMaXN0eIHSHZnHYZ0DAAFJAARzaXpleHAAAAACdwQAAAACc3EAfgACc3EAfgAHAAAAAncEAAAAAnNxAH4AAnNxAH4ABwAAAAB3BAAAAAB4c3IAS2lvLmdpdGh1Yi5lcmljbWVkdmV0LmpnZWEuY29yZS5yZXByZXNlbnRhdGlvbi50cmVlLm51bWVyaWMuRWxlbWVudCRWYXJpYWJsZQAAAAAAAAAAAgABTAAEbmFtZXQAEkxqYXZhL2xhbmcvU3RyaW5nO3hwdAACeDJxAH4ACXNxAH4AAnNxAH4ABwAAAAJ3BAAAAAJzcQB+AAJzcQB+AAcAAAAAdwQAAAAAeHNyAEtpby5naXRodWIuZXJpY21lZHZldC5qZ2VhLmNvcmUucmVwcmVzZW50YXRpb24udHJlZS5udW1lcmljLkVsZW1lbnQkQ29uc3RhbnQAAAAAAAAAAAIAAUQABXZhbHVleHA/8AAAAAAAAHEAfgARc3EAfgACc3EAfgAHAAAAAHcEAAAAAHhxAH4AD3NxAH4AAnNxAH4ABwAAAAJ3BAAAAAJzcQB+AAJzcQB+AAcAAAACdwQAAAACc3EAfgACc3EAfgAHAAAAAncEAAAAAnNxAH4AAnNxAH4ABwAAAAB3BAAAAAB4cQB+AA9xAH4AHXNxAH4AAnNxAH4ABwAAAAB3BAAAAAB4cQB+AA9xAH4AHXh+cgBLaW8uZ2l0aHViLmVyaWNtZWR2ZXQuamdlYS5jb3JlLnJlcHJlc2VudGF0aW9uLnRyZWUubnVtZXJpYy5FbGVtZW50JE9wZXJhdG9yAAAAAAAAAAASAAB4cgAOamF2YS5sYW5nLkVudW0AAAAAAAAAABIAAHhwdAAOTVVMVElQTElDQVRJT05xAH4AG3NxAH4AAnNxAH4ABwAAAAJ3BAAAAAJzcQB+AAJzcQB+AAcAAAAAdwQAAAAAeHEAfgAWcQB+ACdzcQB+AAJzcQB+AAcAAAAAdwQAAAAAeHNxAH4ADXQAA3gxMnEAfgAneHEAfgAlcQB+ABt4fnEAfgAjdAAIQURESVRJT05xAH4AGXEAfgAXeHEAfgAlc3EAfgACc3EAfgAHAAAAAncEAAAAAnNxAH4AAnNxAH4ABwAAAAB3BAAAAAB4cQB+AA9xAH4AMXEAfgAZeHEAfgAlc3EAfgACc3EAfgAHAAAAAncEAAAAAnEAfgAxc3EAfgACc3EAfgAHAAAAAncEAAAAAnNxAH4AAnNxAH4ABwAAAAB3BAAAAAB4cQB+ABZxAH4AN3NxAH4AAnNxAH4ABwAAAAJ3BAAAAAJzcQB+AAJzcQB+AAcAAAACdwQAAAACc3EAfgACc3EAfgAHAAAAAHcEAAAAAHhxAH4AD3EAfgA9c3EAfgACc3EAfgAHAAAAAncEAAAAAnNxAH4AAnNxAH4ABwAAAAJ3BAAAAAJzcQB+AAJzcQB+AAcAAAAAdwQAAAAAeHEAfgAPcQB+AENzcQB+AAJzcQB+AAcAAAACdwQAAAACc3EAfgACc3EAfgAHAAAAAHcEAAAAAHhxAH4AFnEAfgBHc3EAfgACc3EAfgAHAAAAAHcEAAAAAHhxAH4AD3EAfgBHeHEAfgAlcQB+AEN4cQB+ACVxAH4AQXNxAH4AAnNxAH4ABwAAAAJ3BAAAAAJzcQB+AAJzcQB+AAcAAAACdwQAAAACc3EAfgACc3EAfgAHAAAAAHcEAAAAAHhxAH4AD3EAfgBPc3EAfgACc3EAfgAHAAAAAncEAAAAAnNxAH4AAnNxAH4ABwAAAAJ3BAAAAAJzcQB+AAJzcQB+AAcAAAAAdwQAAAAAeHEAfgAPcQB+AFVzcQB+AAJzcQB+AAcAAAAAdwQAAAAAeHEAfgAPcQB+AFV4cQB+ACVxAH4AU3NxAH4AAnNxAH4ABwAAAAJ3BAAAAAJzcQB+AAJzcQB+AAcAAAAAdwQAAAAAeHEAfgAWcQB+AFtzcQB+AAJzcQB+AAcAAAAAdwQAAAAAeHEAfgAtcQB+AFt4cQB+ACVxAH4AU3hxAH4AL3EAfgBPeHEAfgAlcQB+AE1zcQB+AAJzcQB+AAcAAAACdwQAAAACc3EAfgACc3EAfgAHAAAAAHcEAAAAAHhxAH4AFnEAfgBhc3EAfgACc3EAfgAHAAAAAHcEAAAAAHhxAH4ALXEAfgBheHEAfgAlc3EAfgACc3EAfgAHAAAAAncEAAAAAnNxAH4AAnNxAH4ABwAAAAB3BAAAAAB4cQB+ABZxAH4AZ3EAfgBheHEAfgAvc3EAfgACc3EAfgAHAAAAAncEAAAAAnNxAH4AAnNxAH4ABwAAAAJ3BAAAAAJzcQB+AAJzcQB+AAcAAAAAdwQAAAAAeHEAfgAPcQB+AG1zcQB+AAJzcQB+AAcAAAACdwQAAAACc3EAfgACc3EAfgAHAAAAAHcEAAAAAHhxAH4AFnEAfgBxc3EAfgACc3EAfgAHAAAAAHcEAAAAAHhxAH4AD3EAfgBxeHEAfgAlcQB+AG14cQB+ACVxAH4Aa3EAfgBneHEAfgAvc3EAfgACc3EAfgAHAAAAAncEAAAAAnNxAH4AAnNxAH4ABwAAAAB3BAAAAAB4cQB+AA9xAH4Ad3EAfgBreHEAfgAlc3EAfgACc3EAfgAHAAAAAncEAAAAAnEAfgB3c3EAfgACc3EAfgAHAAAAAncEAAAAAnNxAH4AAnNxAH4ABwAAAAB3BAAAAAB4cQB+ABZxAH4AfXNxAH4AAnNxAH4ABwAAAAB3BAAAAAB4cQB+AC1xAH4AfXhxAH4AJXEAfgB7eHEAfgAvc3EAfgACc3EAfgAHAAAAAncEAAAAAnNxAH4AAnNxAH4ABwAAAAB3BAAAAAB4cQB+ABZxAH4Ag3EAfgB7eHEAfgAlc3EAfgACc3EAfgAHAAAAAncEAAAAAnNxAH4AAnNxAH4ABwAAAAJ3BAAAAAJzcQB+AAJzcQB+AAcAAAAAdwQAAAAAeHEAfgAPcQB+AIlzcQB+AAJzcQB+AAcAAAACdwQAAAACc3EAfgACc3EAfgAHAAAAAHcEAAAAAHhxAH4AFnEAfgCNc3EAfgACc3EAfgAHAAAAAHcEAAAAAHhxAH4AD3EAfgCNeHEAfgAlcQB+AIl4cQB+ACVxAH4Ah3EAfgCDeHEAfgAvcHhxAH4AL3EAfgBBeHEAfgAvcQB+AD14cQB+ACVxAH4AO3EAfgB9eHEAfgAvcQB+ADd4cQB+ACVxAH4ANXhxAH4AL3B4cQB+ACVzcQB+AAJzcQB+AAcAAAACdwQAAAACc3EAfgACc3EAfgAHAAAAAncEAAAAAnNxAH4AAnNxAH4ABwAAAAB3BAAAAAB4cQB+ABZxAH4AlXNxAH4AAnNxAH4ABwAAAAB3BAAAAAB4cQB+AC1xAH4AlXhxAH4AJXEAfgCTcQB+ABF4cQB+ACVzcQB+AAJzcQB+AAcAAAACdwQAAAACcQB+AJNxAH4AN3hxAH4AL3B4cQB+ACVxAH4ABnEAfgA3eHEAfgAvcHNxAH4AAnNxAH4ABwAAAAJ3BAAAAAJzcQB+AAJzcQB+AAcAAAAAdwQAAAAAeHNxAH4ADXQAA3gxNHEAfgCdc3EAfgACc3EAfgAHAAAAAncEAAAAAnNxAH4AAnNxAH4ABwAAAAJ3BAAAAAJzcQB+AAJzcQB+AAcAAAACdwQAAAACc3EAfgACc3EAfgAHAAAAAncEAAAAAnNxAH4AAnNxAH4ABwAAAAB3BAAAAAB4c3EAfgAVQAAAAAAAAABxAH4AqXNxAH4AAnNxAH4ABwAAAAB3BAAAAAB4cQB+AC1zcQB+AAJzcQB+AAcAAAACdwQAAAACc3EAfgACc3EAfgAHAAAAAncEAAAAAnNxAH4AAnNxAH4ABwAAAAB3BAAAAAB4cQB+AK1xAH4AsnNxAH4AAnNxAH4ABwAAAAB3BAAAAAB4cQB+AC1xAH4Asnh+cQB+ACN0AA1QUk9UX0RJVklTSU9OcQB+ALBxAH4ArnhxAH4AuHNxAH4AAnNxAH4ABwAAAAJ3BAAAAAJxAH4AsHNxAH4AAnNxAH4ABwAAAAB3BAAAAAB4c3EAfgANdAACeDlzcQB+AAJzcQB+AAcAAAACdwQAAAACc3EAfgACc3EAfgAHAAAAAncEAAAAAnNxAH4AAnNxAH4ABwAAAAB3BAAAAAB4cQB+AK1xAH4AwnNxAH4AAnNxAH4ABwAAAAB3BAAAAAB4cQB+AL5xAH4AwnhxAH4AuHEAfgDAcQB+ALx4fnEAfgAjdAALU1VCVFJBQ1RJT05zcQB+AAJzcQB+AAcAAAACdwQAAAACcQB+AMBzcQB+AAJzcQB+AAcAAAACdwQAAAACc3EAfgACc3EAfgAHAAAAAncEAAAAAnNxAH4AAnNxAH4ABwAAAAB3BAAAAAB4cQB+AK1xAH4AznNxAH4AAnNxAH4ABwAAAAB3BAAAAAB4cQB+AC1xAH4AznhxAH4AuHEAfgDMc3EAfgACc3EAfgAHAAAAAHcEAAAAAHhxAH4ALXEAfgDMeHEAfgDIc3EAfgACc3EAfgAHAAAAAncEAAAAAnNxAH4AAnNxAH4ABwAAAAB3BAAAAAB4cQB+AKFxAH4A1nEAfgDMeHEAfgDIc3EAfgACc3EAfgAHAAAAAncEAAAAAnEAfgDWc3EAfgACc3EAfgAHAAAAAHcEAAAAAHhzcQB+AA10AAN4MTFxAH4A2nhxAH4AyHNxAH4AAnNxAH4ABwAAAAJ3BAAAAAJzcQB+AAJzcQB+AAcAAAAAdwQAAAAAeHEAfgChcQB+AOBxAH4A2nhxAH4AJXB4cQB+AMhzcQB+AAJzcQB+AAcAAAACdwQAAAACcQB+AMpxAH4A3HhxAH4AyHNxAH4AAnNxAH4ABwAAAAJ3BAAAAAJzcQB+AAJzcQB+AAcAAAAAdwQAAAAAeHEAfgChcQB+AOZxAH4A5HhxAH4AJXB4cQB+AMhzcQB+AAJzcQB+AAcAAAACdwQAAAACcQB+ALpxAH4AzHhxAH4AyHNxAH4AAnNxAH4ABwAAAAJ3BAAAAAJxAH4A6nEAfgDceHEAfgDIc3EAfgACc3EAfgAHAAAAAncEAAAAAnNxAH4AAnNxAH4ABwAAAAB3BAAAAAB4cQB+AKFxAH4A7nEAfgDseHEAfgAlcHhxAH4AuHEAfgCncQB+ALx4cQB+AMhxAH4ApXEAfgDMeHEAfgDIcQB+AKNxAH4A3HhxAH4AyHNxAH4AAnNxAH4ABwAAAAJ3BAAAAAJzcQB+AAJzcQB+AAcAAAACdwQAAAACc3EAfgACc3EAfgAHAAAAAncEAAAAAnNxAH4AAnNxAH4ABwAAAAJ3BAAAAAJzcQB+AAJzcQB+AAcAAAAAdwQAAAAAeHEAfgCtcQB+APhzcQB+AAJzcQB+AAcAAAAAdwQAAAAAeHEAfgAtcQB+APh4cQB+ALhxAH4A9nNxAH4AAnNxAH4ABwAAAAB3BAAAAAB4cQB+AL5xAH4A9nhxAH4AyHEAfgD0c3EAfgACc3EAfgAHAAAAAHcEAAAAAHhxAH4AvnEAfgD0eHEAfgDIcQB+APJxAH4Ao3hxAH4AJXB4cQB+ACVwc3EAfgACc3EAfgAHAAAAAncEAAAAAnNxAH4AAnNxAH4ABwAAAAJ3BAAAAAJzcQB+AAJzcQB+AAcAAAAAdwQAAAAAeHNxAH4AFUASAAAAAAAAcQB+AQRzcQB+AAJzcQB+AAcAAAAAdwQAAAAAeHEAfgDec3EAfgACc3EAfgAHAAAAAncEAAAAAnNxAH4AAnNxAH4ABwAAAAJ3BAAAAAJzcQB+AAJzcQB+AAcAAAACdwQAAAACc3EAfgACc3EAfgAHAAAAAHcEAAAAAHhxAH4BCHEAfgEPc3EAfgACc3EAfgAHAAAAAHcEAAAAAHhxAH4A3nEAfgEPeHEAfgAlcQB+AQ1zcQB+AAJzcQB+AAcAAAACdwQAAAACc3EAfgACc3EAfgAHAAAAAHcEAAAAAHhxAH4AD3EAfgEVc3EAfgACc3EAfgAHAAAAAHcEAAAAAHhzcQB+AA10AAJ4NXEAfgEVeHEAfgAlcQB+AQ14cQB+ACVxAH4BC3EAfgEJeHEAfgAlc3EAfgACc3EAfgAHAAAAAncEAAAAAnEAfgELc3EAfgACc3EAfgAHAAAAAncEAAAAAnNxAH4AAnNxAH4ABwAAAAB3BAAAAAB4cQB+AA9xAH4BH3NxAH4AAnNxAH4ABwAAAAB3BAAAAAB4cQB+ARtzcQB+AAJzcQB+AAcAAAACdwQAAAACc3EAfgACc3EAfgAHAAAAAncEAAAAAnNxAH4AAnNxAH4ABwAAAAB3BAAAAAB4cQB+AA9xAH4BJ3NxAH4AAnNxAH4ABwAAAAB3BAAAAAB4cQB+ARtxAH4BJ3hxAH4AJXEAfgElcQB+ASN4cQB+ACVzcQB+AAJzcQB+AAcAAAACdwQAAAACc3EAfgACc3EAfgAHAAAAAncEAAAAAnNxAH4AAnNxAH4ABwAAAAB3BAAAAAB4cQB+AQhxAH4BL3NxAH4AAnNxAH4ABwAAAAB3BAAAAAB4cQB+AN5xAH4BL3hxAH4AJXEAfgEtcQB+ASV4cQB+ACVweHEAfgAlc3EAfgACc3EAfgAHAAAAAncEAAAAAnNxAH4AAnNxAH4ABwAAAAJ3BAAAAAJzcQB+AAJzcQB+AAcAAAAAdwQAAAAAeHEAfgAPcQB+ATdzcQB+AAJzcQB+AAcAAAAAdwQAAAAAeHEAfgEbcQB+ATd4cQB+ACVxAH4BNXEAfgEfeHEAfgAlcHhxAH4AJXB4cQB+ACVxAH4BAnEAfgEfeHEAfgAlcHNxAH4AAnNxAH4ABwAAAAJ3BAAAAAJzcQB+AAJzcQB+AAcAAAACdwQAAAACc3EAfgACc3EAfgAHAAAAAHcEAAAAAHhzcQB+ABU/4AAAAAAAAHEAfgE/c3EAfgACc3EAfgAHAAAAAHcEAAAAAHhzcQB+ABUAAAAAAAAAAHNxAH4AAnNxAH4ABwAAAAJ3BAAAAAJzcQB+AAJzcQB+AAcAAAACdwQAAAACc3EAfgACc3EAfgAHAAAAAHcEAAAAAHhxAH4BQ3EAfgFJc3EAfgACc3EAfgAHAAAAAncEAAAAAnNxAH4AAnNxAH4ABwAAAAB3BAAAAAB4cQB+AUZxAH4BTXNxAH4AAnNxAH4ABwAAAAB3BAAAAAB4cQB+AUNxAH4BTXhxAH4AJXEAfgFJeHEAfgDIcQB+AUdxAH4BRHhxAH4AyHNxAH4AAnNxAH4ABwAAAAJ3BAAAAAJxAH4BR3NxAH4AAnNxAH4ABwAAAAJ3BAAAAAJzcQB+AAJzcQB+AAcAAAAAdwQAAAAAeHEAfgFGcQB+AVVzcQB+AAJzcQB+AAcAAAAAdwQAAAAAeHEAfgFGcQB+AVV4cQB+ACVzcQB+AAJzcQB+AAcAAAACdwQAAAACc3EAfgACc3EAfgAHAAAAAncEAAAAAnNxAH4AAnNxAH4ABwAAAAB3BAAAAAB4cQB+AUNxAH4BXXNxAH4AAnNxAH4ABwAAAAB3BAAAAAB4cQB+AUNxAH4BXXhxAH4AyHEAfgFbcQB+AVV4cQB+AMhweHEAfgDIcHhxAH4AyHEAfgE9cQB+AVV4cQB+AMhweA==";
    "rO0ABXNyABFqYXZhLnV0aWwuQ29sbFNlcleOq7Y6G6gRAwABSQADdGFneHAAAAAEdwQAAAAEc3IAN2lvLmdpdGh1Yi5lcmljbWVkdmV0LmpnZWEuY29yZS5yZXByZXNlbnRhdGlvbi50cmVlLlRyZWUKs7/qnQrEZQIAA0wACGNoaWxkcmVudAAQTGphdmEvdXRpbC9MaXN0O0wAB2NvbnRlbnR0ABJMamF2YS9sYW5nL09iamVjdDtMAAZwYXJlbnR0ADlMaW8vZ2l0aHViL2VyaWNtZWR2ZXQvamdlYS9jb3JlL3JlcHJlc2VudGF0aW9uL3RyZWUvVHJlZTt4cHNyABNqYXZhLnV0aWwuQXJyYXlMaXN0eIHSHZnHYZ0DAAFJAARzaXpleHAAAAACdwQAAAACc3EAfgACc3EAfgAHAAAAAncEAAAAAnNxAH4AAnNxAH4ABwAAAAB3BAAAAAB4c3IAS2lvLmdpdGh1Yi5lcmljbWVkdmV0LmpnZWEuY29yZS5yZXByZXNlbnRhdGlvbi50cmVlLm51bWVyaWMuRWxlbWVudCRWYXJpYWJsZQAAAAAAAAAAAgABTAAEbmFtZXQAEkxqYXZhL2xhbmcvU3RyaW5nO3hwdAACeDJxAH4ACXNxAH4AAnNxAH4ABwAAAAJ3BAAAAAJzcQB+AAJzcQB+AAcAAAAAdwQAAAAAeHNyAEtpby5naXRodWIuZXJpY21lZHZldC5qZ2VhLmNvcmUucmVwcmVzZW50YXRpb24udHJlZS5udW1lcmljLkVsZW1lbnQkQ29uc3RhbnQAAAAAAAAAAAIAAUQABXZhbHVleHA/8AAAAAAAAHEAfgARc3EAfgACc3EAfgAHAAAAAHcEAAAAAHhxAH4AD3NxAH4AAnNxAH4ABwAAAAJ3BAAAAAJzcQB+AAJzcQB+AAcAAAACdwQAAAACc3EAfgACc3EAfgAHAAAAAncEAAAAAnNxAH4AAnNxAH4ABwAAAAB3BAAAAAB4cQB+AA9xAH4AHXNxAH4AAnNxAH4ABwAAAAB3BAAAAAB4cQB+AA9xAH4AHXh+cgBLaW8uZ2l0aHViLmVyaWNtZWR2ZXQuamdlYS5jb3JlLnJlcHJlc2VudGF0aW9uLnRyZWUubnVtZXJpYy5FbGVtZW50JE9wZXJhdG9yAAAAAAAAAAASAAB4cgAOamF2YS5sYW5nLkVudW0AAAAAAAAAABIAAHhwdAAOTVVMVElQTElDQVRJT05xAH4AG3NxAH4AAnNxAH4ABwAAAAJ3BAAAAAJzcQB+AAJzcQB+AAcAAAAAdwQAAAAAeHEAfgAWcQB+ACdzcQB+AAJzcQB+AAcAAAAAdwQAAAAAeHNxAH4ADXQAA3gxMnEAfgAneHEAfgAlcQB+ABt4fnEAfgAjdAAIQURESVRJT05xAH4AGXEAfgAXeHEAfgAlc3EAfgACc3EAfgAHAAAAAncEAAAAAnNxAH4AAnNxAH4ABwAAAAB3BAAAAAB4cQB+AA9xAH4AMXEAfgAZeHEAfgAlc3EAfgACc3EAfgAHAAAAAncEAAAAAnEAfgAxc3EAfgACc3EAfgAHAAAAAncEAAAAAnNxAH4AAnNxAH4ABwAAAAB3BAAAAAB4cQB+ABZxAH4AN3NxAH4AAnNxAH4ABwAAAAJ3BAAAAAJzcQB+AAJzcQB+AAcAAAACdwQAAAACc3EAfgACc3EAfgAHAAAAAHcEAAAAAHhxAH4AD3EAfgA9c3EAfgACc3EAfgAHAAAAAncEAAAAAnNxAH4AAnNxAH4ABwAAAAJ3BAAAAAJzcQB+AAJzcQB+AAcAAAAAdwQAAAAAeHEAfgAPcQB+AENzcQB+AAJzcQB+AAcAAAACdwQAAAACc3EAfgACc3EAfgAHAAAAAHcEAAAAAHhxAH4AFnEAfgBHc3EAfgACc3EAfgAHAAAAAHcEAAAAAHhxAH4AD3EAfgBHeHEAfgAlcQB+AEN4cQB+ACVxAH4AQXNxAH4AAnNxAH4ABwAAAAJ3BAAAAAJzcQB+AAJzcQB+AAcAAAACdwQAAAACc3EAfgACc3EAfgAHAAAAAHcEAAAAAHhxAH4AD3EAfgBPc3EAfgACc3EAfgAHAAAAAncEAAAAAnNxAH4AAnNxAH4ABwAAAAJ3BAAAAAJzcQB+AAJzcQB+AAcAAAAAdwQAAAAAeHEAfgAPcQB+AFVzcQB+AAJzcQB+AAcAAAAAdwQAAAAAeHEAfgAPcQB+AFV4cQB+ACVxAH4AU3NxAH4AAnNxAH4ABwAAAAJ3BAAAAAJzcQB+AAJzcQB+AAcAAAAAdwQAAAAAeHEAfgAWcQB+AFtzcQB+AAJzcQB+AAcAAAAAdwQAAAAAeHEAfgAtcQB+AFt4cQB+ACVxAH4AU3hxAH4AL3EAfgBPeHEAfgAlcQB+AE1zcQB+AAJzcQB+AAcAAAACdwQAAAACc3EAfgACc3EAfgAHAAAAAHcEAAAAAHhxAH4AFnEAfgBhc3EAfgACc3EAfgAHAAAAAHcEAAAAAHhxAH4ALXEAfgBheHEAfgAlc3EAfgACc3EAfgAHAAAAAncEAAAAAnNxAH4AAnNxAH4ABwAAAAB3BAAAAAB4cQB+ABZxAH4AZ3EAfgBheHEAfgAvc3EAfgACc3EAfgAHAAAAAncEAAAAAnNxAH4AAnNxAH4ABwAAAAJ3BAAAAAJzcQB+AAJzcQB+AAcAAAAAdwQAAAAAeHEAfgAPcQB+AG1zcQB+AAJzcQB+AAcAAAACdwQAAAACc3EAfgACc3EAfgAHAAAAAHcEAAAAAHhxAH4AFnEAfgBxc3EAfgACc3EAfgAHAAAAAHcEAAAAAHhxAH4AD3EAfgBxeHEAfgAlcQB+AG14cQB+ACVxAH4Aa3EAfgBneHEAfgAvc3EAfgACc3EAfgAHAAAAAncEAAAAAnNxAH4AAnNxAH4ABwAAAAB3BAAAAAB4cQB+AA9xAH4Ad3EAfgBreHEAfgAlc3EAfgACc3EAfgAHAAAAAncEAAAAAnEAfgB3c3EAfgACc3EAfgAHAAAAAncEAAAAAnNxAH4AAnNxAH4ABwAAAAB3BAAAAAB4cQB+ABZxAH4AfXNxAH4AAnNxAH4ABwAAAAB3BAAAAAB4cQB+AC1xAH4AfXhxAH4AJXEAfgB7eHEAfgAvc3EAfgACc3EAfgAHAAAAAncEAAAAAnNxAH4AAnNxAH4ABwAAAAB3BAAAAAB4cQB+ABZxAH4Ag3EAfgB7eHEAfgAlc3EAfgACc3EAfgAHAAAAAncEAAAAAnNxAH4AAnNxAH4ABwAAAAJ3BAAAAAJzcQB+AAJzcQB+AAcAAAAAdwQAAAAAeHEAfgAPcQB+AIlzcQB+AAJzcQB+AAcAAAACdwQAAAACc3EAfgACc3EAfgAHAAAAAHcEAAAAAHhxAH4AFnEAfgCNc3EAfgACc3EAfgAHAAAAAHcEAAAAAHhxAH4AD3EAfgCNeHEAfgAlcQB+AIl4cQB+ACVxAH4Ah3EAfgCDeHEAfgAvcHhxAH4AL3EAfgBBeHEAfgAvcQB+AD14cQB+ACVxAH4AO3EAfgB9eHEAfgAvcQB+ADd4cQB+ACVxAH4ANXhxAH4AL3B4cQB+ACVzcQB+AAJzcQB+AAcAAAACdwQAAAACc3EAfgACc3EAfgAHAAAAAncEAAAAAnNxAH4AAnNxAH4ABwAAAAB3BAAAAAB4cQB+ABZxAH4AlXNxAH4AAnNxAH4ABwAAAAB3BAAAAAB4cQB+AC1xAH4AlXhxAH4AJXEAfgCTcQB+ABF4cQB+ACVzcQB+AAJzcQB+AAcAAAACdwQAAAACcQB+AJNxAH4AN3hxAH4AL3B4cQB+ACVxAH4ABnEAfgA3eHEAfgAvcHNxAH4AAnNxAH4ABwAAAAJ3BAAAAAJzcQB+AAJzcQB+AAcAAAAAdwQAAAAAeHNxAH4ADXQAA3gxNHEAfgCdc3EAfgACc3EAfgAHAAAAAncEAAAAAnNxAH4AAnNxAH4ABwAAAAJ3BAAAAAJzcQB+AAJzcQB+AAcAAAACdwQAAAACc3EAfgACc3EAfgAHAAAAAncEAAAAAnNxAH4AAnNxAH4ABwAAAAB3BAAAAAB4c3EAfgAVQAAAAAAAAABxAH4AqXNxAH4AAnNxAH4ABwAAAAB3BAAAAAB4cQB+AC1zcQB+AAJzcQB+AAcAAAACdwQAAAACc3EAfgACc3EAfgAHAAAAAHcEAAAAAHhxAH4ALXEAfgCwcQB+AK54fnEAfgAjdAANUFJPVF9ESVZJU0lPTnNxAH4AAnNxAH4ABwAAAAJ3BAAAAAJxAH4AsHNxAH4AAnNxAH4ABwAAAAB3BAAAAAB4c3EAfgANdAACeDlzcQB+AAJzcQB+AAcAAAACdwQAAAACc3EAfgACc3EAfgAHAAAAAncEAAAAAnNxAH4AAnNxAH4ABwAAAAB3BAAAAAB4cQB+AK1xAH4AvnNxAH4AAnNxAH4ABwAAAAJ3BAAAAAJzcQB+AAJzcQB+AAcAAAAAdwQAAAAAeHEAfgCtcQB+AMJzcQB+AAJzcQB+AAcAAAAAdwQAAAAAeHEAfgAtcQB+AMJ4cQB+ALRxAH4AvnhxAH4AtHEAfgC8cQB+ALh4fnEAfgAjdAALU1VCVFJBQ1RJT05zcQB+AAJzcQB+AAcAAAACdwQAAAACcQB+ALxzcQB+AAJzcQB+AAcAAAACdwQAAAACc3EAfgACc3EAfgAHAAAAAncEAAAAAnNxAH4AAnNxAH4ABwAAAAB3BAAAAAB4cQB+AK1xAH4AznNxAH4AAnNxAH4ABwAAAAB3BAAAAAB4cQB+AC1xAH4AznhxAH4AtHEAfgDMc3EAfgACc3EAfgAHAAAAAHcEAAAAAHhxAH4ALXEAfgDMeHEAfgDIcQB+AMp4cQB+AMhzcQB+AAJzcQB+AAcAAAACdwQAAAACcQB+AMpzcQB+AAJzcQB+AAcAAAAAdwQAAAAAeHNxAH4ADXQAA3gxMXEAfgDWeHEAfgDIc3EAfgACc3EAfgAHAAAAAncEAAAAAnNxAH4AAnNxAH4ABwAAAAB3BAAAAAB4cQB+AKFxAH4A3HEAfgDWeHEAfgAlcHhxAH4AyHNxAH4AAnNxAH4ABwAAAAJ3BAAAAAJxAH4AtnEAfgDMeHEAfgDIc3EAfgACc3EAfgAHAAAAAncEAAAAAnEAfgDgcQB+ANh4cQB+AMhzcQB+AAJzcQB+AAcAAAACdwQAAAACc3EAfgACc3EAfgAHAAAAAHcEAAAAAHhxAH4AoXEAfgDkcQB+AOJ4cQB+ACVweHEAfgC0cQB+AKdxAH4AuHhxAH4AyHEAfgClcQB+AMx4cQB+AMhxAH4Ao3EAfgDYeHEAfgDIc3EAfgACc3EAfgAHAAAAAncEAAAAAnNxAH4AAnNxAH4ABwAAAAB3BAAAAAB4cQB+ALpxAH4A6HEAfgCjeHEAfgAlcHhxAH4AJXBzcQB+AAJzcQB+AAcAAAACdwQAAAACc3EAfgACc3EAfgAHAAAAAncEAAAAAnNxAH4AAnNxAH4ABwAAAAB3BAAAAAB4c3EAfgAVQBIAAAAAAABxAH4A7nNxAH4AAnNxAH4ABwAAAAB3BAAAAAB4cQB+ANpzcQB+AAJzcQB+AAcAAAACdwQAAAACc3EAfgACc3EAfgAHAAAAAncEAAAAAnNxAH4AAnNxAH4ABwAAAAJ3BAAAAAJzcQB+AAJzcQB+AAcAAAAAdwQAAAAAeHEAfgDycQB+APlzcQB+AAJzcQB+AAcAAAAAdwQAAAAAeHEAfgDacQB+APl4cQB+ACVxAH4A93NxAH4AAnNxAH4ABwAAAAJ3BAAAAAJzcQB+AAJzcQB+AAcAAAAAdwQAAAAAeHEAfgAPcQB+AP9zcQB+AAJzcQB+AAcAAAAAdwQAAAAAeHNxAH4ADXQAAng1cQB+AP94cQB+ACVxAH4A93hxAH4AJXEAfgD1cQB+APN4cQB+ACVzcQB+AAJzcQB+AAcAAAACdwQAAAACcQB+APVzcQB+AAJzcQB+AAcAAAACdwQAAAACc3EAfgACc3EAfgAHAAAAAHcEAAAAAHhxAH4AD3EAfgEJc3EAfgACc3EAfgAHAAAAAHcEAAAAAHhxAH4BBXNxAH4AAnNxAH4ABwAAAAJ3BAAAAAJzcQB+AAJzcQB+AAcAAAACdwQAAAACc3EAfgACc3EAfgAHAAAAAHcEAAAAAHhxAH4AD3EAfgERc3EAfgACc3EAfgAHAAAAAHcEAAAAAHhxAH4BBXEAfgEReHEAfgAlcQB+AQ9xAH4BDXhxAH4AJXNxAH4AAnNxAH4ABwAAAAJ3BAAAAAJzcQB+AAJzcQB+AAcAAAACdwQAAAACc3EAfgACc3EAfgAHAAAAAHcEAAAAAHhxAH4A8nEAfgEZc3EAfgACc3EAfgAHAAAAAHcEAAAAAHhxAH4A2nEAfgEZeHEAfgAlcQB+ARdxAH4BD3hxAH4AJXB4cQB+ACVzcQB+AAJzcQB+AAcAAAACdwQAAAACc3EAfgACc3EAfgAHAAAAAncEAAAAAnNxAH4AAnNxAH4ABwAAAAB3BAAAAAB4cQB+AA9xAH4BIXNxAH4AAnNxAH4ABwAAAAB3BAAAAAB4cQB+AQVxAH4BIXhxAH4AJXEAfgEfcQB+AQl4cQB+ACVweHEAfgAlcHhxAH4AJXEAfgDscQB+AQl4cQB+ACVwc3EAfgACc3EAfgAHAAAAAncEAAAAAnNxAH4AAnNxAH4ABwAAAAJ3BAAAAAJzcQB+AAJzcQB+AAcAAAACdwQAAAACc3EAfgACc3EAfgAHAAAAAncEAAAAAnNxAH4AAnNxAH4ABwAAAAB3BAAAAAB4c3EAfgAVP+AAAAAAAABxAH4BLXNxAH4AAnNxAH4ABwAAAAB3BAAAAAB4c3EAfgAVAAAAAAAAAABzcQB+AAJzcQB+AAcAAAACdwQAAAACc3EAfgACc3EAfgAHAAAAAHcEAAAAAHhxAH4BNHEAfgE1cQB+ATJ4cQB+AMhzcQB+AAJzcQB+AAcAAAACdwQAAAACcQB+ATVzcQB+AAJzcQB+AAcAAAACdwQAAAACc3EAfgACc3EAfgAHAAAAAHcEAAAAAHhxAH4BNHEAfgE7c3EAfgACc3EAfgAHAAAAAHcEAAAAAHhxAH4A2nEAfgE7eHEAfgAlc3EAfgACc3EAfgAHAAAAAncEAAAAAnNxAH4AAnNxAH4ABwAAAAJ3BAAAAAJzcQB+AAJzcQB+AAcAAAAAdwQAAAAAeHEAfgExcQB+AUNzcQB+AAJzcQB+AAcAAAAAdwQAAAAAeHEAfgExcQB+AUN4cQB+AMhxAH4BQXEAfgE7eHEAfgDIc3EAfgACc3EAfgAHAAAAAncEAAAAAnEAfgFBc3EAfgACc3EAfgAHAAAAAHcEAAAAAHhxAH4BNHEAfgFJeHEAfgDIc3EAfgACc3EAfgAHAAAAAncEAAAAAnEAfgFJc3EAfgACc3EAfgAHAAAAAncEAAAAAnNxAH4AAnNxAH4ABwAAAAB3BAAAAAB4cQB+ATRxAH4BT3NxAH4AAnNxAH4ABwAAAAB3BAAAAAB4cQB+ATFxAH4BT3hxAH4AJXEAfgFNeHEAfgDIcHhxAH4AyHNxAH4AAnNxAH4ABwAAAAJ3BAAAAAJxAH4BOXEAfgFLeHEAfgDIc3EAfgACc3EAfgAHAAAAAncEAAAAAnEAfgFVcQB+AU94cQB+AMhweHEAfgDIcQB+AStxAH4BO3hxAH4AyHEAfgEpcQB+AUt4cQB+AMhxAH4BJ3EAfgFPeHEAfgDIcHg=";
    "rO0ABXNyABFqYXZhLnV0aWwuQ29sbFNlcleOq7Y6G6gRAwABSQADdGFneHAAAAAEdwQAAAAEc3IAN2lvLmdpdGh1Yi5lcmljbWVkdmV0LmpnZWEuY29yZS5yZXByZXNlbnRhdGlvbi50cmVlLlRyZWUKs7/qnQrEZQIAA0wACGNoaWxkcmVudAAQTGphdmEvdXRpbC9MaXN0O0wAB2NvbnRlbnR0ABJMamF2YS9sYW5nL09iamVjdDtMAAZwYXJlbnR0ADlMaW8vZ2l0aHViL2VyaWNtZWR2ZXQvamdlYS9jb3JlL3JlcHJlc2VudGF0aW9uL3RyZWUvVHJlZTt4cHNyABNqYXZhLnV0aWwuQXJyYXlMaXN0eIHSHZnHYZ0DAAFJAARzaXpleHAAAAACdwQAAAACc3EAfgACc3EAfgAHAAAAAncEAAAAAnNxAH4AAnNxAH4ABwAAAAB3BAAAAAB4c3IAS2lvLmdpdGh1Yi5lcmljbWVkdmV0LmpnZWEuY29yZS5yZXByZXNlbnRhdGlvbi50cmVlLm51bWVyaWMuRWxlbWVudCRWYXJpYWJsZQAAAAAAAAAAAgABTAAEbmFtZXQAEkxqYXZhL2xhbmcvU3RyaW5nO3hwdAACeDJxAH4ACXNxAH4AAnNxAH4ABwAAAAJ3BAAAAAJzcQB+AAJzcQB+AAcAAAAAdwQAAAAAeHNyAEtpby5naXRodWIuZXJpY21lZHZldC5qZ2VhLmNvcmUucmVwcmVzZW50YXRpb24udHJlZS5udW1lcmljLkVsZW1lbnQkQ29uc3RhbnQAAAAAAAAAAAIAAUQABXZhbHVleHA/8AAAAAAAAHEAfgARc3EAfgACc3EAfgAHAAAAAHcEAAAAAHhxAH4AD3NxAH4AAnNxAH4ABwAAAAJ3BAAAAAJzcQB+AAJzcQB+AAcAAAACdwQAAAACc3EAfgACc3EAfgAHAAAAAncEAAAAAnNxAH4AAnNxAH4ABwAAAAB3BAAAAAB4cQB+AA9xAH4AHXNxAH4AAnNxAH4ABwAAAAB3BAAAAAB4cQB+AA9xAH4AHXh+cgBLaW8uZ2l0aHViLmVyaWNtZWR2ZXQuamdlYS5jb3JlLnJlcHJlc2VudGF0aW9uLnRyZWUubnVtZXJpYy5FbGVtZW50JE9wZXJhdG9yAAAAAAAAAAASAAB4cgAOamF2YS5sYW5nLkVudW0AAAAAAAAAABIAAHhwdAAOTVVMVElQTElDQVRJT05xAH4AG3NxAH4AAnNxAH4ABwAAAAJ3BAAAAAJzcQB+AAJzcQB+AAcAAAAAdwQAAAAAeHEAfgAWcQB+ACdzcQB+AAJzcQB+AAcAAAAAdwQAAAAAeHNxAH4ADXQAA3gxMnEAfgAneHEAfgAlcQB+ABt4fnEAfgAjdAAIQURESVRJT05xAH4AGXEAfgAXeHEAfgAlc3EAfgACc3EAfgAHAAAAAncEAAAAAnNxAH4AAnNxAH4ABwAAAAB3BAAAAAB4cQB+AA9xAH4AMXEAfgAZeHEAfgAlc3EAfgACc3EAfgAHAAAAAncEAAAAAnEAfgAxc3EAfgACc3EAfgAHAAAAAncEAAAAAnNxAH4AAnNxAH4ABwAAAAB3BAAAAAB4cQB+ABZxAH4AN3NxAH4AAnNxAH4ABwAAAAJ3BAAAAAJzcQB+AAJzcQB+AAcAAAACdwQAAAACc3EAfgACc3EAfgAHAAAAAHcEAAAAAHhxAH4AD3EAfgA9c3EAfgACc3EAfgAHAAAAAncEAAAAAnNxAH4AAnNxAH4ABwAAAAJ3BAAAAAJzcQB+AAJzcQB+AAcAAAAAdwQAAAAAeHEAfgAPcQB+AENzcQB+AAJzcQB+AAcAAAACdwQAAAACc3EAfgACc3EAfgAHAAAAAHcEAAAAAHhxAH4AFnEAfgBHc3EAfgACc3EAfgAHAAAAAHcEAAAAAHhxAH4AD3EAfgBHeHEAfgAlcQB+AEN4cQB+ACVxAH4AQXNxAH4AAnNxAH4ABwAAAAJ3BAAAAAJzcQB+AAJzcQB+AAcAAAACdwQAAAACc3EAfgACc3EAfgAHAAAAAHcEAAAAAHhxAH4AD3EAfgBPc3EAfgACc3EAfgAHAAAAAncEAAAAAnNxAH4AAnNxAH4ABwAAAAJ3BAAAAAJzcQB+AAJzcQB+AAcAAAAAdwQAAAAAeHEAfgAPcQB+AFVzcQB+AAJzcQB+AAcAAAAAdwQAAAAAeHEAfgAPcQB+AFV4cQB+ACVxAH4AU3NxAH4AAnNxAH4ABwAAAAJ3BAAAAAJzcQB+AAJzcQB+AAcAAAAAdwQAAAAAeHEAfgAWcQB+AFtzcQB+AAJzcQB+AAcAAAAAdwQAAAAAeHEAfgAtcQB+AFt4cQB+ACVxAH4AU3hxAH4AL3EAfgBPeHEAfgAlcQB+AE1zcQB+AAJzcQB+AAcAAAACdwQAAAACc3EAfgACc3EAfgAHAAAAAHcEAAAAAHhxAH4AFnEAfgBhc3EAfgACc3EAfgAHAAAAAHcEAAAAAHhxAH4ALXEAfgBheHEAfgAlc3EAfgACc3EAfgAHAAAAAncEAAAAAnNxAH4AAnNxAH4ABwAAAAB3BAAAAAB4cQB+ABZxAH4AZ3EAfgBheHEAfgAvc3EAfgACc3EAfgAHAAAAAncEAAAAAnNxAH4AAnNxAH4ABwAAAAJ3BAAAAAJzcQB+AAJzcQB+AAcAAAAAdwQAAAAAeHEAfgAPcQB+AG1zcQB+AAJzcQB+AAcAAAACdwQAAAACc3EAfgACc3EAfgAHAAAAAHcEAAAAAHhxAH4AFnEAfgBxc3EAfgACc3EAfgAHAAAAAHcEAAAAAHhxAH4AD3EAfgBxeHEAfgAlcQB+AG14cQB+ACVxAH4Aa3EAfgBneHEAfgAvc3EAfgACc3EAfgAHAAAAAncEAAAAAnNxAH4AAnNxAH4ABwAAAAB3BAAAAAB4cQB+AA9xAH4Ad3EAfgBreHEAfgAlc3EAfgACc3EAfgAHAAAAAncEAAAAAnEAfgB3c3EAfgACc3EAfgAHAAAAAncEAAAAAnNxAH4AAnNxAH4ABwAAAAB3BAAAAAB4cQB+ABZxAH4AfXNxAH4AAnNxAH4ABwAAAAB3BAAAAAB4cQB+AC1xAH4AfXhxAH4AJXEAfgB7eHEAfgAvc3EAfgACc3EAfgAHAAAAAncEAAAAAnNxAH4AAnNxAH4ABwAAAAB3BAAAAAB4cQB+ABZxAH4Ag3EAfgB7eHEAfgAlc3EAfgACc3EAfgAHAAAAAncEAAAAAnNxAH4AAnNxAH4ABwAAAAJ3BAAAAAJzcQB+AAJzcQB+AAcAAAAAdwQAAAAAeHEAfgAPcQB+AIlzcQB+AAJzcQB+AAcAAAACdwQAAAACc3EAfgACc3EAfgAHAAAAAHcEAAAAAHhxAH4AFnEAfgCNc3EAfgACc3EAfgAHAAAAAHcEAAAAAHhxAH4AD3EAfgCNeHEAfgAlcQB+AIl4cQB+ACVxAH4Ah3EAfgCDeHEAfgAvcHhxAH4AL3EAfgBBeHEAfgAvcQB+AD14cQB+ACVxAH4AO3EAfgB9eHEAfgAvcQB+ADd4cQB+ACVxAH4ANXhxAH4AL3B4cQB+ACVzcQB+AAJzcQB+AAcAAAACdwQAAAACc3EAfgACc3EAfgAHAAAAAncEAAAAAnNxAH4AAnNxAH4ABwAAAAB3BAAAAAB4cQB+ABZxAH4AlXNxAH4AAnNxAH4ABwAAAAB3BAAAAAB4cQB+AC1xAH4AlXhxAH4AJXEAfgCTcQB+ABF4cQB+ACVzcQB+AAJzcQB+AAcAAAACdwQAAAACcQB+AJNxAH4AN3hxAH4AL3B4cQB+ACVxAH4ABnEAfgA3eHEAfgAvcHNxAH4AAnNxAH4ABwAAAAJ3BAAAAAJzcQB+AAJzcQB+AAcAAAAAdwQAAAAAeHNxAH4ADXQAA3gxNHEAfgCdc3EAfgACc3EAfgAHAAAAAncEAAAAAnNxAH4AAnNxAH4ABwAAAAJ3BAAAAAJzcQB+AAJzcQB+AAcAAAACdwQAAAACc3EAfgACc3EAfgAHAAAAAncEAAAAAnNxAH4AAnNxAH4ABwAAAAB3BAAAAAB4c3EAfgAVQAAAAAAAAABxAH4AqXNxAH4AAnNxAH4ABwAAAAB3BAAAAAB4cQB+AC1zcQB+AAJzcQB+AAcAAAACdwQAAAACc3EAfgACc3EAfgAHAAAAAHcEAAAAAHhxAH4ALXEAfgCwcQB+AK54fnEAfgAjdAANUFJPVF9ESVZJU0lPTnNxAH4AAnNxAH4ABwAAAAJ3BAAAAAJxAH4AsHNxAH4AAnNxAH4ABwAAAAB3BAAAAAB4c3EAfgANdAACeDlzcQB+AAJzcQB+AAcAAAACdwQAAAACc3EAfgACc3EAfgAHAAAAAncEAAAAAnNxAH4AAnNxAH4ABwAAAAB3BAAAAAB4cQB+AK1xAH4AvnNxAH4AAnNxAH4ABwAAAAJ3BAAAAAJzcQB+AAJzcQB+AAcAAAAAdwQAAAAAeHEAfgCtcQB+AMJzcQB+AAJzcQB+AAcAAAAAdwQAAAAAeHEAfgAtcQB+AMJ4cQB+ALRxAH4AvnhxAH4AtHEAfgC8cQB+ALh4fnEAfgAjdAALU1VCVFJBQ1RJT05zcQB+AAJzcQB+AAcAAAACdwQAAAACcQB+ALxzcQB+AAJzcQB+AAcAAAACdwQAAAACc3EAfgACc3EAfgAHAAAAAncEAAAAAnNxAH4AAnNxAH4ABwAAAAB3BAAAAAB4cQB+AK1xAH4AznNxAH4AAnNxAH4ABwAAAAB3BAAAAAB4cQB+AC1xAH4AznhxAH4AtHEAfgDMc3EAfgACc3EAfgAHAAAAAHcEAAAAAHhxAH4ALXEAfgDMeHEAfgDIcQB+AMp4cQB+AMhzcQB+AAJzcQB+AAcAAAACdwQAAAACcQB+AMpzcQB+AAJzcQB+AAcAAAAAdwQAAAAAeHNxAH4ADXQAA3gxMXEAfgDWeHEAfgDIc3EAfgACc3EAfgAHAAAAAncEAAAAAnNxAH4AAnNxAH4ABwAAAAB3BAAAAAB4cQB+AKFxAH4A3HEAfgDWeHEAfgAlcHhxAH4AyHNxAH4AAnNxAH4ABwAAAAJ3BAAAAAJxAH4AtnEAfgDMeHEAfgDIc3EAfgACc3EAfgAHAAAAAncEAAAAAnEAfgDgcQB+ANh4cQB+AMhzcQB+AAJzcQB+AAcAAAACdwQAAAACc3EAfgACc3EAfgAHAAAAAHcEAAAAAHhxAH4AoXEAfgDkcQB+AOJ4cQB+ACVweHEAfgC0cQB+AKdxAH4AuHhxAH4AyHEAfgClcQB+AMx4cQB+AMhxAH4Ao3EAfgDYeHEAfgDIc3EAfgACc3EAfgAHAAAAAncEAAAAAnNxAH4AAnNxAH4ABwAAAAB3BAAAAAB4cQB+ALpxAH4A6HEAfgCjeHEAfgAlcHhxAH4AJXBzcQB+AAJzcQB+AAcAAAACdwQAAAACc3EAfgACc3EAfgAHAAAAAncEAAAAAnNxAH4AAnNxAH4ABwAAAAB3BAAAAAB4c3EAfgAVQBIAAAAAAABxAH4A7nNxAH4AAnNxAH4ABwAAAAB3BAAAAAB4cQB+ANpzcQB+AAJzcQB+AAcAAAACdwQAAAACc3EAfgACc3EAfgAHAAAAAncEAAAAAnNxAH4AAnNxAH4ABwAAAAJ3BAAAAAJzcQB+AAJzcQB+AAcAAAAAdwQAAAAAeHEAfgDycQB+APlzcQB+AAJzcQB+AAcAAAAAdwQAAAAAeHEAfgDacQB+APl4cQB+ACVxAH4A93NxAH4AAnNxAH4ABwAAAAJ3BAAAAAJzcQB+AAJzcQB+AAcAAAAAdwQAAAAAeHEAfgAPcQB+AP9zcQB+AAJzcQB+AAcAAAAAdwQAAAAAeHNxAH4ADXQAAng1cQB+AP94cQB+ACVxAH4A93hxAH4AJXEAfgD1cQB+APN4cQB+ACVzcQB+AAJzcQB+AAcAAAACdwQAAAACcQB+APVzcQB+AAJzcQB+AAcAAAACdwQAAAACc3EAfgACc3EAfgAHAAAAAHcEAAAAAHhxAH4AD3EAfgEJc3EAfgACc3EAfgAHAAAAAHcEAAAAAHhxAH4BBXNxAH4AAnNxAH4ABwAAAAJ3BAAAAAJzcQB+AAJzcQB+AAcAAAACdwQAAAACc3EAfgACc3EAfgAHAAAAAHcEAAAAAHhxAH4AD3EAfgERc3EAfgACc3EAfgAHAAAAAHcEAAAAAHhxAH4BBXEAfgEReHEAfgAlcQB+AQ9xAH4BDXhxAH4AJXNxAH4AAnNxAH4ABwAAAAJ3BAAAAAJzcQB+AAJzcQB+AAcAAAACdwQAAAACc3EAfgACc3EAfgAHAAAAAHcEAAAAAHhxAH4A8nEAfgEZc3EAfgACc3EAfgAHAAAAAHcEAAAAAHhxAH4A2nEAfgEZeHEAfgAlcQB+ARdxAH4BD3hxAH4AJXB4cQB+ACVzcQB+AAJzcQB+AAcAAAACdwQAAAACc3EAfgACc3EAfgAHAAAAAncEAAAAAnNxAH4AAnNxAH4ABwAAAAJ3BAAAAAJzcQB+AAJzcQB+AAcAAAAAdwQAAAAAeHEAfgDycQB+ASNzcQB+AAJzcQB+AAcAAAAAdwQAAAAAeHEAfgDacQB+ASN4cQB+ACVxAH4BIXNxAH4AAnNxAH4ABwAAAAJ3BAAAAAJzcQB+AAJzcQB+AAcAAAAAdwQAAAAAeHEAfgAPcQB+ASlzcQB+AAJzcQB+AAcAAAAAdwQAAAAAeHEAfgEFcQB+ASl4cQB+ACVxAH4BIXhxAH4AJXEAfgEfcQB+AQl4cQB+ACVweHEAfgAlcHhxAH4AJXEAfgDscQB+AQl4cQB+ACVwc3EAfgACc3EAfgAHAAAAAncEAAAAAnNxAH4AAnNxAH4ABwAAAAJ3BAAAAAJzcQB+AAJzcQB+AAcAAAACdwQAAAACc3EAfgACc3EAfgAHAAAAAncEAAAAAnNxAH4AAnNxAH4ABwAAAAB3BAAAAAB4c3EAfgAVP+AAAAAAAABxAH4BNXNxAH4AAnNxAH4ABwAAAAB3BAAAAAB4c3EAfgAVAAAAAAAAAABzcQB+AAJzcQB+AAcAAAACdwQAAAACc3EAfgACc3EAfgAHAAAAAncEAAAAAnNxAH4AAnNxAH4ABwAAAAB3BAAAAAB4cQB+ATlxAH4BP3NxAH4AAnNxAH4ABwAAAAB3BAAAAAB4cQB+ATxxAH4BP3hxAH4AyHEAfgE9cQB+ATp4cQB+AMhzcQB+AAJzcQB+AAcAAAACdwQAAAACcQB+AT1zcQB+AAJzcQB+AAcAAAACdwQAAAACc3EAfgACc3EAfgAHAAAAAHcEAAAAAHhxAH4BPHEAfgFHc3EAfgACc3EAfgAHAAAAAHcEAAAAAHhxAH4A2nEAfgFHeHEAfgAlc3EAfgACc3EAfgAHAAAAAncEAAAAAnNxAH4AAnNxAH4ABwAAAAJ3BAAAAAJzcQB+AAJzcQB+AAcAAAAAdwQAAAAAeHEAfgE5cQB+AU9zcQB+AAJzcQB+AAcAAAACdwQAAAACc3EAfgACc3EAfgAHAAAAAHcEAAAAAHhxAH4BOXEAfgFTc3EAfgACc3EAfgAHAAAAAHcEAAAAAHhxAH4BPHEAfgFTeHEAfgDIcQB+AU94cQB+AMhxAH4BTXEAfgFHeHEAfgDIc3EAfgACc3EAfgAHAAAAAncEAAAAAnEAfgFNc3EAfgACc3EAfgAHAAAAAHcEAAAAAHhxAH4BPHNxAH4AAnNxAH4ABwAAAAJ3BAAAAAJzcQB+AAJzcQB+AAcAAAACdwQAAAACc3EAfgACc3EAfgAHAAAAAHcEAAAAAHhxAH4BPHEAfgFfc3EAfgACc3EAfgAHAAAAAHcEAAAAAHhxAH4A2nEAfgFfeHEAfgAlcQB+AV1xAH4BW3hxAH4AyHNxAH4AAnNxAH4ABwAAAAJ3BAAAAAJxAH4BXXNxAH4AAnNxAH4ABwAAAAJ3BAAAAAJzcQB+AAJzcQB+AAcAAAAAdwQAAAAAeHEAfgE8cQB+AWdzcQB+AAJzcQB+AAcAAAAAdwQAAAAAeHEAfgDacQB+AWd4cQB+ACVxAH4BZXhxAH4AyHB4cQB+AMhzcQB+AAJzcQB+AAcAAAACdwQAAAACcQB+AVlxAH4BZ3hxAH4AyHB4cQB+AMhzcQB+AAJzcQB+AAcAAAACdwQAAAACcQB+AUVxAH4BW3hxAH4AyHNxAH4AAnNxAH4ABwAAAAJ3BAAAAAJxAH4Bb3EAfgFneHEAfgDIcHhxAH4AyHEAfgEzcQB+AUd4cQB+AMhxAH4BMXEAfgFbeHEAfgDIcQB+AS9xAH4BZ3hxAH4AyHB4";
    "rO0ABXNyABFqYXZhLnV0aWwuQ29sbFNlcleOq7Y6G6gRAwABSQADdGFneHAAAAAEdwQAAAAEc3IAN2lvLmdpdGh1Yi5lcmljbWVkdmV0LmpnZWEuY29yZS5yZXByZXNlbnRhdGlvbi50cmVlLlRyZWUKs7/qnQrEZQIAA0wACGNoaWxkcmVudAAQTGphdmEvdXRpbC9MaXN0O0wAB2NvbnRlbnR0ABJMamF2YS9sYW5nL09iamVjdDtMAAZwYXJlbnR0ADlMaW8vZ2l0aHViL2VyaWNtZWR2ZXQvamdlYS9jb3JlL3JlcHJlc2VudGF0aW9uL3RyZWUvVHJlZTt4cHNyABNqYXZhLnV0aWwuQXJyYXlMaXN0eIHSHZnHYZ0DAAFJAARzaXpleHAAAAACdwQAAAACc3EAfgACc3EAfgAHAAAAAncEAAAAAnNxAH4AAnNxAH4ABwAAAAB3BAAAAAB4c3IAS2lvLmdpdGh1Yi5lcmljbWVkdmV0LmpnZWEuY29yZS5yZXByZXNlbnRhdGlvbi50cmVlLm51bWVyaWMuRWxlbWVudCRWYXJpYWJsZQAAAAAAAAAAAgABTAAEbmFtZXQAEkxqYXZhL2xhbmcvU3RyaW5nO3hwdAACeDJxAH4ACXNxAH4AAnNxAH4ABwAAAAJ3BAAAAAJzcQB+AAJzcQB+AAcAAAAAdwQAAAAAeHNyAEtpby5naXRodWIuZXJpY21lZHZldC5qZ2VhLmNvcmUucmVwcmVzZW50YXRpb24udHJlZS5udW1lcmljLkVsZW1lbnQkQ29uc3RhbnQAAAAAAAAAAAIAAUQABXZhbHVleHA/8AAAAAAAAHEAfgARc3EAfgACc3EAfgAHAAAAAHcEAAAAAHhxAH4AD3NxAH4AAnNxAH4ABwAAAAJ3BAAAAAJzcQB+AAJzcQB+AAcAAAACdwQAAAACc3EAfgACc3EAfgAHAAAAAncEAAAAAnNxAH4AAnNxAH4ABwAAAAB3BAAAAAB4cQB+AA9xAH4AHXNxAH4AAnNxAH4ABwAAAAB3BAAAAAB4cQB+AA9xAH4AHXh+cgBLaW8uZ2l0aHViLmVyaWNtZWR2ZXQuamdlYS5jb3JlLnJlcHJlc2VudGF0aW9uLnRyZWUubnVtZXJpYy5FbGVtZW50JE9wZXJhdG9yAAAAAAAAAAASAAB4cgAOamF2YS5sYW5nLkVudW0AAAAAAAAAABIAAHhwdAAOTVVMVElQTElDQVRJT05xAH4AG3NxAH4AAnNxAH4ABwAAAAJ3BAAAAAJzcQB+AAJzcQB+AAcAAAAAdwQAAAAAeHEAfgAWcQB+ACdzcQB+AAJzcQB+AAcAAAAAdwQAAAAAeHNxAH4ADXQAA3gxMnEAfgAneHEAfgAlcQB+ABt4fnEAfgAjdAAIQURESVRJT05xAH4AGXEAfgAXeHEAfgAlc3EAfgACc3EAfgAHAAAAAncEAAAAAnNxAH4AAnNxAH4ABwAAAAB3BAAAAAB4cQB+AA9xAH4AMXEAfgAZeHEAfgAlc3EAfgACc3EAfgAHAAAAAncEAAAAAnEAfgAxc3EAfgACc3EAfgAHAAAAAncEAAAAAnNxAH4AAnNxAH4ABwAAAAB3BAAAAAB4cQB+ABZxAH4AN3NxAH4AAnNxAH4ABwAAAAJ3BAAAAAJzcQB+AAJzcQB+AAcAAAACdwQAAAACc3EAfgACc3EAfgAHAAAAAHcEAAAAAHhxAH4AD3EAfgA9c3EAfgACc3EAfgAHAAAAAncEAAAAAnNxAH4AAnNxAH4ABwAAAAJ3BAAAAAJzcQB+AAJzcQB+AAcAAAAAdwQAAAAAeHEAfgAPcQB+AENzcQB+AAJzcQB+AAcAAAACdwQAAAACc3EAfgACc3EAfgAHAAAAAHcEAAAAAHhxAH4AFnEAfgBHc3EAfgACc3EAfgAHAAAAAHcEAAAAAHhxAH4AD3EAfgBHeHEAfgAlcQB+AEN4cQB+ACVxAH4AQXNxAH4AAnNxAH4ABwAAAAJ3BAAAAAJzcQB+AAJzcQB+AAcAAAACdwQAAAACc3EAfgACc3EAfgAHAAAAAHcEAAAAAHhxAH4AD3EAfgBPc3EAfgACc3EAfgAHAAAAAncEAAAAAnNxAH4AAnNxAH4ABwAAAAJ3BAAAAAJzcQB+AAJzcQB+AAcAAAAAdwQAAAAAeHEAfgAPcQB+AFVzcQB+AAJzcQB+AAcAAAAAdwQAAAAAeHEAfgAPcQB+AFV4cQB+ACVxAH4AU3NxAH4AAnNxAH4ABwAAAAJ3BAAAAAJzcQB+AAJzcQB+AAcAAAAAdwQAAAAAeHEAfgAWcQB+AFtzcQB+AAJzcQB+AAcAAAAAdwQAAAAAeHEAfgAtcQB+AFt4cQB+ACVxAH4AU3hxAH4AL3EAfgBPeHEAfgAlcQB+AE1zcQB+AAJzcQB+AAcAAAACdwQAAAACc3EAfgACc3EAfgAHAAAAAHcEAAAAAHhxAH4AFnEAfgBhc3EAfgACc3EAfgAHAAAAAHcEAAAAAHhxAH4ALXEAfgBheHEAfgAlc3EAfgACc3EAfgAHAAAAAncEAAAAAnNxAH4AAnNxAH4ABwAAAAB3BAAAAAB4cQB+ABZxAH4AZ3EAfgBheHEAfgAvc3EAfgACc3EAfgAHAAAAAncEAAAAAnNxAH4AAnNxAH4ABwAAAAJ3BAAAAAJzcQB+AAJzcQB+AAcAAAAAdwQAAAAAeHEAfgAPcQB+AG1zcQB+AAJzcQB+AAcAAAACdwQAAAACc3EAfgACc3EAfgAHAAAAAHcEAAAAAHhxAH4AFnEAfgBxc3EAfgACc3EAfgAHAAAAAHcEAAAAAHhxAH4AD3EAfgBxeHEAfgAlcQB+AG14cQB+ACVxAH4Aa3EAfgBneHEAfgAvc3EAfgACc3EAfgAHAAAAAncEAAAAAnNxAH4AAnNxAH4ABwAAAAB3BAAAAAB4cQB+AA9xAH4Ad3EAfgBreHEAfgAlc3EAfgACc3EAfgAHAAAAAncEAAAAAnEAfgB3c3EAfgACc3EAfgAHAAAAAncEAAAAAnNxAH4AAnNxAH4ABwAAAAB3BAAAAAB4cQB+ABZxAH4AfXNxAH4AAnNxAH4ABwAAAAB3BAAAAAB4cQB+AC1xAH4AfXhxAH4AJXEAfgB7eHEAfgAvc3EAfgACc3EAfgAHAAAAAncEAAAAAnNxAH4AAnNxAH4ABwAAAAB3BAAAAAB4cQB+ABZxAH4Ag3EAfgB7eHEAfgAlc3EAfgACc3EAfgAHAAAAAncEAAAAAnNxAH4AAnNxAH4ABwAAAAJ3BAAAAAJzcQB+AAJzcQB+AAcAAAAAdwQAAAAAeHEAfgAPcQB+AIlzcQB+AAJzcQB+AAcAAAACdwQAAAACc3EAfgACc3EAfgAHAAAAAHcEAAAAAHhxAH4AFnEAfgCNc3EAfgACc3EAfgAHAAAAAHcEAAAAAHhxAH4AD3EAfgCNeHEAfgAlcQB+AIl4cQB+ACVxAH4Ah3EAfgCDeHEAfgAvcHhxAH4AL3EAfgBBeHEAfgAvcQB+AD14cQB+ACVxAH4AO3EAfgB9eHEAfgAvcQB+ADd4cQB+ACVxAH4ANXhxAH4AL3B4cQB+ACVzcQB+AAJzcQB+AAcAAAACdwQAAAACc3EAfgACc3EAfgAHAAAAAncEAAAAAnNxAH4AAnNxAH4ABwAAAAB3BAAAAAB4cQB+ABZxAH4AlXNxAH4AAnNxAH4ABwAAAAB3BAAAAAB4cQB+AC1xAH4AlXhxAH4AJXEAfgCTcQB+ABF4cQB+ACVzcQB+AAJzcQB+AAcAAAACdwQAAAACcQB+AJNxAH4AN3hxAH4AL3B4cQB+ACVxAH4ABnEAfgA3eHEAfgAvcHNxAH4AAnNxAH4ABwAAAAJ3BAAAAAJzcQB+AAJzcQB+AAcAAAAAdwQAAAAAeHNxAH4ADXQAA3gxNHEAfgCdc3EAfgACc3EAfgAHAAAAAncEAAAAAnNxAH4AAnNxAH4ABwAAAAJ3BAAAAAJzcQB+AAJzcQB+AAcAAAACdwQAAAACc3EAfgACc3EAfgAHAAAAAncEAAAAAnNxAH4AAnNxAH4ABwAAAAB3BAAAAAB4c3EAfgAVQAAAAAAAAABxAH4AqXNxAH4AAnNxAH4ABwAAAAB3BAAAAAB4cQB+AC1zcQB+AAJzcQB+AAcAAAACdwQAAAACc3EAfgACc3EAfgAHAAAAAHcEAAAAAHhxAH4ALXEAfgCwcQB+AK54fnEAfgAjdAANUFJPVF9ESVZJU0lPTnNxAH4AAnNxAH4ABwAAAAJ3BAAAAAJxAH4AsHNxAH4AAnNxAH4ABwAAAAB3BAAAAAB4c3EAfgANdAACeDlzcQB+AAJzcQB+AAcAAAACdwQAAAACc3EAfgACc3EAfgAHAAAAAncEAAAAAnNxAH4AAnNxAH4ABwAAAAB3BAAAAAB4cQB+AK1xAH4AvnNxAH4AAnNxAH4ABwAAAAJ3BAAAAAJzcQB+AAJzcQB+AAcAAAAAdwQAAAAAeHEAfgCtcQB+AMJzcQB+AAJzcQB+AAcAAAAAdwQAAAAAeHEAfgAtcQB+AMJ4cQB+ALRxAH4AvnhxAH4AtHEAfgC8cQB+ALh4fnEAfgAjdAALU1VCVFJBQ1RJT05zcQB+AAJzcQB+AAcAAAACdwQAAAACcQB+ALxzcQB+AAJzcQB+AAcAAAACdwQAAAACc3EAfgACc3EAfgAHAAAAAncEAAAAAnNxAH4AAnNxAH4ABwAAAAB3BAAAAAB4cQB+AK1xAH4AznNxAH4AAnNxAH4ABwAAAAB3BAAAAAB4cQB+AC1xAH4AznhxAH4AtHEAfgDMc3EAfgACc3EAfgAHAAAAAHcEAAAAAHhxAH4ALXEAfgDMeHEAfgDIcQB+AMp4cQB+AMhzcQB+AAJzcQB+AAcAAAACdwQAAAACcQB+AMpzcQB+AAJzcQB+AAcAAAAAdwQAAAAAeHNxAH4ADXQAA3gxMXEAfgDWeHEAfgDIc3EAfgACc3EAfgAHAAAAAncEAAAAAnNxAH4AAnNxAH4ABwAAAAB3BAAAAAB4cQB+AKFxAH4A3HEAfgDWeHEAfgAlcHhxAH4AyHNxAH4AAnNxAH4ABwAAAAJ3BAAAAAJxAH4AtnEAfgDMeHEAfgDIc3EAfgACc3EAfgAHAAAAAncEAAAAAnEAfgDgcQB+ANh4cQB+AMhzcQB+AAJzcQB+AAcAAAACdwQAAAACc3EAfgACc3EAfgAHAAAAAHcEAAAAAHhxAH4AoXEAfgDkcQB+AOJ4cQB+ACVweHEAfgC0cQB+AKdxAH4AuHhxAH4AyHEAfgClcQB+AMx4cQB+AMhxAH4Ao3EAfgDYeHEAfgDIc3EAfgACc3EAfgAHAAAAAncEAAAAAnNxAH4AAnNxAH4ABwAAAAB3BAAAAAB4cQB+ALpxAH4A6HEAfgCjeHEAfgAlcHhxAH4AJXBzcQB+AAJzcQB+AAcAAAACdwQAAAACc3EAfgACc3EAfgAHAAAAAncEAAAAAnNxAH4AAnNxAH4ABwAAAAB3BAAAAAB4c3EAfgAVQBIAAAAAAABxAH4A7nNxAH4AAnNxAH4ABwAAAAB3BAAAAAB4cQB+ANpzcQB+AAJzcQB+AAcAAAACdwQAAAACc3EAfgACc3EAfgAHAAAAAncEAAAAAnNxAH4AAnNxAH4ABwAAAAJ3BAAAAAJzcQB+AAJzcQB+AAcAAAAAdwQAAAAAeHEAfgDycQB+APlzcQB+AAJzcQB+AAcAAAAAdwQAAAAAeHEAfgDacQB+APl4cQB+ACVxAH4A93NxAH4AAnNxAH4ABwAAAAJ3BAAAAAJzcQB+AAJzcQB+AAcAAAAAdwQAAAAAeHEAfgAPcQB+AP9zcQB+AAJzcQB+AAcAAAAAdwQAAAAAeHNxAH4ADXQAAng1cQB+AP94cQB+ACVxAH4A93hxAH4AJXEAfgD1cQB+APN4cQB+ACVzcQB+AAJzcQB+AAcAAAACdwQAAAACcQB+APVzcQB+AAJzcQB+AAcAAAACdwQAAAACc3EAfgACc3EAfgAHAAAAAHcEAAAAAHhxAH4AD3EAfgEJc3EAfgACc3EAfgAHAAAAAHcEAAAAAHhxAH4BBXNxAH4AAnNxAH4ABwAAAAJ3BAAAAAJzcQB+AAJzcQB+AAcAAAACdwQAAAACc3EAfgACc3EAfgAHAAAAAHcEAAAAAHhxAH4AD3EAfgERc3EAfgACc3EAfgAHAAAAAHcEAAAAAHhxAH4BBXEAfgEReHEAfgAlcQB+AQ9xAH4BDXhxAH4AJXNxAH4AAnNxAH4ABwAAAAJ3BAAAAAJzcQB+AAJzcQB+AAcAAAACdwQAAAACc3EAfgACc3EAfgAHAAAAAHcEAAAAAHhxAH4A8nEAfgEZc3EAfgACc3EAfgAHAAAAAHcEAAAAAHhxAH4A2nEAfgEZeHEAfgAlcQB+ARdxAH4BD3hxAH4AJXB4cQB+ACVzcQB+AAJzcQB+AAcAAAACdwQAAAACc3EAfgACc3EAfgAHAAAAAncEAAAAAnNxAH4AAnNxAH4ABwAAAAB3BAAAAAB4cQB+AA9xAH4BIXNxAH4AAnNxAH4ABwAAAAB3BAAAAAB4cQB+AQVxAH4BIXhxAH4AJXEAfgEfcQB+AQl4cQB+ACVweHEAfgAlcHhxAH4AJXEAfgDscQB+AQl4cQB+ACVwc3EAfgACc3EAfgAHAAAAAncEAAAAAnNxAH4AAnNxAH4ABwAAAAJ3BAAAAAJzcQB+AAJzcQB+AAcAAAAAdwQAAAAAeHNxAH4AFT/gAAAAAAAAcQB+ASlzcQB+AAJzcQB+AAcAAAAAdwQAAAAAeHNxAH4AFQAAAAAAAAAAc3EAfgACc3EAfgAHAAAAAncEAAAAAnNxAH4AAnNxAH4ABwAAAAB3BAAAAAB4cQB+ANpxAH4BMXEAfgEueHEAfgDIc3EAfgACc3EAfgAHAAAAAncEAAAAAnEAfgExc3EAfgACc3EAfgAHAAAAAncEAAAAAnNxAH4AAnNxAH4ABwAAAAB3BAAAAAB4cQB+ATBxAH4BN3NxAH4AAnNxAH4ABwAAAAB3BAAAAAB4cQB+AS1xAH4BN3hxAH4AJXNxAH4AAnNxAH4ABwAAAAJ3BAAAAAJzcQB+AAJzcQB+AAcAAAACdwQAAAACc3EAfgACc3EAfgAHAAAAAHcEAAAAAHhxAH4BLXEAfgE/c3EAfgACc3EAfgAHAAAAAncEAAAAAnNxAH4AAnNxAH4ABwAAAAB3BAAAAAB4cQB+AS1xAH4BQ3NxAH4AAnNxAH4ABwAAAAB3BAAAAAB4cQB+ATBxAH4BQ3hxAH4AyHEAfgE/eHEAfgDIcQB+AT1xAH4BN3hxAH4AyHB4cQB+AMhweHEAfgDIcQB+ASdxAH4BN3hxAH4AyHB4";
    "rO0ABXNyABFqYXZhLnV0aWwuQ29sbFNlcleOq7Y6G6gRAwABSQADdGFneHAAAAAEdwQAAAAEc3IAN2lvLmdpdGh1Yi5lcmljbWVkdmV0LmpnZWEuY29yZS5yZXByZXNlbnRhdGlvbi50cmVlLlRyZWUKs7/qnQrEZQIAA0wACGNoaWxkcmVudAAQTGphdmEvdXRpbC9MaXN0O0wAB2NvbnRlbnR0ABJMamF2YS9sYW5nL09iamVjdDtMAAZwYXJlbnR0ADlMaW8vZ2l0aHViL2VyaWNtZWR2ZXQvamdlYS9jb3JlL3JlcHJlc2VudGF0aW9uL3RyZWUvVHJlZTt4cHNyABNqYXZhLnV0aWwuQXJyYXlMaXN0eIHSHZnHYZ0DAAFJAARzaXpleHAAAAACdwQAAAACc3EAfgACc3EAfgAHAAAAAncEAAAAAnNxAH4AAnNxAH4ABwAAAAB3BAAAAAB4c3IAS2lvLmdpdGh1Yi5lcmljbWVkdmV0LmpnZWEuY29yZS5yZXByZXNlbnRhdGlvbi50cmVlLm51bWVyaWMuRWxlbWVudCRWYXJpYWJsZQAAAAAAAAAAAgABTAAEbmFtZXQAEkxqYXZhL2xhbmcvU3RyaW5nO3hwdAACeDJxAH4ACXNxAH4AAnNxAH4ABwAAAAJ3BAAAAAJzcQB+AAJzcQB+AAcAAAAAdwQAAAAAeHNyAEtpby5naXRodWIuZXJpY21lZHZldC5qZ2VhLmNvcmUucmVwcmVzZW50YXRpb24udHJlZS5udW1lcmljLkVsZW1lbnQkQ29uc3RhbnQAAAAAAAAAAAIAAUQABXZhbHVleHA/8AAAAAAAAHEAfgARc3EAfgACc3EAfgAHAAAAAHcEAAAAAHhxAH4AD3NxAH4AAnNxAH4ABwAAAAJ3BAAAAAJzcQB+AAJzcQB+AAcAAAACdwQAAAACc3EAfgACc3EAfgAHAAAAAncEAAAAAnNxAH4AAnNxAH4ABwAAAAB3BAAAAAB4cQB+AA9xAH4AHXNxAH4AAnNxAH4ABwAAAAB3BAAAAAB4cQB+AA9xAH4AHXh+cgBLaW8uZ2l0aHViLmVyaWNtZWR2ZXQuamdlYS5jb3JlLnJlcHJlc2VudGF0aW9uLnRyZWUubnVtZXJpYy5FbGVtZW50JE9wZXJhdG9yAAAAAAAAAAASAAB4cgAOamF2YS5sYW5nLkVudW0AAAAAAAAAABIAAHhwdAAOTVVMVElQTElDQVRJT05xAH4AG3NxAH4AAnNxAH4ABwAAAAJ3BAAAAAJzcQB+AAJzcQB+AAcAAAAAdwQAAAAAeHEAfgAWcQB+ACdzcQB+AAJzcQB+AAcAAAAAdwQAAAAAeHNxAH4ADXQAA3gxMnEAfgAneHEAfgAlcQB+ABt4fnEAfgAjdAAIQURESVRJT05xAH4AGXEAfgAXeHEAfgAlc3EAfgACc3EAfgAHAAAAAncEAAAAAnNxAH4AAnNxAH4ABwAAAAB3BAAAAAB4cQB+AA9xAH4AMXEAfgAZeHEAfgAlc3EAfgACc3EAfgAHAAAAAncEAAAAAnEAfgAxc3EAfgACc3EAfgAHAAAAAncEAAAAAnNxAH4AAnNxAH4ABwAAAAB3BAAAAAB4cQB+ABZxAH4AN3NxAH4AAnNxAH4ABwAAAAJ3BAAAAAJzcQB+AAJzcQB+AAcAAAACdwQAAAACc3EAfgACc3EAfgAHAAAAAHcEAAAAAHhxAH4AD3EAfgA9c3EAfgACc3EAfgAHAAAAAncEAAAAAnNxAH4AAnNxAH4ABwAAAAJ3BAAAAAJzcQB+AAJzcQB+AAcAAAAAdwQAAAAAeHEAfgAPcQB+AENzcQB+AAJzcQB+AAcAAAACdwQAAAACc3EAfgACc3EAfgAHAAAAAHcEAAAAAHhxAH4AFnEAfgBHc3EAfgACc3EAfgAHAAAAAHcEAAAAAHhxAH4AD3EAfgBHeHEAfgAlcQB+AEN4cQB+ACVxAH4AQXNxAH4AAnNxAH4ABwAAAAJ3BAAAAAJzcQB+AAJzcQB+AAcAAAACdwQAAAACc3EAfgACc3EAfgAHAAAAAHcEAAAAAHhxAH4AD3EAfgBPc3EAfgACc3EAfgAHAAAAAncEAAAAAnNxAH4AAnNxAH4ABwAAAAJ3BAAAAAJzcQB+AAJzcQB+AAcAAAAAdwQAAAAAeHEAfgAPcQB+AFVzcQB+AAJzcQB+AAcAAAAAdwQAAAAAeHEAfgAPcQB+AFV4cQB+ACVxAH4AU3NxAH4AAnNxAH4ABwAAAAJ3BAAAAAJzcQB+AAJzcQB+AAcAAAAAdwQAAAAAeHEAfgAWcQB+AFtzcQB+AAJzcQB+AAcAAAAAdwQAAAAAeHEAfgAtcQB+AFt4cQB+ACVxAH4AU3hxAH4AL3EAfgBPeHEAfgAlcQB+AE1zcQB+AAJzcQB+AAcAAAACdwQAAAACc3EAfgACc3EAfgAHAAAAAHcEAAAAAHhxAH4AFnEAfgBhc3EAfgACc3EAfgAHAAAAAHcEAAAAAHhxAH4ALXEAfgBheHEAfgAlc3EAfgACc3EAfgAHAAAAAncEAAAAAnNxAH4AAnNxAH4ABwAAAAB3BAAAAAB4cQB+ABZxAH4AZ3EAfgBheHEAfgAvc3EAfgACc3EAfgAHAAAAAncEAAAAAnNxAH4AAnNxAH4ABwAAAAJ3BAAAAAJzcQB+AAJzcQB+AAcAAAAAdwQAAAAAeHEAfgAPcQB+AG1zcQB+AAJzcQB+AAcAAAACdwQAAAACc3EAfgACc3EAfgAHAAAAAHcEAAAAAHhxAH4AFnEAfgBxc3EAfgACc3EAfgAHAAAAAHcEAAAAAHhxAH4AD3EAfgBxeHEAfgAlcQB+AG14cQB+ACVxAH4Aa3EAfgBneHEAfgAvc3EAfgACc3EAfgAHAAAAAncEAAAAAnNxAH4AAnNxAH4ABwAAAAB3BAAAAAB4cQB+AA9xAH4Ad3EAfgBreHEAfgAlc3EAfgACc3EAfgAHAAAAAncEAAAAAnEAfgB3c3EAfgACc3EAfgAHAAAAAncEAAAAAnNxAH4AAnNxAH4ABwAAAAB3BAAAAAB4cQB+ABZxAH4AfXNxAH4AAnNxAH4ABwAAAAB3BAAAAAB4cQB+AC1xAH4AfXhxAH4AJXEAfgB7eHEAfgAvc3EAfgACc3EAfgAHAAAAAncEAAAAAnNxAH4AAnNxAH4ABwAAAAB3BAAAAAB4cQB+ABZxAH4Ag3EAfgB7eHEAfgAlc3EAfgACc3EAfgAHAAAAAncEAAAAAnNxAH4AAnNxAH4ABwAAAAJ3BAAAAAJzcQB+AAJzcQB+AAcAAAAAdwQAAAAAeHEAfgAPcQB+AIlzcQB+AAJzcQB+AAcAAAACdwQAAAACc3EAfgACc3EAfgAHAAAAAHcEAAAAAHhxAH4AFnEAfgCNc3EAfgACc3EAfgAHAAAAAHcEAAAAAHhxAH4AD3EAfgCNeHEAfgAlcQB+AIl4cQB+ACVxAH4Ah3EAfgCDeHEAfgAvcHhxAH4AL3EAfgBBeHEAfgAvcQB+AD14cQB+ACVxAH4AO3EAfgB9eHEAfgAvcQB+ADd4cQB+ACVxAH4ANXhxAH4AL3B4cQB+ACVzcQB+AAJzcQB+AAcAAAACdwQAAAACc3EAfgACc3EAfgAHAAAAAncEAAAAAnNxAH4AAnNxAH4ABwAAAAB3BAAAAAB4cQB+ABZxAH4AlXNxAH4AAnNxAH4ABwAAAAB3BAAAAAB4cQB+AC1xAH4AlXhxAH4AJXEAfgCTcQB+ABF4cQB+ACVzcQB+AAJzcQB+AAcAAAACdwQAAAACcQB+AJNxAH4AN3hxAH4AL3B4cQB+ACVxAH4ABnEAfgA3eHEAfgAvcHNxAH4AAnNxAH4ABwAAAAJ3BAAAAAJzcQB+AAJzcQB+AAcAAAAAdwQAAAAAeHNxAH4ADXQAA3gxNHEAfgCdc3EAfgACc3EAfgAHAAAAAncEAAAAAnNxAH4AAnNxAH4ABwAAAAJ3BAAAAAJzcQB+AAJzcQB+AAcAAAACdwQAAAACc3EAfgACc3EAfgAHAAAAAncEAAAAAnNxAH4AAnNxAH4ABwAAAAB3BAAAAAB4c3EAfgAVQAAAAAAAAABxAH4AqXNxAH4AAnNxAH4ABwAAAAB3BAAAAAB4cQB+AC1zcQB+AAJzcQB+AAcAAAACdwQAAAACc3EAfgACc3EAfgAHAAAAAHcEAAAAAHhxAH4ALXEAfgCwcQB+AK54fnEAfgAjdAANUFJPVF9ESVZJU0lPTnNxAH4AAnNxAH4ABwAAAAJ3BAAAAAJxAH4AsHNxAH4AAnNxAH4ABwAAAAB3BAAAAAB4c3EAfgANdAACeDlzcQB+AAJzcQB+AAcAAAACdwQAAAACc3EAfgACc3EAfgAHAAAAAncEAAAAAnNxAH4AAnNxAH4ABwAAAAB3BAAAAAB4cQB+AK1xAH4AvnNxAH4AAnNxAH4ABwAAAAJ3BAAAAAJzcQB+AAJzcQB+AAcAAAAAdwQAAAAAeHEAfgCtcQB+AMJzcQB+AAJzcQB+AAcAAAAAdwQAAAAAeHEAfgAtcQB+AMJ4cQB+ALRxAH4AvnhxAH4AtHEAfgC8cQB+ALh4fnEAfgAjdAALU1VCVFJBQ1RJT05zcQB+AAJzcQB+AAcAAAACdwQAAAACcQB+ALxzcQB+AAJzcQB+AAcAAAACdwQAAAACc3EAfgACc3EAfgAHAAAAAncEAAAAAnNxAH4AAnNxAH4ABwAAAAB3BAAAAAB4cQB+AK1xAH4AznNxAH4AAnNxAH4ABwAAAAB3BAAAAAB4cQB+AC1xAH4AznhxAH4AtHEAfgDMc3EAfgACc3EAfgAHAAAAAHcEAAAAAHhxAH4ALXEAfgDMeHEAfgDIcQB+AMp4cQB+AMhzcQB+AAJzcQB+AAcAAAACdwQAAAACcQB+AMpzcQB+AAJzcQB+AAcAAAAAdwQAAAAAeHNxAH4ADXQAA3gxMXEAfgDWeHEAfgDIc3EAfgACc3EAfgAHAAAAAncEAAAAAnNxAH4AAnNxAH4ABwAAAAB3BAAAAAB4cQB+AKFxAH4A3HEAfgDWeHEAfgAlcHhxAH4AyHNxAH4AAnNxAH4ABwAAAAJ3BAAAAAJxAH4AtnEAfgDMeHEAfgDIc3EAfgACc3EAfgAHAAAAAncEAAAAAnEAfgDgcQB+ANh4cQB+AMhzcQB+AAJzcQB+AAcAAAACdwQAAAACc3EAfgACc3EAfgAHAAAAAHcEAAAAAHhxAH4AoXEAfgDkcQB+AOJ4cQB+ACVweHEAfgC0cQB+AKdxAH4AuHhxAH4AyHEAfgClcQB+AMx4cQB+AMhxAH4Ao3EAfgDYeHEAfgDIc3EAfgACc3EAfgAHAAAAAncEAAAAAnNxAH4AAnNxAH4ABwAAAAB3BAAAAAB4cQB+ALpxAH4A6HEAfgCjeHEAfgAlcHhxAH4AJXBzcQB+AAJzcQB+AAcAAAACdwQAAAACc3EAfgACc3EAfgAHAAAAAncEAAAAAnNxAH4AAnNxAH4ABwAAAAB3BAAAAAB4c3EAfgAVQBIAAAAAAABxAH4A7nNxAH4AAnNxAH4ABwAAAAB3BAAAAAB4cQB+ANpzcQB+AAJzcQB+AAcAAAACdwQAAAACc3EAfgACc3EAfgAHAAAAAncEAAAAAnNxAH4AAnNxAH4ABwAAAAJ3BAAAAAJzcQB+AAJzcQB+AAcAAAAAdwQAAAAAeHEAfgDycQB+APlzcQB+AAJzcQB+AAcAAAAAdwQAAAAAeHEAfgDacQB+APl4cQB+ACVxAH4A93NxAH4AAnNxAH4ABwAAAAJ3BAAAAAJzcQB+AAJzcQB+AAcAAAAAdwQAAAAAeHEAfgAPcQB+AP9zcQB+AAJzcQB+AAcAAAAAdwQAAAAAeHNxAH4ADXQAAng1cQB+AP94cQB+ACVxAH4A93hxAH4AJXEAfgD1cQB+APN4cQB+ACVzcQB+AAJzcQB+AAcAAAACdwQAAAACcQB+APVzcQB+AAJzcQB+AAcAAAACdwQAAAACc3EAfgACc3EAfgAHAAAAAHcEAAAAAHhxAH4AD3EAfgEJc3EAfgACc3EAfgAHAAAAAHcEAAAAAHhxAH4BBXNxAH4AAnNxAH4ABwAAAAJ3BAAAAAJzcQB+AAJzcQB+AAcAAAACdwQAAAACc3EAfgACc3EAfgAHAAAAAHcEAAAAAHhxAH4AD3EAfgERc3EAfgACc3EAfgAHAAAAAHcEAAAAAHhxAH4BBXEAfgEReHEAfgAlcQB+AQ9xAH4BDXhxAH4AJXNxAH4AAnNxAH4ABwAAAAJ3BAAAAAJzcQB+AAJzcQB+AAcAAAACdwQAAAACc3EAfgACc3EAfgAHAAAAAHcEAAAAAHhxAH4A8nEAfgEZc3EAfgACc3EAfgAHAAAAAHcEAAAAAHhxAH4A2nEAfgEZeHEAfgAlcQB+ARdxAH4BD3hxAH4AJXB4cQB+ACVzcQB+AAJzcQB+AAcAAAACdwQAAAACc3EAfgACc3EAfgAHAAAAAncEAAAAAnNxAH4AAnNxAH4ABwAAAAJ3BAAAAAJzcQB+AAJzcQB+AAcAAAAAdwQAAAAAeHEAfgDycQB+ASNzcQB+AAJzcQB+AAcAAAAAdwQAAAAAeHEAfgDacQB+ASN4cQB+ACVxAH4BIXNxAH4AAnNxAH4ABwAAAAJ3BAAAAAJzcQB+AAJzcQB+AAcAAAAAdwQAAAAAeHEAfgAPcQB+ASlzcQB+AAJzcQB+AAcAAAAAdwQAAAAAeHEAfgEFcQB+ASl4cQB+ACVxAH4BIXhxAH4AJXEAfgEfcQB+AQl4cQB+ACVweHEAfgAlcHhxAH4AJXEAfgDscQB+AQl4cQB+ACVwc3EAfgACc3EAfgAHAAAAAncEAAAAAnNxAH4AAnNxAH4ABwAAAAJ3BAAAAAJzcQB+AAJzcQB+AAcAAAAAdwQAAAAAeHNxAH4AFT/gAAAAAAAAcQB+ATFzcQB+AAJzcQB+AAcAAAAAdwQAAAAAeHNxAH4AFQAAAAAAAAAAc3EAfgACc3EAfgAHAAAAAncEAAAAAnNxAH4AAnNxAH4ABwAAAAJ3BAAAAAJzcQB+AAJzcQB+AAcAAAAAdwQAAAAAeHEAfgE4cQB+ATtzcQB+AAJzcQB+AAcAAAAAdwQAAAAAeHEAfgDacQB+ATt4cQB+ACVxAH4BOXEAfgE2eHEAfgDIc3EAfgACc3EAfgAHAAAAAncEAAAAAnEAfgE5c3EAfgACc3EAfgAHAAAAAncEAAAAAnNxAH4AAnNxAH4ABwAAAAB3BAAAAAB4cQB+AThxAH4BQ3NxAH4AAnNxAH4ABwAAAAB3BAAAAAB4cQB+ANpxAH4BQ3hxAH4AJXEAfgFBeHEAfgDIcHhxAH4AyHEAfgEvcQB+AUN4cQB+AMhweA==";
    "rO0ABXNyABFqYXZhLnV0aWwuQ29sbFNlcleOq7Y6G6gRAwABSQADdGFneHAAAAAEdwQAAAAEc3IAN2lvLmdpdGh1Yi5lcmljbWVkdmV0LmpnZWEuY29yZS5yZXByZXNlbnRhdGlvbi50cmVlLlRyZWUKs7/qnQrEZQIAA0wACGNoaWxkcmVudAAQTGphdmEvdXRpbC9MaXN0O0wAB2NvbnRlbnR0ABJMamF2YS9sYW5nL09iamVjdDtMAAZwYXJlbnR0ADlMaW8vZ2l0aHViL2VyaWNtZWR2ZXQvamdlYS9jb3JlL3JlcHJlc2VudGF0aW9uL3RyZWUvVHJlZTt4cHNyABNqYXZhLnV0aWwuQXJyYXlMaXN0eIHSHZnHYZ0DAAFJAARzaXpleHAAAAACdwQAAAACc3EAfgACc3EAfgAHAAAAAncEAAAAAnNxAH4AAnNxAH4ABwAAAAB3BAAAAAB4c3IAS2lvLmdpdGh1Yi5lcmljbWVkdmV0LmpnZWEuY29yZS5yZXByZXNlbnRhdGlvbi50cmVlLm51bWVyaWMuRWxlbWVudCRWYXJpYWJsZQAAAAAAAAAAAgABTAAEbmFtZXQAEkxqYXZhL2xhbmcvU3RyaW5nO3hwdAACeDJxAH4ACXNxAH4AAnNxAH4ABwAAAAJ3BAAAAAJzcQB+AAJzcQB+AAcAAAAAdwQAAAAAeHNyAEtpby5naXRodWIuZXJpY21lZHZldC5qZ2VhLmNvcmUucmVwcmVzZW50YXRpb24udHJlZS5udW1lcmljLkVsZW1lbnQkQ29uc3RhbnQAAAAAAAAAAAIAAUQABXZhbHVleHA/8AAAAAAAAHEAfgARc3EAfgACc3EAfgAHAAAAAHcEAAAAAHhxAH4AD3NxAH4AAnNxAH4ABwAAAAJ3BAAAAAJzcQB+AAJzcQB+AAcAAAACdwQAAAACc3EAfgACc3EAfgAHAAAAAncEAAAAAnNxAH4AAnNxAH4ABwAAAAB3BAAAAAB4cQB+AA9xAH4AHXNxAH4AAnNxAH4ABwAAAAB3BAAAAAB4cQB+AA9xAH4AHXh+cgBLaW8uZ2l0aHViLmVyaWNtZWR2ZXQuamdlYS5jb3JlLnJlcHJlc2VudGF0aW9uLnRyZWUubnVtZXJpYy5FbGVtZW50JE9wZXJhdG9yAAAAAAAAAAASAAB4cgAOamF2YS5sYW5nLkVudW0AAAAAAAAAABIAAHhwdAAOTVVMVElQTElDQVRJT05xAH4AG3NxAH4AAnNxAH4ABwAAAAJ3BAAAAAJzcQB+AAJzcQB+AAcAAAAAdwQAAAAAeHEAfgAWcQB+ACdzcQB+AAJzcQB+AAcAAAAAdwQAAAAAeHNxAH4ADXQAA3gxMnEAfgAneHEAfgAlcQB+ABt4fnEAfgAjdAAIQURESVRJT05xAH4AGXEAfgAXeHEAfgAlc3EAfgACc3EAfgAHAAAAAncEAAAAAnNxAH4AAnNxAH4ABwAAAAB3BAAAAAB4cQB+AA9xAH4AMXEAfgAZeHEAfgAlc3EAfgACc3EAfgAHAAAAAncEAAAAAnEAfgAxc3EAfgACc3EAfgAHAAAAAncEAAAAAnNxAH4AAnNxAH4ABwAAAAB3BAAAAAB4cQB+ABZxAH4AN3NxAH4AAnNxAH4ABwAAAAJ3BAAAAAJzcQB+AAJzcQB+AAcAAAACdwQAAAACc3EAfgACc3EAfgAHAAAAAHcEAAAAAHhxAH4AD3EAfgA9c3EAfgACc3EAfgAHAAAAAncEAAAAAnNxAH4AAnNxAH4ABwAAAAJ3BAAAAAJzcQB+AAJzcQB+AAcAAAAAdwQAAAAAeHEAfgAPcQB+AENzcQB+AAJzcQB+AAcAAAACdwQAAAACc3EAfgACc3EAfgAHAAAAAHcEAAAAAHhxAH4AFnEAfgBHc3EAfgACc3EAfgAHAAAAAHcEAAAAAHhxAH4AD3EAfgBHeHEAfgAlcQB+AEN4cQB+ACVxAH4AQXNxAH4AAnNxAH4ABwAAAAJ3BAAAAAJzcQB+AAJzcQB+AAcAAAACdwQAAAACc3EAfgACc3EAfgAHAAAAAHcEAAAAAHhxAH4AD3EAfgBPc3EAfgACc3EAfgAHAAAAAncEAAAAAnNxAH4AAnNxAH4ABwAAAAJ3BAAAAAJzcQB+AAJzcQB+AAcAAAAAdwQAAAAAeHEAfgAPcQB+AFVzcQB+AAJzcQB+AAcAAAAAdwQAAAAAeHEAfgAPcQB+AFV4cQB+ACVxAH4AU3NxAH4AAnNxAH4ABwAAAAJ3BAAAAAJzcQB+AAJzcQB+AAcAAAAAdwQAAAAAeHEAfgAWcQB+AFtzcQB+AAJzcQB+AAcAAAAAdwQAAAAAeHEAfgAtcQB+AFt4cQB+ACVxAH4AU3hxAH4AL3EAfgBPeHEAfgAlcQB+AE1zcQB+AAJzcQB+AAcAAAACdwQAAAACc3EAfgACc3EAfgAHAAAAAHcEAAAAAHhxAH4AFnEAfgBhc3EAfgACc3EAfgAHAAAAAHcEAAAAAHhxAH4ALXEAfgBheHEAfgAlc3EAfgACc3EAfgAHAAAAAncEAAAAAnNxAH4AAnNxAH4ABwAAAAB3BAAAAAB4cQB+ABZxAH4AZ3EAfgBheHEAfgAvc3EAfgACc3EAfgAHAAAAAncEAAAAAnNxAH4AAnNxAH4ABwAAAAJ3BAAAAAJzcQB+AAJzcQB+AAcAAAAAdwQAAAAAeHEAfgAPcQB+AG1zcQB+AAJzcQB+AAcAAAACdwQAAAACc3EAfgACc3EAfgAHAAAAAHcEAAAAAHhxAH4AFnEAfgBxc3EAfgACc3EAfgAHAAAAAHcEAAAAAHhxAH4AD3EAfgBxeHEAfgAlcQB+AG14cQB+ACVxAH4Aa3EAfgBneHEAfgAvc3EAfgACc3EAfgAHAAAAAncEAAAAAnNxAH4AAnNxAH4ABwAAAAB3BAAAAAB4cQB+AA9xAH4Ad3EAfgBreHEAfgAlc3EAfgACc3EAfgAHAAAAAncEAAAAAnEAfgB3c3EAfgACc3EAfgAHAAAAAncEAAAAAnNxAH4AAnNxAH4ABwAAAAB3BAAAAAB4cQB+ABZxAH4AfXNxAH4AAnNxAH4ABwAAAAB3BAAAAAB4cQB+AC1xAH4AfXhxAH4AJXEAfgB7eHEAfgAvc3EAfgACc3EAfgAHAAAAAncEAAAAAnNxAH4AAnNxAH4ABwAAAAB3BAAAAAB4cQB+ABZxAH4Ag3EAfgB7eHEAfgAlc3EAfgACc3EAfgAHAAAAAncEAAAAAnNxAH4AAnNxAH4ABwAAAAJ3BAAAAAJzcQB+AAJzcQB+AAcAAAAAdwQAAAAAeHEAfgAPcQB+AIlzcQB+AAJzcQB+AAcAAAACdwQAAAACc3EAfgACc3EAfgAHAAAAAHcEAAAAAHhxAH4AFnEAfgCNc3EAfgACc3EAfgAHAAAAAHcEAAAAAHhxAH4AD3EAfgCNeHEAfgAlcQB+AIl4cQB+ACVxAH4Ah3EAfgCDeHEAfgAvcHhxAH4AL3EAfgBBeHEAfgAvcQB+AD14cQB+ACVxAH4AO3EAfgB9eHEAfgAvcQB+ADd4cQB+ACVxAH4ANXhxAH4AL3B4cQB+ACVzcQB+AAJzcQB+AAcAAAACdwQAAAACc3EAfgACc3EAfgAHAAAAAncEAAAAAnNxAH4AAnNxAH4ABwAAAAB3BAAAAAB4cQB+ABZxAH4AlXNxAH4AAnNxAH4ABwAAAAB3BAAAAAB4cQB+AC1xAH4AlXhxAH4AJXEAfgCTcQB+ABF4cQB+ACVzcQB+AAJzcQB+AAcAAAACdwQAAAACcQB+AJNxAH4AN3hxAH4AL3B4cQB+ACVxAH4ABnEAfgA3eHEAfgAvcHNxAH4AAnNxAH4ABwAAAAJ3BAAAAAJzcQB+AAJzcQB+AAcAAAAAdwQAAAAAeHNxAH4ADXQAA3gxNHEAfgCdc3EAfgACc3EAfgAHAAAAAncEAAAAAnNxAH4AAnNxAH4ABwAAAAJ3BAAAAAJzcQB+AAJzcQB+AAcAAAACdwQAAAACc3EAfgACc3EAfgAHAAAAAncEAAAAAnNxAH4AAnNxAH4ABwAAAAB3BAAAAAB4c3EAfgAVQAAAAAAAAABxAH4AqXNxAH4AAnNxAH4ABwAAAAB3BAAAAAB4cQB+AC1zcQB+AAJzcQB+AAcAAAACdwQAAAACc3EAfgACc3EAfgAHAAAAAHcEAAAAAHhxAH4ALXEAfgCwcQB+AK54fnEAfgAjdAANUFJPVF9ESVZJU0lPTnNxAH4AAnNxAH4ABwAAAAJ3BAAAAAJxAH4AsHNxAH4AAnNxAH4ABwAAAAB3BAAAAAB4c3EAfgANdAACeDlzcQB+AAJzcQB+AAcAAAACdwQAAAACc3EAfgACc3EAfgAHAAAAAncEAAAAAnNxAH4AAnNxAH4ABwAAAAB3BAAAAAB4cQB+AK1xAH4AvnNxAH4AAnNxAH4ABwAAAAJ3BAAAAAJzcQB+AAJzcQB+AAcAAAAAdwQAAAAAeHEAfgCtcQB+AMJzcQB+AAJzcQB+AAcAAAAAdwQAAAAAeHEAfgAtcQB+AMJ4cQB+ALRxAH4AvnhxAH4AtHEAfgC8cQB+ALh4fnEAfgAjdAALU1VCVFJBQ1RJT05zcQB+AAJzcQB+AAcAAAACdwQAAAACcQB+ALxzcQB+AAJzcQB+AAcAAAACdwQAAAACc3EAfgACc3EAfgAHAAAAAncEAAAAAnNxAH4AAnNxAH4ABwAAAAB3BAAAAAB4cQB+AK1xAH4AznNxAH4AAnNxAH4ABwAAAAB3BAAAAAB4cQB+AC1xAH4AznhxAH4AtHEAfgDMc3EAfgACc3EAfgAHAAAAAHcEAAAAAHhxAH4ALXEAfgDMeHEAfgDIcQB+AMp4cQB+AMhzcQB+AAJzcQB+AAcAAAACdwQAAAACcQB+AMpzcQB+AAJzcQB+AAcAAAAAdwQAAAAAeHNxAH4ADXQAA3gxMXEAfgDWeHEAfgDIc3EAfgACc3EAfgAHAAAAAncEAAAAAnNxAH4AAnNxAH4ABwAAAAB3BAAAAAB4cQB+AKFxAH4A3HEAfgDWeHEAfgAlcHhxAH4AyHNxAH4AAnNxAH4ABwAAAAJ3BAAAAAJxAH4AtnEAfgDMeHEAfgDIc3EAfgACc3EAfgAHAAAAAncEAAAAAnEAfgDgcQB+ANh4cQB+AMhzcQB+AAJzcQB+AAcAAAACdwQAAAACc3EAfgACc3EAfgAHAAAAAHcEAAAAAHhxAH4AoXEAfgDkcQB+AOJ4cQB+ACVweHEAfgC0cQB+AKdxAH4AuHhxAH4AyHEAfgClcQB+AMx4cQB+AMhxAH4Ao3EAfgDYeHEAfgDIc3EAfgACc3EAfgAHAAAAAncEAAAAAnNxAH4AAnNxAH4ABwAAAAB3BAAAAAB4cQB+ALpxAH4A6HEAfgCjeHEAfgAlcHhxAH4AJXBzcQB+AAJzcQB+AAcAAAACdwQAAAACc3EAfgACc3EAfgAHAAAAAncEAAAAAnNxAH4AAnNxAH4ABwAAAAB3BAAAAAB4c3EAfgAVQBIAAAAAAABxAH4A7nNxAH4AAnNxAH4ABwAAAAB3BAAAAAB4cQB+ANpzcQB+AAJzcQB+AAcAAAACdwQAAAACc3EAfgACc3EAfgAHAAAAAncEAAAAAnNxAH4AAnNxAH4ABwAAAAJ3BAAAAAJzcQB+AAJzcQB+AAcAAAAAdwQAAAAAeHEAfgDycQB+APlzcQB+AAJzcQB+AAcAAAAAdwQAAAAAeHEAfgDacQB+APl4cQB+ACVxAH4A93NxAH4AAnNxAH4ABwAAAAJ3BAAAAAJzcQB+AAJzcQB+AAcAAAAAdwQAAAAAeHEAfgAPcQB+AP9zcQB+AAJzcQB+AAcAAAAAdwQAAAAAeHNxAH4ADXQAAng1cQB+AP94cQB+ACVxAH4A93hxAH4AJXEAfgD1cQB+APN4cQB+ACVzcQB+AAJzcQB+AAcAAAACdwQAAAACcQB+APVzcQB+AAJzcQB+AAcAAAACdwQAAAACc3EAfgACc3EAfgAHAAAAAHcEAAAAAHhxAH4AD3EAfgEJc3EAfgACc3EAfgAHAAAAAHcEAAAAAHhxAH4BBXNxAH4AAnNxAH4ABwAAAAJ3BAAAAAJzcQB+AAJzcQB+AAcAAAACdwQAAAACc3EAfgACc3EAfgAHAAAAAHcEAAAAAHhxAH4AD3EAfgERc3EAfgACc3EAfgAHAAAAAHcEAAAAAHhxAH4BBXEAfgEReHEAfgAlcQB+AQ9xAH4BDXhxAH4AJXNxAH4AAnNxAH4ABwAAAAJ3BAAAAAJzcQB+AAJzcQB+AAcAAAACdwQAAAACc3EAfgACc3EAfgAHAAAAAHcEAAAAAHhxAH4A8nEAfgEZc3EAfgACc3EAfgAHAAAAAHcEAAAAAHhxAH4A2nEAfgEZeHEAfgAlcQB+ARdxAH4BD3hxAH4AJXB4cQB+ACVzcQB+AAJzcQB+AAcAAAACdwQAAAACc3EAfgACc3EAfgAHAAAAAncEAAAAAnNxAH4AAnNxAH4ABwAAAAB3BAAAAAB4cQB+AA9xAH4BIXNxAH4AAnNxAH4ABwAAAAB3BAAAAAB4cQB+AQVxAH4BIXhxAH4AJXEAfgEfcQB+AQl4cQB+ACVweHEAfgAlcHhxAH4AJXEAfgDscQB+AQl4cQB+ACVwc3EAfgACc3EAfgAHAAAAAncEAAAAAnNxAH4AAnNxAH4ABwAAAAJ3BAAAAAJzcQB+AAJzcQB+AAcAAAAAdwQAAAAAeHNxAH4AFT/gAAAAAAAAcQB+ASlzcQB+AAJzcQB+AAcAAAACdwQAAAACc3EAfgACc3EAfgAHAAAAAHcEAAAAAHhzcQB+ABUAAAAAAAAAAHEAfgEuc3EAfgACc3EAfgAHAAAAAHcEAAAAAHhxAH4BLXNxAH4AAnNxAH4ABwAAAAJ3BAAAAAJzcQB+AAJzcQB+AAcAAAACdwQAAAACc3EAfgACc3EAfgAHAAAAAHcEAAAAAHhxAH4BMnEAfgE3c3EAfgACc3EAfgAHAAAAAHcEAAAAAHhzcQB+ABU/+AAAAAAAAHEAfgE3eHEAfgAlcQB+ATVxAH4BM3hxAH4AJXNxAH4AAnNxAH4ABwAAAAJ3BAAAAAJzcQB+AAJzcQB+AAcAAAAAdwQAAAAAeHEAfgEtcQB+AT5xAH4BNXhxAH4AyHNxAH4AAnNxAH4ABwAAAAJ3BAAAAAJxAH4BPnNxAH4AAnNxAH4ABwAAAAJ3BAAAAAJzcQB+AAJzcQB+AAcAAAAAdwQAAAAAeHEAfgEycQB+AURzcQB+AAJzcQB+AAcAAAAAdwQAAAAAeHEAfgE9cQB+AUR4cQB+ACVzcQB+AAJzcQB+AAcAAAACdwQAAAACc3EAfgACc3EAfgAHAAAAAHcEAAAAAHhxAH4BMnEAfgFKcQB+AUR4cQB+AMhweHEAfgDIcHhxAH4AJXNxAH4AAnNxAH4ABwAAAAJ3BAAAAAJzcQB+AAJzcQB+AAcAAAAAdwQAAAAAeHEAfgDacQB+AU5xAH4BLnhxAH4AyHNxAH4AAnNxAH4ABwAAAAJ3BAAAAAJxAH4BTnEAfgFEeHEAfgDIcHhxAH4AyHEAfgEncQB+AUR4cQB+AMhweA==";
    "rO0ABXNyABFqYXZhLnV0aWwuQ29sbFNlcleOq7Y6G6gRAwABSQADdGFneHAAAAAEdwQAAAAEc3IAN2lvLmdpdGh1Yi5lcmljbWVkdmV0LmpnZWEuY29yZS5yZXByZXNlbnRhdGlvbi50cmVlLlRyZWUKs7/qnQrEZQIAA0wACGNoaWxkcmVudAAQTGphdmEvdXRpbC9MaXN0O0wAB2NvbnRlbnR0ABJMamF2YS9sYW5nL09iamVjdDtMAAZwYXJlbnR0ADlMaW8vZ2l0aHViL2VyaWNtZWR2ZXQvamdlYS9jb3JlL3JlcHJlc2VudGF0aW9uL3RyZWUvVHJlZTt4cHNyABNqYXZhLnV0aWwuQXJyYXlMaXN0eIHSHZnHYZ0DAAFJAARzaXpleHAAAAACdwQAAAACc3EAfgACc3EAfgAHAAAAAncEAAAAAnNxAH4AAnNxAH4ABwAAAAB3BAAAAAB4c3IAS2lvLmdpdGh1Yi5lcmljbWVkdmV0LmpnZWEuY29yZS5yZXByZXNlbnRhdGlvbi50cmVlLm51bWVyaWMuRWxlbWVudCRWYXJpYWJsZQAAAAAAAAAAAgABTAAEbmFtZXQAEkxqYXZhL2xhbmcvU3RyaW5nO3hwdAACeDJxAH4ACXNxAH4AAnNxAH4ABwAAAAJ3BAAAAAJzcQB+AAJzcQB+AAcAAAAAdwQAAAAAeHNyAEtpby5naXRodWIuZXJpY21lZHZldC5qZ2VhLmNvcmUucmVwcmVzZW50YXRpb24udHJlZS5udW1lcmljLkVsZW1lbnQkQ29uc3RhbnQAAAAAAAAAAAIAAUQABXZhbHVleHA/8AAAAAAAAHEAfgARc3EAfgACc3EAfgAHAAAAAHcEAAAAAHhxAH4AD3NxAH4AAnNxAH4ABwAAAAJ3BAAAAAJzcQB+AAJzcQB+AAcAAAACdwQAAAACc3EAfgACc3EAfgAHAAAAAncEAAAAAnNxAH4AAnNxAH4ABwAAAAB3BAAAAAB4cQB+AA9xAH4AHXNxAH4AAnNxAH4ABwAAAAB3BAAAAAB4cQB+AA9xAH4AHXh+cgBLaW8uZ2l0aHViLmVyaWNtZWR2ZXQuamdlYS5jb3JlLnJlcHJlc2VudGF0aW9uLnRyZWUubnVtZXJpYy5FbGVtZW50JE9wZXJhdG9yAAAAAAAAAAASAAB4cgAOamF2YS5sYW5nLkVudW0AAAAAAAAAABIAAHhwdAAOTVVMVElQTElDQVRJT05xAH4AG3NxAH4AAnNxAH4ABwAAAAJ3BAAAAAJzcQB+AAJzcQB+AAcAAAAAdwQAAAAAeHEAfgAWcQB+ACdzcQB+AAJzcQB+AAcAAAAAdwQAAAAAeHNxAH4ADXQAA3gxMnEAfgAneHEAfgAlcQB+ABt4fnEAfgAjdAAIQURESVRJT05xAH4AGXEAfgAXeHEAfgAlc3EAfgACc3EAfgAHAAAAAncEAAAAAnNxAH4AAnNxAH4ABwAAAAB3BAAAAAB4cQB+AA9xAH4AMXEAfgAZeHEAfgAlc3EAfgACc3EAfgAHAAAAAncEAAAAAnEAfgAxc3EAfgACc3EAfgAHAAAAAncEAAAAAnNxAH4AAnNxAH4ABwAAAAB3BAAAAAB4cQB+ABZxAH4AN3NxAH4AAnNxAH4ABwAAAAJ3BAAAAAJzcQB+AAJzcQB+AAcAAAACdwQAAAACc3EAfgACc3EAfgAHAAAAAHcEAAAAAHhxAH4AD3EAfgA9c3EAfgACc3EAfgAHAAAAAncEAAAAAnNxAH4AAnNxAH4ABwAAAAJ3BAAAAAJzcQB+AAJzcQB+AAcAAAAAdwQAAAAAeHEAfgAPcQB+AENzcQB+AAJzcQB+AAcAAAACdwQAAAACc3EAfgACc3EAfgAHAAAAAHcEAAAAAHhxAH4AFnEAfgBHc3EAfgACc3EAfgAHAAAAAHcEAAAAAHhxAH4AD3EAfgBHeHEAfgAlcQB+AEN4cQB+ACVxAH4AQXNxAH4AAnNxAH4ABwAAAAJ3BAAAAAJzcQB+AAJzcQB+AAcAAAACdwQAAAACc3EAfgACc3EAfgAHAAAAAHcEAAAAAHhxAH4AD3EAfgBPc3EAfgACc3EAfgAHAAAAAncEAAAAAnNxAH4AAnNxAH4ABwAAAAJ3BAAAAAJzcQB+AAJzcQB+AAcAAAAAdwQAAAAAeHEAfgAPcQB+AFVzcQB+AAJzcQB+AAcAAAAAdwQAAAAAeHEAfgAPcQB+AFV4cQB+ACVxAH4AU3NxAH4AAnNxAH4ABwAAAAJ3BAAAAAJzcQB+AAJzcQB+AAcAAAAAdwQAAAAAeHEAfgAWcQB+AFtzcQB+AAJzcQB+AAcAAAAAdwQAAAAAeHEAfgAtcQB+AFt4cQB+ACVxAH4AU3hxAH4AL3EAfgBPeHEAfgAlcQB+AE1zcQB+AAJzcQB+AAcAAAACdwQAAAACc3EAfgACc3EAfgAHAAAAAHcEAAAAAHhxAH4AFnEAfgBhc3EAfgACc3EAfgAHAAAAAHcEAAAAAHhxAH4ALXEAfgBheHEAfgAlc3EAfgACc3EAfgAHAAAAAncEAAAAAnNxAH4AAnNxAH4ABwAAAAB3BAAAAAB4cQB+ABZxAH4AZ3EAfgBheHEAfgAvc3EAfgACc3EAfgAHAAAAAncEAAAAAnNxAH4AAnNxAH4ABwAAAAJ3BAAAAAJzcQB+AAJzcQB+AAcAAAAAdwQAAAAAeHEAfgAPcQB+AG1zcQB+AAJzcQB+AAcAAAACdwQAAAACc3EAfgACc3EAfgAHAAAAAHcEAAAAAHhxAH4AFnEAfgBxc3EAfgACc3EAfgAHAAAAAHcEAAAAAHhxAH4AD3EAfgBxeHEAfgAlcQB+AG14cQB+ACVxAH4Aa3EAfgBneHEAfgAvc3EAfgACc3EAfgAHAAAAAncEAAAAAnNxAH4AAnNxAH4ABwAAAAB3BAAAAAB4cQB+AA9xAH4Ad3EAfgBreHEAfgAlc3EAfgACc3EAfgAHAAAAAncEAAAAAnEAfgB3c3EAfgACc3EAfgAHAAAAAncEAAAAAnNxAH4AAnNxAH4ABwAAAAB3BAAAAAB4cQB+ABZxAH4AfXNxAH4AAnNxAH4ABwAAAAB3BAAAAAB4cQB+AC1xAH4AfXhxAH4AJXEAfgB7eHEAfgAvc3EAfgACc3EAfgAHAAAAAncEAAAAAnNxAH4AAnNxAH4ABwAAAAB3BAAAAAB4cQB+ABZxAH4Ag3EAfgB7eHEAfgAlc3EAfgACc3EAfgAHAAAAAncEAAAAAnNxAH4AAnNxAH4ABwAAAAJ3BAAAAAJzcQB+AAJzcQB+AAcAAAAAdwQAAAAAeHEAfgAPcQB+AIlzcQB+AAJzcQB+AAcAAAACdwQAAAACc3EAfgACc3EAfgAHAAAAAHcEAAAAAHhxAH4AFnEAfgCNc3EAfgACc3EAfgAHAAAAAHcEAAAAAHhxAH4AD3EAfgCNeHEAfgAlcQB+AIl4cQB+ACVxAH4Ah3EAfgCDeHEAfgAvcHhxAH4AL3EAfgBBeHEAfgAvcQB+AD14cQB+ACVxAH4AO3EAfgB9eHEAfgAvcQB+ADd4cQB+ACVxAH4ANXhxAH4AL3B4cQB+ACVzcQB+AAJzcQB+AAcAAAACdwQAAAACc3EAfgACc3EAfgAHAAAAAncEAAAAAnNxAH4AAnNxAH4ABwAAAAB3BAAAAAB4cQB+ABZxAH4AlXNxAH4AAnNxAH4ABwAAAAB3BAAAAAB4cQB+AC1xAH4AlXhxAH4AJXEAfgCTcQB+ABF4cQB+ACVzcQB+AAJzcQB+AAcAAAACdwQAAAACcQB+AJNxAH4AN3hxAH4AL3B4cQB+ACVxAH4ABnEAfgA3eHEAfgAvcHNxAH4AAnNxAH4ABwAAAAJ3BAAAAAJzcQB+AAJzcQB+AAcAAAAAdwQAAAAAeHNxAH4ADXQAA3gxNHEAfgCdc3EAfgACc3EAfgAHAAAAAncEAAAAAnNxAH4AAnNxAH4ABwAAAAJ3BAAAAAJzcQB+AAJzcQB+AAcAAAACdwQAAAACc3EAfgACc3EAfgAHAAAAAncEAAAAAnNxAH4AAnNxAH4ABwAAAAB3BAAAAAB4c3EAfgAVQAAAAAAAAABxAH4AqXNxAH4AAnNxAH4ABwAAAAB3BAAAAAB4cQB+AC1zcQB+AAJzcQB+AAcAAAACdwQAAAACc3EAfgACc3EAfgAHAAAAAHcEAAAAAHhxAH4ALXEAfgCwcQB+AK54fnEAfgAjdAANUFJPVF9ESVZJU0lPTnNxAH4AAnNxAH4ABwAAAAJ3BAAAAAJxAH4AsHNxAH4AAnNxAH4ABwAAAAB3BAAAAAB4c3EAfgANdAACeDlzcQB+AAJzcQB+AAcAAAACdwQAAAACc3EAfgACc3EAfgAHAAAAAncEAAAAAnNxAH4AAnNxAH4ABwAAAAB3BAAAAAB4cQB+AK1xAH4AvnNxAH4AAnNxAH4ABwAAAAJ3BAAAAAJzcQB+AAJzcQB+AAcAAAAAdwQAAAAAeHEAfgCtcQB+AMJzcQB+AAJzcQB+AAcAAAAAdwQAAAAAeHEAfgAtcQB+AMJ4cQB+ALRxAH4AvnhxAH4AtHEAfgC8cQB+ALh4fnEAfgAjdAALU1VCVFJBQ1RJT05zcQB+AAJzcQB+AAcAAAACdwQAAAACcQB+ALxzcQB+AAJzcQB+AAcAAAACdwQAAAACc3EAfgACc3EAfgAHAAAAAncEAAAAAnNxAH4AAnNxAH4ABwAAAAB3BAAAAAB4cQB+AK1xAH4AznNxAH4AAnNxAH4ABwAAAAB3BAAAAAB4cQB+AC1xAH4AznhxAH4AtHEAfgDMc3EAfgACc3EAfgAHAAAAAHcEAAAAAHhxAH4ALXEAfgDMeHEAfgDIcQB+AMp4cQB+AMhzcQB+AAJzcQB+AAcAAAACdwQAAAACcQB+AMpzcQB+AAJzcQB+AAcAAAAAdwQAAAAAeHNxAH4ADXQAA3gxMXEAfgDWeHEAfgDIc3EAfgACc3EAfgAHAAAAAncEAAAAAnNxAH4AAnNxAH4ABwAAAAB3BAAAAAB4cQB+AKFxAH4A3HEAfgDWeHEAfgAlcHhxAH4AyHNxAH4AAnNxAH4ABwAAAAJ3BAAAAAJxAH4AtnEAfgDMeHEAfgDIc3EAfgACc3EAfgAHAAAAAncEAAAAAnEAfgDgcQB+ANh4cQB+AMhzcQB+AAJzcQB+AAcAAAACdwQAAAACc3EAfgACc3EAfgAHAAAAAHcEAAAAAHhxAH4AoXEAfgDkcQB+AOJ4cQB+ACVweHEAfgC0cQB+AKdxAH4AuHhxAH4AyHEAfgClcQB+AMx4cQB+AMhxAH4Ao3EAfgDYeHEAfgDIc3EAfgACc3EAfgAHAAAAAncEAAAAAnNxAH4AAnNxAH4ABwAAAAB3BAAAAAB4cQB+ALpxAH4A6HEAfgCjeHEAfgAlcHhxAH4AJXBzcQB+AAJzcQB+AAcAAAACdwQAAAACc3EAfgACc3EAfgAHAAAAAncEAAAAAnNxAH4AAnNxAH4ABwAAAAB3BAAAAAB4c3EAfgAVQBIAAAAAAABxAH4A7nNxAH4AAnNxAH4ABwAAAAB3BAAAAAB4cQB+ANpzcQB+AAJzcQB+AAcAAAACdwQAAAACc3EAfgACc3EAfgAHAAAAAncEAAAAAnNxAH4AAnNxAH4ABwAAAAJ3BAAAAAJzcQB+AAJzcQB+AAcAAAAAdwQAAAAAeHEAfgDycQB+APlzcQB+AAJzcQB+AAcAAAAAdwQAAAAAeHEAfgDacQB+APl4cQB+ACVxAH4A93NxAH4AAnNxAH4ABwAAAAJ3BAAAAAJzcQB+AAJzcQB+AAcAAAAAdwQAAAAAeHEAfgAPcQB+AP9zcQB+AAJzcQB+AAcAAAAAdwQAAAAAeHNxAH4ADXQAAng1cQB+AP94cQB+ACVxAH4A93hxAH4AJXEAfgD1cQB+APN4cQB+ACVzcQB+AAJzcQB+AAcAAAACdwQAAAACcQB+APVzcQB+AAJzcQB+AAcAAAACdwQAAAACc3EAfgACc3EAfgAHAAAAAHcEAAAAAHhxAH4AD3EAfgEJc3EAfgACc3EAfgAHAAAAAHcEAAAAAHhxAH4BBXNxAH4AAnNxAH4ABwAAAAJ3BAAAAAJzcQB+AAJzcQB+AAcAAAACdwQAAAACc3EAfgACc3EAfgAHAAAAAHcEAAAAAHhxAH4AD3EAfgERc3EAfgACc3EAfgAHAAAAAHcEAAAAAHhxAH4BBXEAfgEReHEAfgAlcQB+AQ9xAH4BDXhxAH4AJXNxAH4AAnNxAH4ABwAAAAJ3BAAAAAJzcQB+AAJzcQB+AAcAAAACdwQAAAACc3EAfgACc3EAfgAHAAAAAHcEAAAAAHhxAH4A8nEAfgEZc3EAfgACc3EAfgAHAAAAAHcEAAAAAHhxAH4A2nEAfgEZeHEAfgAlcQB+ARdxAH4BD3hxAH4AJXB4cQB+ACVzcQB+AAJzcQB+AAcAAAACdwQAAAACc3EAfgACc3EAfgAHAAAAAncEAAAAAnNxAH4AAnNxAH4ABwAAAAJ3BAAAAAJzcQB+AAJzcQB+AAcAAAAAdwQAAAAAeHEAfgDycQB+ASNzcQB+AAJzcQB+AAcAAAAAdwQAAAAAeHEAfgDacQB+ASN4cQB+ACVxAH4BIXNxAH4AAnNxAH4ABwAAAAJ3BAAAAAJzcQB+AAJzcQB+AAcAAAAAdwQAAAAAeHEAfgAPcQB+ASlzcQB+AAJzcQB+AAcAAAAAdwQAAAAAeHEAfgEFcQB+ASl4cQB+ACVxAH4BIXhxAH4AJXEAfgEfcQB+AQl4cQB+ACVweHEAfgAlcHhxAH4AJXEAfgDscQB+AQl4cQB+ACVwc3EAfgACc3EAfgAHAAAAAncEAAAAAnNxAH4AAnNxAH4ABwAAAAB3BAAAAAB4c3EAfgAVP+AAAAAAAABxAH4BL3NxAH4AAnNxAH4ABwAAAAB3BAAAAAB4c3EAfgAVAAAAAAAAAABzcQB+AAJzcQB+AAcAAAACdwQAAAACc3EAfgACc3EAfgAHAAAAAncEAAAAAnNxAH4AAnNxAH4ABwAAAAJ3BAAAAAJzcQB+AAJzcQB+AAcAAAAAdwQAAAAAeHEAfgEzcQB+ATtzcQB+AAJzcQB+AAcAAAAAdwQAAAAAeHEAfgE2cQB+ATt4cQB+AMhxAH4BOXNxAH4AAnNxAH4ABwAAAAJ3BAAAAAJzcQB+AAJzcQB+AAcAAAAAdwQAAAAAeHEAfgE2cQB+AUFzcQB+AAJzcQB+AAcAAAAAdwQAAAAAeHEAfgEzcQB+AUF4cQB+ACVxAH4BOXhxAH4AyHEAfgE3cQB+ATR4cQB+AMhweHEAfgDIcHg=";
    "rO0ABXNyABFqYXZhLnV0aWwuQ29sbFNlcleOq7Y6G6gRAwABSQADdGFneHAAAAAEdwQAAAAEc3IAN2lvLmdpdGh1Yi5lcmljbWVkdmV0LmpnZWEuY29yZS5yZXByZXNlbnRhdGlvbi50cmVlLlRyZWUKs7/qnQrEZQIAA0wACGNoaWxkcmVudAAQTGphdmEvdXRpbC9MaXN0O0wAB2NvbnRlbnR0ABJMamF2YS9sYW5nL09iamVjdDtMAAZwYXJlbnR0ADlMaW8vZ2l0aHViL2VyaWNtZWR2ZXQvamdlYS9jb3JlL3JlcHJlc2VudGF0aW9uL3RyZWUvVHJlZTt4cHNyABNqYXZhLnV0aWwuQXJyYXlMaXN0eIHSHZnHYZ0DAAFJAARzaXpleHAAAAACdwQAAAACc3EAfgACc3EAfgAHAAAAAncEAAAAAnNxAH4AAnNxAH4ABwAAAAB3BAAAAAB4c3IAS2lvLmdpdGh1Yi5lcmljbWVkdmV0LmpnZWEuY29yZS5yZXByZXNlbnRhdGlvbi50cmVlLm51bWVyaWMuRWxlbWVudCRWYXJpYWJsZQAAAAAAAAAAAgABTAAEbmFtZXQAEkxqYXZhL2xhbmcvU3RyaW5nO3hwdAACeDJxAH4ACXNxAH4AAnNxAH4ABwAAAAJ3BAAAAAJzcQB+AAJzcQB+AAcAAAAAdwQAAAAAeHNyAEtpby5naXRodWIuZXJpY21lZHZldC5qZ2VhLmNvcmUucmVwcmVzZW50YXRpb24udHJlZS5udW1lcmljLkVsZW1lbnQkQ29uc3RhbnQAAAAAAAAAAAIAAUQABXZhbHVleHA/8AAAAAAAAHEAfgARc3EAfgACc3EAfgAHAAAAAHcEAAAAAHhxAH4AD3NxAH4AAnNxAH4ABwAAAAJ3BAAAAAJzcQB+AAJzcQB+AAcAAAACdwQAAAACc3EAfgACc3EAfgAHAAAAAncEAAAAAnNxAH4AAnNxAH4ABwAAAAB3BAAAAAB4cQB+AA9xAH4AHXNxAH4AAnNxAH4ABwAAAAB3BAAAAAB4cQB+AA9xAH4AHXh+cgBLaW8uZ2l0aHViLmVyaWNtZWR2ZXQuamdlYS5jb3JlLnJlcHJlc2VudGF0aW9uLnRyZWUubnVtZXJpYy5FbGVtZW50JE9wZXJhdG9yAAAAAAAAAAASAAB4cgAOamF2YS5sYW5nLkVudW0AAAAAAAAAABIAAHhwdAAOTVVMVElQTElDQVRJT05xAH4AG3NxAH4AAnNxAH4ABwAAAAJ3BAAAAAJzcQB+AAJzcQB+AAcAAAAAdwQAAAAAeHEAfgAWcQB+ACdzcQB+AAJzcQB+AAcAAAAAdwQAAAAAeHNxAH4ADXQAA3gxMnEAfgAneHEAfgAlcQB+ABt4fnEAfgAjdAAIQURESVRJT05xAH4AGXEAfgAXeHEAfgAlc3EAfgACc3EAfgAHAAAAAncEAAAAAnNxAH4AAnNxAH4ABwAAAAB3BAAAAAB4cQB+AA9xAH4AMXEAfgAZeHEAfgAlc3EAfgACc3EAfgAHAAAAAncEAAAAAnEAfgAxc3EAfgACc3EAfgAHAAAAAncEAAAAAnNxAH4AAnNxAH4ABwAAAAB3BAAAAAB4cQB+ABZxAH4AN3NxAH4AAnNxAH4ABwAAAAJ3BAAAAAJzcQB+AAJzcQB+AAcAAAACdwQAAAACc3EAfgACc3EAfgAHAAAAAHcEAAAAAHhxAH4AD3EAfgA9c3EAfgACc3EAfgAHAAAAAncEAAAAAnNxAH4AAnNxAH4ABwAAAAJ3BAAAAAJzcQB+AAJzcQB+AAcAAAAAdwQAAAAAeHEAfgAPcQB+AENzcQB+AAJzcQB+AAcAAAACdwQAAAACc3EAfgACc3EAfgAHAAAAAHcEAAAAAHhxAH4AFnEAfgBHc3EAfgACc3EAfgAHAAAAAHcEAAAAAHhxAH4AD3EAfgBHeHEAfgAlcQB+AEN4cQB+ACVxAH4AQXNxAH4AAnNxAH4ABwAAAAJ3BAAAAAJzcQB+AAJzcQB+AAcAAAACdwQAAAACc3EAfgACc3EAfgAHAAAAAHcEAAAAAHhxAH4AD3EAfgBPc3EAfgACc3EAfgAHAAAAAncEAAAAAnNxAH4AAnNxAH4ABwAAAAJ3BAAAAAJzcQB+AAJzcQB+AAcAAAAAdwQAAAAAeHEAfgAPcQB+AFVzcQB+AAJzcQB+AAcAAAAAdwQAAAAAeHEAfgAPcQB+AFV4cQB+ACVxAH4AU3NxAH4AAnNxAH4ABwAAAAJ3BAAAAAJzcQB+AAJzcQB+AAcAAAAAdwQAAAAAeHEAfgAWcQB+AFtzcQB+AAJzcQB+AAcAAAAAdwQAAAAAeHEAfgAtcQB+AFt4cQB+ACVxAH4AU3hxAH4AL3EAfgBPeHEAfgAlcQB+AE1zcQB+AAJzcQB+AAcAAAACdwQAAAACc3EAfgACc3EAfgAHAAAAAHcEAAAAAHhxAH4AFnEAfgBhc3EAfgACc3EAfgAHAAAAAHcEAAAAAHhxAH4ALXEAfgBheHEAfgAlc3EAfgACc3EAfgAHAAAAAncEAAAAAnNxAH4AAnNxAH4ABwAAAAB3BAAAAAB4cQB+ABZxAH4AZ3EAfgBheHEAfgAvc3EAfgACc3EAfgAHAAAAAncEAAAAAnNxAH4AAnNxAH4ABwAAAAJ3BAAAAAJzcQB+AAJzcQB+AAcAAAAAdwQAAAAAeHEAfgAPcQB+AG1zcQB+AAJzcQB+AAcAAAACdwQAAAACc3EAfgACc3EAfgAHAAAAAHcEAAAAAHhxAH4AFnEAfgBxc3EAfgACc3EAfgAHAAAAAHcEAAAAAHhxAH4AD3EAfgBxeHEAfgAlcQB+AG14cQB+ACVxAH4Aa3EAfgBneHEAfgAvc3EAfgACc3EAfgAHAAAAAncEAAAAAnNxAH4AAnNxAH4ABwAAAAB3BAAAAAB4cQB+AA9xAH4Ad3EAfgBreHEAfgAlc3EAfgACc3EAfgAHAAAAAncEAAAAAnEAfgB3c3EAfgACc3EAfgAHAAAAAncEAAAAAnNxAH4AAnNxAH4ABwAAAAB3BAAAAAB4cQB+ABZxAH4AfXNxAH4AAnNxAH4ABwAAAAB3BAAAAAB4cQB+AC1xAH4AfXhxAH4AJXEAfgB7eHEAfgAvc3EAfgACc3EAfgAHAAAAAncEAAAAAnNxAH4AAnNxAH4ABwAAAAB3BAAAAAB4cQB+ABZxAH4Ag3EAfgB7eHEAfgAlc3EAfgACc3EAfgAHAAAAAncEAAAAAnNxAH4AAnNxAH4ABwAAAAJ3BAAAAAJzcQB+AAJzcQB+AAcAAAAAdwQAAAAAeHEAfgAPcQB+AIlzcQB+AAJzcQB+AAcAAAACdwQAAAACc3EAfgACc3EAfgAHAAAAAHcEAAAAAHhxAH4AFnEAfgCNc3EAfgACc3EAfgAHAAAAAHcEAAAAAHhxAH4AD3EAfgCNeHEAfgAlcQB+AIl4cQB+ACVxAH4Ah3EAfgCDeHEAfgAvcHhxAH4AL3EAfgBBeHEAfgAvcQB+AD14cQB+ACVxAH4AO3EAfgB9eHEAfgAvcQB+ADd4cQB+ACVxAH4ANXhxAH4AL3B4cQB+ACVzcQB+AAJzcQB+AAcAAAACdwQAAAACc3EAfgACc3EAfgAHAAAAAncEAAAAAnNxAH4AAnNxAH4ABwAAAAB3BAAAAAB4cQB+ABZxAH4AlXNxAH4AAnNxAH4ABwAAAAB3BAAAAAB4cQB+AC1xAH4AlXhxAH4AJXEAfgCTcQB+ABF4cQB+ACVzcQB+AAJzcQB+AAcAAAACdwQAAAACcQB+AJNxAH4AN3hxAH4AL3B4cQB+ACVxAH4ABnEAfgA3eHEAfgAvcHNxAH4AAnNxAH4ABwAAAAJ3BAAAAAJzcQB+AAJzcQB+AAcAAAAAdwQAAAAAeHNxAH4ADXQAA3gxNHEAfgCdc3EAfgACc3EAfgAHAAAAAncEAAAAAnNxAH4AAnNxAH4ABwAAAAJ3BAAAAAJzcQB+AAJzcQB+AAcAAAACdwQAAAACc3EAfgACc3EAfgAHAAAAAncEAAAAAnNxAH4AAnNxAH4ABwAAAAB3BAAAAAB4c3EAfgAVQAAAAAAAAABxAH4AqXNxAH4AAnNxAH4ABwAAAAB3BAAAAAB4cQB+AC1zcQB+AAJzcQB+AAcAAAACdwQAAAACc3EAfgACc3EAfgAHAAAAAHcEAAAAAHhxAH4ALXEAfgCwcQB+AK54fnEAfgAjdAANUFJPVF9ESVZJU0lPTnNxAH4AAnNxAH4ABwAAAAJ3BAAAAAJxAH4AsHNxAH4AAnNxAH4ABwAAAAB3BAAAAAB4c3EAfgANdAACeDlzcQB+AAJzcQB+AAcAAAACdwQAAAACc3EAfgACc3EAfgAHAAAAAncEAAAAAnNxAH4AAnNxAH4ABwAAAAB3BAAAAAB4cQB+AK1xAH4AvnNxAH4AAnNxAH4ABwAAAAJ3BAAAAAJzcQB+AAJzcQB+AAcAAAAAdwQAAAAAeHEAfgCtcQB+AMJzcQB+AAJzcQB+AAcAAAAAdwQAAAAAeHEAfgAtcQB+AMJ4cQB+ALRxAH4AvnhxAH4AtHEAfgC8cQB+ALh4fnEAfgAjdAALU1VCVFJBQ1RJT05zcQB+AAJzcQB+AAcAAAACdwQAAAACcQB+ALxzcQB+AAJzcQB+AAcAAAACdwQAAAACc3EAfgACc3EAfgAHAAAAAncEAAAAAnNxAH4AAnNxAH4ABwAAAAB3BAAAAAB4cQB+AK1xAH4AznNxAH4AAnNxAH4ABwAAAAB3BAAAAAB4cQB+AC1xAH4AznhxAH4AtHEAfgDMc3EAfgACc3EAfgAHAAAAAHcEAAAAAHhxAH4ALXEAfgDMeHEAfgDIcQB+AMp4cQB+AMhzcQB+AAJzcQB+AAcAAAACdwQAAAACcQB+AMpzcQB+AAJzcQB+AAcAAAAAdwQAAAAAeHNxAH4ADXQAA3gxMXEAfgDWeHEAfgDIc3EAfgACc3EAfgAHAAAAAncEAAAAAnNxAH4AAnNxAH4ABwAAAAB3BAAAAAB4cQB+AKFxAH4A3HEAfgDWeHEAfgAlcHhxAH4AyHNxAH4AAnNxAH4ABwAAAAJ3BAAAAAJxAH4AtnEAfgDMeHEAfgDIc3EAfgACc3EAfgAHAAAAAncEAAAAAnEAfgDgcQB+ANh4cQB+AMhzcQB+AAJzcQB+AAcAAAACdwQAAAACc3EAfgACc3EAfgAHAAAAAHcEAAAAAHhxAH4AoXEAfgDkcQB+AOJ4cQB+ACVweHEAfgC0cQB+AKdxAH4AuHhxAH4AyHEAfgClcQB+AMx4cQB+AMhxAH4Ao3EAfgDYeHEAfgDIc3EAfgACc3EAfgAHAAAAAncEAAAAAnNxAH4AAnNxAH4ABwAAAAB3BAAAAAB4cQB+ALpxAH4A6HEAfgCjeHEAfgAlcHhxAH4AJXBzcQB+AAJzcQB+AAcAAAACdwQAAAACc3EAfgACc3EAfgAHAAAAAncEAAAAAnNxAH4AAnNxAH4ABwAAAAB3BAAAAAB4c3EAfgAVQBIAAAAAAABxAH4A7nNxAH4AAnNxAH4ABwAAAAB3BAAAAAB4cQB+ANpzcQB+AAJzcQB+AAcAAAACdwQAAAACc3EAfgACc3EAfgAHAAAAAncEAAAAAnNxAH4AAnNxAH4ABwAAAAJ3BAAAAAJzcQB+AAJzcQB+AAcAAAAAdwQAAAAAeHEAfgDycQB+APlzcQB+AAJzcQB+AAcAAAAAdwQAAAAAeHEAfgDacQB+APl4cQB+ACVxAH4A93NxAH4AAnNxAH4ABwAAAAJ3BAAAAAJzcQB+AAJzcQB+AAcAAAAAdwQAAAAAeHEAfgAPcQB+AP9zcQB+AAJzcQB+AAcAAAAAdwQAAAAAeHNxAH4ADXQAAng1cQB+AP94cQB+ACVxAH4A93hxAH4AJXEAfgD1cQB+APN4cQB+ACVzcQB+AAJzcQB+AAcAAAACdwQAAAACcQB+APVzcQB+AAJzcQB+AAcAAAACdwQAAAACc3EAfgACc3EAfgAHAAAAAHcEAAAAAHhxAH4AD3EAfgEJc3EAfgACc3EAfgAHAAAAAHcEAAAAAHhxAH4BBXNxAH4AAnNxAH4ABwAAAAJ3BAAAAAJzcQB+AAJzcQB+AAcAAAACdwQAAAACc3EAfgACc3EAfgAHAAAAAHcEAAAAAHhxAH4AD3EAfgERc3EAfgACc3EAfgAHAAAAAHcEAAAAAHhxAH4BBXEAfgEReHEAfgAlcQB+AQ9xAH4BDXhxAH4AJXNxAH4AAnNxAH4ABwAAAAJ3BAAAAAJzcQB+AAJzcQB+AAcAAAACdwQAAAACc3EAfgACc3EAfgAHAAAAAHcEAAAAAHhxAH4A8nEAfgEZc3EAfgACc3EAfgAHAAAAAHcEAAAAAHhxAH4A2nEAfgEZeHEAfgAlcQB+ARdxAH4BD3hxAH4AJXB4cQB+ACVzcQB+AAJzcQB+AAcAAAACdwQAAAACc3EAfgACc3EAfgAHAAAAAncEAAAAAnNxAH4AAnNxAH4ABwAAAAJ3BAAAAAJzcQB+AAJzcQB+AAcAAAAAdwQAAAAAeHEAfgDycQB+ASNzcQB+AAJzcQB+AAcAAAAAdwQAAAAAeHEAfgDacQB+ASN4cQB+ACVxAH4BIXNxAH4AAnNxAH4ABwAAAAJ3BAAAAAJzcQB+AAJzcQB+AAcAAAAAdwQAAAAAeHEAfgAPcQB+ASlzcQB+AAJzcQB+AAcAAAAAdwQAAAAAeHEAfgEFcQB+ASl4cQB+ACVxAH4BIXhxAH4AJXEAfgEfcQB+AQl4cQB+ACVweHEAfgAlcHhxAH4AJXEAfgDscQB+AQl4cQB+ACVwc3EAfgACc3EAfgAHAAAAAncEAAAAAnNxAH4AAnNxAH4ABwAAAAJ3BAAAAAJzcQB+AAJzcQB+AAcAAAAAdwQAAAAAeHNxAH4AFT/gAAAAAAAAcQB+ATFzcQB+AAJzcQB+AAcAAAAAdwQAAAAAeHNxAH4AFQAAAAAAAAAAc3EAfgACc3EAfgAHAAAAAncEAAAAAnNxAH4AAnNxAH4ABwAAAAJ3BAAAAAJzcQB+AAJzcQB+AAcAAAACdwQAAAACc3EAfgACc3EAfgAHAAAAAHcEAAAAAHhxAH4BNXEAfgE9c3EAfgACc3EAfgAHAAAAAHcEAAAAAHhxAH4BOHEAfgE9eHEAfgDIcQB+ATtzcQB+AAJzcQB+AAcAAAACdwQAAAACc3EAfgACc3EAfgAHAAAAAHcEAAAAAHhxAH4BOHEAfgFDc3EAfgACc3EAfgAHAAAAAHcEAAAAAHhxAH4BNXEAfgFDeHEAfgAlcQB+ATt4cQB+AMhxAH4BOXEAfgE2eHEAfgDIc3EAfgACc3EAfgAHAAAAAncEAAAAAnEAfgE5c3EAfgACc3EAfgAHAAAAAncEAAAAAnNxAH4AAnNxAH4ABwAAAAB3BAAAAAB4cQB+AThxAH4BS3NxAH4AAnNxAH4ABwAAAAB3BAAAAAB4c3EAfgAVP/gAAAAAAABxAH4BS3hxAH4AJXNxAH4AAnNxAH4ABwAAAAJ3BAAAAAJzcQB+AAJzcQB+AAcAAAAAdwQAAAAAeHEAfgE4cQB+AVJxAH4BS3hxAH4AyHB4cQB+AMhweHEAfgDIcQB+AS9xAH4BS3hxAH4AyHB4";
    "rO0ABXNyABFqYXZhLnV0aWwuQ29sbFNlcleOq7Y6G6gRAwABSQADdGFneHAAAAAEdwQAAAAEc3IAN2lvLmdpdGh1Yi5lcmljbWVkdmV0LmpnZWEuY29yZS5yZXByZXNlbnRhdGlvbi50cmVlLlRyZWUKs7/qnQrEZQIAA0wACGNoaWxkcmVudAAQTGphdmEvdXRpbC9MaXN0O0wAB2NvbnRlbnR0ABJMamF2YS9sYW5nL09iamVjdDtMAAZwYXJlbnR0ADlMaW8vZ2l0aHViL2VyaWNtZWR2ZXQvamdlYS9jb3JlL3JlcHJlc2VudGF0aW9uL3RyZWUvVHJlZTt4cHNyABNqYXZhLnV0aWwuQXJyYXlMaXN0eIHSHZnHYZ0DAAFJAARzaXpleHAAAAACdwQAAAACc3EAfgACc3EAfgAHAAAAAncEAAAAAnNxAH4AAnNxAH4ABwAAAAB3BAAAAAB4c3IAS2lvLmdpdGh1Yi5lcmljbWVkdmV0LmpnZWEuY29yZS5yZXByZXNlbnRhdGlvbi50cmVlLm51bWVyaWMuRWxlbWVudCRWYXJpYWJsZQAAAAAAAAAAAgABTAAEbmFtZXQAEkxqYXZhL2xhbmcvU3RyaW5nO3hwdAACeDJxAH4ACXNxAH4AAnNxAH4ABwAAAAJ3BAAAAAJzcQB+AAJzcQB+AAcAAAAAdwQAAAAAeHNyAEtpby5naXRodWIuZXJpY21lZHZldC5qZ2VhLmNvcmUucmVwcmVzZW50YXRpb24udHJlZS5udW1lcmljLkVsZW1lbnQkQ29uc3RhbnQAAAAAAAAAAAIAAUQABXZhbHVleHA/8AAAAAAAAHEAfgARc3EAfgACc3EAfgAHAAAAAHcEAAAAAHhxAH4AD3NxAH4AAnNxAH4ABwAAAAJ3BAAAAAJzcQB+AAJzcQB+AAcAAAACdwQAAAACc3EAfgACc3EAfgAHAAAAAncEAAAAAnNxAH4AAnNxAH4ABwAAAAB3BAAAAAB4cQB+AA9xAH4AHXNxAH4AAnNxAH4ABwAAAAB3BAAAAAB4cQB+AA9xAH4AHXh+cgBLaW8uZ2l0aHViLmVyaWNtZWR2ZXQuamdlYS5jb3JlLnJlcHJlc2VudGF0aW9uLnRyZWUubnVtZXJpYy5FbGVtZW50JE9wZXJhdG9yAAAAAAAAAAASAAB4cgAOamF2YS5sYW5nLkVudW0AAAAAAAAAABIAAHhwdAAOTVVMVElQTElDQVRJT05xAH4AG3NxAH4AAnNxAH4ABwAAAAJ3BAAAAAJzcQB+AAJzcQB+AAcAAAAAdwQAAAAAeHEAfgAWcQB+ACdzcQB+AAJzcQB+AAcAAAAAdwQAAAAAeHNxAH4ADXQAA3gxMnEAfgAneHEAfgAlcQB+ABt4fnEAfgAjdAAIQURESVRJT05xAH4AGXEAfgAXeHEAfgAlc3EAfgACc3EAfgAHAAAAAncEAAAAAnNxAH4AAnNxAH4ABwAAAAB3BAAAAAB4cQB+AA9xAH4AMXEAfgAZeHEAfgAlc3EAfgACc3EAfgAHAAAAAncEAAAAAnEAfgAxc3EAfgACc3EAfgAHAAAAAncEAAAAAnNxAH4AAnNxAH4ABwAAAAB3BAAAAAB4cQB+ABZxAH4AN3NxAH4AAnNxAH4ABwAAAAJ3BAAAAAJzcQB+AAJzcQB+AAcAAAACdwQAAAACc3EAfgACc3EAfgAHAAAAAHcEAAAAAHhxAH4AD3EAfgA9c3EAfgACc3EAfgAHAAAAAncEAAAAAnNxAH4AAnNxAH4ABwAAAAJ3BAAAAAJzcQB+AAJzcQB+AAcAAAAAdwQAAAAAeHEAfgAPcQB+AENzcQB+AAJzcQB+AAcAAAACdwQAAAACc3EAfgACc3EAfgAHAAAAAHcEAAAAAHhxAH4AFnEAfgBHc3EAfgACc3EAfgAHAAAAAHcEAAAAAHhxAH4AD3EAfgBHeHEAfgAlcQB+AEN4cQB+ACVxAH4AQXNxAH4AAnNxAH4ABwAAAAJ3BAAAAAJzcQB+AAJzcQB+AAcAAAACdwQAAAACc3EAfgACc3EAfgAHAAAAAHcEAAAAAHhxAH4AD3EAfgBPc3EAfgACc3EAfgAHAAAAAncEAAAAAnNxAH4AAnNxAH4ABwAAAAJ3BAAAAAJzcQB+AAJzcQB+AAcAAAAAdwQAAAAAeHEAfgAPcQB+AFVzcQB+AAJzcQB+AAcAAAAAdwQAAAAAeHEAfgAPcQB+AFV4cQB+ACVxAH4AU3NxAH4AAnNxAH4ABwAAAAJ3BAAAAAJzcQB+AAJzcQB+AAcAAAAAdwQAAAAAeHEAfgAWcQB+AFtzcQB+AAJzcQB+AAcAAAAAdwQAAAAAeHEAfgAtcQB+AFt4cQB+ACVxAH4AU3hxAH4AL3EAfgBPeHEAfgAlcQB+AE1zcQB+AAJzcQB+AAcAAAACdwQAAAACc3EAfgACc3EAfgAHAAAAAHcEAAAAAHhxAH4AFnEAfgBhc3EAfgACc3EAfgAHAAAAAHcEAAAAAHhxAH4ALXEAfgBheHEAfgAlc3EAfgACc3EAfgAHAAAAAncEAAAAAnNxAH4AAnNxAH4ABwAAAAB3BAAAAAB4cQB+ABZxAH4AZ3EAfgBheHEAfgAvc3EAfgACc3EAfgAHAAAAAncEAAAAAnNxAH4AAnNxAH4ABwAAAAJ3BAAAAAJzcQB+AAJzcQB+AAcAAAAAdwQAAAAAeHEAfgAPcQB+AG1zcQB+AAJzcQB+AAcAAAACdwQAAAACc3EAfgACc3EAfgAHAAAAAHcEAAAAAHhxAH4AFnEAfgBxc3EAfgACc3EAfgAHAAAAAHcEAAAAAHhxAH4AD3EAfgBxeHEAfgAlcQB+AG14cQB+ACVxAH4Aa3EAfgBneHEAfgAvc3EAfgACc3EAfgAHAAAAAncEAAAAAnNxAH4AAnNxAH4ABwAAAAB3BAAAAAB4cQB+AA9xAH4Ad3EAfgBreHEAfgAlc3EAfgACc3EAfgAHAAAAAncEAAAAAnEAfgB3c3EAfgACc3EAfgAHAAAAAncEAAAAAnNxAH4AAnNxAH4ABwAAAAB3BAAAAAB4cQB+ABZxAH4AfXNxAH4AAnNxAH4ABwAAAAB3BAAAAAB4cQB+AC1xAH4AfXhxAH4AJXEAfgB7eHEAfgAvc3EAfgACc3EAfgAHAAAAAncEAAAAAnNxAH4AAnNxAH4ABwAAAAB3BAAAAAB4cQB+ABZxAH4Ag3EAfgB7eHEAfgAlc3EAfgACc3EAfgAHAAAAAncEAAAAAnNxAH4AAnNxAH4ABwAAAAJ3BAAAAAJzcQB+AAJzcQB+AAcAAAAAdwQAAAAAeHEAfgAPcQB+AIlzcQB+AAJzcQB+AAcAAAACdwQAAAACc3EAfgACc3EAfgAHAAAAAHcEAAAAAHhxAH4AFnEAfgCNc3EAfgACc3EAfgAHAAAAAHcEAAAAAHhxAH4AD3EAfgCNeHEAfgAlcQB+AIl4cQB+ACVxAH4Ah3EAfgCDeHEAfgAvcHhxAH4AL3EAfgBBeHEAfgAvcQB+AD14cQB+ACVxAH4AO3EAfgB9eHEAfgAvcQB+ADd4cQB+ACVxAH4ANXhxAH4AL3B4cQB+ACVzcQB+AAJzcQB+AAcAAAACdwQAAAACc3EAfgACc3EAfgAHAAAAAncEAAAAAnNxAH4AAnNxAH4ABwAAAAB3BAAAAAB4cQB+ABZxAH4AlXNxAH4AAnNxAH4ABwAAAAB3BAAAAAB4cQB+AC1xAH4AlXhxAH4AJXEAfgCTcQB+ABF4cQB+ACVzcQB+AAJzcQB+AAcAAAACdwQAAAACcQB+AJNxAH4AN3hxAH4AL3B4cQB+ACVxAH4ABnEAfgA3eHEAfgAvcHNxAH4AAnNxAH4ABwAAAAJ3BAAAAAJzcQB+AAJzcQB+AAcAAAAAdwQAAAAAeHNxAH4ADXQAA3gxNHEAfgCdc3EAfgACc3EAfgAHAAAAAncEAAAAAnNxAH4AAnNxAH4ABwAAAAJ3BAAAAAJzcQB+AAJzcQB+AAcAAAACdwQAAAACc3EAfgACc3EAfgAHAAAAAncEAAAAAnNxAH4AAnNxAH4ABwAAAAB3BAAAAAB4c3EAfgAVQAAAAAAAAABxAH4AqXNxAH4AAnNxAH4ABwAAAAB3BAAAAAB4cQB+AC1zcQB+AAJzcQB+AAcAAAACdwQAAAACc3EAfgACc3EAfgAHAAAAAHcEAAAAAHhxAH4ALXEAfgCwcQB+AK54fnEAfgAjdAANUFJPVF9ESVZJU0lPTnNxAH4AAnNxAH4ABwAAAAJ3BAAAAAJxAH4AsHNxAH4AAnNxAH4ABwAAAAB3BAAAAAB4c3EAfgANdAACeDlzcQB+AAJzcQB+AAcAAAACdwQAAAACc3EAfgACc3EAfgAHAAAAAncEAAAAAnNxAH4AAnNxAH4ABwAAAAB3BAAAAAB4cQB+AK1xAH4AvnNxAH4AAnNxAH4ABwAAAAJ3BAAAAAJzcQB+AAJzcQB+AAcAAAAAdwQAAAAAeHEAfgCtcQB+AMJzcQB+AAJzcQB+AAcAAAAAdwQAAAAAeHEAfgAtcQB+AMJ4cQB+ALRxAH4AvnhxAH4AtHEAfgC8cQB+ALh4fnEAfgAjdAALU1VCVFJBQ1RJT05zcQB+AAJzcQB+AAcAAAACdwQAAAACcQB+ALxzcQB+AAJzcQB+AAcAAAACdwQAAAACc3EAfgACc3EAfgAHAAAAAncEAAAAAnNxAH4AAnNxAH4ABwAAAAB3BAAAAAB4cQB+AK1xAH4AznNxAH4AAnNxAH4ABwAAAAB3BAAAAAB4cQB+AC1xAH4AznhxAH4AtHEAfgDMc3EAfgACc3EAfgAHAAAAAHcEAAAAAHhxAH4ALXEAfgDMeHEAfgDIcQB+AMp4cQB+AMhzcQB+AAJzcQB+AAcAAAACdwQAAAACcQB+AMpzcQB+AAJzcQB+AAcAAAAAdwQAAAAAeHNxAH4ADXQAA3gxMXEAfgDWeHEAfgDIc3EAfgACc3EAfgAHAAAAAncEAAAAAnNxAH4AAnNxAH4ABwAAAAB3BAAAAAB4cQB+AKFxAH4A3HEAfgDWeHEAfgAlcHhxAH4AyHNxAH4AAnNxAH4ABwAAAAJ3BAAAAAJxAH4AtnEAfgDMeHEAfgDIc3EAfgACc3EAfgAHAAAAAncEAAAAAnEAfgDgcQB+ANh4cQB+AMhzcQB+AAJzcQB+AAcAAAACdwQAAAACc3EAfgACc3EAfgAHAAAAAHcEAAAAAHhxAH4AoXEAfgDkcQB+AOJ4cQB+ACVweHEAfgC0cQB+AKdxAH4AuHhxAH4AyHEAfgClcQB+AMx4cQB+AMhxAH4Ao3EAfgDYeHEAfgDIc3EAfgACc3EAfgAHAAAAAncEAAAAAnNxAH4AAnNxAH4ABwAAAAB3BAAAAAB4cQB+ALpxAH4A6HEAfgCjeHEAfgAlcHhxAH4AJXBzcQB+AAJzcQB+AAcAAAACdwQAAAACc3EAfgACc3EAfgAHAAAAAncEAAAAAnNxAH4AAnNxAH4ABwAAAAB3BAAAAAB4c3EAfgAVQBIAAAAAAABxAH4A7nNxAH4AAnNxAH4ABwAAAAB3BAAAAAB4cQB+ANpzcQB+AAJzcQB+AAcAAAACdwQAAAACc3EAfgACc3EAfgAHAAAAAncEAAAAAnNxAH4AAnNxAH4ABwAAAAJ3BAAAAAJzcQB+AAJzcQB+AAcAAAAAdwQAAAAAeHEAfgDycQB+APlzcQB+AAJzcQB+AAcAAAAAdwQAAAAAeHEAfgDacQB+APl4cQB+ACVxAH4A93NxAH4AAnNxAH4ABwAAAAJ3BAAAAAJzcQB+AAJzcQB+AAcAAAAAdwQAAAAAeHEAfgAPcQB+AP9zcQB+AAJzcQB+AAcAAAAAdwQAAAAAeHNxAH4ADXQAAng1cQB+AP94cQB+ACVxAH4A93hxAH4AJXEAfgD1cQB+APN4cQB+ACVzcQB+AAJzcQB+AAcAAAACdwQAAAACcQB+APVzcQB+AAJzcQB+AAcAAAACdwQAAAACc3EAfgACc3EAfgAHAAAAAHcEAAAAAHhxAH4AD3EAfgEJc3EAfgACc3EAfgAHAAAAAHcEAAAAAHhxAH4BBXNxAH4AAnNxAH4ABwAAAAJ3BAAAAAJzcQB+AAJzcQB+AAcAAAACdwQAAAACc3EAfgACc3EAfgAHAAAAAHcEAAAAAHhxAH4AD3EAfgERc3EAfgACc3EAfgAHAAAAAHcEAAAAAHhxAH4BBXEAfgEReHEAfgAlcQB+AQ9xAH4BDXhxAH4AJXNxAH4AAnNxAH4ABwAAAAJ3BAAAAAJzcQB+AAJzcQB+AAcAAAACdwQAAAACc3EAfgACc3EAfgAHAAAAAHcEAAAAAHhxAH4A8nEAfgEZc3EAfgACc3EAfgAHAAAAAHcEAAAAAHhxAH4A2nEAfgEZeHEAfgAlcQB+ARdxAH4BD3hxAH4AJXB4cQB+ACVzcQB+AAJzcQB+AAcAAAACdwQAAAACc3EAfgACc3EAfgAHAAAAAncEAAAAAnNxAH4AAnNxAH4ABwAAAAJ3BAAAAAJzcQB+AAJzcQB+AAcAAAAAdwQAAAAAeHEAfgDycQB+ASNzcQB+AAJzcQB+AAcAAAAAdwQAAAAAeHEAfgDacQB+ASN4cQB+ACVxAH4BIXNxAH4AAnNxAH4ABwAAAAJ3BAAAAAJzcQB+AAJzcQB+AAcAAAAAdwQAAAAAeHEAfgAPcQB+ASlzcQB+AAJzcQB+AAcAAAAAdwQAAAAAeHEAfgEFcQB+ASl4cQB+ACVxAH4BIXhxAH4AJXEAfgEfcQB+AQl4cQB+ACVweHEAfgAlcHhxAH4AJXEAfgDscQB+AQl4cQB+ACVwc3EAfgACc3EAfgAHAAAAAHcEAAAAAHhzcQB+ABU/4AAAAAAAAHB4"
  ]
)