ea.runOutcome(
  index = 135;
  run = ea.run(
    problem = ea.p.mr.fromData(
      trainingDataset = ea.dataset.numerical.fromFile(
        filePath = "../phase2/data-ro-ga-3-010.txt";
        folds = [0];
        nFolds = 40;
        xVarNamePattern = "x.*";
        yVarNamePattern = "y.*"
      )
    );
    randomGenerator = ea.rg.defaultRG(seed = 1);
    solver = ea.s.multiSRTreeGP(
      crossoverP = 0.8;
      diversity = true;
      mapper = ea.m.treeMRF(
        dataset = ea.d.num.empty(
          xVars = [
            x0;
            x1;
            x2;
            x3;
            x4;
            x5;
            x6;
            x7;
            x8;
            x9;
            x10;
            x11;
            x12;
            x13;
            x14;
            x15
          ];
          yVars = [y0; y1; y2; y3]
        );
        postOperator = tanh
      );
      maxConst = 5;
      maxTreeH = 8;
      minConst = 0;
      minNTournament = 3;
      minTreeH = 3;
      nAttemptsDiversity = 100;
      nConst = 10;
      nEval = 10000;
      nPop = 100;
      operators = [addition; subtraction; multiplication; prot_division];
      tournamentRate = 0.05
    )
  );
  serializedGenotypes = [
    "rO0ABXNyABFqYXZhLnV0aWwuQ29sbFNlcleOq7Y6G6gRAwABSQADdGFneHAAAAAEdwQAAAAEc3IAN2lvLmdpdGh1Yi5lcmljbWVkdmV0LmpnZWEuY29yZS5yZXByZXNlbnRhdGlvbi50cmVlLlRyZWUKs7/qnQrEZQIAA0wACGNoaWxkcmVudAAQTGphdmEvdXRpbC9MaXN0O0wAB2NvbnRlbnR0ABJMamF2YS9sYW5nL09iamVjdDtMAAZwYXJlbnR0ADlMaW8vZ2l0aHViL2VyaWNtZWR2ZXQvamdlYS9jb3JlL3JlcHJlc2VudGF0aW9uL3RyZWUvVHJlZTt4cHNyABNqYXZhLnV0aWwuQXJyYXlMaXN0eIHSHZnHYZ0DAAFJAARzaXpleHAAAAACdwQAAAACc3EAfgACc3EAfgAHAAAAAHcEAAAAAHhzcgBLaW8uZ2l0aHViLmVyaWNtZWR2ZXQuamdlYS5jb3JlLnJlcHJlc2VudGF0aW9uLnRyZWUubnVtZXJpYy5FbGVtZW50JFZhcmlhYmxlAAAAAAAAAAACAAFMAARuYW1ldAASTGphdmEvbGFuZy9TdHJpbmc7eHB0AAJ4MnEAfgAGc3EAfgACc3EAfgAHAAAAAHcEAAAAAHhzcgBLaW8uZ2l0aHViLmVyaWNtZWR2ZXQuamdlYS5jb3JlLnJlcHJlc2VudGF0aW9uLnRyZWUubnVtZXJpYy5FbGVtZW50JENvbnN0YW50AAAAAAAAAAACAAFEAAV2YWx1ZXhwP+AAAAAAAABzcQB+AAJzcQB+AAcAAAACdwQAAAACc3EAfgACc3EAfgAHAAAAAncEAAAAAnNxAH4AAnNxAH4ABwAAAAB3BAAAAAB4c3EAfgARAAAAAAAAAABxAH4AFXNxAH4AAnNxAH4ABwAAAAJ3BAAAAAJzcQB+AAJzcQB+AAcAAAAAdwQAAAAAeHEAfgAZcQB+ABpzcQB+AAJzcQB+AAcAAAACdwQAAAACc3EAfgACc3EAfgAHAAAAAHcEAAAAAHhxAH4AGXEAfgAec3EAfgACc3EAfgAHAAAAAncEAAAAAnNxAH4AAnNxAH4ABwAAAAB3BAAAAAB4cQB+ABlxAH4AInNxAH4AAnNxAH4ABwAAAAB3BAAAAAB4cQB+ABJxAH4AInh+cgBLaW8uZ2l0aHViLmVyaWNtZWR2ZXQuamdlYS5jb3JlLnJlcHJlc2VudGF0aW9uLnRyZWUubnVtZXJpYy5FbGVtZW50JE9wZXJhdG9yAAAAAAAAAAASAAB4cgAOamF2YS5sYW5nLkVudW0AAAAAAAAAABIAAHhwdAAIQURESVRJT05xAH4AHnhxAH4AKnEAfgAaeHEAfgAqcQB+ABV4cQB+ACpxAH4AE3EAfgAPeH5xAH4AKHQAC1NVQlRSQUNUSU9OcHhxAH4ALHBzcQB+AAJzcQB+AAcAAAACdwQAAAACc3EAfgACc3EAfgAHAAAAAncEAAAAAnNxAH4AAnNxAH4ABwAAAAJ3BAAAAAJzcQB+AAJzcQB+AAcAAAAAdwQAAAAAeHEAfgAZcQB+ADJzcQB+AAJzcQB+AAcAAAAAdwQAAAAAeHNxAH4AC3QAAng0c3EAfgACc3EAfgAHAAAAAncEAAAAAnNxAH4AAnNxAH4ABwAAAAJ3BAAAAAJzcQB+AAJzcQB+AAcAAAACdwQAAAACc3EAfgACc3EAfgAHAAAAAncEAAAAAnNxAH4AAnNxAH4ABwAAAAJ3BAAAAAJzcQB+AAJzcQB+AAcAAAAAdwQAAAAAeHEAfgAZcQB+AEJzcQB+AAJzcQB+AAcAAAAAdwQAAAAAeHEAfgA4cQB+AEJ4cQB+ACxxAH4AQHNxAH4AAnNxAH4ABwAAAAB3BAAAAAB4c3EAfgARP/AAAAAAAABxAH4AQHh+cQB+ACh0AA5NVUxUSVBMSUNBVElPTnEAfgA+c3EAfgACc3EAfgAHAAAAAHcEAAAAAHhxAH4ASnEAfgA+eHEAfgBLcQB+ADxzcQB+AAJzcQB+AAcAAAAAdwQAAAAAeHEAfgBKcQB+ADx4cQB+AEtxAH4AOnEAfgA2eHEAfgAsc3EAfgACc3EAfgAHAAAAAncEAAAAAnEAfgA6c3EAfgACc3EAfgAHAAAAAHcEAAAAAHhxAH4ASnNxAH4AAnNxAH4ABwAAAAJ3BAAAAAJzcQB+AAJzcQB+AAcAAAAAdwQAAAAAeHEAfgBKcQB+AFVxAH4AU3hxAH4AS3NxAH4AAnNxAH4ABwAAAAJ3BAAAAAJxAH4AVXNxAH4AAnNxAH4ABwAAAAB3BAAAAAB4cQB+AEpzcQB+AAJzcQB+AAcAAAACdwQAAAACc3EAfgACc3EAfgAHAAAAAncEAAAAAnNxAH4AAnNxAH4ABwAAAAJ3BAAAAAJzcQB+AAJzcQB+AAcAAAAAdwQAAAAAeHEAfgAZcQB+AGFzcQB+AAJzcQB+AAcAAAAAdwQAAAAAeHEAfgA4cQB+AGF4cQB+ACxxAH4AX3NxAH4AAnNxAH4ABwAAAAJ3BAAAAAJzcQB+AAJzcQB+AAcAAAACdwQAAAACc3EAfgACc3EAfgAHAAAAAncEAAAAAnNxAH4AAnNxAH4ABwAAAAJ3BAAAAAJzcQB+AAJzcQB+AAcAAAAAdwQAAAAAeHEAfgAZcQB+AG1zcQB+AAJzcQB+AAcAAAAAdwQAAAAAeHEAfgA4cQB+AG14cQB+ACxxAH4Aa3NxAH4AAnNxAH4ABwAAAAB3BAAAAAB4cQB+AEpxAH4Aa3hxAH4AS3EAfgBpc3EAfgACc3EAfgAHAAAAAHcEAAAAAHhxAH4ASnEAfgBpeHEAfgBLcQB+AGdzcQB+AAJzcQB+AAcAAAAAdwQAAAAAeHEAfgBKcQB+AGd4cQB+AEtxAH4AX3hxAH4AS3EAfgBdcQB+AFt4cQB+AEtweHEAfgBLcHhxAH4AS3NxAH4AAnNxAH4ABwAAAAJ3BAAAAAJxAH4AUXEAfgBbeHEAfgBLcHhxAH4ALHEAfgAwcQB+AFN4cQB+AEtxAH4ALnEAfgBbeHEAfgBLcHNxAH4AAnNxAH4ABwAAAAB3BAAAAAB4c3EAfgALdAACeDZwc3EAfgACc3EAfgAHAAAAAncEAAAAAnNxAH4AAnNxAH4ABwAAAAB3BAAAAAB4cQB+ADhxAH4Af3NxAH4AAnNxAH4ABwAAAAJ3BAAAAAJzcQB+AAJzcQB+AAcAAAAAdwQAAAAAeHNxAH4AC3QAA3gxNXEAfgCDc3EAfgACc3EAfgAHAAAAAHcEAAAAAHhxAH4Ah3NxAH4AAnNxAH4ABwAAAAJ3BAAAAAJzcQB+AAJzcQB+AAcAAAACdwQAAAACc3EAfgACc3EAfgAHAAAAAHcEAAAAAHhxAH4Ah3EAfgCNc3EAfgACc3EAfgAHAAAAAHcEAAAAAHhxAH4Ah3EAfgCNeHEAfgAscQB+AItxAH4AiXhxAH4ALHNxAH4AAnNxAH4ABwAAAAJ3BAAAAAJzcQB+AAJzcQB+AAcAAAAAdwQAAAAAeHEAfgA4cQB+AJNxAH4Ai3hxAH4ALHB4cQB+ACxzcQB+AAJzcQB+AAcAAAACdwQAAAACc3EAfgACc3EAfgAHAAAAAncEAAAAAnNxAH4AAnNxAH4ABwAAAAB3BAAAAAB4cQB+ADhxAH4AmXNxAH4AAnNxAH4ABwAAAAJ3BAAAAAJzcQB+AAJzcQB+AAcAAAAAdwQAAAAAeHEAfgCHcQB+AJ1zcQB+AAJzcQB+AAcAAAAAdwQAAAAAeHEAfgCHcQB+AJ14cQB+ACxxAH4AmXhxAH4ALHEAfgCXcQB+AIN4cQB+ACxweHEAfgAscHg=";
    "rO0ABXNyABFqYXZhLnV0aWwuQ29sbFNlcleOq7Y6G6gRAwABSQADdGFneHAAAAAEdwQAAAAEc3IAN2lvLmdpdGh1Yi5lcmljbWVkdmV0LmpnZWEuY29yZS5yZXByZXNlbnRhdGlvbi50cmVlLlRyZWUKs7/qnQrEZQIAA0wACGNoaWxkcmVudAAQTGphdmEvdXRpbC9MaXN0O0wAB2NvbnRlbnR0ABJMamF2YS9sYW5nL09iamVjdDtMAAZwYXJlbnR0ADlMaW8vZ2l0aHViL2VyaWNtZWR2ZXQvamdlYS9jb3JlL3JlcHJlc2VudGF0aW9uL3RyZWUvVHJlZTt4cHNyABNqYXZhLnV0aWwuQXJyYXlMaXN0eIHSHZnHYZ0DAAFJAARzaXpleHAAAAACdwQAAAACc3EAfgACc3EAfgAHAAAAAHcEAAAAAHhzcgBLaW8uZ2l0aHViLmVyaWNtZWR2ZXQuamdlYS5jb3JlLnJlcHJlc2VudGF0aW9uLnRyZWUubnVtZXJpYy5FbGVtZW50JFZhcmlhYmxlAAAAAAAAAAACAAFMAARuYW1ldAASTGphdmEvbGFuZy9TdHJpbmc7eHB0AAJ4MnEAfgAGc3EAfgACc3EAfgAHAAAAAncEAAAAAnNxAH4AAnNxAH4ABwAAAAB3BAAAAAB4c3IAS2lvLmdpdGh1Yi5lcmljbWVkdmV0LmpnZWEuY29yZS5yZXByZXNlbnRhdGlvbi50cmVlLm51bWVyaWMuRWxlbWVudCRDb25zdGFudAAAAAAAAAAAAgABRAAFdmFsdWV4cAAAAAAAAAAAcQB+AA9zcQB+AAJzcQB+AAcAAAACdwQAAAACc3EAfgACc3EAfgAHAAAAAHcEAAAAAHhxAH4AFHEAfgAVc3EAfgACc3EAfgAHAAAAAncEAAAAAnNxAH4AAnNxAH4ABwAAAAB3BAAAAAB4cQB+ABRxAH4AGXNxAH4AAnNxAH4ABwAAAAJ3BAAAAAJzcQB+AAJzcQB+AAcAAAAAdwQAAAAAeHEAfgAUcQB+AB1zcQB+AAJzcQB+AAcAAAAAdwQAAAAAeHNxAH4AEz/gAAAAAAAAcQB+AB14fnIAS2lvLmdpdGh1Yi5lcmljbWVkdmV0LmpnZWEuY29yZS5yZXByZXNlbnRhdGlvbi50cmVlLm51bWVyaWMuRWxlbWVudCRPcGVyYXRvcgAAAAAAAAAAEgAAeHIADmphdmEubGFuZy5FbnVtAAAAAAAAAAASAAB4cHQACEFERElUSU9OcQB+ABl4cQB+ACZxAH4AFXhxAH4AJnNxAH4AAnNxAH4ABwAAAAJ3BAAAAAJzcQB+AAJzcQB+AAcAAAAAdwQAAAAAeHEAfgAjcQB+AChxAH4AFXhxAH4AJnNxAH4AAnNxAH4ABwAAAAJ3BAAAAAJzcQB+AAJzcQB+AAcAAAAAdwQAAAAAeHEAfgANcQB+ACxxAH4AKHh+cQB+ACR0AAtTVUJUUkFDVElPTnB4cQB+ACZzcQB+AAJzcQB+AAcAAAACdwQAAAACc3EAfgACc3EAfgAHAAAAAHcEAAAAAHhxAH4AI3EAfgAycQB+AA94cQB+ADBweHEAfgAwcHNxAH4AAnNxAH4ABwAAAAJ3BAAAAAJzcQB+AAJzcQB+AAcAAAAAdwQAAAAAeHEAfgAUcQB+ADZzcQB+AAJzcQB+AAcAAAAAdwQAAAAAeHNxAH4AC3QAAng0c3EAfgACc3EAfgAHAAAAAncEAAAAAnNxAH4AAnNxAH4ABwAAAAB3BAAAAAB4c3EAfgATP/AAAAAAAABxAH4APnEAfgA6eHEAfgAwcHhxAH4AMHBzcQB+AAJzcQB+AAcAAAAAdwQAAAAAeHNxAH4AC3QAAng2cHNxAH4AAnNxAH4ABwAAAAJ3BAAAAAJzcQB+AAJzcQB+AAcAAAACdwQAAAACc3EAfgACc3EAfgAHAAAAAHcEAAAAAHhxAH4APHEAfgBJc3EAfgACc3EAfgAHAAAAAncEAAAAAnNxAH4AAnNxAH4ABwAAAAB3BAAAAAB4c3EAfgALdAADeDE1cQB+AE1zcQB+AAJzcQB+AAcAAAAAdwQAAAAAeHEAfgBRc3EAfgACc3EAfgAHAAAAAncEAAAAAnNxAH4AAnNxAH4ABwAAAAB3BAAAAAB4cQB+ADxxAH4AVXEAfgBTeHEAfgAwc3EAfgACc3EAfgAHAAAAAncEAAAAAnNxAH4AAnNxAH4ABwAAAAB3BAAAAAB4cQB+ADxxAH4AWXEAfgBVeHEAfgAwc3EAfgACc3EAfgAHAAAAAncEAAAAAnEAfgBZc3EAfgACc3EAfgAHAAAAAncEAAAAAnNxAH4AAnNxAH4ABwAAAAB3BAAAAAB4cQB+AFFxAH4AX3NxAH4AAnNxAH4ABwAAAAB3BAAAAAB4cQB+AFFxAH4AX3hxAH4AMHNxAH4AAnNxAH4ABwAAAAJ3BAAAAAJzcQB+AAJzcQB+AAcAAAACdwQAAAACc3EAfgACc3EAfgAHAAAAAHcEAAAAAHhxAH4APHEAfgBnc3EAfgACc3EAfgAHAAAAAHcEAAAAAHhxAH4APHEAfgBneHEAfgAwcQB+AGVxAH4AX3hxAH4AMHB4cQB+ADBweHEAfgAwc3EAfgACc3EAfgAHAAAAAncEAAAAAnNxAH4AAnNxAH4ABwAAAAB3BAAAAAB4cQB+AFFxAH4AbXEAfgBNeHEAfgAwc3EAfgACc3EAfgAHAAAAAncEAAAAAnEAfgBtcQB+AF94cQB+ADBweHEAfgAwcQB+AEdxAH4AX3hxAH4AMHB4";
    "rO0ABXNyABFqYXZhLnV0aWwuQ29sbFNlcleOq7Y6G6gRAwABSQADdGFneHAAAAAEdwQAAAAEc3IAN2lvLmdpdGh1Yi5lcmljbWVkdmV0LmpnZWEuY29yZS5yZXByZXNlbnRhdGlvbi50cmVlLlRyZWUKs7/qnQrEZQIAA0wACGNoaWxkcmVudAAQTGphdmEvdXRpbC9MaXN0O0wAB2NvbnRlbnR0ABJMamF2YS9sYW5nL09iamVjdDtMAAZwYXJlbnR0ADlMaW8vZ2l0aHViL2VyaWNtZWR2ZXQvamdlYS9jb3JlL3JlcHJlc2VudGF0aW9uL3RyZWUvVHJlZTt4cHNyABNqYXZhLnV0aWwuQXJyYXlMaXN0eIHSHZnHYZ0DAAFJAARzaXpleHAAAAACdwQAAAACc3EAfgACc3EAfgAHAAAAAHcEAAAAAHhzcgBLaW8uZ2l0aHViLmVyaWNtZWR2ZXQuamdlYS5jb3JlLnJlcHJlc2VudGF0aW9uLnRyZWUubnVtZXJpYy5FbGVtZW50JFZhcmlhYmxlAAAAAAAAAAACAAFMAARuYW1ldAASTGphdmEvbGFuZy9TdHJpbmc7eHB0AAJ4MnEAfgAGc3EAfgACc3EAfgAHAAAAAncEAAAAAnNxAH4AAnNxAH4ABwAAAAB3BAAAAAB4c3IAS2lvLmdpdGh1Yi5lcmljbWVkdmV0LmpnZWEuY29yZS5yZXByZXNlbnRhdGlvbi50cmVlLm51bWVyaWMuRWxlbWVudCRDb25zdGFudAAAAAAAAAAAAgABRAAFdmFsdWV4cAAAAAAAAAAAcQB+AA9zcQB+AAJzcQB+AAcAAAACdwQAAAACc3EAfgACc3EAfgAHAAAAAHcEAAAAAHhxAH4AFHEAfgAVc3EAfgACc3EAfgAHAAAAAncEAAAAAnNxAH4AAnNxAH4ABwAAAAB3BAAAAAB4cQB+ABRxAH4AGXNxAH4AAnNxAH4ABwAAAAB3BAAAAAB4c3EAfgATP+AAAAAAAABxAH4AGXh+cgBLaW8uZ2l0aHViLmVyaWNtZWR2ZXQuamdlYS5jb3JlLnJlcHJlc2VudGF0aW9uLnRyZWUubnVtZXJpYy5FbGVtZW50JE9wZXJhdG9yAAAAAAAAAAASAAB4cgAOamF2YS5sYW5nLkVudW0AAAAAAAAAABIAAHhwdAAIQURESVRJT05xAH4AFXhxAH4AInNxAH4AAnNxAH4ABwAAAAJ3BAAAAAJzcQB+AAJzcQB+AAcAAAACdwQAAAACc3EAfgACc3EAfgAHAAAAAHcEAAAAAHhxAH4AFHEAfgAmc3EAfgACc3EAfgAHAAAAAncEAAAAAnNxAH4AAnNxAH4ABwAAAAB3BAAAAAB4cQB+ABRxAH4AKnNxAH4AAnNxAH4ABwAAAAB3BAAAAAB4cQB+AB9xAH4AKnhxAH4AInEAfgAmeHEAfgAicQB+ACRxAH4AFXhxAH4AInNxAH4AAnNxAH4ABwAAAAJ3BAAAAAJzcQB+AAJzcQB+AAcAAAAAdwQAAAAAeHEAfgANcQB+ADBxAH4AJHh+cQB+ACB0AAtTVUJUUkFDVElPTnB4cQB+ACJzcQB+AAJzcQB+AAcAAAACdwQAAAACc3EAfgACc3EAfgAHAAAAAHcEAAAAAHhxAH4AFHEAfgA2cQB+AA94cQB+ADRweHEAfgA0cHNxAH4AAnNxAH4ABwAAAAJ3BAAAAAJzcQB+AAJzcQB+AAcAAAACdwQAAAACc3EAfgACc3EAfgAHAAAAAncEAAAAAnNxAH4AAnNxAH4ABwAAAAJ3BAAAAAJzcQB+AAJzcQB+AAcAAAACdwQAAAACc3EAfgACc3EAfgAHAAAAAncEAAAAAnNxAH4AAnNxAH4ABwAAAAB3BAAAAAB4cQB+ABRxAH4ARHNxAH4AAnNxAH4ABwAAAAB3BAAAAAB4c3EAfgALdAACeDRzcQB+AAJzcQB+AAcAAAACdwQAAAACc3EAfgACc3EAfgAHAAAAAHcEAAAAAHhzcQB+ABM/8AAAAAAAAHEAfgBMcQB+AEh4cQB+ADRzcQB+AAJzcQB+AAcAAAACdwQAAAACcQB+AExzcQB+AAJzcQB+AAcAAAAAdwQAAAAAeHEAfgBQc3EAfgACc3EAfgAHAAAAAncEAAAAAnNxAH4AAnNxAH4ABwAAAAB3BAAAAAB4cQB+ABRxAH4AVXEAfgBTeH5xAH4AIHQADk1VTFRJUExJQ0FUSU9Oc3EAfgACc3EAfgAHAAAAAncEAAAAAnEAfgBVc3EAfgACc3EAfgAHAAAAAHcEAAAAAHhxAH4AUHEAfgBbeHEAfgBZc3EAfgACc3EAfgAHAAAAAncEAAAAAnEAfgBbc3EAfgACc3EAfgAHAAAAAHcEAAAAAHhxAH4AUHEAfgBfeHEAfgBZc3EAfgACc3EAfgAHAAAAAncEAAAAAnEAfgBfc3EAfgACc3EAfgAHAAAAAHcEAAAAAHhxAH4AUHNxAH4AAnNxAH4ABwAAAAJ3BAAAAAJzcQB+AAJzcQB+AAcAAAAAdwQAAAAAeHEAfgBQcQB+AGdxAH4AZXhxAH4AWXNxAH4AAnNxAH4ABwAAAAJ3BAAAAAJxAH4AZ3NxAH4AAnNxAH4ABwAAAAB3BAAAAAB4cQB+AFBzcQB+AAJzcQB+AAcAAAACdwQAAAACc3EAfgACc3EAfgAHAAAAAncEAAAAAnNxAH4AAnNxAH4ABwAAAAJ3BAAAAAJzcQB+AAJzcQB+AAcAAAAAdwQAAAAAeHEAfgAUcQB+AHNzcQB+AAJzcQB+AAcAAAAAdwQAAAAAeHEAfgBKcQB+AHN4cQB+ADRxAH4AcXNxAH4AAnNxAH4ABwAAAAJ3BAAAAAJzcQB+AAJzcQB+AAcAAAACdwQAAAACc3EAfgACc3EAfgAHAAAAAncEAAAAAnNxAH4AAnNxAH4ABwAAAAJ3BAAAAAJzcQB+AAJzcQB+AAcAAAAAdwQAAAAAeHEAfgAUcQB+AH9zcQB+AAJzcQB+AAcAAAAAdwQAAAAAeHEAfgBKcQB+AH94cQB+ADRxAH4AfXNxAH4AAnNxAH4ABwAAAAB3BAAAAAB4cQB+AFBxAH4AfXhxAH4AWXEAfgB7c3EAfgACc3EAfgAHAAAAAHcEAAAAAHhxAH4AUHEAfgB7eHEAfgBZcQB+AHlzcQB+AAJzcQB+AAcAAAAAdwQAAAAAeHEAfgBQcQB+AHl4cQB+AFlxAH4AcXhxAH4AWXEAfgBvcQB+AG14cQB+AFlweHEAfgBZcHhxAH4AWXNxAH4AAnNxAH4ABwAAAAJ3BAAAAAJxAH4AY3EAfgBteHEAfgBZcHhxAH4AWXNxAH4AAnNxAH4ABwAAAAJ3BAAAAAJxAH4AUXEAfgBdeHEAfgBZc3EAfgACc3EAfgAHAAAAAncEAAAAAnEAfgCNcQB+AGF4cQB+AFlzcQB+AAJzcQB+AAcAAAACdwQAAAACcQB+AI9xAH4AZXhxAH4AWXNxAH4AAnNxAH4ABwAAAAJ3BAAAAAJxAH4AkXEAfgBteHEAfgBZcHhxAH4ANHEAfgBCcQB+AFN4cQB+AFlxAH4AQHEAfgBdeHEAfgBZcQB+AD5xAH4AYXhxAH4AWXEAfgA8cQB+AGV4cQB+AFlxAH4AOnEAfgBteHEAfgBZcHNxAH4AAnNxAH4ABwAAAAB3BAAAAAB4c3EAfgALdAACeDZwc3EAfgACc3EAfgAHAAAAAHcEAAAAAHhxAH4ASnB4";
    "rO0ABXNyABFqYXZhLnV0aWwuQ29sbFNlcleOq7Y6G6gRAwABSQADdGFneHAAAAAEdwQAAAAEc3IAN2lvLmdpdGh1Yi5lcmljbWVkdmV0LmpnZWEuY29yZS5yZXByZXNlbnRhdGlvbi50cmVlLlRyZWUKs7/qnQrEZQIAA0wACGNoaWxkcmVudAAQTGphdmEvdXRpbC9MaXN0O0wAB2NvbnRlbnR0ABJMamF2YS9sYW5nL09iamVjdDtMAAZwYXJlbnR0ADlMaW8vZ2l0aHViL2VyaWNtZWR2ZXQvamdlYS9jb3JlL3JlcHJlc2VudGF0aW9uL3RyZWUvVHJlZTt4cHNyABNqYXZhLnV0aWwuQXJyYXlMaXN0eIHSHZnHYZ0DAAFJAARzaXpleHAAAAACdwQAAAACc3EAfgACc3EAfgAHAAAAAHcEAAAAAHhzcgBLaW8uZ2l0aHViLmVyaWNtZWR2ZXQuamdlYS5jb3JlLnJlcHJlc2VudGF0aW9uLnRyZWUubnVtZXJpYy5FbGVtZW50JFZhcmlhYmxlAAAAAAAAAAACAAFMAARuYW1ldAASTGphdmEvbGFuZy9TdHJpbmc7eHB0AAJ4MnEAfgAGc3EAfgACc3EAfgAHAAAAAHcEAAAAAHhzcgBLaW8uZ2l0aHViLmVyaWNtZWR2ZXQuamdlYS5jb3JlLnJlcHJlc2VudGF0aW9uLnRyZWUubnVtZXJpYy5FbGVtZW50JENvbnN0YW50AAAAAAAAAAACAAFEAAV2YWx1ZXhwP+AAAAAAAABzcQB+AAJzcQB+AAcAAAACdwQAAAACc3EAfgACc3EAfgAHAAAAAncEAAAAAnNxAH4AAnNxAH4ABwAAAAB3BAAAAAB4c3EAfgARAAAAAAAAAABxAH4AFXNxAH4AAnNxAH4ABwAAAAJ3BAAAAAJzcQB+AAJzcQB+AAcAAAAAdwQAAAAAeHEAfgAZcQB+ABpzcQB+AAJzcQB+AAcAAAACdwQAAAACc3EAfgACc3EAfgAHAAAAAHcEAAAAAHhxAH4AGXEAfgAec3EAfgACc3EAfgAHAAAAAncEAAAAAnNxAH4AAnNxAH4ABwAAAAB3BAAAAAB4cQB+ABlxAH4AInNxAH4AAnNxAH4ABwAAAAB3BAAAAAB4cQB+ABJxAH4AInh+cgBLaW8uZ2l0aHViLmVyaWNtZWR2ZXQuamdlYS5jb3JlLnJlcHJlc2VudGF0aW9uLnRyZWUubnVtZXJpYy5FbGVtZW50JE9wZXJhdG9yAAAAAAAAAAASAAB4cgAOamF2YS5sYW5nLkVudW0AAAAAAAAAABIAAHhwdAAIQURESVRJT05xAH4AHnhxAH4AKnEAfgAaeHEAfgAqcQB+ABV4cQB+ACpxAH4AE3EAfgAPeH5xAH4AKHQAC1NVQlRSQUNUSU9OcHhxAH4ALHBzcQB+AAJzcQB+AAcAAAACdwQAAAACc3EAfgACc3EAfgAHAAAAAHcEAAAAAHhxAH4AGXEAfgAuc3EAfgACc3EAfgAHAAAAAHcEAAAAAHhzcQB+AAt0AAJ4NHNxAH4AAnNxAH4ABwAAAAJ3BAAAAAJzcQB+AAJzcQB+AAcAAAAAdwQAAAAAeHNxAH4AET/wAAAAAAAAcQB+ADZxAH4AMnhxAH4ALHB4cQB+ACxwc3EAfgACc3EAfgAHAAAAAHcEAAAAAHhzcQB+AAt0AAJ4NnBzcQB+AAJzcQB+AAcAAAACdwQAAAACc3EAfgACc3EAfgAHAAAAAHcEAAAAAHhxAH4ANHEAfgA/c3EAfgACc3EAfgAHAAAAAncEAAAAAnNxAH4AAnNxAH4ABwAAAAB3BAAAAAB4c3EAfgALdAADeDE1cQB+AENzcQB+AAJzcQB+AAcAAAAAdwQAAAAAeHEAfgBHc3EAfgACc3EAfgAHAAAAAncEAAAAAnNxAH4AAnNxAH4ABwAAAAJ3BAAAAAJzcQB+AAJzcQB+AAcAAAAAdwQAAAAAeHEAfgBHcQB+AE1zcQB+AAJzcQB+AAcAAAAAdwQAAAAAeHEAfgBHcQB+AE14cQB+ACxxAH4AS3EAfgBJeHEAfgAsc3EAfgACc3EAfgAHAAAAAncEAAAAAnNxAH4AAnNxAH4ABwAAAAB3BAAAAAB4cQB+ADRxAH4AU3EAfgBLeHEAfgAscHhxAH4ALHNxAH4AAnNxAH4ABwAAAAJ3BAAAAAJzcQB+AAJzcQB+AAcAAAACdwQAAAACc3EAfgACc3EAfgAHAAAAAHcEAAAAAHhxAH4ANHEAfgBZc3EAfgACc3EAfgAHAAAAAncEAAAAAnNxAH4AAnNxAH4ABwAAAAB3BAAAAAB4cQB+AEdxAH4AXXNxAH4AAnNxAH4ABwAAAAB3BAAAAAB4cQB+AEdxAH4AXXhxAH4ALHEAfgBZeHEAfgAscQB+AFdxAH4AQ3hxAH4ALHB4cQB+ACxweA==";
    "rO0ABXNyABFqYXZhLnV0aWwuQ29sbFNlcleOq7Y6G6gRAwABSQADdGFneHAAAAAEdwQAAAAEc3IAN2lvLmdpdGh1Yi5lcmljbWVkdmV0LmpnZWEuY29yZS5yZXByZXNlbnRhdGlvbi50cmVlLlRyZWUKs7/qnQrEZQIAA0wACGNoaWxkcmVudAAQTGphdmEvdXRpbC9MaXN0O0wAB2NvbnRlbnR0ABJMamF2YS9sYW5nL09iamVjdDtMAAZwYXJlbnR0ADlMaW8vZ2l0aHViL2VyaWNtZWR2ZXQvamdlYS9jb3JlL3JlcHJlc2VudGF0aW9uL3RyZWUvVHJlZTt4cHNyABNqYXZhLnV0aWwuQXJyYXlMaXN0eIHSHZnHYZ0DAAFJAARzaXpleHAAAAACdwQAAAACc3EAfgACc3EAfgAHAAAAAHcEAAAAAHhzcgBLaW8uZ2l0aHViLmVyaWNtZWR2ZXQuamdlYS5jb3JlLnJlcHJlc2VudGF0aW9uLnRyZWUubnVtZXJpYy5FbGVtZW50JFZhcmlhYmxlAAAAAAAAAAACAAFMAARuYW1ldAASTGphdmEvbGFuZy9TdHJpbmc7eHB0AAJ4MnEAfgAGc3EAfgACc3EAfgAHAAAAAncEAAAAAnNxAH4AAnNxAH4ABwAAAAB3BAAAAAB4c3IAS2lvLmdpdGh1Yi5lcmljbWVkdmV0LmpnZWEuY29yZS5yZXByZXNlbnRhdGlvbi50cmVlLm51bWVyaWMuRWxlbWVudCRDb25zdGFudAAAAAAAAAAAAgABRAAFdmFsdWV4cAAAAAAAAAAAcQB+AA9zcQB+AAJzcQB+AAcAAAAAdwQAAAAAeHNxAH4AEz/gAAAAAAAAc3EAfgACc3EAfgAHAAAAAncEAAAAAnNxAH4AAnNxAH4ABwAAAAJ3BAAAAAJzcQB+AAJzcQB+AAcAAAAAdwQAAAAAeHEAfgAUcQB+ABpzcQB+AAJzcQB+AAcAAAAAdwQAAAAAeHEAfgAXcQB+ABp4fnIAS2lvLmdpdGh1Yi5lcmljbWVkdmV0LmpnZWEuY29yZS5yZXByZXNlbnRhdGlvbi50cmVlLm51bWVyaWMuRWxlbWVudCRPcGVyYXRvcgAAAAAAAAAAEgAAeHIADmphdmEubGFuZy5FbnVtAAAAAAAAAAASAAB4cHQACEFERElUSU9OcQB+ABhxAH4AFXhxAH4AInNxAH4AAnNxAH4ABwAAAAJ3BAAAAAJzcQB+AAJzcQB+AAcAAAAAdwQAAAAAeHEAfgANcQB+ACRxAH4AGHh+cQB+ACB0AAtTVUJUUkFDVElPTnB4cQB+ACJzcQB+AAJzcQB+AAcAAAACdwQAAAACc3EAfgACc3EAfgAHAAAAAHcEAAAAAHhxAH4AFHEAfgAqcQB+AA94cQB+AChweHEAfgAocHNxAH4AAnNxAH4ABwAAAAJ3BAAAAAJzcQB+AAJzcQB+AAcAAAACdwQAAAACc3EAfgACc3EAfgAHAAAAAncEAAAAAnNxAH4AAnNxAH4ABwAAAAJ3BAAAAAJzcQB+AAJzcQB+AAcAAAAAdwQAAAAAeHEAfgAUcQB+ADRzcQB+AAJzcQB+AAcAAAAAdwQAAAAAeHNxAH4AC3QAAng0c3EAfgACc3EAfgAHAAAAAncEAAAAAnNxAH4AAnNxAH4ABwAAAAB3BAAAAAB4cQB+ADpxAH4APHEAfgA4eHEAfgAoc3EAfgACc3EAfgAHAAAAAncEAAAAAnEAfgA8c3EAfgACc3EAfgAHAAAAAHcEAAAAAHhzcQB+ABM/8AAAAAAAAHEAfgBAeH5xAH4AIHQADk1VTFRJUExJQ0FUSU9Oc3EAfgACc3EAfgAHAAAAAncEAAAAAnEAfgBAc3EAfgACc3EAfgAHAAAAAHcEAAAAAHhxAH4ARHEAfgBHeHEAfgBFc3EAfgACc3EAfgAHAAAAAncEAAAAAnEAfgBHc3EAfgACc3EAfgAHAAAAAHcEAAAAAHhxAH4ARHEAfgBLeHEAfgBFcHhxAH4AKHEAfgAycQB+AEJ4cQB+AEVxAH4AMHEAfgBJeHEAfgBFcQB+AC5xAH4ATXhxAH4ARXBzcQB+AAJzcQB+AAcAAAAAdwQAAAAAeHNxAH4AC3QAAng2cHNxAH4AAnNxAH4ABwAAAAJ3BAAAAAJzcQB+AAJzcQB+AAcAAAACdwQAAAACc3EAfgACc3EAfgAHAAAAAHcEAAAAAHhxAH4AOnEAfgBVc3EAfgACc3EAfgAHAAAAAncEAAAAAnNxAH4AAnNxAH4ABwAAAAB3BAAAAAB4c3EAfgALdAADeDE1cQB+AFlzcQB+AAJzcQB+AAcAAAAAdwQAAAAAeHEAfgBdc3EAfgACc3EAfgAHAAAAAncEAAAAAnNxAH4AAnNxAH4ABwAAAAJ3BAAAAAJzcQB+AAJzcQB+AAcAAAAAdwQAAAAAeHEAfgBdcQB+AGNzcQB+AAJzcQB+AAcAAAAAdwQAAAAAeHEAfgBdcQB+AGN4cQB+AChxAH4AYXEAfgBfeHEAfgAoc3EAfgACc3EAfgAHAAAAAncEAAAAAnNxAH4AAnNxAH4ABwAAAAB3BAAAAAB4cQB+ADpxAH4AaXEAfgBheHEAfgAoc3EAfgACc3EAfgAHAAAAAncEAAAAAnEAfgBpc3EAfgACc3EAfgAHAAAAAncEAAAAAnNxAH4AAnNxAH4ABwAAAAB3BAAAAAB4cQB+AF1xAH4Ab3NxAH4AAnNxAH4ABwAAAAB3BAAAAAB4cQB+AF1zcQB+AAJzcQB+AAcAAAACdwQAAAACc3EAfgACc3EAfgAHAAAAAncEAAAAAnNxAH4AAnNxAH4ABwAAAAB3BAAAAAB4cQB+AF1xAH4Ad3NxAH4AAnNxAH4ABwAAAAB3BAAAAAB4cQB+AF1xAH4Ad3hxAH4AKHEAfgB1cQB+AHN4cQB+AChzcQB+AAJzcQB+AAcAAAACdwQAAAACc3EAfgACc3EAfgAHAAAAAHcEAAAAAHhxAH4AOnEAfgB9cQB+AHV4cQB+AChweHEAfgAoc3EAfgACc3EAfgAHAAAAAncEAAAAAnNxAH4AAnNxAH4ABwAAAAJ3BAAAAAJzcQB+AAJzcQB+AAcAAAAAdwQAAAAAeHEAfgA6cQB+AINzcQB+AAJzcQB+AAcAAAACdwQAAAACc3EAfgACc3EAfgAHAAAAAHcEAAAAAHhxAH4AXXEAfgCHc3EAfgACc3EAfgAHAAAAAHcEAAAAAHhxAH4AXXEAfgCHeHEAfgAocQB+AIN4cQB+AChxAH4AgXEAfgBveHEAfgAocHhxAH4AKHB4cQB+AChzcQB+AAJzcQB+AAcAAAACdwQAAAACc3EAfgACc3EAfgAHAAAAAHcEAAAAAHhxAH4AXXEAfgCNcQB+AFl4cQB+AChzcQB+AAJzcQB+AAcAAAACdwQAAAACcQB+AI1xAH4Ab3hxAH4AKHB4cQB+AChxAH4AU3EAfgBveHEAfgAocHg=";
    "rO0ABXNyABFqYXZhLnV0aWwuQ29sbFNlcleOq7Y6G6gRAwABSQADdGFneHAAAAAEdwQAAAAEc3IAN2lvLmdpdGh1Yi5lcmljbWVkdmV0LmpnZWEuY29yZS5yZXByZXNlbnRhdGlvbi50cmVlLlRyZWUKs7/qnQrEZQIAA0wACGNoaWxkcmVudAAQTGphdmEvdXRpbC9MaXN0O0wAB2NvbnRlbnR0ABJMamF2YS9sYW5nL09iamVjdDtMAAZwYXJlbnR0ADlMaW8vZ2l0aHViL2VyaWNtZWR2ZXQvamdlYS9jb3JlL3JlcHJlc2VudGF0aW9uL3RyZWUvVHJlZTt4cHNyABNqYXZhLnV0aWwuQXJyYXlMaXN0eIHSHZnHYZ0DAAFJAARzaXpleHAAAAACdwQAAAACc3EAfgACc3EAfgAHAAAAAHcEAAAAAHhzcgBLaW8uZ2l0aHViLmVyaWNtZWR2ZXQuamdlYS5jb3JlLnJlcHJlc2VudGF0aW9uLnRyZWUubnVtZXJpYy5FbGVtZW50JFZhcmlhYmxlAAAAAAAAAAACAAFMAARuYW1ldAASTGphdmEvbGFuZy9TdHJpbmc7eHB0AAJ4MnEAfgAGc3EAfgACc3EAfgAHAAAAAncEAAAAAnNxAH4AAnNxAH4ABwAAAAB3BAAAAAB4c3IAS2lvLmdpdGh1Yi5lcmljbWVkdmV0LmpnZWEuY29yZS5yZXByZXNlbnRhdGlvbi50cmVlLm51bWVyaWMuRWxlbWVudCRDb25zdGFudAAAAAAAAAAAAgABRAAFdmFsdWV4cAAAAAAAAAAAcQB+AA9zcQB+AAJzcQB+AAcAAAACdwQAAAACc3EAfgACc3EAfgAHAAAAAHcEAAAAAHhxAH4AFHEAfgAVc3EAfgACc3EAfgAHAAAAAncEAAAAAnNxAH4AAnNxAH4ABwAAAAB3BAAAAAB4cQB+ABRxAH4AGXNxAH4AAnNxAH4ABwAAAAJ3BAAAAAJzcQB+AAJzcQB+AAcAAAAAdwQAAAAAeHEAfgAUcQB+AB1zcQB+AAJzcQB+AAcAAAACdwQAAAACc3EAfgACc3EAfgAHAAAAAHcEAAAAAHhxAH4AFHEAfgAhc3EAfgACc3EAfgAHAAAAAncEAAAAAnNxAH4AAnNxAH4ABwAAAAB3BAAAAAB4cQB+ABRxAH4AJXNxAH4AAnNxAH4ABwAAAAB3BAAAAAB4c3EAfgATP+AAAAAAAABxAH4AJXh+cgBLaW8uZ2l0aHViLmVyaWNtZWR2ZXQuamdlYS5jb3JlLnJlcHJlc2VudGF0aW9uLnRyZWUubnVtZXJpYy5FbGVtZW50JE9wZXJhdG9yAAAAAAAAAAASAAB4cgAOamF2YS5sYW5nLkVudW0AAAAAAAAAABIAAHhwdAAIQURESVRJT05xAH4AIXhxAH4ALnEAfgAdeHEAfgAucQB+ABl4cQB+AC5xAH4AFXhxAH4ALnNxAH4AAnNxAH4ABwAAAAJ3BAAAAAJzcQB+AAJzcQB+AAcAAAAAdwQAAAAAeHEAfgArcQB+ADBxAH4AFXhxAH4ALnNxAH4AAnNxAH4ABwAAAAJ3BAAAAAJzcQB+AAJzcQB+AAcAAAAAdwQAAAAAeHEAfgANcQB+ADRxAH4AMHh+cQB+ACx0AAtTVUJUUkFDVElPTnB4cQB+AC5zcQB+AAJzcQB+AAcAAAACdwQAAAACc3EAfgACc3EAfgAHAAAAAHcEAAAAAHhxAH4AFHEAfgA6cQB+AA94cQB+ADhweHEAfgA4cHNxAH4AAnNxAH4ABwAAAAJ3BAAAAAJzcQB+AAJzcQB+AAcAAAACdwQAAAACc3EAfgACc3EAfgAHAAAAAHcEAAAAAHhxAH4AFHEAfgBAc3EAfgACc3EAfgAHAAAAAHcEAAAAAHhzcQB+AAt0AAJ4NHNxAH4AAnNxAH4ABwAAAAJ3BAAAAAJzcQB+AAJzcQB+AAcAAAAAdwQAAAAAeHNxAH4AEz/wAAAAAAAAcQB+AEhxAH4ARHhxAH4AOHNxAH4AAnNxAH4ABwAAAAJ3BAAAAAJxAH4ASHNxAH4AAnNxAH4ABwAAAAB3BAAAAAB4cQB+AExzcQB+AAJzcQB+AAcAAAACdwQAAAACc3EAfgACc3EAfgAHAAAAAncEAAAAAnNxAH4AAnNxAH4ABwAAAAJ3BAAAAAJzcQB+AAJzcQB+AAcAAAACdwQAAAACc3EAfgACc3EAfgAHAAAAAHcEAAAAAHhxAH4ARnEAfgBXc3EAfgACc3EAfgAHAAAAAHcEAAAAAHhxAH4ARnEAfgBXeHEAfgA4cQB+AFVzcQB+AAJzcQB+AAcAAAAAdwQAAAAAeHEAfgBMcQB+AFV4fnEAfgAsdAAOTVVMVElQTElDQVRJT05xAH4AU3NxAH4AAnNxAH4ABwAAAAB3BAAAAAB4cQB+AExxAH4AU3hxAH4AX3EAfgBRcQB+AE94cQB+AF9weHEAfgBfcHhxAH4AOHEAfgA+cQB+AE94cQB+AF9wc3EAfgACc3EAfgAHAAAAAHcEAAAAAHhzcQB+AAt0AAJ4NnBzcQB+AAJzcQB+AAcAAAACdwQAAAACc3EAfgACc3EAfgAHAAAAAncEAAAAAnNxAH4AAnNxAH4ABwAAAAB3BAAAAAB4cQB+AEZxAH4AaXNxAH4AAnNxAH4ABwAAAAJ3BAAAAAJzcQB+AAJzcQB+AAcAAAAAdwQAAAAAeHNxAH4AC3QAA3gxNXEAfgBtc3EAfgACc3EAfgAHAAAAAHcEAAAAAHhxAH4AcXNxAH4AAnNxAH4ABwAAAAJ3BAAAAAJzcQB+AAJzcQB+AAcAAAACdwQAAAACc3EAfgACc3EAfgAHAAAAAHcEAAAAAHhxAH4AcXEAfgB3c3EAfgACc3EAfgAHAAAAAHcEAAAAAHhxAH4AcXEAfgB3eHEAfgA4cQB+AHVxAH4Ac3hxAH4AOHNxAH4AAnNxAH4ABwAAAAJ3BAAAAAJzcQB+AAJzcQB+AAcAAAAAdwQAAAAAeHEAfgBGcQB+AH1xAH4AdXhxAH4AOHNxAH4AAnNxAH4ABwAAAAJ3BAAAAAJxAH4AfXNxAH4AAnNxAH4ABwAAAAJ3BAAAAAJzcQB+AAJzcQB+AAcAAAAAdwQAAAAAeHEAfgBxcQB+AINzcQB+AAJzcQB+AAcAAAAAdwQAAAAAeHEAfgBxc3EAfgACc3EAfgAHAAAAAncEAAAAAnNxAH4AAnNxAH4ABwAAAAJ3BAAAAAJzcQB+AAJzcQB+AAcAAAAAdwQAAAAAeHEAfgBxcQB+AItzcQB+AAJzcQB+AAcAAAAAdwQAAAAAeHEAfgBxcQB+AIt4cQB+ADhxAH4AiXEAfgCHeHEAfgA4c3EAfgACc3EAfgAHAAAAAncEAAAAAnNxAH4AAnNxAH4ABwAAAAB3BAAAAAB4cQB+AEZxAH4AkXEAfgCJeHEAfgA4cHhxAH4AOHNxAH4AAnNxAH4ABwAAAAJ3BAAAAAJzcQB+AAJzcQB+AAcAAAACdwQAAAACc3EAfgACc3EAfgAHAAAAAHcEAAAAAHhxAH4ARnEAfgCXc3EAfgACc3EAfgAHAAAAAncEAAAAAnNxAH4AAnNxAH4ABwAAAAB3BAAAAAB4cQB+AHFxAH4Am3NxAH4AAnNxAH4ABwAAAAB3BAAAAAB4cQB+AHFxAH4Am3hxAH4AOHEAfgCXeHEAfgA4cQB+AJVxAH4Ag3hxAH4AOHB4cQB+ADhweHEAfgA4c3EAfgACc3EAfgAHAAAAAncEAAAAAnNxAH4AAnNxAH4ABwAAAAB3BAAAAAB4cQB+AHFxAH4AoXEAfgBteHEAfgA4c3EAfgACc3EAfgAHAAAAAncEAAAAAnEAfgChcQB+AIN4cQB+ADhweHEAfgA4cQB+AGdxAH4Ag3hxAH4AOHB4";
    "rO0ABXNyABFqYXZhLnV0aWwuQ29sbFNlcleOq7Y6G6gRAwABSQADdGFneHAAAAAEdwQAAAAEc3IAN2lvLmdpdGh1Yi5lcmljbWVkdmV0LmpnZWEuY29yZS5yZXByZXNlbnRhdGlvbi50cmVlLlRyZWUKs7/qnQrEZQIAA0wACGNoaWxkcmVudAAQTGphdmEvdXRpbC9MaXN0O0wAB2NvbnRlbnR0ABJMamF2YS9sYW5nL09iamVjdDtMAAZwYXJlbnR0ADlMaW8vZ2l0aHViL2VyaWNtZWR2ZXQvamdlYS9jb3JlL3JlcHJlc2VudGF0aW9uL3RyZWUvVHJlZTt4cHNyABNqYXZhLnV0aWwuQXJyYXlMaXN0eIHSHZnHYZ0DAAFJAARzaXpleHAAAAACdwQAAAACc3EAfgACc3EAfgAHAAAAAHcEAAAAAHhzcgBLaW8uZ2l0aHViLmVyaWNtZWR2ZXQuamdlYS5jb3JlLnJlcHJlc2VudGF0aW9uLnRyZWUubnVtZXJpYy5FbGVtZW50JFZhcmlhYmxlAAAAAAAAAAACAAFMAARuYW1ldAASTGphdmEvbGFuZy9TdHJpbmc7eHB0AAJ4MnEAfgAGc3EAfgACc3EAfgAHAAAAAncEAAAAAnNxAH4AAnNxAH4ABwAAAAB3BAAAAAB4c3IAS2lvLmdpdGh1Yi5lcmljbWVkdmV0LmpnZWEuY29yZS5yZXByZXNlbnRhdGlvbi50cmVlLm51bWVyaWMuRWxlbWVudCRDb25zdGFudAAAAAAAAAAAAgABRAAFdmFsdWV4cAAAAAAAAAAAcQB+AA9zcQB+AAJzcQB+AAcAAAACdwQAAAACc3EAfgACc3EAfgAHAAAAAHcEAAAAAHhxAH4AFHEAfgAVc3EAfgACc3EAfgAHAAAAAncEAAAAAnNxAH4AAnNxAH4ABwAAAAB3BAAAAAB4cQB+ABRxAH4AGXNxAH4AAnNxAH4ABwAAAAJ3BAAAAAJzcQB+AAJzcQB+AAcAAAAAdwQAAAAAeHEAfgAUcQB+AB1zcQB+AAJzcQB+AAcAAAAAdwQAAAAAeHNxAH4AEz/gAAAAAAAAcQB+AB14fnIAS2lvLmdpdGh1Yi5lcmljbWVkdmV0LmpnZWEuY29yZS5yZXByZXNlbnRhdGlvbi50cmVlLm51bWVyaWMuRWxlbWVudCRPcGVyYXRvcgAAAAAAAAAAEgAAeHIADmphdmEubGFuZy5FbnVtAAAAAAAAAAASAAB4cHQACEFERElUSU9OcQB+ABl4cQB+ACZxAH4AFXhxAH4AJnNxAH4AAnNxAH4ABwAAAAJ3BAAAAAJzcQB+AAJzcQB+AAcAAAAAdwQAAAAAeHEAfgAjcQB+AChxAH4AFXhxAH4AJnNxAH4AAnNxAH4ABwAAAAJ3BAAAAAJzcQB+AAJzcQB+AAcAAAAAdwQAAAAAeHEAfgANcQB+ACxxAH4AKHh+cQB+ACR0AAtTVUJUUkFDVElPTnB4cQB+ACZzcQB+AAJzcQB+AAcAAAACdwQAAAACc3EAfgACc3EAfgAHAAAAAHcEAAAAAHhxAH4AI3EAfgAycQB+AA94cQB+ADBweHEAfgAwcHNxAH4AAnNxAH4ABwAAAAJ3BAAAAAJzcQB+AAJzcQB+AAcAAAACdwQAAAACc3EAfgACc3EAfgAHAAAAAHcEAAAAAHhxAH4AFHEAfgA4c3EAfgACc3EAfgAHAAAAAHcEAAAAAHhzcQB+AAt0AAJ4NHNxAH4AAnNxAH4ABwAAAAJ3BAAAAAJzcQB+AAJzcQB+AAcAAAAAdwQAAAAAeHNxAH4AEz/wAAAAAAAAcQB+AEBxAH4APHhxAH4AMHNxAH4AAnNxAH4ABwAAAAJ3BAAAAAJxAH4AQHNxAH4AAnNxAH4ABwAAAAB3BAAAAAB4cQB+AERzcQB+AAJzcQB+AAcAAAACdwQAAAACc3EAfgACc3EAfgAHAAAAAncEAAAAAnNxAH4AAnNxAH4ABwAAAAJ3BAAAAAJzcQB+AAJzcQB+AAcAAAACdwQAAAACc3EAfgACc3EAfgAHAAAAAHcEAAAAAHhxAH4APnEAfgBPc3EAfgACc3EAfgAHAAAAAHcEAAAAAHhxAH4APnEAfgBPeHEAfgAwcQB+AE1zcQB+AAJzcQB+AAcAAAAAdwQAAAAAeHEAfgBEcQB+AE14fnEAfgAkdAAOTVVMVElQTElDQVRJT05xAH4AS3NxAH4AAnNxAH4ABwAAAAB3BAAAAAB4cQB+AERxAH4AS3hxAH4AV3EAfgBJcQB+AEd4cQB+AFdweHEAfgBXcHhxAH4AMHEAfgA2cQB+AEd4cQB+AFdwc3EAfgACc3EAfgAHAAAAAHcEAAAAAHhzcQB+AAt0AAJ4NnBzcQB+AAJzcQB+AAcAAAAAdwQAAAAAeHEAfgA+cHg=";
    "rO0ABXNyABFqYXZhLnV0aWwuQ29sbFNlcleOq7Y6G6gRAwABSQADdGFneHAAAAAEdwQAAAAEc3IAN2lvLmdpdGh1Yi5lcmljbWVkdmV0LmpnZWEuY29yZS5yZXByZXNlbnRhdGlvbi50cmVlLlRyZWUKs7/qnQrEZQIAA0wACGNoaWxkcmVudAAQTGphdmEvdXRpbC9MaXN0O0wAB2NvbnRlbnR0ABJMamF2YS9sYW5nL09iamVjdDtMAAZwYXJlbnR0ADlMaW8vZ2l0aHViL2VyaWNtZWR2ZXQvamdlYS9jb3JlL3JlcHJlc2VudGF0aW9uL3RyZWUvVHJlZTt4cHNyABNqYXZhLnV0aWwuQXJyYXlMaXN0eIHSHZnHYZ0DAAFJAARzaXpleHAAAAACdwQAAAACc3EAfgACc3EAfgAHAAAAAHcEAAAAAHhzcgBLaW8uZ2l0aHViLmVyaWNtZWR2ZXQuamdlYS5jb3JlLnJlcHJlc2VudGF0aW9uLnRyZWUubnVtZXJpYy5FbGVtZW50JFZhcmlhYmxlAAAAAAAAAAACAAFMAARuYW1ldAASTGphdmEvbGFuZy9TdHJpbmc7eHB0AAJ4MnEAfgAGc3EAfgACc3EAfgAHAAAAAncEAAAAAnNxAH4AAnNxAH4ABwAAAAB3BAAAAAB4c3IAS2lvLmdpdGh1Yi5lcmljbWVkdmV0LmpnZWEuY29yZS5yZXByZXNlbnRhdGlvbi50cmVlLm51bWVyaWMuRWxlbWVudCRDb25zdGFudAAAAAAAAAAAAgABRAAFdmFsdWV4cAAAAAAAAAAAcQB+AA9zcQB+AAJzcQB+AAcAAAACdwQAAAACc3EAfgACc3EAfgAHAAAAAHcEAAAAAHhxAH4AFHEAfgAVc3EAfgACc3EAfgAHAAAAAHcEAAAAAHhzcQB+ABM/4AAAAAAAAHEAfgAVeH5yAEtpby5naXRodWIuZXJpY21lZHZldC5qZ2VhLmNvcmUucmVwcmVzZW50YXRpb24udHJlZS5udW1lcmljLkVsZW1lbnQkT3BlcmF0b3IAAAAAAAAAABIAAHhyAA5qYXZhLmxhbmcuRW51bQAAAAAAAAAAEgAAeHB0AAhBRERJVElPTnNxAH4AAnNxAH4ABwAAAAJ3BAAAAAJzcQB+AAJzcQB+AAcAAAACdwQAAAACc3EAfgACc3EAfgAHAAAAAHcEAAAAAHhxAH4ADXEAfgAic3EAfgACc3EAfgAHAAAAAncEAAAAAnNxAH4AAnNxAH4ABwAAAAB3BAAAAAB4cQB+ABRxAH4AJnNxAH4AAnNxAH4ABwAAAAJ3BAAAAAJzcQB+AAJzcQB+AAcAAAAAdwQAAAAAeHEAfgAUcQB+ACpzcQB+AAJzcQB+AAcAAAACdwQAAAACc3EAfgACc3EAfgAHAAAAAHcEAAAAAHhxAH4AFHEAfgAuc3EAfgACc3EAfgAHAAAAAHcEAAAAAHhxAH4AG3EAfgAueHEAfgAecQB+ACp4cQB+AB5xAH4AJnhxAH4AHnEAfgAieH5xAH4AHHQAC1NVQlRSQUNUSU9OcQB+ACBxAH4AFXhxAH4AHnNxAH4AAnNxAH4ABwAAAAJ3BAAAAAJzcQB+AAJzcQB+AAcAAAAAdwQAAAAAeHEAfgANcQB+ADZxAH4AIHhxAH4ANHB4cQB+AB5zcQB+AAJzcQB+AAcAAAACdwQAAAACc3EAfgACc3EAfgAHAAAAAHcEAAAAAHhxAH4AFHEAfgA6cQB+AA94cQB+ADRweHEAfgA0cHNxAH4AAnNxAH4ABwAAAAJ3BAAAAAJzcQB+AAJzcQB+AAcAAAACdwQAAAACc3EAfgACc3EAfgAHAAAAAncEAAAAAnNxAH4AAnNxAH4ABwAAAAJ3BAAAAAJzcQB+AAJzcQB+AAcAAAACdwQAAAACc3EAfgACc3EAfgAHAAAAAncEAAAAAnNxAH4AAnNxAH4ABwAAAAB3BAAAAAB4cQB+ABRxAH4ASHNxAH4AAnNxAH4ABwAAAAB3BAAAAAB4c3EAfgALdAACeDRzcQB+AAJzcQB+AAcAAAACdwQAAAACc3EAfgACc3EAfgAHAAAAAHcEAAAAAHhzcQB+ABM/8AAAAAAAAHEAfgBQcQB+AEx4cQB+ADRzcQB+AAJzcQB+AAcAAAACdwQAAAACcQB+AFBzcQB+AAJzcQB+AAcAAAAAdwQAAAAAeHEAfgBUcQB+AFV4fnEAfgAcdAAOTVVMVElQTElDQVRJT05zcQB+AAJzcQB+AAcAAAACdwQAAAACcQB+AFVzcQB+AAJzcQB+AAcAAAAAdwQAAAAAeHEAfgBUc3EAfgACc3EAfgAHAAAAAncEAAAAAnNxAH4AAnNxAH4ABwAAAAJ3BAAAAAJzcQB+AAJzcQB+AAcAAAACdwQAAAACc3EAfgACc3EAfgAHAAAAAHcEAAAAAHhxAH4AFHEAfgBjc3EAfgACc3EAfgAHAAAAAHcEAAAAAHhxAH4ATnEAfgBjeHEAfgA0cQB+AGFzcQB+AAJzcQB+AAcAAAACdwQAAAACc3EAfgACc3EAfgAHAAAAAncEAAAAAnNxAH4AAnNxAH4ABwAAAAB3BAAAAAB4cQB+ABRxAH4Aa3NxAH4AAnNxAH4ABwAAAAB3BAAAAAB4cQB+AE5xAH4Aa3hxAH4ANHEAfgBpc3EAfgACc3EAfgAHAAAAAHcEAAAAAHhxAH4AVHEAfgBpeHEAfgBZcQB+AGF4cQB+AFlxAH4AX3EAfgBdeHEAfgBZc3EAfgACc3EAfgAHAAAAAncEAAAAAnEAfgBfc3EAfgACc3EAfgAHAAAAAHcEAAAAAHhxAH4AVHNxAH4AAnNxAH4ABwAAAAJ3BAAAAAJzcQB+AAJzcQB+AAcAAAACdwQAAAACc3EAfgACc3EAfgAHAAAAAHcEAAAAAHhxAH4ATnEAfgB5c3EAfgACc3EAfgAHAAAAAHcEAAAAAHhxAH4ATnEAfgB5eHEAfgA0cQB+AHdxAH4AdXhxAH4AWXNxAH4AAnNxAH4ABwAAAAJ3BAAAAAJxAH4Ad3NxAH4AAnNxAH4ABwAAAAB3BAAAAAB4cQB+AFRxAH4Af3hxAH4AWXNxAH4AAnNxAH4ABwAAAAJ3BAAAAAJxAH4Af3NxAH4AAnNxAH4ABwAAAAB3BAAAAAB4cQB+AFRxAH4Ag3hxAH4AWXB4cQB+AFlzcQB+AAJzcQB+AAcAAAACdwQAAAACcQB+AHNxAH4AgXhxAH4AWXNxAH4AAnNxAH4ABwAAAAJ3BAAAAAJxAH4Ah3EAfgCFeHEAfgBZcHhxAH4AWXNxAH4AAnNxAH4ABwAAAAJ3BAAAAAJxAH4AW3EAfgB1eHEAfgBZc3EAfgACc3EAfgAHAAAAAncEAAAAAnEAfgCLcQB+AIF4cQB+AFlzcQB+AAJzcQB+AAcAAAACdwQAAAACcQB+AI1xAH4AhXhxAH4AWXB4cQB+ADRxAH4ARnEAfgBXeHEAfgBZcQB+AERxAH4AXXhxAH4AWXEAfgBCcQB+AHV4cQB+AFlxAH4AQHEAfgCBeHEAfgBZcQB+AD5xAH4AhXhxAH4AWXBzcQB+AAJzcQB+AAcAAAAAdwQAAAAAeHNxAH4AC3QAAng2cHNxAH4AAnNxAH4ABwAAAAB3BAAAAAB4cQB+AE5weA==";
    "rO0ABXNyABFqYXZhLnV0aWwuQ29sbFNlcleOq7Y6G6gRAwABSQADdGFneHAAAAAEdwQAAAAEc3IAN2lvLmdpdGh1Yi5lcmljbWVkdmV0LmpnZWEuY29yZS5yZXByZXNlbnRhdGlvbi50cmVlLlRyZWUKs7/qnQrEZQIAA0wACGNoaWxkcmVudAAQTGphdmEvdXRpbC9MaXN0O0wAB2NvbnRlbnR0ABJMamF2YS9sYW5nL09iamVjdDtMAAZwYXJlbnR0ADlMaW8vZ2l0aHViL2VyaWNtZWR2ZXQvamdlYS9jb3JlL3JlcHJlc2VudGF0aW9uL3RyZWUvVHJlZTt4cHNyABNqYXZhLnV0aWwuQXJyYXlMaXN0eIHSHZnHYZ0DAAFJAARzaXpleHAAAAACdwQAAAACc3EAfgACc3EAfgAHAAAAAHcEAAAAAHhzcgBLaW8uZ2l0aHViLmVyaWNtZWR2ZXQuamdlYS5jb3JlLnJlcHJlc2VudGF0aW9uLnRyZWUubnVtZXJpYy5FbGVtZW50JFZhcmlhYmxlAAAAAAAAAAACAAFMAARuYW1ldAASTGphdmEvbGFuZy9TdHJpbmc7eHB0AAJ4MnEAfgAGc3EAfgACc3EAfgAHAAAAAncEAAAAAnNxAH4AAnNxAH4ABwAAAAB3BAAAAAB4c3IAS2lvLmdpdGh1Yi5lcmljbWVkdmV0LmpnZWEuY29yZS5yZXByZXNlbnRhdGlvbi50cmVlLm51bWVyaWMuRWxlbWVudCRDb25zdGFudAAAAAAAAAAAAgABRAAFdmFsdWV4cAAAAAAAAAAAcQB+AA9zcQB+AAJzcQB+AAcAAAACdwQAAAACc3EAfgACc3EAfgAHAAAAAHcEAAAAAHhxAH4AFHEAfgAVc3EAfgACc3EAfgAHAAAAAncEAAAAAnNxAH4AAnNxAH4ABwAAAAB3BAAAAAB4cQB+ABRxAH4AGXNxAH4AAnNxAH4ABwAAAAJ3BAAAAAJzcQB+AAJzcQB+AAcAAAAAdwQAAAAAeHEAfgAUcQB+AB1zcQB+AAJzcQB+AAcAAAACdwQAAAACc3EAfgACc3EAfgAHAAAAAHcEAAAAAHhxAH4AFHEAfgAhc3EAfgACc3EAfgAHAAAAAHcEAAAAAHhzcQB+ABM/4AAAAAAAAHEAfgAheH5yAEtpby5naXRodWIuZXJpY21lZHZldC5qZ2VhLmNvcmUucmVwcmVzZW50YXRpb24udHJlZS5udW1lcmljLkVsZW1lbnQkT3BlcmF0b3IAAAAAAAAAABIAAHhyAA5qYXZhLmxhbmcuRW51bQAAAAAAAAAAEgAAeHB0AAhBRERJVElPTnEAfgAdeHEAfgAqcQB+ABl4cQB+ACpxAH4AFXhxAH4AKnNxAH4AAnNxAH4ABwAAAAJ3BAAAAAJzcQB+AAJzcQB+AAcAAAAAdwQAAAAAeHEAfgAncQB+ACxxAH4AFXhxAH4AKnNxAH4AAnNxAH4ABwAAAAJ3BAAAAAJzcQB+AAJzcQB+AAcAAAAAdwQAAAAAeHEAfgANcQB+ADBxAH4ALHh+cQB+ACh0AAtTVUJUUkFDVElPTnB4cQB+ACpzcQB+AAJzcQB+AAcAAAACdwQAAAACc3EAfgACc3EAfgAHAAAAAHcEAAAAAHhxAH4AFHEAfgA2cQB+AA94cQB+ADRweHEAfgA0cHNxAH4AAnNxAH4ABwAAAAJ3BAAAAAJzcQB+AAJzcQB+AAcAAAACdwQAAAACc3EAfgACc3EAfgAHAAAAAHcEAAAAAHhxAH4AFHEAfgA8c3EAfgACc3EAfgAHAAAAAHcEAAAAAHhzcQB+AAt0AAJ4NHNxAH4AAnNxAH4ABwAAAAJ3BAAAAAJzcQB+AAJzcQB+AAcAAAAAdwQAAAAAeHNxAH4AEz/wAAAAAAAAcQB+AERxAH4AQHhxAH4ANHNxAH4AAnNxAH4ABwAAAAJ3BAAAAAJxAH4ARHNxAH4AAnNxAH4ABwAAAAB3BAAAAAB4cQB+AEhzcQB+AAJzcQB+AAcAAAACdwQAAAACc3EAfgACc3EAfgAHAAAAAncEAAAAAnNxAH4AAnNxAH4ABwAAAAJ3BAAAAAJzcQB+AAJzcQB+AAcAAAACdwQAAAACc3EAfgACc3EAfgAHAAAAAHcEAAAAAHhxAH4AQnEAfgBTc3EAfgACc3EAfgAHAAAAAHcEAAAAAHhxAH4AQnEAfgBTeHEAfgA0cQB+AFFzcQB+AAJzcQB+AAcAAAAAdwQAAAAAeHEAfgBIcQB+AFF4fnEAfgAodAAOTVVMVElQTElDQVRJT05xAH4AT3NxAH4AAnNxAH4ABwAAAAB3BAAAAAB4cQB+AEhxAH4AT3hxAH4AW3EAfgBNcQB+AEt4cQB+AFtweHEAfgBbcHhxAH4ANHEAfgA6cQB+AEt4cQB+AFtwc3EAfgACc3EAfgAHAAAAAHcEAAAAAHhzcQB+AAt0AAJ4NnBzcQB+AAJzcQB+AAcAAAACdwQAAAACc3EAfgACc3EAfgAHAAAAAncEAAAAAnNxAH4AAnNxAH4ABwAAAAB3BAAAAAB4cQB+AEJxAH4AZXNxAH4AAnNxAH4ABwAAAAJ3BAAAAAJzcQB+AAJzcQB+AAcAAAAAdwQAAAAAeHNxAH4AC3QAA3gxNXEAfgBpc3EAfgACc3EAfgAHAAAAAHcEAAAAAHhxAH4AbXNxAH4AAnNxAH4ABwAAAAJ3BAAAAAJzcQB+AAJzcQB+AAcAAAACdwQAAAACc3EAfgACc3EAfgAHAAAAAHcEAAAAAHhxAH4AbXEAfgBzc3EAfgACc3EAfgAHAAAAAHcEAAAAAHhxAH4AbXEAfgBzeHEAfgA0cQB+AHFxAH4Ab3hxAH4ANHNxAH4AAnNxAH4ABwAAAAJ3BAAAAAJzcQB+AAJzcQB+AAcAAAAAdwQAAAAAeHEAfgBCcQB+AHlxAH4AcXhxAH4ANHNxAH4AAnNxAH4ABwAAAAJ3BAAAAAJxAH4AeXNxAH4AAnNxAH4ABwAAAAJ3BAAAAAJzcQB+AAJzcQB+AAcAAAAAdwQAAAAAeHEAfgBtcQB+AH9zcQB+AAJzcQB+AAcAAAAAdwQAAAAAeHEAfgBtc3EAfgACc3EAfgAHAAAAAncEAAAAAnNxAH4AAnNxAH4ABwAAAAJ3BAAAAAJzcQB+AAJzcQB+AAcAAAAAdwQAAAAAeHEAfgBtcQB+AIdzcQB+AAJzcQB+AAcAAAAAdwQAAAAAeHEAfgBtcQB+AId4cQB+ADRxAH4AhXEAfgCDeHEAfgA0c3EAfgACc3EAfgAHAAAAAncEAAAAAnNxAH4AAnNxAH4ABwAAAAB3BAAAAAB4cQB+AEJxAH4AjXEAfgCFeHEAfgA0cHhxAH4ANHNxAH4AAnNxAH4ABwAAAAJ3BAAAAAJzcQB+AAJzcQB+AAcAAAACdwQAAAACc3EAfgACc3EAfgAHAAAAAHcEAAAAAHhxAH4AQnEAfgCTc3EAfgACc3EAfgAHAAAAAncEAAAAAnNxAH4AAnNxAH4ABwAAAAB3BAAAAAB4cQB+AG1xAH4Al3NxAH4AAnNxAH4ABwAAAAB3BAAAAAB4cQB+AG1xAH4Al3hxAH4ANHEAfgCTeHEAfgA0cQB+AJFxAH4Af3hxAH4ANHB4cQB+ADRweHEAfgA0c3EAfgACc3EAfgAHAAAAAncEAAAAAnNxAH4AAnNxAH4ABwAAAAB3BAAAAAB4cQB+AG1xAH4AnXEAfgBpeHEAfgA0c3EAfgACc3EAfgAHAAAAAncEAAAAAnEAfgCdcQB+AH94cQB+ADRweHEAfgA0cQB+AGNxAH4Af3hxAH4ANHB4";
    "rO0ABXNyABFqYXZhLnV0aWwuQ29sbFNlcleOq7Y6G6gRAwABSQADdGFneHAAAAAEdwQAAAAEc3IAN2lvLmdpdGh1Yi5lcmljbWVkdmV0LmpnZWEuY29yZS5yZXByZXNlbnRhdGlvbi50cmVlLlRyZWUKs7/qnQrEZQIAA0wACGNoaWxkcmVudAAQTGphdmEvdXRpbC9MaXN0O0wAB2NvbnRlbnR0ABJMamF2YS9sYW5nL09iamVjdDtMAAZwYXJlbnR0ADlMaW8vZ2l0aHViL2VyaWNtZWR2ZXQvamdlYS9jb3JlL3JlcHJlc2VudGF0aW9uL3RyZWUvVHJlZTt4cHNyABNqYXZhLnV0aWwuQXJyYXlMaXN0eIHSHZnHYZ0DAAFJAARzaXpleHAAAAACdwQAAAACc3EAfgACc3EAfgAHAAAAAHcEAAAAAHhzcgBLaW8uZ2l0aHViLmVyaWNtZWR2ZXQuamdlYS5jb3JlLnJlcHJlc2VudGF0aW9uLnRyZWUubnVtZXJpYy5FbGVtZW50JFZhcmlhYmxlAAAAAAAAAAACAAFMAARuYW1ldAASTGphdmEvbGFuZy9TdHJpbmc7eHB0AAJ4MnEAfgAGc3EAfgACc3EAfgAHAAAAAncEAAAAAnNxAH4AAnNxAH4ABwAAAAB3BAAAAAB4c3IAS2lvLmdpdGh1Yi5lcmljbWVkdmV0LmpnZWEuY29yZS5yZXByZXNlbnRhdGlvbi50cmVlLm51bWVyaWMuRWxlbWVudCRDb25zdGFudAAAAAAAAAAAAgABRAAFdmFsdWV4cAAAAAAAAAAAcQB+AA9zcQB+AAJzcQB+AAcAAAACdwQAAAACc3EAfgACc3EAfgAHAAAAAHcEAAAAAHhxAH4AFHEAfgAVc3EAfgACc3EAfgAHAAAAAncEAAAAAnNxAH4AAnNxAH4ABwAAAAB3BAAAAAB4cQB+ABRxAH4AGXNxAH4AAnNxAH4ABwAAAAJ3BAAAAAJzcQB+AAJzcQB+AAcAAAAAdwQAAAAAeHEAfgAUcQB+AB1zcQB+AAJzcQB+AAcAAAACdwQAAAACc3EAfgACc3EAfgAHAAAAAHcEAAAAAHhxAH4AFHEAfgAhc3EAfgACc3EAfgAHAAAAAncEAAAAAnNxAH4AAnNxAH4ABwAAAAB3BAAAAAB4cQB+ABRxAH4AJXNxAH4AAnNxAH4ABwAAAAB3BAAAAAB4c3EAfgATP+AAAAAAAABxAH4AJXh+cgBLaW8uZ2l0aHViLmVyaWNtZWR2ZXQuamdlYS5jb3JlLnJlcHJlc2VudGF0aW9uLnRyZWUubnVtZXJpYy5FbGVtZW50JE9wZXJhdG9yAAAAAAAAAAASAAB4cgAOamF2YS5sYW5nLkVudW0AAAAAAAAAABIAAHhwdAAIQURESVRJT05xAH4AIXhxAH4ALnEAfgAdeHEAfgAucQB+ABl4cQB+AC5xAH4AFXhxAH4ALnNxAH4AAnNxAH4ABwAAAAJ3BAAAAAJzcQB+AAJzcQB+AAcAAAAAdwQAAAAAeHEAfgArcQB+ADBxAH4AFXhxAH4ALnNxAH4AAnNxAH4ABwAAAAJ3BAAAAAJzcQB+AAJzcQB+AAcAAAAAdwQAAAAAeHEAfgANcQB+ADRxAH4AMHh+cQB+ACx0AAtTVUJUUkFDVElPTnB4cQB+AC5zcQB+AAJzcQB+AAcAAAACdwQAAAACc3EAfgACc3EAfgAHAAAAAHcEAAAAAHhxAH4AFHEAfgA6cQB+AA94cQB+ADhweHEAfgA4cHNxAH4AAnNxAH4ABwAAAAJ3BAAAAAJzcQB+AAJzcQB+AAcAAAACdwQAAAACc3EAfgACc3EAfgAHAAAAAncEAAAAAnNxAH4AAnNxAH4ABwAAAAJ3BAAAAAJzcQB+AAJzcQB+AAcAAAACdwQAAAACc3EAfgACc3EAfgAHAAAAAHcEAAAAAHhxAH4AFHEAfgBGc3EAfgACc3EAfgAHAAAAAHcEAAAAAHhzcQB+AAt0AAJ4NHNxAH4AAnNxAH4ABwAAAAJ3BAAAAAJzcQB+AAJzcQB+AAcAAAACdwQAAAACc3EAfgACc3EAfgAHAAAAAHcEAAAAAHhxAH4AFHEAfgBQc3EAfgACc3EAfgAHAAAAAHcEAAAAAHhxAH4ATHEAfgBQeHEAfgA4cQB+AE5xAH4ASnhxAH4AOHNxAH4AAnNxAH4ABwAAAAJ3BAAAAAJxAH4ATnNxAH4AAnNxAH4ABwAAAAB3BAAAAAB4c3EAfgATP/AAAAAAAABxAH4AVnh+cQB+ACx0AA5NVUxUSVBMSUNBVElPTnNxAH4AAnNxAH4ABwAAAAJ3BAAAAAJxAH4AVnNxAH4AAnNxAH4ABwAAAAB3BAAAAAB4cQB+AFpzcQB+AAJzcQB+AAcAAAACdwQAAAACc3EAfgACc3EAfgAHAAAAAncEAAAAAnNxAH4AAnNxAH4ABwAAAAB3BAAAAAB4cQB+AExxAH4AY3NxAH4AAnNxAH4ABwAAAAB3BAAAAAB4cQB+AExxAH4AY3hxAH4AOHEAfgBhcQB+AF94cQB+AFtzcQB+AAJzcQB+AAcAAAACdwQAAAACcQB+AGFzcQB+AAJzcQB+AAcAAAAAdwQAAAAAeHEAfgBacQB+AGl4cQB+AFtzcQB+AAJzcQB+AAcAAAACdwQAAAACcQB+AGlzcQB+AAJzcQB+AAcAAAAAdwQAAAAAeHEAfgBacQB+AG14cQB+AFtweHEAfgBbc3EAfgACc3EAfgAHAAAAAncEAAAAAnEAfgBdcQB+AGt4cQB+AFtzcQB+AAJzcQB+AAcAAAACdwQAAAACcQB+AHFxAH4Ab3hxAH4AW3B4cQB+ADhxAH4ARHEAfgBYeHEAfgBbcQB+AEJxAH4AX3hxAH4AW3EAfgBAcQB+AGt4cQB+AFtxAH4APnEAfgBveHEAfgBbcHNxAH4AAnNxAH4ABwAAAAB3BAAAAAB4c3EAfgALdAACeDZwc3EAfgACc3EAfgAHAAAAAHcEAAAAAHhxAH4ATHB4";
    "rO0ABXNyABFqYXZhLnV0aWwuQ29sbFNlcleOq7Y6G6gRAwABSQADdGFneHAAAAAEdwQAAAAEc3IAN2lvLmdpdGh1Yi5lcmljbWVkdmV0LmpnZWEuY29yZS5yZXByZXNlbnRhdGlvbi50cmVlLlRyZWUKs7/qnQrEZQIAA0wACGNoaWxkcmVudAAQTGphdmEvdXRpbC9MaXN0O0wAB2NvbnRlbnR0ABJMamF2YS9sYW5nL09iamVjdDtMAAZwYXJlbnR0ADlMaW8vZ2l0aHViL2VyaWNtZWR2ZXQvamdlYS9jb3JlL3JlcHJlc2VudGF0aW9uL3RyZWUvVHJlZTt4cHNyABNqYXZhLnV0aWwuQXJyYXlMaXN0eIHSHZnHYZ0DAAFJAARzaXpleHAAAAACdwQAAAACc3EAfgACc3EAfgAHAAAAAHcEAAAAAHhzcgBLaW8uZ2l0aHViLmVyaWNtZWR2ZXQuamdlYS5jb3JlLnJlcHJlc2VudGF0aW9uLnRyZWUubnVtZXJpYy5FbGVtZW50JFZhcmlhYmxlAAAAAAAAAAACAAFMAARuYW1ldAASTGphdmEvbGFuZy9TdHJpbmc7eHB0AAJ4MnEAfgAGc3EAfgACc3EAfgAHAAAAAncEAAAAAnNxAH4AAnNxAH4ABwAAAAB3BAAAAAB4c3IAS2lvLmdpdGh1Yi5lcmljbWVkdmV0LmpnZWEuY29yZS5yZXByZXNlbnRhdGlvbi50cmVlLm51bWVyaWMuRWxlbWVudCRDb25zdGFudAAAAAAAAAAAAgABRAAFdmFsdWV4cAAAAAAAAAAAcQB+AA9zcQB+AAJzcQB+AAcAAAACdwQAAAACc3EAfgACc3EAfgAHAAAAAHcEAAAAAHhxAH4AFHEAfgAVc3EAfgACc3EAfgAHAAAAAncEAAAAAnNxAH4AAnNxAH4ABwAAAAB3BAAAAAB4cQB+ABRxAH4AGXNxAH4AAnNxAH4ABwAAAAJ3BAAAAAJzcQB+AAJzcQB+AAcAAAAAdwQAAAAAeHEAfgAUcQB+AB1zcQB+AAJzcQB+AAcAAAAAdwQAAAAAeHNxAH4AEz/gAAAAAAAAcQB+AB14fnIAS2lvLmdpdGh1Yi5lcmljbWVkdmV0LmpnZWEuY29yZS5yZXByZXNlbnRhdGlvbi50cmVlLm51bWVyaWMuRWxlbWVudCRPcGVyYXRvcgAAAAAAAAAAEgAAeHIADmphdmEubGFuZy5FbnVtAAAAAAAAAAASAAB4cHQACEFERElUSU9OcQB+ABl4cQB+ACZxAH4AFXhxAH4AJnNxAH4AAnNxAH4ABwAAAAJ3BAAAAAJzcQB+AAJzcQB+AAcAAAAAdwQAAAAAeHEAfgAjcQB+AChxAH4AFXhxAH4AJnNxAH4AAnNxAH4ABwAAAAJ3BAAAAAJzcQB+AAJzcQB+AAcAAAAAdwQAAAAAeHEAfgANcQB+ACxxAH4AKHh+cQB+ACR0AAtTVUJUUkFDVElPTnB4cQB+ACZzcQB+AAJzcQB+AAcAAAACdwQAAAACc3EAfgACc3EAfgAHAAAAAHcEAAAAAHhxAH4AI3EAfgAycQB+AA94cQB+ADBweHEAfgAwcHNxAH4AAnNxAH4ABwAAAAJ3BAAAAAJzcQB+AAJzcQB+AAcAAAACdwQAAAACc3EAfgACc3EAfgAHAAAAAncEAAAAAnNxAH4AAnNxAH4ABwAAAAB3BAAAAAB4cQB+ABRxAH4AOnNxAH4AAnNxAH4ABwAAAAB3BAAAAAB4c3EAfgALdAACeDRzcQB+AAJzcQB+AAcAAAACdwQAAAACc3EAfgACc3EAfgAHAAAAAncEAAAAAnNxAH4AAnNxAH4ABwAAAAJ3BAAAAAJzcQB+AAJzcQB+AAcAAAACdwQAAAACc3EAfgACc3EAfgAHAAAAAncEAAAAAnNxAH4AAnNxAH4ABwAAAAB3BAAAAAB4cQB+ABRxAH4ASnNxAH4AAnNxAH4ABwAAAAB3BAAAAAB4cQB+AEBxAH4ASnhxAH4AMHEAfgBIc3EAfgACc3EAfgAHAAAAAHcEAAAAAHhzcQB+ABM/8AAAAAAAAHEAfgBIeH5xAH4AJHQADk1VTFRJUExJQ0FUSU9OcQB+AEZzcQB+AAJzcQB+AAcAAAAAdwQAAAAAeHEAfgBScQB+AEZ4cQB+AFNxAH4ARHNxAH4AAnNxAH4ABwAAAAB3BAAAAAB4cQB+AFJxAH4ARHhxAH4AU3EAfgBCcQB+AD54cQB+ADBzcQB+AAJzcQB+AAcAAAACdwQAAAACcQB+AEJzcQB+AAJzcQB+AAcAAAAAdwQAAAAAeHEAfgBSc3EAfgACc3EAfgAHAAAAAncEAAAAAnNxAH4AAnNxAH4ABwAAAAB3BAAAAAB4cQB+AFJxAH4AXXEAfgBbeHEAfgBTc3EAfgACc3EAfgAHAAAAAncEAAAAAnEAfgBdc3EAfgACc3EAfgAHAAAAAHcEAAAAAHhxAH4AUnNxAH4AAnNxAH4ABwAAAAJ3BAAAAAJzcQB+AAJzcQB+AAcAAAACdwQAAAACc3EAfgACc3EAfgAHAAAAAncEAAAAAnNxAH4AAnNxAH4ABwAAAAB3BAAAAAB4cQB+ABRxAH4AaXNxAH4AAnNxAH4ABwAAAAB3BAAAAAB4cQB+AEBxAH4AaXhxAH4AMHEAfgBnc3EAfgACc3EAfgAHAAAAAncEAAAAAnNxAH4AAnNxAH4ABwAAAAJ3BAAAAAJzcQB+AAJzcQB+AAcAAAACdwQAAAACc3EAfgACc3EAfgAHAAAAAncEAAAAAnNxAH4AAnNxAH4ABwAAAAB3BAAAAAB4cQB+ABRxAH4AdXNxAH4AAnNxAH4ABwAAAAB3BAAAAAB4cQB+AEBxAH4AdXhxAH4AMHEAfgBzc3EAfgACc3EAfgAHAAAAAHcEAAAAAHhxAH4AUnEAfgBzeHEAfgBTcQB+AHFzcQB+AAJzcQB+AAcAAAAAdwQAAAAAeHEAfgBScQB+AHF4cQB+AFNxAH4Ab3NxAH4AAnNxAH4ABwAAAAB3BAAAAAB4cQB+AFJxAH4Ab3hxAH4AU3EAfgBneHEAfgBTcQB+AGVxAH4AY3hxAH4AU3B4cQB+AFNweHEAfgBTc3EAfgACc3EAfgAHAAAAAncEAAAAAnEAfgBZcQB+AGN4cQB+AFNweHEAfgAwcQB+ADhxAH4AW3hxAH4AU3EAfgA2cQB+AGN4cQB+AFNwc3EAfgACc3EAfgAHAAAAAHcEAAAAAHhzcQB+AAt0AAJ4NnBzcQB+AAJzcQB+AAcAAAACdwQAAAACc3EAfgACc3EAfgAHAAAAAHcEAAAAAHhxAH4AQHEAfgCHc3EAfgACc3EAfgAHAAAAAncEAAAAAnNxAH4AAnNxAH4ABwAAAAB3BAAAAAB4c3EAfgALdAADeDE1cQB+AItzcQB+AAJzcQB+AAcAAAAAdwQAAAAAeHEAfgCPc3EAfgACc3EAfgAHAAAAAncEAAAAAnNxAH4AAnNxAH4ABwAAAAJ3BAAAAAJzcQB+AAJzcQB+AAcAAAAAdwQAAAAAeHEAfgCPcQB+AJVzcQB+AAJzcQB+AAcAAAAAdwQAAAAAeHEAfgCPcQB+AJV4cQB+ADBxAH4Ak3EAfgCReHEAfgAwc3EAfgACc3EAfgAHAAAAAncEAAAAAnNxAH4AAnNxAH4ABwAAAAB3BAAAAAB4cQB+AEBxAH4Am3EAfgCTeHEAfgAwcHhxAH4AMHNxAH4AAnNxAH4ABwAAAAJ3BAAAAAJzcQB+AAJzcQB+AAcAAAACdwQAAAACc3EAfgACc3EAfgAHAAAAAHcEAAAAAHhxAH4AQHEAfgChc3EAfgACc3EAfgAHAAAAAncEAAAAAnNxAH4AAnNxAH4ABwAAAAB3BAAAAAB4cQB+AI9xAH4ApXNxAH4AAnNxAH4ABwAAAAB3BAAAAAB4cQB+AI9xAH4ApXhxAH4AMHEAfgCheHEAfgAwcQB+AJ9xAH4Ai3hxAH4AMHB4cQB+ADBweA==";
    "rO0ABXNyABFqYXZhLnV0aWwuQ29sbFNlcleOq7Y6G6gRAwABSQADdGFneHAAAAAEdwQAAAAEc3IAN2lvLmdpdGh1Yi5lcmljbWVkdmV0LmpnZWEuY29yZS5yZXByZXNlbnRhdGlvbi50cmVlLlRyZWUKs7/qnQrEZQIAA0wACGNoaWxkcmVudAAQTGphdmEvdXRpbC9MaXN0O0wAB2NvbnRlbnR0ABJMamF2YS9sYW5nL09iamVjdDtMAAZwYXJlbnR0ADlMaW8vZ2l0aHViL2VyaWNtZWR2ZXQvamdlYS9jb3JlL3JlcHJlc2VudGF0aW9uL3RyZWUvVHJlZTt4cHNyABNqYXZhLnV0aWwuQXJyYXlMaXN0eIHSHZnHYZ0DAAFJAARzaXpleHAAAAACdwQAAAACc3EAfgACc3EAfgAHAAAAAHcEAAAAAHhzcgBLaW8uZ2l0aHViLmVyaWNtZWR2ZXQuamdlYS5jb3JlLnJlcHJlc2VudGF0aW9uLnRyZWUubnVtZXJpYy5FbGVtZW50JFZhcmlhYmxlAAAAAAAAAAACAAFMAARuYW1ldAASTGphdmEvbGFuZy9TdHJpbmc7eHB0AAJ4MnEAfgAGc3EAfgACc3EAfgAHAAAAAncEAAAAAnNxAH4AAnNxAH4ABwAAAAB3BAAAAAB4c3IAS2lvLmdpdGh1Yi5lcmljbWVkdmV0LmpnZWEuY29yZS5yZXByZXNlbnRhdGlvbi50cmVlLm51bWVyaWMuRWxlbWVudCRDb25zdGFudAAAAAAAAAAAAgABRAAFdmFsdWV4cAAAAAAAAAAAcQB+AA9zcQB+AAJzcQB+AAcAAAACdwQAAAACc3EAfgACc3EAfgAHAAAAAHcEAAAAAHhxAH4AFHEAfgAVc3EAfgACc3EAfgAHAAAAAncEAAAAAnNxAH4AAnNxAH4ABwAAAAB3BAAAAAB4cQB+ABRxAH4AGXNxAH4AAnNxAH4ABwAAAAB3BAAAAAB4c3EAfgATP+AAAAAAAABxAH4AGXh+cgBLaW8uZ2l0aHViLmVyaWNtZWR2ZXQuamdlYS5jb3JlLnJlcHJlc2VudGF0aW9uLnRyZWUubnVtZXJpYy5FbGVtZW50JE9wZXJhdG9yAAAAAAAAAAASAAB4cgAOamF2YS5sYW5nLkVudW0AAAAAAAAAABIAAHhwdAAIQURESVRJT05xAH4AFXhxAH4AInNxAH4AAnNxAH4ABwAAAAJ3BAAAAAJzcQB+AAJzcQB+AAcAAAACdwQAAAACc3EAfgACc3EAfgAHAAAAAHcEAAAAAHhxAH4AFHEAfgAmc3EAfgACc3EAfgAHAAAAAncEAAAAAnNxAH4AAnNxAH4ABwAAAAB3BAAAAAB4cQB+ABRxAH4AKnNxAH4AAnNxAH4ABwAAAAB3BAAAAAB4cQB+AB9xAH4AKnhxAH4AInEAfgAmeHEAfgAicQB+ACRxAH4AFXhxAH4AInNxAH4AAnNxAH4ABwAAAAJ3BAAAAAJzcQB+AAJzcQB+AAcAAAAAdwQAAAAAeHEAfgANcQB+ADBxAH4AJHh+cQB+ACB0AAtTVUJUUkFDVElPTnB4cQB+ACJzcQB+AAJzcQB+AAcAAAACdwQAAAACc3EAfgACc3EAfgAHAAAAAHcEAAAAAHhxAH4AFHEAfgA2cQB+AA94cQB+ADRweHEAfgA0cHNxAH4AAnNxAH4ABwAAAAJ3BAAAAAJzcQB+AAJzcQB+AAcAAAACdwQAAAACc3EAfgACc3EAfgAHAAAAAncEAAAAAnNxAH4AAnNxAH4ABwAAAAB3BAAAAAB4cQB+ABRxAH4APnNxAH4AAnNxAH4ABwAAAAB3BAAAAAB4c3EAfgALdAACeDRzcQB+AAJzcQB+AAcAAAACdwQAAAACc3EAfgACc3EAfgAHAAAAAncEAAAAAnNxAH4AAnNxAH4ABwAAAAJ3BAAAAAJzcQB+AAJzcQB+AAcAAAACdwQAAAACc3EAfgACc3EAfgAHAAAAAncEAAAAAnNxAH4AAnNxAH4ABwAAAAB3BAAAAAB4cQB+ABRxAH4ATnNxAH4AAnNxAH4ABwAAAAB3BAAAAAB4cQB+AERxAH4ATnhxAH4ANHEAfgBMc3EAfgACc3EAfgAHAAAAAHcEAAAAAHhzcQB+ABM/8AAAAAAAAHEAfgBMeH5xAH4AIHQADk1VTFRJUExJQ0FUSU9OcQB+AEpzcQB+AAJzcQB+AAcAAAAAdwQAAAAAeHEAfgBWcQB+AEp4cQB+AFdxAH4ASHNxAH4AAnNxAH4ABwAAAAB3BAAAAAB4cQB+AFZxAH4ASHhxAH4AV3EAfgBGcQB+AEJ4cQB+ADRzcQB+AAJzcQB+AAcAAAACdwQAAAACcQB+AEZzcQB+AAJzcQB+AAcAAAAAdwQAAAAAeHEAfgBWc3EAfgACc3EAfgAHAAAAAncEAAAAAnNxAH4AAnNxAH4ABwAAAAB3BAAAAAB4cQB+AFZxAH4AYXEAfgBfeHEAfgBXc3EAfgACc3EAfgAHAAAAAncEAAAAAnEAfgBhc3EAfgACc3EAfgAHAAAAAHcEAAAAAHhxAH4AVnNxAH4AAnNxAH4ABwAAAAJ3BAAAAAJzcQB+AAJzcQB+AAcAAAACdwQAAAACc3EAfgACc3EAfgAHAAAAAncEAAAAAnNxAH4AAnNxAH4ABwAAAAB3BAAAAAB4cQB+ABRxAH4AbXNxAH4AAnNxAH4ABwAAAAB3BAAAAAB4cQB+AERxAH4AbXhxAH4ANHEAfgBrc3EAfgACc3EAfgAHAAAAAncEAAAAAnNxAH4AAnNxAH4ABwAAAAJ3BAAAAAJzcQB+AAJzcQB+AAcAAAACdwQAAAACc3EAfgACc3EAfgAHAAAAAncEAAAAAnNxAH4AAnNxAH4ABwAAAAB3BAAAAAB4cQB+ABRxAH4AeXNxAH4AAnNxAH4ABwAAAAB3BAAAAAB4cQB+AERxAH4AeXhxAH4ANHEAfgB3c3EAfgACc3EAfgAHAAAAAHcEAAAAAHhxAH4AVnEAfgB3eHEAfgBXcQB+AHVzcQB+AAJzcQB+AAcAAAAAdwQAAAAAeHEAfgBWcQB+AHV4cQB+AFdxAH4Ac3NxAH4AAnNxAH4ABwAAAAB3BAAAAAB4cQB+AFZxAH4Ac3hxAH4AV3EAfgBreHEAfgBXcQB+AGlxAH4AZ3hxAH4AV3B4cQB+AFdweHEAfgBXc3EAfgACc3EAfgAHAAAAAncEAAAAAnEAfgBdcQB+AGd4cQB+AFdweHEAfgA0cQB+ADxxAH4AX3hxAH4AV3EAfgA6cQB+AGd4cQB+AFdwc3EAfgACc3EAfgAHAAAAAHcEAAAAAHhzcQB+AAt0AAJ4NnBzcQB+AAJzcQB+AAcAAAAAdwQAAAAAeHEAfgBEcHg=";
    "rO0ABXNyABFqYXZhLnV0aWwuQ29sbFNlcleOq7Y6G6gRAwABSQADdGFneHAAAAAEdwQAAAAEc3IAN2lvLmdpdGh1Yi5lcmljbWVkdmV0LmpnZWEuY29yZS5yZXByZXNlbnRhdGlvbi50cmVlLlRyZWUKs7/qnQrEZQIAA0wACGNoaWxkcmVudAAQTGphdmEvdXRpbC9MaXN0O0wAB2NvbnRlbnR0ABJMamF2YS9sYW5nL09iamVjdDtMAAZwYXJlbnR0ADlMaW8vZ2l0aHViL2VyaWNtZWR2ZXQvamdlYS9jb3JlL3JlcHJlc2VudGF0aW9uL3RyZWUvVHJlZTt4cHNyABNqYXZhLnV0aWwuQXJyYXlMaXN0eIHSHZnHYZ0DAAFJAARzaXpleHAAAAACdwQAAAACc3EAfgACc3EAfgAHAAAAAHcEAAAAAHhzcgBLaW8uZ2l0aHViLmVyaWNtZWR2ZXQuamdlYS5jb3JlLnJlcHJlc2VudGF0aW9uLnRyZWUubnVtZXJpYy5FbGVtZW50JFZhcmlhYmxlAAAAAAAAAAACAAFMAARuYW1ldAASTGphdmEvbGFuZy9TdHJpbmc7eHB0AAJ4MnEAfgAGc3EAfgACc3EAfgAHAAAAAncEAAAAAnNxAH4AAnNxAH4ABwAAAAB3BAAAAAB4c3IAS2lvLmdpdGh1Yi5lcmljbWVkdmV0LmpnZWEuY29yZS5yZXByZXNlbnRhdGlvbi50cmVlLm51bWVyaWMuRWxlbWVudCRDb25zdGFudAAAAAAAAAAAAgABRAAFdmFsdWV4cAAAAAAAAAAAcQB+AA9zcQB+AAJzcQB+AAcAAAACdwQAAAACc3EAfgACc3EAfgAHAAAAAHcEAAAAAHhxAH4AFHEAfgAVc3EAfgACc3EAfgAHAAAAAncEAAAAAnNxAH4AAnNxAH4ABwAAAAB3BAAAAAB4cQB+ABRxAH4AGXNxAH4AAnNxAH4ABwAAAAJ3BAAAAAJzcQB+AAJzcQB+AAcAAAAAdwQAAAAAeHEAfgAUcQB+AB1zcQB+AAJzcQB+AAcAAAACdwQAAAACc3EAfgACc3EAfgAHAAAAAHcEAAAAAHhxAH4AFHEAfgAhc3EAfgACc3EAfgAHAAAAAHcEAAAAAHhzcQB+ABM/4AAAAAAAAHEAfgAheH5yAEtpby5naXRodWIuZXJpY21lZHZldC5qZ2VhLmNvcmUucmVwcmVzZW50YXRpb24udHJlZS5udW1lcmljLkVsZW1lbnQkT3BlcmF0b3IAAAAAAAAAABIAAHhyAA5qYXZhLmxhbmcuRW51bQAAAAAAAAAAEgAAeHB0AAhBRERJVElPTnEAfgAdeHEAfgAqcQB+ABl4cQB+ACpxAH4AFXhxAH4AKnNxAH4AAnNxAH4ABwAAAAJ3BAAAAAJzcQB+AAJzcQB+AAcAAAAAdwQAAAAAeHEAfgAncQB+ACxxAH4AFXhxAH4AKnNxAH4AAnNxAH4ABwAAAAJ3BAAAAAJzcQB+AAJzcQB+AAcAAAAAdwQAAAAAeHEAfgANcQB+ADBxAH4ALHh+cQB+ACh0AAtTVUJUUkFDVElPTnB4cQB+ACpzcQB+AAJzcQB+AAcAAAACdwQAAAACc3EAfgACc3EAfgAHAAAAAHcEAAAAAHhxAH4AFHEAfgA2cQB+AA94cQB+ADRweHEAfgA0cHNxAH4AAnNxAH4ABwAAAAJ3BAAAAAJzcQB+AAJzcQB+AAcAAAACdwQAAAACc3EAfgACc3EAfgAHAAAAAncEAAAAAnNxAH4AAnNxAH4ABwAAAAJ3BAAAAAJzcQB+AAJzcQB+AAcAAAACdwQAAAACc3EAfgACc3EAfgAHAAAAAncEAAAAAnNxAH4AAnNxAH4ABwAAAAB3BAAAAAB4cQB+ABRxAH4ARHNxAH4AAnNxAH4ABwAAAAB3BAAAAAB4c3EAfgALdAACeDRzcQB+AAJzcQB+AAcAAAACdwQAAAACc3EAfgACc3EAfgAHAAAAAHcEAAAAAHhzcQB+ABM/8AAAAAAAAHEAfgBMcQB+AEh4cQB+ADRzcQB+AAJzcQB+AAcAAAACdwQAAAACcQB+AExzcQB+AAJzcQB+AAcAAAAAdwQAAAAAeHEAfgBQc3EAfgACc3EAfgAHAAAAAncEAAAAAnNxAH4AAnNxAH4ABwAAAAB3BAAAAAB4cQB+ABRxAH4AVXEAfgBTeH5xAH4AKHQADk1VTFRJUExJQ0FUSU9Oc3EAfgACc3EAfgAHAAAAAncEAAAAAnEAfgBVc3EAfgACc3EAfgAHAAAAAHcEAAAAAHhxAH4AUHEAfgBbeHEAfgBZc3EAfgACc3EAfgAHAAAAAncEAAAAAnEAfgBbc3EAfgACc3EAfgAHAAAAAHcEAAAAAHhxAH4AUHEAfgBfeHEAfgBZc3EAfgACc3EAfgAHAAAAAncEAAAAAnEAfgBfc3EAfgACc3EAfgAHAAAAAHcEAAAAAHhxAH4AUHNxAH4AAnNxAH4ABwAAAAJ3BAAAAAJzcQB+AAJzcQB+AAcAAAAAdwQAAAAAeHEAfgBQcQB+AGdxAH4AZXhxAH4AWXNxAH4AAnNxAH4ABwAAAAJ3BAAAAAJxAH4AZ3NxAH4AAnNxAH4ABwAAAAB3BAAAAAB4cQB+AFBzcQB+AAJzcQB+AAcAAAACdwQAAAACc3EAfgACc3EAfgAHAAAAAncEAAAAAnNxAH4AAnNxAH4ABwAAAAJ3BAAAAAJzcQB+AAJzcQB+AAcAAAAAdwQAAAAAeHEAfgAUcQB+AHNzcQB+AAJzcQB+AAcAAAAAdwQAAAAAeHEAfgBKcQB+AHN4cQB+ADRxAH4AcXNxAH4AAnNxAH4ABwAAAAJ3BAAAAAJzcQB+AAJzcQB+AAcAAAACdwQAAAACc3EAfgACc3EAfgAHAAAAAncEAAAAAnNxAH4AAnNxAH4ABwAAAAJ3BAAAAAJzcQB+AAJzcQB+AAcAAAAAdwQAAAAAeHEAfgAUcQB+AH9zcQB+AAJzcQB+AAcAAAAAdwQAAAAAeHEAfgBKcQB+AH94cQB+ADRxAH4AfXNxAH4AAnNxAH4ABwAAAAB3BAAAAAB4cQB+AFBxAH4AfXhxAH4AWXEAfgB7c3EAfgACc3EAfgAHAAAAAHcEAAAAAHhxAH4AUHEAfgB7eHEAfgBZcQB+AHlzcQB+AAJzcQB+AAcAAAAAdwQAAAAAeHEAfgBQcQB+AHl4cQB+AFlxAH4AcXhxAH4AWXEAfgBvcQB+AG14cQB+AFlweHEAfgBZcHhxAH4AWXNxAH4AAnNxAH4ABwAAAAJ3BAAAAAJxAH4AY3EAfgBteHEAfgBZcHhxAH4AWXNxAH4AAnNxAH4ABwAAAAJ3BAAAAAJxAH4AUXEAfgBdeHEAfgBZc3EAfgACc3EAfgAHAAAAAncEAAAAAnEAfgCNcQB+AGF4cQB+AFlzcQB+AAJzcQB+AAcAAAACdwQAAAACcQB+AI9xAH4AZXhxAH4AWXNxAH4AAnNxAH4ABwAAAAJ3BAAAAAJxAH4AkXEAfgBteHEAfgBZcHhxAH4ANHEAfgBCcQB+AFN4cQB+AFlxAH4AQHEAfgBdeHEAfgBZcQB+AD5xAH4AYXhxAH4AWXEAfgA8cQB+AGV4cQB+AFlxAH4AOnEAfgBteHEAfgBZcHNxAH4AAnNxAH4ABwAAAAB3BAAAAAB4c3EAfgALdAACeDZwc3EAfgACc3EAfgAHAAAAAncEAAAAAnNxAH4AAnNxAH4ABwAAAAJ3BAAAAAJzcQB+AAJzcQB+AAcAAAAAdwQAAAAAeHEAfgBKcQB+AJtzcQB+AAJzcQB+AAcAAAACdwQAAAACc3EAfgACc3EAfgAHAAAAAHcEAAAAAHhzcQB+AAt0AAN4MTVxAH4An3NxAH4AAnNxAH4ABwAAAAB3BAAAAAB4cQB+AKNzcQB+AAJzcQB+AAcAAAACdwQAAAACc3EAfgACc3EAfgAHAAAAAHcEAAAAAHhxAH4ASnEAfgCncQB+AKV4cQB+ADRzcQB+AAJzcQB+AAcAAAACdwQAAAACc3EAfgACc3EAfgAHAAAAAHcEAAAAAHhxAH4ASnEAfgCrcQB+AKd4cQB+ADRzcQB+AAJzcQB+AAcAAAACdwQAAAACcQB+AKtzcQB+AAJzcQB+AAcAAAACdwQAAAACc3EAfgACc3EAfgAHAAAAAHcEAAAAAHhxAH4Ao3EAfgCxc3EAfgACc3EAfgAHAAAAAHcEAAAAAHhxAH4Ao3EAfgCxeHEAfgA0c3EAfgACc3EAfgAHAAAAAncEAAAAAnNxAH4AAnNxAH4ABwAAAAJ3BAAAAAJzcQB+AAJzcQB+AAcAAAAAdwQAAAAAeHEAfgBKcQB+ALlzcQB+AAJzcQB+AAcAAAAAdwQAAAAAeHEAfgBKcQB+ALl4cQB+ADRxAH4At3EAfgCxeHEAfgA0cHhxAH4ANHB4cQB+ADRzcQB+AAJzcQB+AAcAAAACdwQAAAACc3EAfgACc3EAfgAHAAAAAHcEAAAAAHhxAH4Ao3EAfgC/cQB+AJ94cQB+ADRzcQB+AAJzcQB+AAcAAAACdwQAAAACcQB+AL9xAH4AsXhxAH4ANHB4cQB+ADRxAH4AmXEAfgCxeHEAfgA0cHg=";
    "rO0ABXNyABFqYXZhLnV0aWwuQ29sbFNlcleOq7Y6G6gRAwABSQADdGFneHAAAAAEdwQAAAAEc3IAN2lvLmdpdGh1Yi5lcmljbWVkdmV0LmpnZWEuY29yZS5yZXByZXNlbnRhdGlvbi50cmVlLlRyZWUKs7/qnQrEZQIAA0wACGNoaWxkcmVudAAQTGphdmEvdXRpbC9MaXN0O0wAB2NvbnRlbnR0ABJMamF2YS9sYW5nL09iamVjdDtMAAZwYXJlbnR0ADlMaW8vZ2l0aHViL2VyaWNtZWR2ZXQvamdlYS9jb3JlL3JlcHJlc2VudGF0aW9uL3RyZWUvVHJlZTt4cHNyABNqYXZhLnV0aWwuQXJyYXlMaXN0eIHSHZnHYZ0DAAFJAARzaXpleHAAAAACdwQAAAACc3EAfgACc3EAfgAHAAAAAHcEAAAAAHhzcgBLaW8uZ2l0aHViLmVyaWNtZWR2ZXQuamdlYS5jb3JlLnJlcHJlc2VudGF0aW9uLnRyZWUubnVtZXJpYy5FbGVtZW50JFZhcmlhYmxlAAAAAAAAAAACAAFMAARuYW1ldAASTGphdmEvbGFuZy9TdHJpbmc7eHB0AAJ4MnEAfgAGc3EAfgACc3EAfgAHAAAAAncEAAAAAnNxAH4AAnNxAH4ABwAAAAB3BAAAAAB4c3IAS2lvLmdpdGh1Yi5lcmljbWVkdmV0LmpnZWEuY29yZS5yZXByZXNlbnRhdGlvbi50cmVlLm51bWVyaWMuRWxlbWVudCRDb25zdGFudAAAAAAAAAAAAgABRAAFdmFsdWV4cAAAAAAAAAAAcQB+AA9zcQB+AAJzcQB+AAcAAAACdwQAAAACc3EAfgACc3EAfgAHAAAAAHcEAAAAAHhxAH4AFHEAfgAVc3EAfgACc3EAfgAHAAAAAncEAAAAAnNxAH4AAnNxAH4ABwAAAAB3BAAAAAB4cQB+ABRxAH4AGXNxAH4AAnNxAH4ABwAAAAJ3BAAAAAJzcQB+AAJzcQB+AAcAAAAAdwQAAAAAeHEAfgAUcQB+AB1zcQB+AAJzcQB+AAcAAAACdwQAAAACc3EAfgACc3EAfgAHAAAAAHcEAAAAAHhxAH4AFHEAfgAhc3EAfgACc3EAfgAHAAAAAHcEAAAAAHhzcQB+ABM/4AAAAAAAAHEAfgAheH5yAEtpby5naXRodWIuZXJpY21lZHZldC5qZ2VhLmNvcmUucmVwcmVzZW50YXRpb24udHJlZS5udW1lcmljLkVsZW1lbnQkT3BlcmF0b3IAAAAAAAAAABIAAHhyAA5qYXZhLmxhbmcuRW51bQAAAAAAAAAAEgAAeHB0AAhBRERJVElPTnEAfgAdeHEAfgAqcQB+ABl4cQB+ACpxAH4AFXhxAH4AKnNxAH4AAnNxAH4ABwAAAAJ3BAAAAAJzcQB+AAJzcQB+AAcAAAAAdwQAAAAAeHEAfgAncQB+ACxxAH4AFXhxAH4AKnNxAH4AAnNxAH4ABwAAAAJ3BAAAAAJzcQB+AAJzcQB+AAcAAAAAdwQAAAAAeHEAfgANcQB+ADBxAH4ALHh+cQB+ACh0AAtTVUJUUkFDVElPTnB4cQB+ACpzcQB+AAJzcQB+AAcAAAACdwQAAAACc3EAfgACc3EAfgAHAAAAAHcEAAAAAHhxAH4AFHEAfgA2cQB+AA94cQB+ADRweHEAfgA0cHNxAH4AAnNxAH4ABwAAAAJ3BAAAAAJzcQB+AAJzcQB+AAcAAAAAdwQAAAAAeHEAfgAUcQB+ADpzcQB+AAJzcQB+AAcAAAAAdwQAAAAAeHNxAH4AC3QAAng0c3EAfgACc3EAfgAHAAAAAncEAAAAAnNxAH4AAnNxAH4ABwAAAAB3BAAAAAB4c3EAfgATP/AAAAAAAABxAH4AQnEAfgA+eHEAfgA0cHhxAH4ANHBzcQB+AAJzcQB+AAcAAAAAdwQAAAAAeHNxAH4AC3QAAng2cHNxAH4AAnNxAH4ABwAAAAB3BAAAAAB4cQB+AEBweA==";
    "rO0ABXNyABFqYXZhLnV0aWwuQ29sbFNlcleOq7Y6G6gRAwABSQADdGFneHAAAAAEdwQAAAAEc3IAN2lvLmdpdGh1Yi5lcmljbWVkdmV0LmpnZWEuY29yZS5yZXByZXNlbnRhdGlvbi50cmVlLlRyZWUKs7/qnQrEZQIAA0wACGNoaWxkcmVudAAQTGphdmEvdXRpbC9MaXN0O0wAB2NvbnRlbnR0ABJMamF2YS9sYW5nL09iamVjdDtMAAZwYXJlbnR0ADlMaW8vZ2l0aHViL2VyaWNtZWR2ZXQvamdlYS9jb3JlL3JlcHJlc2VudGF0aW9uL3RyZWUvVHJlZTt4cHNyABNqYXZhLnV0aWwuQXJyYXlMaXN0eIHSHZnHYZ0DAAFJAARzaXpleHAAAAACdwQAAAACc3EAfgACc3EAfgAHAAAAAHcEAAAAAHhzcgBLaW8uZ2l0aHViLmVyaWNtZWR2ZXQuamdlYS5jb3JlLnJlcHJlc2VudGF0aW9uLnRyZWUubnVtZXJpYy5FbGVtZW50JFZhcmlhYmxlAAAAAAAAAAACAAFMAARuYW1ldAASTGphdmEvbGFuZy9TdHJpbmc7eHB0AAJ4MnEAfgAGc3EAfgACc3EAfgAHAAAAAncEAAAAAnNxAH4AAnNxAH4ABwAAAAB3BAAAAAB4c3IAS2lvLmdpdGh1Yi5lcmljbWVkdmV0LmpnZWEuY29yZS5yZXByZXNlbnRhdGlvbi50cmVlLm51bWVyaWMuRWxlbWVudCRDb25zdGFudAAAAAAAAAAAAgABRAAFdmFsdWV4cAAAAAAAAAAAcQB+AA9zcQB+AAJzcQB+AAcAAAACdwQAAAACc3EAfgACc3EAfgAHAAAAAHcEAAAAAHhxAH4AFHEAfgAVc3EAfgACc3EAfgAHAAAAAHcEAAAAAHhzcQB+ABM/4AAAAAAAAHEAfgAVeH5yAEtpby5naXRodWIuZXJpY21lZHZldC5qZ2VhLmNvcmUucmVwcmVzZW50YXRpb24udHJlZS5udW1lcmljLkVsZW1lbnQkT3BlcmF0b3IAAAAAAAAAABIAAHhyAA5qYXZhLmxhbmcuRW51bQAAAAAAAAAAEgAAeHB0AAhBRERJVElPTnNxAH4AAnNxAH4ABwAAAAJ3BAAAAAJzcQB+AAJzcQB+AAcAAAACdwQAAAACc3EAfgACc3EAfgAHAAAAAHcEAAAAAHhxAH4ADXEAfgAic3EAfgACc3EAfgAHAAAAAncEAAAAAnNxAH4AAnNxAH4ABwAAAAB3BAAAAAB4cQB+ABRxAH4AJnNxAH4AAnNxAH4ABwAAAAJ3BAAAAAJzcQB+AAJzcQB+AAcAAAAAdwQAAAAAeHEAfgAUcQB+ACpzcQB+AAJzcQB+AAcAAAACdwQAAAACc3EAfgACc3EAfgAHAAAAAHcEAAAAAHhxAH4AFHEAfgAuc3EAfgACc3EAfgAHAAAAAHcEAAAAAHhxAH4AG3EAfgAueHEAfgAecQB+ACp4cQB+AB5xAH4AJnhxAH4AHnEAfgAieH5xAH4AHHQAC1NVQlRSQUNUSU9OcQB+ACBxAH4AFXhxAH4AHnNxAH4AAnNxAH4ABwAAAAJ3BAAAAAJzcQB+AAJzcQB+AAcAAAAAdwQAAAAAeHEAfgANcQB+ADZxAH4AIHhxAH4ANHB4cQB+AB5zcQB+AAJzcQB+AAcAAAACdwQAAAACc3EAfgACc3EAfgAHAAAAAHcEAAAAAHhxAH4AFHEAfgA6cQB+AA94cQB+ADRweHEAfgA0cHNxAH4AAnNxAH4ABwAAAAJ3BAAAAAJzcQB+AAJzcQB+AAcAAAACdwQAAAACc3EAfgACc3EAfgAHAAAAAncEAAAAAnNxAH4AAnNxAH4ABwAAAAJ3BAAAAAJzcQB+AAJzcQB+AAcAAAACdwQAAAACc3EAfgACc3EAfgAHAAAAAHcEAAAAAHhxAH4AFHEAfgBGc3EAfgACc3EAfgAHAAAAAHcEAAAAAHhzcQB+AAt0AAJ4NHNxAH4AAnNxAH4ABwAAAAJ3BAAAAAJzcQB+AAJzcQB+AAcAAAACdwQAAAACc3EAfgACc3EAfgAHAAAAAHcEAAAAAHhxAH4AFHEAfgBQc3EAfgACc3EAfgAHAAAAAHcEAAAAAHhxAH4ATHEAfgBQeHEAfgA0cQB+AE5xAH4ASnhxAH4ANHNxAH4AAnNxAH4ABwAAAAJ3BAAAAAJxAH4ATnNxAH4AAnNxAH4ABwAAAAB3BAAAAAB4c3EAfgATP/AAAAAAAABxAH4AVnh+cQB+ABx0AA5NVUxUSVBMSUNBVElPTnNxAH4AAnNxAH4ABwAAAAJ3BAAAAAJxAH4AVnNxAH4AAnNxAH4ABwAAAAB3BAAAAAB4cQB+AFpzcQB+AAJzcQB+AAcAAAACdwQAAAACc3EAfgACc3EAfgAHAAAAAncEAAAAAnNxAH4AAnNxAH4ABwAAAAB3BAAAAAB4cQB+AExxAH4AY3NxAH4AAnNxAH4ABwAAAAB3BAAAAAB4cQB+AExxAH4AY3hxAH4ANHEAfgBhcQB+AF94cQB+AFtzcQB+AAJzcQB+AAcAAAACdwQAAAACcQB+AGFzcQB+AAJzcQB+AAcAAAAAdwQAAAAAeHEAfgBacQB+AGl4cQB+AFtzcQB+AAJzcQB+AAcAAAACdwQAAAACcQB+AGlzcQB+AAJzcQB+AAcAAAAAdwQAAAAAeHEAfgBacQB+AG14cQB+AFtweHEAfgBbc3EAfgACc3EAfgAHAAAAAncEAAAAAnEAfgBdcQB+AGt4cQB+AFtzcQB+AAJzcQB+AAcAAAACdwQAAAACcQB+AHFxAH4Ab3hxAH4AW3B4cQB+ADRxAH4ARHEAfgBYeHEAfgBbcQB+AEJxAH4AX3hxAH4AW3EAfgBAcQB+AGt4cQB+AFtxAH4APnEAfgBveHEAfgBbcHNxAH4AAnNxAH4ABwAAAAB3BAAAAAB4c3EAfgALdAACeDZwc3EAfgACc3EAfgAHAAAAAncEAAAAAnNxAH4AAnNxAH4ABwAAAAJ3BAAAAAJzcQB+AAJzcQB+AAcAAAAAdwQAAAAAeHEAfgBMcQB+AHtzcQB+AAJzcQB+AAcAAAACdwQAAAACc3EAfgACc3EAfgAHAAAAAHcEAAAAAHhzcQB+AAt0AAN4MTVxAH4Af3NxAH4AAnNxAH4ABwAAAAB3BAAAAAB4cQB+AINzcQB+AAJzcQB+AAcAAAACdwQAAAACc3EAfgACc3EAfgAHAAAAAHcEAAAAAHhxAH4ATHEAfgCHcQB+AIV4cQB+ADRzcQB+AAJzcQB+AAcAAAACdwQAAAACc3EAfgACc3EAfgAHAAAAAHcEAAAAAHhxAH4ATHEAfgCLcQB+AId4cQB+ADRzcQB+AAJzcQB+AAcAAAACdwQAAAACcQB+AItzcQB+AAJzcQB+AAcAAAACdwQAAAACc3EAfgACc3EAfgAHAAAAAHcEAAAAAHhxAH4Ag3EAfgCRc3EAfgACc3EAfgAHAAAAAHcEAAAAAHhxAH4Ag3EAfgCReHEAfgA0c3EAfgACc3EAfgAHAAAAAncEAAAAAnNxAH4AAnNxAH4ABwAAAAJ3BAAAAAJzcQB+AAJzcQB+AAcAAAAAdwQAAAAAeHEAfgBMcQB+AJlzcQB+AAJzcQB+AAcAAAAAdwQAAAAAeHEAfgBMcQB+AJl4cQB+ADRxAH4Al3EAfgCReHEAfgA0cHhxAH4ANHB4cQB+ADRzcQB+AAJzcQB+AAcAAAACdwQAAAACc3EAfgACc3EAfgAHAAAAAHcEAAAAAHhxAH4Ag3EAfgCfcQB+AH94cQB+ADRzcQB+AAJzcQB+AAcAAAACdwQAAAACcQB+AJ9xAH4AkXhxAH4ANHB4cQB+ADRxAH4AeXEAfgCReHEAfgA0cHg=";
    "rO0ABXNyABFqYXZhLnV0aWwuQ29sbFNlcleOq7Y6G6gRAwABSQADdGFneHAAAAAEdwQAAAAEc3IAN2lvLmdpdGh1Yi5lcmljbWVkdmV0LmpnZWEuY29yZS5yZXByZXNlbnRhdGlvbi50cmVlLlRyZWUKs7/qnQrEZQIAA0wACGNoaWxkcmVudAAQTGphdmEvdXRpbC9MaXN0O0wAB2NvbnRlbnR0ABJMamF2YS9sYW5nL09iamVjdDtMAAZwYXJlbnR0ADlMaW8vZ2l0aHViL2VyaWNtZWR2ZXQvamdlYS9jb3JlL3JlcHJlc2VudGF0aW9uL3RyZWUvVHJlZTt4cHNyABNqYXZhLnV0aWwuQXJyYXlMaXN0eIHSHZnHYZ0DAAFJAARzaXpleHAAAAACdwQAAAACc3EAfgACc3EAfgAHAAAAAHcEAAAAAHhzcgBLaW8uZ2l0aHViLmVyaWNtZWR2ZXQuamdlYS5jb3JlLnJlcHJlc2VudGF0aW9uLnRyZWUubnVtZXJpYy5FbGVtZW50JFZhcmlhYmxlAAAAAAAAAAACAAFMAARuYW1ldAASTGphdmEvbGFuZy9TdHJpbmc7eHB0AAJ4MnEAfgAGc3EAfgACc3EAfgAHAAAAAncEAAAAAnNxAH4AAnNxAH4ABwAAAAB3BAAAAAB4c3IAS2lvLmdpdGh1Yi5lcmljbWVkdmV0LmpnZWEuY29yZS5yZXByZXNlbnRhdGlvbi50cmVlLm51bWVyaWMuRWxlbWVudCRDb25zdGFudAAAAAAAAAAAAgABRAAFdmFsdWV4cAAAAAAAAAAAcQB+AA9zcQB+AAJzcQB+AAcAAAACdwQAAAACc3EAfgACc3EAfgAHAAAAAHcEAAAAAHhxAH4AFHEAfgAVc3EAfgACc3EAfgAHAAAAAncEAAAAAnNxAH4AAnNxAH4ABwAAAAB3BAAAAAB4cQB+ABRxAH4AGXNxAH4AAnNxAH4ABwAAAAJ3BAAAAAJzcQB+AAJzcQB+AAcAAAAAdwQAAAAAeHEAfgAUcQB+AB1zcQB+AAJzcQB+AAcAAAACdwQAAAACc3EAfgACc3EAfgAHAAAAAHcEAAAAAHhxAH4AFHEAfgAhc3EAfgACc3EAfgAHAAAAAHcEAAAAAHhzcQB+ABM/4AAAAAAAAHEAfgAheH5yAEtpby5naXRodWIuZXJpY21lZHZldC5qZ2VhLmNvcmUucmVwcmVzZW50YXRpb24udHJlZS5udW1lcmljLkVsZW1lbnQkT3BlcmF0b3IAAAAAAAAAABIAAHhyAA5qYXZhLmxhbmcuRW51bQAAAAAAAAAAEgAAeHB0AAhBRERJVElPTnEAfgAdeHEAfgAqcQB+ABl4cQB+ACpxAH4AFXhxAH4AKnNxAH4AAnNxAH4ABwAAAAJ3BAAAAAJzcQB+AAJzcQB+AAcAAAAAdwQAAAAAeHEAfgAncQB+ACxxAH4AFXhxAH4AKnNxAH4AAnNxAH4ABwAAAAJ3BAAAAAJzcQB+AAJzcQB+AAcAAAAAdwQAAAAAeHEAfgANcQB+ADBxAH4ALHh+cQB+ACh0AAtTVUJUUkFDVElPTnB4cQB+ACpzcQB+AAJzcQB+AAcAAAACdwQAAAACc3EAfgACc3EAfgAHAAAAAHcEAAAAAHhxAH4AFHEAfgA2cQB+AA94cQB+ADRweHEAfgA0cHNxAH4AAnNxAH4ABwAAAAJ3BAAAAAJzcQB+AAJzcQB+AAcAAAACdwQAAAACc3EAfgACc3EAfgAHAAAAAncEAAAAAnNxAH4AAnNxAH4ABwAAAAJ3BAAAAAJzcQB+AAJzcQB+AAcAAAAAdwQAAAAAeHEAfgAUcQB+AEBzcQB+AAJzcQB+AAcAAAAAdwQAAAAAeHNxAH4AC3QAAng0c3EAfgACc3EAfgAHAAAAAncEAAAAAnNxAH4AAnNxAH4ABwAAAAB3BAAAAAB4cQB+AEZxAH4ASHEAfgBEeHEAfgA0c3EAfgACc3EAfgAHAAAAAncEAAAAAnEAfgBIc3EAfgACc3EAfgAHAAAAAHcEAAAAAHhzcQB+ABM/8AAAAAAAAHEAfgBMeH5xAH4AKHQADk1VTFRJUExJQ0FUSU9Oc3EAfgACc3EAfgAHAAAAAncEAAAAAnEAfgBMc3EAfgACc3EAfgAHAAAAAHcEAAAAAHhxAH4AUHEAfgBTeHEAfgBRc3EAfgACc3EAfgAHAAAAAncEAAAAAnEAfgBTc3EAfgACc3EAfgAHAAAAAHcEAAAAAHhxAH4AUHEAfgBXeHEAfgBRcHhxAH4ANHEAfgA+cQB+AE54cQB+AFFxAH4APHEAfgBVeHEAfgBRcQB+ADpxAH4AWXhxAH4AUXBzcQB+AAJzcQB+AAcAAAAAdwQAAAAAeHNxAH4AC3QAAng2cHNxAH4AAnNxAH4ABwAAAAB3BAAAAAB4cQB+AEZweA==";
    "rO0ABXNyABFqYXZhLnV0aWwuQ29sbFNlcleOq7Y6G6gRAwABSQADdGFneHAAAAAEdwQAAAAEc3IAN2lvLmdpdGh1Yi5lcmljbWVkdmV0LmpnZWEuY29yZS5yZXByZXNlbnRhdGlvbi50cmVlLlRyZWUKs7/qnQrEZQIAA0wACGNoaWxkcmVudAAQTGphdmEvdXRpbC9MaXN0O0wAB2NvbnRlbnR0ABJMamF2YS9sYW5nL09iamVjdDtMAAZwYXJlbnR0ADlMaW8vZ2l0aHViL2VyaWNtZWR2ZXQvamdlYS9jb3JlL3JlcHJlc2VudGF0aW9uL3RyZWUvVHJlZTt4cHNyABNqYXZhLnV0aWwuQXJyYXlMaXN0eIHSHZnHYZ0DAAFJAARzaXpleHAAAAACdwQAAAACc3EAfgACc3EAfgAHAAAAAHcEAAAAAHhzcgBLaW8uZ2l0aHViLmVyaWNtZWR2ZXQuamdlYS5jb3JlLnJlcHJlc2VudGF0aW9uLnRyZWUubnVtZXJpYy5FbGVtZW50JFZhcmlhYmxlAAAAAAAAAAACAAFMAARuYW1ldAASTGphdmEvbGFuZy9TdHJpbmc7eHB0AAJ4MnEAfgAGc3EAfgACc3EAfgAHAAAAAncEAAAAAnNxAH4AAnNxAH4ABwAAAAB3BAAAAAB4c3IAS2lvLmdpdGh1Yi5lcmljbWVkdmV0LmpnZWEuY29yZS5yZXByZXNlbnRhdGlvbi50cmVlLm51bWVyaWMuRWxlbWVudCRDb25zdGFudAAAAAAAAAAAAgABRAAFdmFsdWV4cAAAAAAAAAAAcQB+AA9zcQB+AAJzcQB+AAcAAAACdwQAAAACc3EAfgACc3EAfgAHAAAAAHcEAAAAAHhxAH4AFHEAfgAVc3EAfgACc3EAfgAHAAAAAncEAAAAAnNxAH4AAnNxAH4ABwAAAAB3BAAAAAB4cQB+ABRxAH4AGXNxAH4AAnNxAH4ABwAAAAJ3BAAAAAJzcQB+AAJzcQB+AAcAAAAAdwQAAAAAeHEAfgAUcQB+AB1zcQB+AAJzcQB+AAcAAAAAdwQAAAAAeHNxAH4AEz/gAAAAAAAAcQB+AB14fnIAS2lvLmdpdGh1Yi5lcmljbWVkdmV0LmpnZWEuY29yZS5yZXByZXNlbnRhdGlvbi50cmVlLm51bWVyaWMuRWxlbWVudCRPcGVyYXRvcgAAAAAAAAAAEgAAeHIADmphdmEubGFuZy5FbnVtAAAAAAAAAAASAAB4cHQACEFERElUSU9OcQB+ABl4cQB+ACZxAH4AFXhxAH4AJnNxAH4AAnNxAH4ABwAAAAJ3BAAAAAJzcQB+AAJzcQB+AAcAAAAAdwQAAAAAeHEAfgAjcQB+AChxAH4AFXhxAH4AJnNxAH4AAnNxAH4ABwAAAAJ3BAAAAAJzcQB+AAJzcQB+AAcAAAAAdwQAAAAAeHEAfgANcQB+ACxxAH4AKHh+cQB+ACR0AAtTVUJUUkFDVElPTnB4cQB+ACZzcQB+AAJzcQB+AAcAAAACdwQAAAACc3EAfgACc3EAfgAHAAAAAHcEAAAAAHhxAH4AI3EAfgAycQB+AA94cQB+ADBweHEAfgAwcHNxAH4AAnNxAH4ABwAAAAJ3BAAAAAJzcQB+AAJzcQB+AAcAAAACdwQAAAACc3EAfgACc3EAfgAHAAAAAncEAAAAAnNxAH4AAnNxAH4ABwAAAAJ3BAAAAAJzcQB+AAJzcQB+AAcAAAACdwQAAAACc3EAfgACc3EAfgAHAAAAAncEAAAAAnNxAH4AAnNxAH4ABwAAAAB3BAAAAAB4cQB+ABRxAH4AQHNxAH4AAnNxAH4ABwAAAAB3BAAAAAB4c3EAfgALdAACeDRzcQB+AAJzcQB+AAcAAAACdwQAAAACc3EAfgACc3EAfgAHAAAAAHcEAAAAAHhzcQB+ABM/8AAAAAAAAHEAfgBIcQB+AER4cQB+ADBzcQB+AAJzcQB+AAcAAAACdwQAAAACcQB+AEhzcQB+AAJzcQB+AAcAAAAAdwQAAAAAeHEAfgBMc3EAfgACc3EAfgAHAAAAAncEAAAAAnNxAH4AAnNxAH4ABwAAAAB3BAAAAAB4cQB+ABRxAH4AUXEAfgBPeH5xAH4AJHQADk1VTFRJUExJQ0FUSU9Oc3EAfgACc3EAfgAHAAAAAncEAAAAAnEAfgBRc3EAfgACc3EAfgAHAAAAAHcEAAAAAHhxAH4ATHEAfgBXeHEAfgBVc3EAfgACc3EAfgAHAAAAAncEAAAAAnEAfgBXc3EAfgACc3EAfgAHAAAAAHcEAAAAAHhxAH4ATHEAfgBbeHEAfgBVc3EAfgACc3EAfgAHAAAAAncEAAAAAnEAfgBbc3EAfgACc3EAfgAHAAAAAHcEAAAAAHhxAH4ATHNxAH4AAnNxAH4ABwAAAAJ3BAAAAAJzcQB+AAJzcQB+AAcAAAAAdwQAAAAAeHEAfgBMcQB+AGNxAH4AYXhxAH4AVXNxAH4AAnNxAH4ABwAAAAJ3BAAAAAJxAH4AY3NxAH4AAnNxAH4ABwAAAAB3BAAAAAB4cQB+AExzcQB+AAJzcQB+AAcAAAACdwQAAAACc3EAfgACc3EAfgAHAAAAAncEAAAAAnNxAH4AAnNxAH4ABwAAAAJ3BAAAAAJzcQB+AAJzcQB+AAcAAAAAdwQAAAAAeHEAfgAUcQB+AG9zcQB+AAJzcQB+AAcAAAAAdwQAAAAAeHEAfgBGcQB+AG94cQB+ADBxAH4AbXNxAH4AAnNxAH4ABwAAAAJ3BAAAAAJzcQB+AAJzcQB+AAcAAAACdwQAAAACc3EAfgACc3EAfgAHAAAAAncEAAAAAnNxAH4AAnNxAH4ABwAAAAJ3BAAAAAJzcQB+AAJzcQB+AAcAAAAAdwQAAAAAeHEAfgAUcQB+AHtzcQB+AAJzcQB+AAcAAAAAdwQAAAAAeHEAfgBGcQB+AHt4cQB+ADBxAH4AeXNxAH4AAnNxAH4ABwAAAAB3BAAAAAB4cQB+AExxAH4AeXhxAH4AVXEAfgB3c3EAfgACc3EAfgAHAAAAAHcEAAAAAHhxAH4ATHEAfgB3eHEAfgBVcQB+AHVzcQB+AAJzcQB+AAcAAAAAdwQAAAAAeHEAfgBMcQB+AHV4cQB+AFVxAH4AbXhxAH4AVXEAfgBrcQB+AGl4cQB+AFVweHEAfgBVcHhxAH4AVXNxAH4AAnNxAH4ABwAAAAJ3BAAAAAJxAH4AX3EAfgBpeHEAfgBVcHhxAH4AVXNxAH4AAnNxAH4ABwAAAAJ3BAAAAAJxAH4ATXEAfgBZeHEAfgBVc3EAfgACc3EAfgAHAAAAAncEAAAAAnEAfgCJcQB+AF14cQB+AFVzcQB+AAJzcQB+AAcAAAACdwQAAAACcQB+AItxAH4AYXhxAH4AVXNxAH4AAnNxAH4ABwAAAAJ3BAAAAAJxAH4AjXEAfgBpeHEAfgBVcHhxAH4AMHEAfgA+cQB+AE94cQB+AFVxAH4APHEAfgBZeHEAfgBVcQB+ADpxAH4AXXhxAH4AVXEAfgA4cQB+AGF4cQB+AFVxAH4ANnEAfgBpeHEAfgBVcHNxAH4AAnNxAH4ABwAAAAB3BAAAAAB4c3EAfgALdAACeDZwc3EAfgACc3EAfgAHAAAAAncEAAAAAnNxAH4AAnNxAH4ABwAAAAJ3BAAAAAJzcQB+AAJzcQB+AAcAAAAAdwQAAAAAeHEAfgBGcQB+AJdzcQB+AAJzcQB+AAcAAAACdwQAAAACc3EAfgACc3EAfgAHAAAAAHcEAAAAAHhzcQB+AAt0AAN4MTVxAH4Am3NxAH4AAnNxAH4ABwAAAAB3BAAAAAB4cQB+AJ9zcQB+AAJzcQB+AAcAAAACdwQAAAACc3EAfgACc3EAfgAHAAAAAncEAAAAAnNxAH4AAnNxAH4ABwAAAAB3BAAAAAB4cQB+AJ9xAH4ApXNxAH4AAnNxAH4ABwAAAAB3BAAAAAB4cQB+AJ9xAH4ApXhxAH4AMHEAfgCjcQB+AKF4cQB+ADBzcQB+AAJzcQB+AAcAAAACdwQAAAACc3EAfgACc3EAfgAHAAAAAHcEAAAAAHhxAH4ARnEAfgCrcQB+AKN4cQB+ADBzcQB+AAJzcQB+AAcAAAACdwQAAAACcQB+AKtzcQB+AAJzcQB+AAcAAAACdwQAAAACc3EAfgACc3EAfgAHAAAAAHcEAAAAAHhxAH4An3EAfgCxc3EAfgACc3EAfgAHAAAAAHcEAAAAAHhxAH4An3NxAH4AAnNxAH4ABwAAAAJ3BAAAAAJzcQB+AAJzcQB+AAcAAAACdwQAAAACc3EAfgACc3EAfgAHAAAAAHcEAAAAAHhxAH4An3EAfgC5c3EAfgACc3EAfgAHAAAAAHcEAAAAAHhxAH4An3EAfgC5eHEAfgAwcQB+ALdxAH4AtXhxAH4AMHNxAH4AAnNxAH4ABwAAAAJ3BAAAAAJzcQB+AAJzcQB+AAcAAAAAdwQAAAAAeHEAfgBGcQB+AL9xAH4At3hxAH4AMHB4cQB+ADBzcQB+AAJzcQB+AAcAAAACdwQAAAACc3EAfgACc3EAfgAHAAAAAncEAAAAAnNxAH4AAnNxAH4ABwAAAAB3BAAAAAB4cQB+AEZxAH4AxXNxAH4AAnNxAH4ABwAAAAJ3BAAAAAJzcQB+AAJzcQB+AAcAAAAAdwQAAAAAeHEAfgCfcQB+AMlzcQB+AAJzcQB+AAcAAAAAdwQAAAAAeHEAfgCfcQB+AMl4cQB+ADBxAH4AxXhxAH4AMHEAfgDDcQB+ALF4cQB+ADBweHEAfgAwcHhxAH4AMHNxAH4AAnNxAH4ABwAAAAJ3BAAAAAJzcQB+AAJzcQB+AAcAAAAAdwQAAAAAeHEAfgCfcQB+AM9xAH4Am3hxAH4AMHNxAH4AAnNxAH4ABwAAAAJ3BAAAAAJxAH4Az3EAfgCxeHEAfgAwcHhxAH4AMHEAfgCVcQB+ALF4cQB+ADBweA==";
    "rO0ABXNyABFqYXZhLnV0aWwuQ29sbFNlcleOq7Y6G6gRAwABSQADdGFneHAAAAAEdwQAAAAEc3IAN2lvLmdpdGh1Yi5lcmljbWVkdmV0LmpnZWEuY29yZS5yZXByZXNlbnRhdGlvbi50cmVlLlRyZWUKs7/qnQrEZQIAA0wACGNoaWxkcmVudAAQTGphdmEvdXRpbC9MaXN0O0wAB2NvbnRlbnR0ABJMamF2YS9sYW5nL09iamVjdDtMAAZwYXJlbnR0ADlMaW8vZ2l0aHViL2VyaWNtZWR2ZXQvamdlYS9jb3JlL3JlcHJlc2VudGF0aW9uL3RyZWUvVHJlZTt4cHNyABNqYXZhLnV0aWwuQXJyYXlMaXN0eIHSHZnHYZ0DAAFJAARzaXpleHAAAAACdwQAAAACc3EAfgACc3EAfgAHAAAAAHcEAAAAAHhzcgBLaW8uZ2l0aHViLmVyaWNtZWR2ZXQuamdlYS5jb3JlLnJlcHJlc2VudGF0aW9uLnRyZWUubnVtZXJpYy5FbGVtZW50JFZhcmlhYmxlAAAAAAAAAAACAAFMAARuYW1ldAASTGphdmEvbGFuZy9TdHJpbmc7eHB0AAJ4MnEAfgAGc3EAfgACc3EAfgAHAAAAAHcEAAAAAHhzcgBLaW8uZ2l0aHViLmVyaWNtZWR2ZXQuamdlYS5jb3JlLnJlcHJlc2VudGF0aW9uLnRyZWUubnVtZXJpYy5FbGVtZW50JENvbnN0YW50AAAAAAAAAAACAAFEAAV2YWx1ZXhwP+AAAAAAAABzcQB+AAJzcQB+AAcAAAACdwQAAAACc3EAfgACc3EAfgAHAAAAAncEAAAAAnNxAH4AAnNxAH4ABwAAAAB3BAAAAAB4c3EAfgARAAAAAAAAAABxAH4AFXNxAH4AAnNxAH4ABwAAAAJ3BAAAAAJzcQB+AAJzcQB+AAcAAAAAdwQAAAAAeHEAfgAZcQB+ABpzcQB+AAJzcQB+AAcAAAACdwQAAAACc3EAfgACc3EAfgAHAAAAAHcEAAAAAHhxAH4AGXEAfgAec3EAfgACc3EAfgAHAAAAAncEAAAAAnNxAH4AAnNxAH4ABwAAAAB3BAAAAAB4cQB+ABlxAH4AInNxAH4AAnNxAH4ABwAAAAB3BAAAAAB4cQB+ABJxAH4AInh+cgBLaW8uZ2l0aHViLmVyaWNtZWR2ZXQuamdlYS5jb3JlLnJlcHJlc2VudGF0aW9uLnRyZWUubnVtZXJpYy5FbGVtZW50JE9wZXJhdG9yAAAAAAAAAAASAAB4cgAOamF2YS5sYW5nLkVudW0AAAAAAAAAABIAAHhwdAAIQURESVRJT05xAH4AHnhxAH4AKnEAfgAaeHEAfgAqcQB+ABV4cQB+ACpxAH4AE3EAfgAPeH5xAH4AKHQAC1NVQlRSQUNUSU9OcHhxAH4ALHBzcQB+AAJzcQB+AAcAAAACdwQAAAACc3EAfgACc3EAfgAHAAAAAHcEAAAAAHhxAH4AGXEAfgAuc3EAfgACc3EAfgAHAAAAAHcEAAAAAHhzcQB+AAt0AAJ4NHNxAH4AAnNxAH4ABwAAAAJ3BAAAAAJzcQB+AAJzcQB+AAcAAAAAdwQAAAAAeHNxAH4AET/wAAAAAAAAcQB+ADZxAH4AMnhxAH4ALHB4cQB+ACxwc3EAfgACc3EAfgAHAAAAAHcEAAAAAHhzcQB+AAt0AAJ4NnBzcQB+AAJzcQB+AAcAAAAAdwQAAAAAeHEAfgA0cHg=";
    "rO0ABXNyABFqYXZhLnV0aWwuQ29sbFNlcleOq7Y6G6gRAwABSQADdGFneHAAAAAEdwQAAAAEc3IAN2lvLmdpdGh1Yi5lcmljbWVkdmV0LmpnZWEuY29yZS5yZXByZXNlbnRhdGlvbi50cmVlLlRyZWUKs7/qnQrEZQIAA0wACGNoaWxkcmVudAAQTGphdmEvdXRpbC9MaXN0O0wAB2NvbnRlbnR0ABJMamF2YS9sYW5nL09iamVjdDtMAAZwYXJlbnR0ADlMaW8vZ2l0aHViL2VyaWNtZWR2ZXQvamdlYS9jb3JlL3JlcHJlc2VudGF0aW9uL3RyZWUvVHJlZTt4cHNyABNqYXZhLnV0aWwuQXJyYXlMaXN0eIHSHZnHYZ0DAAFJAARzaXpleHAAAAACdwQAAAACc3EAfgACc3EAfgAHAAAAAHcEAAAAAHhzcgBLaW8uZ2l0aHViLmVyaWNtZWR2ZXQuamdlYS5jb3JlLnJlcHJlc2VudGF0aW9uLnRyZWUubnVtZXJpYy5FbGVtZW50JFZhcmlhYmxlAAAAAAAAAAACAAFMAARuYW1ldAASTGphdmEvbGFuZy9TdHJpbmc7eHB0AAJ4MnEAfgAGc3EAfgACc3EAfgAHAAAAAncEAAAAAnNxAH4AAnNxAH4ABwAAAAB3BAAAAAB4c3IAS2lvLmdpdGh1Yi5lcmljbWVkdmV0LmpnZWEuY29yZS5yZXByZXNlbnRhdGlvbi50cmVlLm51bWVyaWMuRWxlbWVudCRDb25zdGFudAAAAAAAAAAAAgABRAAFdmFsdWV4cAAAAAAAAAAAcQB+AA9zcQB+AAJzcQB+AAcAAAACdwQAAAACc3EAfgACc3EAfgAHAAAAAHcEAAAAAHhxAH4AFHEAfgAVc3EAfgACc3EAfgAHAAAAAncEAAAAAnNxAH4AAnNxAH4ABwAAAAB3BAAAAAB4cQB+ABRxAH4AGXNxAH4AAnNxAH4ABwAAAAB3BAAAAAB4c3EAfgATP+AAAAAAAABxAH4AGXh+cgBLaW8uZ2l0aHViLmVyaWNtZWR2ZXQuamdlYS5jb3JlLnJlcHJlc2VudGF0aW9uLnRyZWUubnVtZXJpYy5FbGVtZW50JE9wZXJhdG9yAAAAAAAAAAASAAB4cgAOamF2YS5sYW5nLkVudW0AAAAAAAAAABIAAHhwdAAIQURESVRJT05xAH4AFXhxAH4AInNxAH4AAnNxAH4ABwAAAAJ3BAAAAAJzcQB+AAJzcQB+AAcAAAACdwQAAAACc3EAfgACc3EAfgAHAAAAAHcEAAAAAHhxAH4AFHEAfgAmc3EAfgACc3EAfgAHAAAAAncEAAAAAnNxAH4AAnNxAH4ABwAAAAB3BAAAAAB4cQB+ABRxAH4AKnNxAH4AAnNxAH4ABwAAAAB3BAAAAAB4cQB+AB9xAH4AKnhxAH4AInEAfgAmeHEAfgAicQB+ACRxAH4AFXhxAH4AInNxAH4AAnNxAH4ABwAAAAJ3BAAAAAJzcQB+AAJzcQB+AAcAAAAAdwQAAAAAeHEAfgANcQB+ADBxAH4AJHh+cQB+ACB0AAtTVUJUUkFDVElPTnB4cQB+ACJzcQB+AAJzcQB+AAcAAAACdwQAAAACc3EAfgACc3EAfgAHAAAAAHcEAAAAAHhxAH4AFHEAfgA2cQB+AA94cQB+ADRweHEAfgA0cHNxAH4AAnNxAH4ABwAAAAJ3BAAAAAJzcQB+AAJzcQB+AAcAAAACdwQAAAACc3EAfgACc3EAfgAHAAAAAncEAAAAAnNxAH4AAnNxAH4ABwAAAAJ3BAAAAAJzcQB+AAJzcQB+AAcAAAACdwQAAAACc3EAfgACc3EAfgAHAAAAAncEAAAAAnNxAH4AAnNxAH4ABwAAAAB3BAAAAAB4cQB+ABRxAH4ARHNxAH4AAnNxAH4ABwAAAAB3BAAAAAB4c3EAfgALdAACeDRzcQB+AAJzcQB+AAcAAAACdwQAAAACc3EAfgACc3EAfgAHAAAAAHcEAAAAAHhzcQB+ABM/8AAAAAAAAHEAfgBMcQB+AEh4cQB+ADRzcQB+AAJzcQB+AAcAAAACdwQAAAACcQB+AExzcQB+AAJzcQB+AAcAAAAAdwQAAAAAeHEAfgBQc3EAfgACc3EAfgAHAAAAAncEAAAAAnNxAH4AAnNxAH4ABwAAAAB3BAAAAAB4cQB+ABRxAH4AVXEAfgBTeH5xAH4AIHQADk1VTFRJUExJQ0FUSU9Oc3EAfgACc3EAfgAHAAAAAncEAAAAAnEAfgBVc3EAfgACc3EAfgAHAAAAAHcEAAAAAHhxAH4AUHEAfgBbeHEAfgBZc3EAfgACc3EAfgAHAAAAAncEAAAAAnEAfgBbc3EAfgACc3EAfgAHAAAAAHcEAAAAAHhxAH4AUHEAfgBfeHEAfgBZc3EAfgACc3EAfgAHAAAAAncEAAAAAnEAfgBfc3EAfgACc3EAfgAHAAAAAHcEAAAAAHhxAH4AUHNxAH4AAnNxAH4ABwAAAAJ3BAAAAAJzcQB+AAJzcQB+AAcAAAAAdwQAAAAAeHEAfgBQcQB+AGdxAH4AZXhxAH4AWXNxAH4AAnNxAH4ABwAAAAJ3BAAAAAJxAH4AZ3NxAH4AAnNxAH4ABwAAAAB3BAAAAAB4cQB+AFBzcQB+AAJzcQB+AAcAAAACdwQAAAACc3EAfgACc3EAfgAHAAAAAncEAAAAAnNxAH4AAnNxAH4ABwAAAAJ3BAAAAAJzcQB+AAJzcQB+AAcAAAAAdwQAAAAAeHEAfgAUcQB+AHNzcQB+AAJzcQB+AAcAAAAAdwQAAAAAeHEAfgBKcQB+AHN4cQB+ADRxAH4AcXNxAH4AAnNxAH4ABwAAAAJ3BAAAAAJzcQB+AAJzcQB+AAcAAAACdwQAAAACc3EAfgACc3EAfgAHAAAAAncEAAAAAnNxAH4AAnNxAH4ABwAAAAJ3BAAAAAJzcQB+AAJzcQB+AAcAAAAAdwQAAAAAeHEAfgAUcQB+AH9zcQB+AAJzcQB+AAcAAAAAdwQAAAAAeHEAfgBKcQB+AH94cQB+ADRxAH4AfXNxAH4AAnNxAH4ABwAAAAB3BAAAAAB4cQB+AFBxAH4AfXhxAH4AWXEAfgB7c3EAfgACc3EAfgAHAAAAAHcEAAAAAHhxAH4AUHEAfgB7eHEAfgBZcQB+AHlzcQB+AAJzcQB+AAcAAAAAdwQAAAAAeHEAfgBQcQB+AHl4cQB+AFlxAH4AcXhxAH4AWXEAfgBvcQB+AG14cQB+AFlweHEAfgBZcHhxAH4AWXNxAH4AAnNxAH4ABwAAAAJ3BAAAAAJxAH4AY3EAfgBteHEAfgBZcHhxAH4AWXNxAH4AAnNxAH4ABwAAAAJ3BAAAAAJxAH4AUXEAfgBdeHEAfgBZc3EAfgACc3EAfgAHAAAAAncEAAAAAnEAfgCNcQB+AGF4cQB+AFlzcQB+AAJzcQB+AAcAAAACdwQAAAACcQB+AI9xAH4AZXhxAH4AWXNxAH4AAnNxAH4ABwAAAAJ3BAAAAAJxAH4AkXEAfgBteHEAfgBZcHhxAH4ANHEAfgBCcQB+AFN4cQB+AFlxAH4AQHEAfgBdeHEAfgBZcQB+AD5xAH4AYXhxAH4AWXEAfgA8cQB+AGV4cQB+AFlxAH4AOnEAfgBteHEAfgBZcHNxAH4AAnNxAH4ABwAAAAB3BAAAAAB4c3EAfgALdAACeDZwc3EAfgACc3EAfgAHAAAAAncEAAAAAnNxAH4AAnNxAH4ABwAAAAJ3BAAAAAJzcQB+AAJzcQB+AAcAAAAAdwQAAAAAeHEAfgBKcQB+AJtzcQB+AAJzcQB+AAcAAAACdwQAAAACc3EAfgACc3EAfgAHAAAAAHcEAAAAAHhzcQB+AAt0AAN4MTVxAH4An3NxAH4AAnNxAH4ABwAAAAB3BAAAAAB4cQB+AKNzcQB+AAJzcQB+AAcAAAACdwQAAAACc3EAfgACc3EAfgAHAAAAAncEAAAAAnNxAH4AAnNxAH4ABwAAAAB3BAAAAAB4cQB+AKNxAH4AqXNxAH4AAnNxAH4ABwAAAAB3BAAAAAB4cQB+AKNxAH4AqXhxAH4ANHEAfgCncQB+AKV4cQB+ADRzcQB+AAJzcQB+AAcAAAACdwQAAAACc3EAfgACc3EAfgAHAAAAAHcEAAAAAHhxAH4ASnEAfgCvcQB+AKd4cQB+ADRzcQB+AAJzcQB+AAcAAAACdwQAAAACcQB+AK9zcQB+AAJzcQB+AAcAAAACdwQAAAACc3EAfgACc3EAfgAHAAAAAHcEAAAAAHhxAH4Ao3EAfgC1c3EAfgACc3EAfgAHAAAAAHcEAAAAAHhxAH4Ao3NxAH4AAnNxAH4ABwAAAAJ3BAAAAAJzcQB+AAJzcQB+AAcAAAACdwQAAAACc3EAfgACc3EAfgAHAAAAAHcEAAAAAHhxAH4Ao3EAfgC9c3EAfgACc3EAfgAHAAAAAHcEAAAAAHhxAH4Ao3EAfgC9eHEAfgA0cQB+ALtxAH4AuXhxAH4ANHNxAH4AAnNxAH4ABwAAAAJ3BAAAAAJzcQB+AAJzcQB+AAcAAAAAdwQAAAAAeHEAfgBKcQB+AMNxAH4Au3hxAH4ANHB4cQB+ADRzcQB+AAJzcQB+AAcAAAACdwQAAAACc3EAfgACc3EAfgAHAAAAAncEAAAAAnNxAH4AAnNxAH4ABwAAAAB3BAAAAAB4cQB+AEpxAH4AyXNxAH4AAnNxAH4ABwAAAAJ3BAAAAAJzcQB+AAJzcQB+AAcAAAAAdwQAAAAAeHEAfgCjcQB+AM1zcQB+AAJzcQB+AAcAAAAAdwQAAAAAeHEAfgCjcQB+AM14cQB+ADRxAH4AyXhxAH4ANHEAfgDHcQB+ALV4cQB+ADRweHEAfgA0cHhxAH4ANHNxAH4AAnNxAH4ABwAAAAJ3BAAAAAJzcQB+AAJzcQB+AAcAAAAAdwQAAAAAeHEAfgCjcQB+ANNxAH4An3hxAH4ANHNxAH4AAnNxAH4ABwAAAAJ3BAAAAAJxAH4A03EAfgC1eHEAfgA0cHhxAH4ANHEAfgCZcQB+ALV4cQB+ADRweA==";
    "rO0ABXNyABFqYXZhLnV0aWwuQ29sbFNlcleOq7Y6G6gRAwABSQADdGFneHAAAAAEdwQAAAAEc3IAN2lvLmdpdGh1Yi5lcmljbWVkdmV0LmpnZWEuY29yZS5yZXByZXNlbnRhdGlvbi50cmVlLlRyZWUKs7/qnQrEZQIAA0wACGNoaWxkcmVudAAQTGphdmEvdXRpbC9MaXN0O0wAB2NvbnRlbnR0ABJMamF2YS9sYW5nL09iamVjdDtMAAZwYXJlbnR0ADlMaW8vZ2l0aHViL2VyaWNtZWR2ZXQvamdlYS9jb3JlL3JlcHJlc2VudGF0aW9uL3RyZWUvVHJlZTt4cHNyABNqYXZhLnV0aWwuQXJyYXlMaXN0eIHSHZnHYZ0DAAFJAARzaXpleHAAAAACdwQAAAACc3EAfgACc3EAfgAHAAAAAHcEAAAAAHhzcgBLaW8uZ2l0aHViLmVyaWNtZWR2ZXQuamdlYS5jb3JlLnJlcHJlc2VudGF0aW9uLnRyZWUubnVtZXJpYy5FbGVtZW50JFZhcmlhYmxlAAAAAAAAAAACAAFMAARuYW1ldAASTGphdmEvbGFuZy9TdHJpbmc7eHB0AAJ4MnEAfgAGc3EAfgACc3EAfgAHAAAAAncEAAAAAnNxAH4AAnNxAH4ABwAAAAB3BAAAAAB4c3IAS2lvLmdpdGh1Yi5lcmljbWVkdmV0LmpnZWEuY29yZS5yZXByZXNlbnRhdGlvbi50cmVlLm51bWVyaWMuRWxlbWVudCRDb25zdGFudAAAAAAAAAAAAgABRAAFdmFsdWV4cAAAAAAAAAAAcQB+AA9zcQB+AAJzcQB+AAcAAAACdwQAAAACc3EAfgACc3EAfgAHAAAAAHcEAAAAAHhxAH4AFHEAfgAVc3EAfgACc3EAfgAHAAAAAncEAAAAAnNxAH4AAnNxAH4ABwAAAAB3BAAAAAB4cQB+ABRxAH4AGXNxAH4AAnNxAH4ABwAAAAB3BAAAAAB4c3EAfgATP+AAAAAAAABxAH4AGXh+cgBLaW8uZ2l0aHViLmVyaWNtZWR2ZXQuamdlYS5jb3JlLnJlcHJlc2VudGF0aW9uLnRyZWUubnVtZXJpYy5FbGVtZW50JE9wZXJhdG9yAAAAAAAAAAASAAB4cgAOamF2YS5sYW5nLkVudW0AAAAAAAAAABIAAHhwdAAIQURESVRJT05xAH4AFXhxAH4AInNxAH4AAnNxAH4ABwAAAAJ3BAAAAAJzcQB+AAJzcQB+AAcAAAACdwQAAAACc3EAfgACc3EAfgAHAAAAAHcEAAAAAHhxAH4AFHEAfgAmc3EAfgACc3EAfgAHAAAAAncEAAAAAnNxAH4AAnNxAH4ABwAAAAB3BAAAAAB4cQB+ABRxAH4AKnNxAH4AAnNxAH4ABwAAAAB3BAAAAAB4cQB+AB9xAH4AKnhxAH4AInEAfgAmeHEAfgAicQB+ACRxAH4AFXhxAH4AInNxAH4AAnNxAH4ABwAAAAJ3BAAAAAJzcQB+AAJzcQB+AAcAAAAAdwQAAAAAeHEAfgANcQB+ADBxAH4AJHh+cQB+ACB0AAtTVUJUUkFDVElPTnB4cQB+ACJzcQB+AAJzcQB+AAcAAAACdwQAAAACc3EAfgACc3EAfgAHAAAAAHcEAAAAAHhxAH4AFHEAfgA2cQB+AA94cQB+ADRweHEAfgA0cHNxAH4AAnNxAH4ABwAAAAJ3BAAAAAJzcQB+AAJzcQB+AAcAAAAAdwQAAAAAeHEAfgAUcQB+ADpzcQB+AAJzcQB+AAcAAAAAdwQAAAAAeHNxAH4AC3QAAng0c3EAfgACc3EAfgAHAAAAAncEAAAAAnNxAH4AAnNxAH4ABwAAAAB3BAAAAAB4c3EAfgATP/AAAAAAAABxAH4AQnEAfgA+eHEAfgA0cHhxAH4ANHBzcQB+AAJzcQB+AAcAAAAAdwQAAAAAeHNxAH4AC3QAAng2cHNxAH4AAnNxAH4ABwAAAAJ3BAAAAAJzcQB+AAJzcQB+AAcAAAAAdwQAAAAAeHEAfgBAcQB+AEtzcQB+AAJzcQB+AAcAAAACdwQAAAACc3EAfgACc3EAfgAHAAAAAHcEAAAAAHhzcQB+AAt0AAN4MTVxAH4AT3NxAH4AAnNxAH4ABwAAAAB3BAAAAAB4cQB+AFNzcQB+AAJzcQB+AAcAAAACdwQAAAACc3EAfgACc3EAfgAHAAAAAncEAAAAAnNxAH4AAnNxAH4ABwAAAAB3BAAAAAB4cQB+AFNxAH4AWXNxAH4AAnNxAH4ABwAAAAB3BAAAAAB4cQB+AFNxAH4AWXhxAH4ANHEAfgBXcQB+AFV4cQB+ADRzcQB+AAJzcQB+AAcAAAACdwQAAAACc3EAfgACc3EAfgAHAAAAAHcEAAAAAHhxAH4AQHEAfgBfcQB+AFd4cQB+ADRweHEAfgA0c3EAfgACc3EAfgAHAAAAAncEAAAAAnNxAH4AAnNxAH4ABwAAAAJ3BAAAAAJzcQB+AAJzcQB+AAcAAAAAdwQAAAAAeHEAfgBAcQB+AGVzcQB+AAJzcQB+AAcAAAACdwQAAAACc3EAfgACc3EAfgAHAAAAAHcEAAAAAHhxAH4AU3EAfgBpc3EAfgACc3EAfgAHAAAAAHcEAAAAAHhxAH4AU3EAfgBpeHEAfgA0cQB+AGV4cQB+ADRxAH4AY3EAfgBPeHEAfgA0cHhxAH4ANHB4";
    "rO0ABXNyABFqYXZhLnV0aWwuQ29sbFNlcleOq7Y6G6gRAwABSQADdGFneHAAAAAEdwQAAAAEc3IAN2lvLmdpdGh1Yi5lcmljbWVkdmV0LmpnZWEuY29yZS5yZXByZXNlbnRhdGlvbi50cmVlLlRyZWUKs7/qnQrEZQIAA0wACGNoaWxkcmVudAAQTGphdmEvdXRpbC9MaXN0O0wAB2NvbnRlbnR0ABJMamF2YS9sYW5nL09iamVjdDtMAAZwYXJlbnR0ADlMaW8vZ2l0aHViL2VyaWNtZWR2ZXQvamdlYS9jb3JlL3JlcHJlc2VudGF0aW9uL3RyZWUvVHJlZTt4cHNyABNqYXZhLnV0aWwuQXJyYXlMaXN0eIHSHZnHYZ0DAAFJAARzaXpleHAAAAACdwQAAAACc3EAfgACc3EAfgAHAAAAAHcEAAAAAHhzcgBLaW8uZ2l0aHViLmVyaWNtZWR2ZXQuamdlYS5jb3JlLnJlcHJlc2VudGF0aW9uLnRyZWUubnVtZXJpYy5FbGVtZW50JFZhcmlhYmxlAAAAAAAAAAACAAFMAARuYW1ldAASTGphdmEvbGFuZy9TdHJpbmc7eHB0AAJ4MnEAfgAGc3EAfgACc3EAfgAHAAAAAncEAAAAAnNxAH4AAnNxAH4ABwAAAAB3BAAAAAB4c3IAS2lvLmdpdGh1Yi5lcmljbWVkdmV0LmpnZWEuY29yZS5yZXByZXNlbnRhdGlvbi50cmVlLm51bWVyaWMuRWxlbWVudCRDb25zdGFudAAAAAAAAAAAAgABRAAFdmFsdWV4cAAAAAAAAAAAcQB+AA9zcQB+AAJzcQB+AAcAAAAAdwQAAAAAeHNxAH4AEz/gAAAAAAAAc3EAfgACc3EAfgAHAAAAAncEAAAAAnNxAH4AAnNxAH4ABwAAAAJ3BAAAAAJzcQB+AAJzcQB+AAcAAAAAdwQAAAAAeHEAfgAUcQB+ABpzcQB+AAJzcQB+AAcAAAAAdwQAAAAAeHEAfgAXcQB+ABp4fnIAS2lvLmdpdGh1Yi5lcmljbWVkdmV0LmpnZWEuY29yZS5yZXByZXNlbnRhdGlvbi50cmVlLm51bWVyaWMuRWxlbWVudCRPcGVyYXRvcgAAAAAAAAAAEgAAeHIADmphdmEubGFuZy5FbnVtAAAAAAAAAAASAAB4cHQACEFERElUSU9OcQB+ABhxAH4AFXhxAH4AInNxAH4AAnNxAH4ABwAAAAJ3BAAAAAJzcQB+AAJzcQB+AAcAAAAAdwQAAAAAeHEAfgANcQB+ACRxAH4AGHh+cQB+ACB0AAtTVUJUUkFDVElPTnB4cQB+ACJzcQB+AAJzcQB+AAcAAAACdwQAAAACc3EAfgACc3EAfgAHAAAAAHcEAAAAAHhxAH4AFHEAfgAqcQB+AA94cQB+AChweHEAfgAocHNxAH4AAnNxAH4ABwAAAAJ3BAAAAAJzcQB+AAJzcQB+AAcAAAACdwQAAAACc3EAfgACc3EAfgAHAAAAAncEAAAAAnNxAH4AAnNxAH4ABwAAAAB3BAAAAAB4cQB+ABRxAH4AMnNxAH4AAnNxAH4ABwAAAAB3BAAAAAB4c3EAfgALdAACeDRzcQB+AAJzcQB+AAcAAAACdwQAAAACc3EAfgACc3EAfgAHAAAAAncEAAAAAnNxAH4AAnNxAH4ABwAAAAJ3BAAAAAJzcQB+AAJzcQB+AAcAAAACdwQAAAACc3EAfgACc3EAfgAHAAAAAncEAAAAAnNxAH4AAnNxAH4ABwAAAAB3BAAAAAB4cQB+ABRxAH4AQnNxAH4AAnNxAH4ABwAAAAB3BAAAAAB4cQB+ADhxAH4AQnhxAH4AKHEAfgBAc3EAfgACc3EAfgAHAAAAAHcEAAAAAHhzcQB+ABM/8AAAAAAAAHEAfgBAeH5xAH4AIHQADk1VTFRJUExJQ0FUSU9OcQB+AD5zcQB+AAJzcQB+AAcAAAAAdwQAAAAAeHEAfgBKcQB+AD54cQB+AEtxAH4APHNxAH4AAnNxAH4ABwAAAAB3BAAAAAB4cQB+AEpxAH4APHhxAH4AS3EAfgA6cQB+ADZ4cQB+AChzcQB+AAJzcQB+AAcAAAACdwQAAAACcQB+ADpzcQB+AAJzcQB+AAcAAAAAdwQAAAAAeHEAfgBKc3EAfgACc3EAfgAHAAAAAncEAAAAAnNxAH4AAnNxAH4ABwAAAAB3BAAAAAB4cQB+AEpxAH4AVXEAfgBTeHEAfgBLc3EAfgACc3EAfgAHAAAAAncEAAAAAnEAfgBVc3EAfgACc3EAfgAHAAAAAHcEAAAAAHhxAH4ASnNxAH4AAnNxAH4ABwAAAAJ3BAAAAAJzcQB+AAJzcQB+AAcAAAACdwQAAAACc3EAfgACc3EAfgAHAAAAAncEAAAAAnNxAH4AAnNxAH4ABwAAAAB3BAAAAAB4cQB+ABRxAH4AYXNxAH4AAnNxAH4ABwAAAAB3BAAAAAB4cQB+ADhxAH4AYXhxAH4AKHEAfgBfc3EAfgACc3EAfgAHAAAAAncEAAAAAnNxAH4AAnNxAH4ABwAAAAJ3BAAAAAJzcQB+AAJzcQB+AAcAAAACdwQAAAACc3EAfgACc3EAfgAHAAAAAncEAAAAAnNxAH4AAnNxAH4ABwAAAAB3BAAAAAB4cQB+ABRxAH4AbXNxAH4AAnNxAH4ABwAAAAB3BAAAAAB4cQB+ADhxAH4AbXhxAH4AKHEAfgBrc3EAfgACc3EAfgAHAAAAAHcEAAAAAHhxAH4ASnEAfgBreHEAfgBLcQB+AGlzcQB+AAJzcQB+AAcAAAAAdwQAAAAAeHEAfgBKcQB+AGl4cQB+AEtxAH4AZ3NxAH4AAnNxAH4ABwAAAAB3BAAAAAB4cQB+AEpxAH4AZ3hxAH4AS3EAfgBfeHEAfgBLcQB+AF1xAH4AW3hxAH4AS3B4cQB+AEtweHEAfgBLc3EAfgACc3EAfgAHAAAAAncEAAAAAnEAfgBRcQB+AFt4cQB+AEtweHEAfgAocQB+ADBxAH4AU3hxAH4AS3EAfgAucQB+AFt4cQB+AEtwc3EAfgACc3EAfgAHAAAAAHcEAAAAAHhzcQB+AAt0AAJ4NnBzcQB+AAJzcQB+AAcAAAACdwQAAAACc3EAfgACc3EAfgAHAAAAAncEAAAAAnNxAH4AAnNxAH4ABwAAAAB3BAAAAAB4cQB+ADhxAH4AgXNxAH4AAnNxAH4ABwAAAAJ3BAAAAAJzcQB+AAJzcQB+AAcAAAAAdwQAAAAAeHNxAH4AC3QAA3gxNXEAfgCFc3EAfgACc3EAfgAHAAAAAHcEAAAAAHhxAH4AiXNxAH4AAnNxAH4ABwAAAAJ3BAAAAAJzcQB+AAJzcQB+AAcAAAACdwQAAAACc3EAfgACc3EAfgAHAAAAAHcEAAAAAHhxAH4AiXEAfgCPc3EAfgACc3EAfgAHAAAAAHcEAAAAAHhxAH4AiXEAfgCPeHEAfgAocQB+AI1xAH4Ai3hxAH4AKHNxAH4AAnNxAH4ABwAAAAJ3BAAAAAJzcQB+AAJzcQB+AAcAAAAAdwQAAAAAeHEAfgA4cQB+AJVxAH4AjXhxAH4AKHNxAH4AAnNxAH4ABwAAAAJ3BAAAAAJxAH4AlXNxAH4AAnNxAH4ABwAAAAJ3BAAAAAJzcQB+AAJzcQB+AAcAAAAAdwQAAAAAeHEAfgCJcQB+AJtzcQB+AAJzcQB+AAcAAAAAdwQAAAAAeHEAfgCJc3EAfgACc3EAfgAHAAAAAncEAAAAAnNxAH4AAnNxAH4ABwAAAAJ3BAAAAAJzcQB+AAJzcQB+AAcAAAAAdwQAAAAAeHEAfgCJcQB+AKNzcQB+AAJzcQB+AAcAAAAAdwQAAAAAeHEAfgCJcQB+AKN4cQB+AChxAH4AoXEAfgCfeHEAfgAoc3EAfgACc3EAfgAHAAAAAncEAAAAAnNxAH4AAnNxAH4ABwAAAAB3BAAAAAB4cQB+ADhxAH4AqXEAfgCheHEAfgAocHhxAH4AKHNxAH4AAnNxAH4ABwAAAAJ3BAAAAAJzcQB+AAJzcQB+AAcAAAACdwQAAAACc3EAfgACc3EAfgAHAAAAAHcEAAAAAHhxAH4AOHEAfgCvc3EAfgACc3EAfgAHAAAAAncEAAAAAnNxAH4AAnNxAH4ABwAAAAB3BAAAAAB4cQB+AIlxAH4As3NxAH4AAnNxAH4ABwAAAAB3BAAAAAB4cQB+AIlxAH4As3hxAH4AKHEAfgCveHEAfgAocQB+AK1xAH4Am3hxAH4AKHB4cQB+AChweHEAfgAoc3EAfgACc3EAfgAHAAAAAncEAAAAAnNxAH4AAnNxAH4ABwAAAAB3BAAAAAB4cQB+AIlxAH4AuXEAfgCFeHEAfgAoc3EAfgACc3EAfgAHAAAAAncEAAAAAnEAfgC5cQB+AJt4cQB+AChweHEAfgAocQB+AH9xAH4Am3hxAH4AKHB4";
    "rO0ABXNyABFqYXZhLnV0aWwuQ29sbFNlcleOq7Y6G6gRAwABSQADdGFneHAAAAAEdwQAAAAEc3IAN2lvLmdpdGh1Yi5lcmljbWVkdmV0LmpnZWEuY29yZS5yZXByZXNlbnRhdGlvbi50cmVlLlRyZWUKs7/qnQrEZQIAA0wACGNoaWxkcmVudAAQTGphdmEvdXRpbC9MaXN0O0wAB2NvbnRlbnR0ABJMamF2YS9sYW5nL09iamVjdDtMAAZwYXJlbnR0ADlMaW8vZ2l0aHViL2VyaWNtZWR2ZXQvamdlYS9jb3JlL3JlcHJlc2VudGF0aW9uL3RyZWUvVHJlZTt4cHNyABNqYXZhLnV0aWwuQXJyYXlMaXN0eIHSHZnHYZ0DAAFJAARzaXpleHAAAAACdwQAAAACc3EAfgACc3EAfgAHAAAAAHcEAAAAAHhzcgBLaW8uZ2l0aHViLmVyaWNtZWR2ZXQuamdlYS5jb3JlLnJlcHJlc2VudGF0aW9uLnRyZWUubnVtZXJpYy5FbGVtZW50JFZhcmlhYmxlAAAAAAAAAAACAAFMAARuYW1ldAASTGphdmEvbGFuZy9TdHJpbmc7eHB0AAJ4MnEAfgAGc3EAfgACc3EAfgAHAAAAAncEAAAAAnNxAH4AAnNxAH4ABwAAAAB3BAAAAAB4c3IAS2lvLmdpdGh1Yi5lcmljbWVkdmV0LmpnZWEuY29yZS5yZXByZXNlbnRhdGlvbi50cmVlLm51bWVyaWMuRWxlbWVudCRDb25zdGFudAAAAAAAAAAAAgABRAAFdmFsdWV4cAAAAAAAAAAAcQB+AA9zcQB+AAJzcQB+AAcAAAACdwQAAAACc3EAfgACc3EAfgAHAAAAAHcEAAAAAHhxAH4AFHEAfgAVc3EAfgACc3EAfgAHAAAAAncEAAAAAnNxAH4AAnNxAH4ABwAAAAB3BAAAAAB4cQB+ABRxAH4AGXNxAH4AAnNxAH4ABwAAAAJ3BAAAAAJzcQB+AAJzcQB+AAcAAAAAdwQAAAAAeHEAfgAUcQB+AB1zcQB+AAJzcQB+AAcAAAACdwQAAAACc3EAfgACc3EAfgAHAAAAAHcEAAAAAHhxAH4AFHEAfgAhc3EAfgACc3EAfgAHAAAAAHcEAAAAAHhzcQB+ABM/4AAAAAAAAHEAfgAheH5yAEtpby5naXRodWIuZXJpY21lZHZldC5qZ2VhLmNvcmUucmVwcmVzZW50YXRpb24udHJlZS5udW1lcmljLkVsZW1lbnQkT3BlcmF0b3IAAAAAAAAAABIAAHhyAA5qYXZhLmxhbmcuRW51bQAAAAAAAAAAEgAAeHB0AAhBRERJVElPTnEAfgAdeHEAfgAqcQB+ABl4cQB+ACpxAH4AFXhxAH4AKnNxAH4AAnNxAH4ABwAAAAJ3BAAAAAJzcQB+AAJzcQB+AAcAAAAAdwQAAAAAeHEAfgAncQB+ACxxAH4AFXhxAH4AKnNxAH4AAnNxAH4ABwAAAAJ3BAAAAAJzcQB+AAJzcQB+AAcAAAAAdwQAAAAAeHEAfgANcQB+ADBxAH4ALHh+cQB+ACh0AAtTVUJUUkFDVElPTnB4cQB+ACpzcQB+AAJzcQB+AAcAAAACdwQAAAACc3EAfgACc3EAfgAHAAAAAHcEAAAAAHhxAH4AFHEAfgA2cQB+AA94cQB+ADRweHEAfgA0cHNxAH4AAnNxAH4ABwAAAAJ3BAAAAAJzcQB+AAJzcQB+AAcAAAAAdwQAAAAAeHEAfgAUcQB+ADpzcQB+AAJzcQB+AAcAAAAAdwQAAAAAeHNxAH4AC3QAAng0c3EAfgACc3EAfgAHAAAAAncEAAAAAnNxAH4AAnNxAH4ABwAAAAB3BAAAAAB4c3EAfgATP/AAAAAAAABxAH4AQnEAfgA+eHEAfgA0cHhxAH4ANHBzcQB+AAJzcQB+AAcAAAAAdwQAAAAAeHNxAH4AC3QAAng2cHNxAH4AAnNxAH4ABwAAAAJ3BAAAAAJzcQB+AAJzcQB+AAcAAAACdwQAAAACc3EAfgACc3EAfgAHAAAAAHcEAAAAAHhxAH4AQHEAfgBNc3EAfgACc3EAfgAHAAAAAncEAAAAAnNxAH4AAnNxAH4ABwAAAAB3BAAAAAB4c3EAfgALdAADeDE1cQB+AFFzcQB+AAJzcQB+AAcAAAAAdwQAAAAAeHEAfgBVc3EAfgACc3EAfgAHAAAAAncEAAAAAnNxAH4AAnNxAH4ABwAAAAJ3BAAAAAJzcQB+AAJzcQB+AAcAAAAAdwQAAAAAeHEAfgBVcQB+AFtzcQB+AAJzcQB+AAcAAAAAdwQAAAAAeHEAfgBVcQB+AFt4cQB+ADRxAH4AWXEAfgBXeHEAfgA0c3EAfgACc3EAfgAHAAAAAncEAAAAAnNxAH4AAnNxAH4ABwAAAAB3BAAAAAB4cQB+AEBxAH4AYXEAfgBZeHEAfgA0c3EAfgACc3EAfgAHAAAAAncEAAAAAnEAfgBhc3EAfgACc3EAfgAHAAAAAncEAAAAAnNxAH4AAnNxAH4ABwAAAAB3BAAAAAB4cQB+AFVxAH4AZ3NxAH4AAnNxAH4ABwAAAAB3BAAAAAB4cQB+AFVzcQB+AAJzcQB+AAcAAAACdwQAAAACc3EAfgACc3EAfgAHAAAAAncEAAAAAnNxAH4AAnNxAH4ABwAAAAB3BAAAAAB4cQB+AFVxAH4Ab3NxAH4AAnNxAH4ABwAAAAB3BAAAAAB4cQB+AFVxAH4Ab3hxAH4ANHEAfgBtcQB+AGt4cQB+ADRzcQB+AAJzcQB+AAcAAAACdwQAAAACc3EAfgACc3EAfgAHAAAAAHcEAAAAAHhxAH4AQHEAfgB1cQB+AG14cQB+ADRweHEAfgA0c3EAfgACc3EAfgAHAAAAAncEAAAAAnNxAH4AAnNxAH4ABwAAAAJ3BAAAAAJzcQB+AAJzcQB+AAcAAAAAdwQAAAAAeHEAfgBAcQB+AHtzcQB+AAJzcQB+AAcAAAACdwQAAAACc3EAfgACc3EAfgAHAAAAAHcEAAAAAHhxAH4AVXEAfgB/c3EAfgACc3EAfgAHAAAAAHcEAAAAAHhxAH4AVXEAfgB/eHEAfgA0cQB+AHt4cQB+ADRxAH4AeXEAfgBneHEAfgA0cHhxAH4ANHB4cQB+ADRzcQB+AAJzcQB+AAcAAAACdwQAAAACc3EAfgACc3EAfgAHAAAAAHcEAAAAAHhxAH4AVXEAfgCFcQB+AFF4cQB+ADRzcQB+AAJzcQB+AAcAAAACdwQAAAACcQB+AIVxAH4AZ3hxAH4ANHB4cQB+ADRxAH4AS3EAfgBneHEAfgA0cHg=";
    "rO0ABXNyABFqYXZhLnV0aWwuQ29sbFNlcleOq7Y6G6gRAwABSQADdGFneHAAAAAEdwQAAAAEc3IAN2lvLmdpdGh1Yi5lcmljbWVkdmV0LmpnZWEuY29yZS5yZXByZXNlbnRhdGlvbi50cmVlLlRyZWUKs7/qnQrEZQIAA0wACGNoaWxkcmVudAAQTGphdmEvdXRpbC9MaXN0O0wAB2NvbnRlbnR0ABJMamF2YS9sYW5nL09iamVjdDtMAAZwYXJlbnR0ADlMaW8vZ2l0aHViL2VyaWNtZWR2ZXQvamdlYS9jb3JlL3JlcHJlc2VudGF0aW9uL3RyZWUvVHJlZTt4cHNyABNqYXZhLnV0aWwuQXJyYXlMaXN0eIHSHZnHYZ0DAAFJAARzaXpleHAAAAACdwQAAAACc3EAfgACc3EAfgAHAAAAAHcEAAAAAHhzcgBLaW8uZ2l0aHViLmVyaWNtZWR2ZXQuamdlYS5jb3JlLnJlcHJlc2VudGF0aW9uLnRyZWUubnVtZXJpYy5FbGVtZW50JFZhcmlhYmxlAAAAAAAAAAACAAFMAARuYW1ldAASTGphdmEvbGFuZy9TdHJpbmc7eHB0AAJ4MnEAfgAGc3EAfgACc3EAfgAHAAAAAncEAAAAAnNxAH4AAnNxAH4ABwAAAAB3BAAAAAB4c3IAS2lvLmdpdGh1Yi5lcmljbWVkdmV0LmpnZWEuY29yZS5yZXByZXNlbnRhdGlvbi50cmVlLm51bWVyaWMuRWxlbWVudCRDb25zdGFudAAAAAAAAAAAAgABRAAFdmFsdWV4cAAAAAAAAAAAcQB+AA9zcQB+AAJzcQB+AAcAAAACdwQAAAACc3EAfgACc3EAfgAHAAAAAHcEAAAAAHhxAH4AFHEAfgAVc3EAfgACc3EAfgAHAAAAAncEAAAAAnNxAH4AAnNxAH4ABwAAAAB3BAAAAAB4cQB+ABRxAH4AGXNxAH4AAnNxAH4ABwAAAAB3BAAAAAB4c3EAfgATP+AAAAAAAABxAH4AGXh+cgBLaW8uZ2l0aHViLmVyaWNtZWR2ZXQuamdlYS5jb3JlLnJlcHJlc2VudGF0aW9uLnRyZWUubnVtZXJpYy5FbGVtZW50JE9wZXJhdG9yAAAAAAAAAAASAAB4cgAOamF2YS5sYW5nLkVudW0AAAAAAAAAABIAAHhwdAAIQURESVRJT05xAH4AFXhxAH4AInNxAH4AAnNxAH4ABwAAAAJ3BAAAAAJzcQB+AAJzcQB+AAcAAAACdwQAAAACc3EAfgACc3EAfgAHAAAAAHcEAAAAAHhxAH4AFHEAfgAmc3EAfgACc3EAfgAHAAAAAncEAAAAAnNxAH4AAnNxAH4ABwAAAAB3BAAAAAB4cQB+ABRxAH4AKnNxAH4AAnNxAH4ABwAAAAB3BAAAAAB4cQB+AB9xAH4AKnhxAH4AInEAfgAmeHEAfgAicQB+ACRxAH4AFXhxAH4AInNxAH4AAnNxAH4ABwAAAAJ3BAAAAAJzcQB+AAJzcQB+AAcAAAAAdwQAAAAAeHEAfgANcQB+ADBxAH4AJHh+cQB+ACB0AAtTVUJUUkFDVElPTnB4cQB+ACJzcQB+AAJzcQB+AAcAAAACdwQAAAACc3EAfgACc3EAfgAHAAAAAHcEAAAAAHhxAH4AFHEAfgA2cQB+AA94cQB+ADRweHEAfgA0cHNxAH4AAnNxAH4ABwAAAAJ3BAAAAAJzcQB+AAJzcQB+AAcAAAAAdwQAAAAAeHEAfgAUcQB+ADpzcQB+AAJzcQB+AAcAAAAAdwQAAAAAeHNxAH4AC3QAAng0c3EAfgACc3EAfgAHAAAAAncEAAAAAnNxAH4AAnNxAH4ABwAAAAB3BAAAAAB4c3EAfgATP/AAAAAAAABxAH4AQnEAfgA+eHEAfgA0cHhxAH4ANHBzcQB+AAJzcQB+AAcAAAAAdwQAAAAAeHNxAH4AC3QAAng2cHNxAH4AAnNxAH4ABwAAAAJ3BAAAAAJzcQB+AAJzcQB+AAcAAAACdwQAAAACc3EAfgACc3EAfgAHAAAAAHcEAAAAAHhxAH4AQHEAfgBNc3EAfgACc3EAfgAHAAAAAncEAAAAAnNxAH4AAnNxAH4ABwAAAAB3BAAAAAB4c3EAfgALdAADeDE1cQB+AFFzcQB+AAJzcQB+AAcAAAAAdwQAAAAAeHEAfgBVc3EAfgACc3EAfgAHAAAAAncEAAAAAnNxAH4AAnNxAH4ABwAAAAJ3BAAAAAJzcQB+AAJzcQB+AAcAAAAAdwQAAAAAeHEAfgBVcQB+AFtzcQB+AAJzcQB+AAcAAAAAdwQAAAAAeHEAfgBVcQB+AFt4cQB+ADRxAH4AWXEAfgBXeHEAfgA0c3EAfgACc3EAfgAHAAAAAncEAAAAAnNxAH4AAnNxAH4ABwAAAAB3BAAAAAB4cQB+AEBxAH4AYXEAfgBZeHEAfgA0c3EAfgACc3EAfgAHAAAAAncEAAAAAnEAfgBhc3EAfgACc3EAfgAHAAAAAncEAAAAAnNxAH4AAnNxAH4ABwAAAAB3BAAAAAB4cQB+AFVxAH4AZ3NxAH4AAnNxAH4ABwAAAAB3BAAAAAB4cQB+AFVzcQB+AAJzcQB+AAcAAAACdwQAAAACc3EAfgACc3EAfgAHAAAAAncEAAAAAnNxAH4AAnNxAH4ABwAAAAB3BAAAAAB4cQB+AFVxAH4Ab3NxAH4AAnNxAH4ABwAAAAB3BAAAAAB4cQB+AFVxAH4Ab3hxAH4ANHEAfgBtcQB+AGt4cQB+ADRzcQB+AAJzcQB+AAcAAAACdwQAAAACc3EAfgACc3EAfgAHAAAAAHcEAAAAAHhxAH4AQHEAfgB1cQB+AG14cQB+ADRweHEAfgA0c3EAfgACc3EAfgAHAAAAAncEAAAAAnNxAH4AAnNxAH4ABwAAAAJ3BAAAAAJzcQB+AAJzcQB+AAcAAAAAdwQAAAAAeHEAfgBAcQB+AHtzcQB+AAJzcQB+AAcAAAACdwQAAAACc3EAfgACc3EAfgAHAAAAAHcEAAAAAHhxAH4AVXEAfgB/c3EAfgACc3EAfgAHAAAAAHcEAAAAAHhxAH4AVXEAfgB/eHEAfgA0cQB+AHt4cQB+ADRxAH4AeXEAfgBneHEAfgA0cHhxAH4ANHB4cQB+ADRzcQB+AAJzcQB+AAcAAAACdwQAAAACc3EAfgACc3EAfgAHAAAAAHcEAAAAAHhxAH4AVXEAfgCFcQB+AFF4cQB+ADRzcQB+AAJzcQB+AAcAAAACdwQAAAACcQB+AIVxAH4AZ3hxAH4ANHB4cQB+ADRxAH4AS3EAfgBneHEAfgA0cHg=";
    "rO0ABXNyABFqYXZhLnV0aWwuQ29sbFNlcleOq7Y6G6gRAwABSQADdGFneHAAAAAEdwQAAAAEc3IAN2lvLmdpdGh1Yi5lcmljbWVkdmV0LmpnZWEuY29yZS5yZXByZXNlbnRhdGlvbi50cmVlLlRyZWUKs7/qnQrEZQIAA0wACGNoaWxkcmVudAAQTGphdmEvdXRpbC9MaXN0O0wAB2NvbnRlbnR0ABJMamF2YS9sYW5nL09iamVjdDtMAAZwYXJlbnR0ADlMaW8vZ2l0aHViL2VyaWNtZWR2ZXQvamdlYS9jb3JlL3JlcHJlc2VudGF0aW9uL3RyZWUvVHJlZTt4cHNyABNqYXZhLnV0aWwuQXJyYXlMaXN0eIHSHZnHYZ0DAAFJAARzaXpleHAAAAACdwQAAAACc3EAfgACc3EAfgAHAAAAAHcEAAAAAHhzcgBLaW8uZ2l0aHViLmVyaWNtZWR2ZXQuamdlYS5jb3JlLnJlcHJlc2VudGF0aW9uLnRyZWUubnVtZXJpYy5FbGVtZW50JFZhcmlhYmxlAAAAAAAAAAACAAFMAARuYW1ldAASTGphdmEvbGFuZy9TdHJpbmc7eHB0AAJ4MnEAfgAGc3EAfgACc3EAfgAHAAAAAncEAAAAAnNxAH4AAnNxAH4ABwAAAAB3BAAAAAB4c3IAS2lvLmdpdGh1Yi5lcmljbWVkdmV0LmpnZWEuY29yZS5yZXByZXNlbnRhdGlvbi50cmVlLm51bWVyaWMuRWxlbWVudCRDb25zdGFudAAAAAAAAAAAAgABRAAFdmFsdWV4cAAAAAAAAAAAcQB+AA9zcQB+AAJzcQB+AAcAAAACdwQAAAACc3EAfgACc3EAfgAHAAAAAHcEAAAAAHhxAH4AFHEAfgAVc3EAfgACc3EAfgAHAAAAAncEAAAAAnNxAH4AAnNxAH4ABwAAAAB3BAAAAAB4cQB+ABRxAH4AGXNxAH4AAnNxAH4ABwAAAAJ3BAAAAAJzcQB+AAJzcQB+AAcAAAAAdwQAAAAAeHEAfgAUcQB+AB1zcQB+AAJzcQB+AAcAAAACdwQAAAACc3EAfgACc3EAfgAHAAAAAHcEAAAAAHhxAH4AFHEAfgAhc3EAfgACc3EAfgAHAAAAAHcEAAAAAHhzcQB+ABM/4AAAAAAAAHEAfgAheH5yAEtpby5naXRodWIuZXJpY21lZHZldC5qZ2VhLmNvcmUucmVwcmVzZW50YXRpb24udHJlZS5udW1lcmljLkVsZW1lbnQkT3BlcmF0b3IAAAAAAAAAABIAAHhyAA5qYXZhLmxhbmcuRW51bQAAAAAAAAAAEgAAeHB0AAhBRERJVElPTnEAfgAdeHEAfgAqcQB+ABl4cQB+ACpxAH4AFXhxAH4AKnNxAH4AAnNxAH4ABwAAAAJ3BAAAAAJzcQB+AAJzcQB+AAcAAAAAdwQAAAAAeHEAfgAncQB+ACxxAH4AFXhxAH4AKnNxAH4AAnNxAH4ABwAAAAJ3BAAAAAJzcQB+AAJzcQB+AAcAAAAAdwQAAAAAeHEAfgANcQB+ADBxAH4ALHh+cQB+ACh0AAtTVUJUUkFDVElPTnB4cQB+ACpzcQB+AAJzcQB+AAcAAAACdwQAAAACc3EAfgACc3EAfgAHAAAAAHcEAAAAAHhxAH4AFHEAfgA2cQB+AA94cQB+ADRweHEAfgA0cHNxAH4AAnNxAH4ABwAAAAJ3BAAAAAJzcQB+AAJzcQB+AAcAAAACdwQAAAACc3EAfgACc3EAfgAHAAAAAHcEAAAAAHhxAH4AFHEAfgA8c3EAfgACc3EAfgAHAAAAAHcEAAAAAHhzcQB+AAt0AAJ4NHNxAH4AAnNxAH4ABwAAAAJ3BAAAAAJzcQB+AAJzcQB+AAcAAAAAdwQAAAAAeHNxAH4AEz/wAAAAAAAAcQB+AERxAH4AQHhxAH4ANHNxAH4AAnNxAH4ABwAAAAJ3BAAAAAJxAH4ARHNxAH4AAnNxAH4ABwAAAAB3BAAAAAB4cQB+AEhzcQB+AAJzcQB+AAcAAAACdwQAAAACc3EAfgACc3EAfgAHAAAAAncEAAAAAnNxAH4AAnNxAH4ABwAAAAJ3BAAAAAJzcQB+AAJzcQB+AAcAAAACdwQAAAACc3EAfgACc3EAfgAHAAAAAHcEAAAAAHhxAH4AQnEAfgBTc3EAfgACc3EAfgAHAAAAAHcEAAAAAHhxAH4AQnEAfgBTeHEAfgA0cQB+AFFzcQB+AAJzcQB+AAcAAAAAdwQAAAAAeHEAfgBIcQB+AFF4fnEAfgAodAAOTVVMVElQTElDQVRJT05xAH4AT3NxAH4AAnNxAH4ABwAAAAB3BAAAAAB4cQB+AEhxAH4AT3hxAH4AW3EAfgBNcQB+AEt4cQB+AFtweHEAfgBbcHhxAH4ANHEAfgA6cQB+AEt4cQB+AFtwc3EAfgACc3EAfgAHAAAAAHcEAAAAAHhzcQB+AAt0AAJ4NnBzcQB+AAJzcQB+AAcAAAACdwQAAAACc3EAfgACc3EAfgAHAAAAAHcEAAAAAHhxAH4AQnEAfgBjc3EAfgACc3EAfgAHAAAAAncEAAAAAnNxAH4AAnNxAH4ABwAAAAB3BAAAAAB4c3EAfgALdAADeDE1cQB+AGdzcQB+AAJzcQB+AAcAAAAAdwQAAAAAeHEAfgBrc3EAfgACc3EAfgAHAAAAAncEAAAAAnNxAH4AAnNxAH4ABwAAAAJ3BAAAAAJzcQB+AAJzcQB+AAcAAAAAdwQAAAAAeHEAfgBrcQB+AHFzcQB+AAJzcQB+AAcAAAAAdwQAAAAAeHEAfgBrcQB+AHF4cQB+ADRxAH4Ab3EAfgBteHEAfgA0c3EAfgACc3EAfgAHAAAAAncEAAAAAnNxAH4AAnNxAH4ABwAAAAB3BAAAAAB4cQB+AEJxAH4Ad3EAfgBveHEAfgA0cHhxAH4ANHNxAH4AAnNxAH4ABwAAAAJ3BAAAAAJzcQB+AAJzcQB+AAcAAAACdwQAAAACc3EAfgACc3EAfgAHAAAAAHcEAAAAAHhxAH4AQnEAfgB9c3EAfgACc3EAfgAHAAAAAncEAAAAAnNxAH4AAnNxAH4ABwAAAAB3BAAAAAB4cQB+AGtxAH4AgXNxAH4AAnNxAH4ABwAAAAB3BAAAAAB4cQB+AGtxAH4AgXhxAH4ANHEAfgB9eHEAfgA0cQB+AHtxAH4AZ3hxAH4ANHB4cQB+ADRweA==";
    "rO0ABXNyABFqYXZhLnV0aWwuQ29sbFNlcleOq7Y6G6gRAwABSQADdGFneHAAAAAEdwQAAAAEc3IAN2lvLmdpdGh1Yi5lcmljbWVkdmV0LmpnZWEuY29yZS5yZXByZXNlbnRhdGlvbi50cmVlLlRyZWUKs7/qnQrEZQIAA0wACGNoaWxkcmVudAAQTGphdmEvdXRpbC9MaXN0O0wAB2NvbnRlbnR0ABJMamF2YS9sYW5nL09iamVjdDtMAAZwYXJlbnR0ADlMaW8vZ2l0aHViL2VyaWNtZWR2ZXQvamdlYS9jb3JlL3JlcHJlc2VudGF0aW9uL3RyZWUvVHJlZTt4cHNyABNqYXZhLnV0aWwuQXJyYXlMaXN0eIHSHZnHYZ0DAAFJAARzaXpleHAAAAACdwQAAAACc3EAfgACc3EAfgAHAAAAAHcEAAAAAHhzcgBLaW8uZ2l0aHViLmVyaWNtZWR2ZXQuamdlYS5jb3JlLnJlcHJlc2VudGF0aW9uLnRyZWUubnVtZXJpYy5FbGVtZW50JFZhcmlhYmxlAAAAAAAAAAACAAFMAARuYW1ldAASTGphdmEvbGFuZy9TdHJpbmc7eHB0AAJ4MnEAfgAGc3EAfgACc3EAfgAHAAAAAncEAAAAAnNxAH4AAnNxAH4ABwAAAAB3BAAAAAB4c3IAS2lvLmdpdGh1Yi5lcmljbWVkdmV0LmpnZWEuY29yZS5yZXByZXNlbnRhdGlvbi50cmVlLm51bWVyaWMuRWxlbWVudCRDb25zdGFudAAAAAAAAAAAAgABRAAFdmFsdWV4cAAAAAAAAAAAcQB+AA9zcQB+AAJzcQB+AAcAAAACdwQAAAACc3EAfgACc3EAfgAHAAAAAHcEAAAAAHhxAH4AFHEAfgAVc3EAfgACc3EAfgAHAAAAAncEAAAAAnNxAH4AAnNxAH4ABwAAAAB3BAAAAAB4cQB+ABRxAH4AGXNxAH4AAnNxAH4ABwAAAAJ3BAAAAAJzcQB+AAJzcQB+AAcAAAAAdwQAAAAAeHEAfgAUcQB+AB1zcQB+AAJzcQB+AAcAAAACdwQAAAACc3EAfgACc3EAfgAHAAAAAHcEAAAAAHhxAH4AFHEAfgAhc3EAfgACc3EAfgAHAAAAAncEAAAAAnNxAH4AAnNxAH4ABwAAAAB3BAAAAAB4cQB+ABRxAH4AJXNxAH4AAnNxAH4ABwAAAAB3BAAAAAB4c3EAfgATP+AAAAAAAABxAH4AJXh+cgBLaW8uZ2l0aHViLmVyaWNtZWR2ZXQuamdlYS5jb3JlLnJlcHJlc2VudGF0aW9uLnRyZWUubnVtZXJpYy5FbGVtZW50JE9wZXJhdG9yAAAAAAAAAAASAAB4cgAOamF2YS5sYW5nLkVudW0AAAAAAAAAABIAAHhwdAAIQURESVRJT05xAH4AIXhxAH4ALnEAfgAdeHEAfgAucQB+ABl4cQB+AC5xAH4AFXhxAH4ALnNxAH4AAnNxAH4ABwAAAAJ3BAAAAAJzcQB+AAJzcQB+AAcAAAAAdwQAAAAAeHEAfgArcQB+ADBxAH4AFXhxAH4ALnNxAH4AAnNxAH4ABwAAAAJ3BAAAAAJzcQB+AAJzcQB+AAcAAAAAdwQAAAAAeHEAfgANcQB+ADRxAH4AMHh+cQB+ACx0AAtTVUJUUkFDVElPTnB4cQB+AC5zcQB+AAJzcQB+AAcAAAACdwQAAAACc3EAfgACc3EAfgAHAAAAAHcEAAAAAHhxAH4AFHEAfgA6cQB+AA94cQB+ADhweHEAfgA4cHNxAH4AAnNxAH4ABwAAAAJ3BAAAAAJzcQB+AAJzcQB+AAcAAAACdwQAAAACc3EAfgACc3EAfgAHAAAAAncEAAAAAnNxAH4AAnNxAH4ABwAAAAJ3BAAAAAJzcQB+AAJzcQB+AAcAAAACdwQAAAACc3EAfgACc3EAfgAHAAAAAncEAAAAAnNxAH4AAnNxAH4ABwAAAAB3BAAAAAB4cQB+ABRxAH4ASHNxAH4AAnNxAH4ABwAAAAB3BAAAAAB4c3EAfgALdAACeDRzcQB+AAJzcQB+AAcAAAACdwQAAAACc3EAfgACc3EAfgAHAAAAAHcEAAAAAHhzcQB+ABM/8AAAAAAAAHEAfgBQcQB+AEx4cQB+ADhzcQB+AAJzcQB+AAcAAAACdwQAAAACcQB+AFBzcQB+AAJzcQB+AAcAAAAAdwQAAAAAeHEAfgBUc3EAfgACc3EAfgAHAAAAAncEAAAAAnNxAH4AAnNxAH4ABwAAAAB3BAAAAAB4cQB+ABRxAH4AWXEAfgBXeH5xAH4ALHQADk1VTFRJUExJQ0FUSU9Oc3EAfgACc3EAfgAHAAAAAncEAAAAAnEAfgBZc3EAfgACc3EAfgAHAAAAAHcEAAAAAHhxAH4AVHEAfgBfeHEAfgBdc3EAfgACc3EAfgAHAAAAAncEAAAAAnEAfgBfc3EAfgACc3EAfgAHAAAAAHcEAAAAAHhxAH4AVHEAfgBjeHEAfgBdc3EAfgACc3EAfgAHAAAAAncEAAAAAnEAfgBjc3EAfgACc3EAfgAHAAAAAHcEAAAAAHhxAH4AVHNxAH4AAnNxAH4ABwAAAAJ3BAAAAAJzcQB+AAJzcQB+AAcAAAAAdwQAAAAAeHEAfgBUcQB+AGtxAH4AaXhxAH4AXXNxAH4AAnNxAH4ABwAAAAJ3BAAAAAJxAH4Aa3NxAH4AAnNxAH4ABwAAAAB3BAAAAAB4cQB+AFRzcQB+AAJzcQB+AAcAAAACdwQAAAACc3EAfgACc3EAfgAHAAAAAncEAAAAAnNxAH4AAnNxAH4ABwAAAAJ3BAAAAAJzcQB+AAJzcQB+AAcAAAAAdwQAAAAAeHEAfgAUcQB+AHdzcQB+AAJzcQB+AAcAAAAAdwQAAAAAeHEAfgBOcQB+AHd4cQB+ADhxAH4AdXNxAH4AAnNxAH4ABwAAAAJ3BAAAAAJzcQB+AAJzcQB+AAcAAAACdwQAAAACc3EAfgACc3EAfgAHAAAAAncEAAAAAnNxAH4AAnNxAH4ABwAAAAJ3BAAAAAJzcQB+AAJzcQB+AAcAAAAAdwQAAAAAeHEAfgAUcQB+AINzcQB+AAJzcQB+AAcAAAAAdwQAAAAAeHEAfgBOcQB+AIN4cQB+ADhxAH4AgXNxAH4AAnNxAH4ABwAAAAB3BAAAAAB4cQB+AFRxAH4AgXhxAH4AXXEAfgB/c3EAfgACc3EAfgAHAAAAAHcEAAAAAHhxAH4AVHEAfgB/eHEAfgBdcQB+AH1zcQB+AAJzcQB+AAcAAAAAdwQAAAAAeHEAfgBUcQB+AH14cQB+AF1xAH4AdXhxAH4AXXEAfgBzcQB+AHF4cQB+AF1weHEAfgBdcHhxAH4AXXNxAH4AAnNxAH4ABwAAAAJ3BAAAAAJxAH4AZ3EAfgBxeHEAfgBdcHhxAH4AXXNxAH4AAnNxAH4ABwAAAAJ3BAAAAAJxAH4AVXEAfgBheHEAfgBdc3EAfgACc3EAfgAHAAAAAncEAAAAAnEAfgCRcQB+AGV4cQB+AF1zcQB+AAJzcQB+AAcAAAACdwQAAAACcQB+AJNxAH4AaXhxAH4AXXNxAH4AAnNxAH4ABwAAAAJ3BAAAAAJxAH4AlXEAfgBxeHEAfgBdcHhxAH4AOHEAfgBGcQB+AFd4cQB+AF1xAH4ARHEAfgBheHEAfgBdcQB+AEJxAH4AZXhxAH4AXXEAfgBAcQB+AGl4cQB+AF1xAH4APnEAfgBxeHEAfgBdcHNxAH4AAnNxAH4ABwAAAAB3BAAAAAB4c3EAfgALdAACeDZwc3EAfgACc3EAfgAHAAAAAHcEAAAAAHhxAH4ATnB4";
    "rO0ABXNyABFqYXZhLnV0aWwuQ29sbFNlcleOq7Y6G6gRAwABSQADdGFneHAAAAAEdwQAAAAEc3IAN2lvLmdpdGh1Yi5lcmljbWVkdmV0LmpnZWEuY29yZS5yZXByZXNlbnRhdGlvbi50cmVlLlRyZWUKs7/qnQrEZQIAA0wACGNoaWxkcmVudAAQTGphdmEvdXRpbC9MaXN0O0wAB2NvbnRlbnR0ABJMamF2YS9sYW5nL09iamVjdDtMAAZwYXJlbnR0ADlMaW8vZ2l0aHViL2VyaWNtZWR2ZXQvamdlYS9jb3JlL3JlcHJlc2VudGF0aW9uL3RyZWUvVHJlZTt4cHNyABNqYXZhLnV0aWwuQXJyYXlMaXN0eIHSHZnHYZ0DAAFJAARzaXpleHAAAAACdwQAAAACc3EAfgACc3EAfgAHAAAAAHcEAAAAAHhzcgBLaW8uZ2l0aHViLmVyaWNtZWR2ZXQuamdlYS5jb3JlLnJlcHJlc2VudGF0aW9uLnRyZWUubnVtZXJpYy5FbGVtZW50JFZhcmlhYmxlAAAAAAAAAAACAAFMAARuYW1ldAASTGphdmEvbGFuZy9TdHJpbmc7eHB0AAJ4MnEAfgAGc3EAfgACc3EAfgAHAAAAAncEAAAAAnNxAH4AAnNxAH4ABwAAAAB3BAAAAAB4c3IAS2lvLmdpdGh1Yi5lcmljbWVkdmV0LmpnZWEuY29yZS5yZXByZXNlbnRhdGlvbi50cmVlLm51bWVyaWMuRWxlbWVudCRDb25zdGFudAAAAAAAAAAAAgABRAAFdmFsdWV4cAAAAAAAAAAAcQB+AA9zcQB+AAJzcQB+AAcAAAACdwQAAAACc3EAfgACc3EAfgAHAAAAAHcEAAAAAHhxAH4AFHEAfgAVc3EAfgACc3EAfgAHAAAAAHcEAAAAAHhzcQB+ABM/4AAAAAAAAHEAfgAVeH5yAEtpby5naXRodWIuZXJpY21lZHZldC5qZ2VhLmNvcmUucmVwcmVzZW50YXRpb24udHJlZS5udW1lcmljLkVsZW1lbnQkT3BlcmF0b3IAAAAAAAAAABIAAHhyAA5qYXZhLmxhbmcuRW51bQAAAAAAAAAAEgAAeHB0AAhBRERJVElPTnNxAH4AAnNxAH4ABwAAAAJ3BAAAAAJzcQB+AAJzcQB+AAcAAAACdwQAAAACc3EAfgACc3EAfgAHAAAAAHcEAAAAAHhxAH4ADXEAfgAic3EAfgACc3EAfgAHAAAAAncEAAAAAnNxAH4AAnNxAH4ABwAAAAB3BAAAAAB4cQB+ABRxAH4AJnNxAH4AAnNxAH4ABwAAAAJ3BAAAAAJzcQB+AAJzcQB+AAcAAAAAdwQAAAAAeHEAfgAUcQB+ACpzcQB+AAJzcQB+AAcAAAACdwQAAAACc3EAfgACc3EAfgAHAAAAAHcEAAAAAHhxAH4AFHEAfgAuc3EAfgACc3EAfgAHAAAAAHcEAAAAAHhxAH4AG3EAfgAueHEAfgAecQB+ACp4cQB+AB5xAH4AJnhxAH4AHnEAfgAieH5xAH4AHHQAC1NVQlRSQUNUSU9OcQB+ACBxAH4AFXhxAH4AHnNxAH4AAnNxAH4ABwAAAAJ3BAAAAAJzcQB+AAJzcQB+AAcAAAAAdwQAAAAAeHEAfgANcQB+ADZxAH4AIHhxAH4ANHB4cQB+AB5zcQB+AAJzcQB+AAcAAAACdwQAAAACc3EAfgACc3EAfgAHAAAAAHcEAAAAAHhxAH4AFHEAfgA6cQB+AA94cQB+ADRweHEAfgA0cHNxAH4AAnNxAH4ABwAAAAJ3BAAAAAJzcQB+AAJzcQB+AAcAAAACdwQAAAACc3EAfgACc3EAfgAHAAAAAncEAAAAAnNxAH4AAnNxAH4ABwAAAAB3BAAAAAB4cQB+ABRxAH4AQnNxAH4AAnNxAH4ABwAAAAB3BAAAAAB4c3EAfgALdAACeDRzcQB+AAJzcQB+AAcAAAACdwQAAAACc3EAfgACc3EAfgAHAAAAAncEAAAAAnNxAH4AAnNxAH4ABwAAAAJ3BAAAAAJzcQB+AAJzcQB+AAcAAAACdwQAAAACc3EAfgACc3EAfgAHAAAAAncEAAAAAnNxAH4AAnNxAH4ABwAAAAB3BAAAAAB4cQB+ABRxAH4AUnNxAH4AAnNxAH4ABwAAAAB3BAAAAAB4cQB+AEhxAH4AUnhxAH4ANHEAfgBQc3EAfgACc3EAfgAHAAAAAHcEAAAAAHhzcQB+ABM/8AAAAAAAAHEAfgBQeH5xAH4AHHQADk1VTFRJUExJQ0FUSU9OcQB+AE5zcQB+AAJzcQB+AAcAAAAAdwQAAAAAeHEAfgBacQB+AE54cQB+AFtxAH4ATHNxAH4AAnNxAH4ABwAAAAB3BAAAAAB4cQB+AFpxAH4ATHhxAH4AW3EAfgBKcQB+AEZ4cQB+ADRzcQB+AAJzcQB+AAcAAAACdwQAAAACcQB+AEpzcQB+AAJzcQB+AAcAAAAAdwQAAAAAeHEAfgBac3EAfgACc3EAfgAHAAAAAncEAAAAAnNxAH4AAnNxAH4ABwAAAAB3BAAAAAB4cQB+AFpxAH4AZXEAfgBjeHEAfgBbc3EAfgACc3EAfgAHAAAAAncEAAAAAnEAfgBlc3EAfgACc3EAfgAHAAAAAHcEAAAAAHhxAH4AWnNxAH4AAnNxAH4ABwAAAAJ3BAAAAAJzcQB+AAJzcQB+AAcAAAACdwQAAAACc3EAfgACc3EAfgAHAAAAAncEAAAAAnNxAH4AAnNxAH4ABwAAAAB3BAAAAAB4cQB+ABRxAH4AcXNxAH4AAnNxAH4ABwAAAAB3BAAAAAB4cQB+AEhxAH4AcXhxAH4ANHEAfgBvc3EAfgACc3EAfgAHAAAAAncEAAAAAnNxAH4AAnNxAH4ABwAAAAJ3BAAAAAJzcQB+AAJzcQB+AAcAAAACdwQAAAACc3EAfgACc3EAfgAHAAAAAncEAAAAAnNxAH4AAnNxAH4ABwAAAAB3BAAAAAB4cQB+ABRxAH4AfXNxAH4AAnNxAH4ABwAAAAB3BAAAAAB4cQB+AEhxAH4AfXhxAH4ANHEAfgB7c3EAfgACc3EAfgAHAAAAAHcEAAAAAHhxAH4AWnEAfgB7eHEAfgBbcQB+AHlzcQB+AAJzcQB+AAcAAAAAdwQAAAAAeHEAfgBacQB+AHl4cQB+AFtxAH4Ad3NxAH4AAnNxAH4ABwAAAAB3BAAAAAB4cQB+AFpxAH4Ad3hxAH4AW3EAfgBveHEAfgBbcQB+AG1xAH4Aa3hxAH4AW3B4cQB+AFtweHEAfgBbc3EAfgACc3EAfgAHAAAAAncEAAAAAnEAfgBhcQB+AGt4cQB+AFtweHEAfgA0cQB+AEBxAH4AY3hxAH4AW3EAfgA+cQB+AGt4cQB+AFtwc3EAfgACc3EAfgAHAAAAAHcEAAAAAHhzcQB+AAt0AAJ4NnBzcQB+AAJzcQB+AAcAAAACdwQAAAACc3EAfgACc3EAfgAHAAAAAncEAAAAAnNxAH4AAnNxAH4ABwAAAAB3BAAAAAB4cQB+AEhxAH4AkXNxAH4AAnNxAH4ABwAAAAJ3BAAAAAJzcQB+AAJzcQB+AAcAAAAAdwQAAAAAeHNxAH4AC3QAA3gxNXEAfgCVc3EAfgACc3EAfgAHAAAAAHcEAAAAAHhxAH4AmXNxAH4AAnNxAH4ABwAAAAJ3BAAAAAJzcQB+AAJzcQB+AAcAAAACdwQAAAACc3EAfgACc3EAfgAHAAAAAHcEAAAAAHhxAH4AmXEAfgCfc3EAfgACc3EAfgAHAAAAAHcEAAAAAHhxAH4AmXEAfgCfeHEAfgA0cQB+AJ1xAH4Am3hxAH4ANHNxAH4AAnNxAH4ABwAAAAJ3BAAAAAJzcQB+AAJzcQB+AAcAAAAAdwQAAAAAeHEAfgBIcQB+AKVxAH4AnXhxAH4ANHNxAH4AAnNxAH4ABwAAAAJ3BAAAAAJxAH4ApXNxAH4AAnNxAH4ABwAAAAJ3BAAAAAJzcQB+AAJzcQB+AAcAAAAAdwQAAAAAeHEAfgCZcQB+AKtzcQB+AAJzcQB+AAcAAAAAdwQAAAAAeHEAfgCZc3EAfgACc3EAfgAHAAAAAncEAAAAAnNxAH4AAnNxAH4ABwAAAAJ3BAAAAAJzcQB+AAJzcQB+AAcAAAAAdwQAAAAAeHEAfgCZcQB+ALNzcQB+AAJzcQB+AAcAAAAAdwQAAAAAeHEAfgCZcQB+ALN4cQB+ADRxAH4AsXEAfgCveHEAfgA0c3EAfgACc3EAfgAHAAAAAncEAAAAAnNxAH4AAnNxAH4ABwAAAAB3BAAAAAB4cQB+AEhxAH4AuXEAfgCxeHEAfgA0cHhxAH4ANHNxAH4AAnNxAH4ABwAAAAJ3BAAAAAJzcQB+AAJzcQB+AAcAAAACdwQAAAACc3EAfgACc3EAfgAHAAAAAHcEAAAAAHhxAH4ASHEAfgC/c3EAfgACc3EAfgAHAAAAAncEAAAAAnNxAH4AAnNxAH4ABwAAAAB3BAAAAAB4cQB+AJlxAH4Aw3NxAH4AAnNxAH4ABwAAAAB3BAAAAAB4cQB+AJlxAH4Aw3hxAH4ANHEAfgC/eHEAfgA0cQB+AL1xAH4Aq3hxAH4ANHB4cQB+ADRweHEAfgA0c3EAfgACc3EAfgAHAAAAAncEAAAAAnNxAH4AAnNxAH4ABwAAAAB3BAAAAAB4cQB+AJlxAH4AyXEAfgCVeHEAfgA0c3EAfgACc3EAfgAHAAAAAncEAAAAAnEAfgDJcQB+AKt4cQB+ADRweHEAfgA0cQB+AI9xAH4Aq3hxAH4ANHB4";
    "rO0ABXNyABFqYXZhLnV0aWwuQ29sbFNlcleOq7Y6G6gRAwABSQADdGFneHAAAAAEdwQAAAAEc3IAN2lvLmdpdGh1Yi5lcmljbWVkdmV0LmpnZWEuY29yZS5yZXByZXNlbnRhdGlvbi50cmVlLlRyZWUKs7/qnQrEZQIAA0wACGNoaWxkcmVudAAQTGphdmEvdXRpbC9MaXN0O0wAB2NvbnRlbnR0ABJMamF2YS9sYW5nL09iamVjdDtMAAZwYXJlbnR0ADlMaW8vZ2l0aHViL2VyaWNtZWR2ZXQvamdlYS9jb3JlL3JlcHJlc2VudGF0aW9uL3RyZWUvVHJlZTt4cHNyABNqYXZhLnV0aWwuQXJyYXlMaXN0eIHSHZnHYZ0DAAFJAARzaXpleHAAAAACdwQAAAACc3EAfgACc3EAfgAHAAAAAHcEAAAAAHhzcgBLaW8uZ2l0aHViLmVyaWNtZWR2ZXQuamdlYS5jb3JlLnJlcHJlc2VudGF0aW9uLnRyZWUubnVtZXJpYy5FbGVtZW50JFZhcmlhYmxlAAAAAAAAAAACAAFMAARuYW1ldAASTGphdmEvbGFuZy9TdHJpbmc7eHB0AAJ4MnEAfgAGc3EAfgACc3EAfgAHAAAAAncEAAAAAnNxAH4AAnNxAH4ABwAAAAB3BAAAAAB4c3IAS2lvLmdpdGh1Yi5lcmljbWVkdmV0LmpnZWEuY29yZS5yZXByZXNlbnRhdGlvbi50cmVlLm51bWVyaWMuRWxlbWVudCRDb25zdGFudAAAAAAAAAAAAgABRAAFdmFsdWV4cAAAAAAAAAAAcQB+AA9zcQB+AAJzcQB+AAcAAAACdwQAAAACc3EAfgACc3EAfgAHAAAAAHcEAAAAAHhxAH4AFHEAfgAVc3EAfgACc3EAfgAHAAAAAncEAAAAAnNxAH4AAnNxAH4ABwAAAAB3BAAAAAB4cQB+ABRxAH4AGXNxAH4AAnNxAH4ABwAAAAJ3BAAAAAJzcQB+AAJzcQB+AAcAAAAAdwQAAAAAeHEAfgAUcQB+AB1zcQB+AAJzcQB+AAcAAAAAdwQAAAAAeHNxAH4AEz/gAAAAAAAAcQB+AB14fnIAS2lvLmdpdGh1Yi5lcmljbWVkdmV0LmpnZWEuY29yZS5yZXByZXNlbnRhdGlvbi50cmVlLm51bWVyaWMuRWxlbWVudCRPcGVyYXRvcgAAAAAAAAAAEgAAeHIADmphdmEubGFuZy5FbnVtAAAAAAAAAAASAAB4cHQACEFERElUSU9OcQB+ABl4cQB+ACZxAH4AFXhxAH4AJnNxAH4AAnNxAH4ABwAAAAJ3BAAAAAJzcQB+AAJzcQB+AAcAAAAAdwQAAAAAeHEAfgAjcQB+AChxAH4AFXhxAH4AJnNxAH4AAnNxAH4ABwAAAAJ3BAAAAAJzcQB+AAJzcQB+AAcAAAAAdwQAAAAAeHEAfgANcQB+ACxxAH4AKHh+cQB+ACR0AAtTVUJUUkFDVElPTnB4cQB+ACZzcQB+AAJzcQB+AAcAAAACdwQAAAACc3EAfgACc3EAfgAHAAAAAHcEAAAAAHhxAH4AI3EAfgAycQB+AA94cQB+ADBweHEAfgAwcHNxAH4AAnNxAH4ABwAAAAJ3BAAAAAJzcQB+AAJzcQB+AAcAAAACdwQAAAACc3EAfgACc3EAfgAHAAAAAncEAAAAAnNxAH4AAnNxAH4ABwAAAAJ3BAAAAAJzcQB+AAJzcQB+AAcAAAACdwQAAAACc3EAfgACc3EAfgAHAAAAAncEAAAAAnNxAH4AAnNxAH4ABwAAAAB3BAAAAAB4cQB+ABRxAH4AQHNxAH4AAnNxAH4ABwAAAAB3BAAAAAB4c3EAfgALdAACeDRzcQB+AAJzcQB+AAcAAAACdwQAAAACc3EAfgACc3EAfgAHAAAAAHcEAAAAAHhzcQB+ABM/8AAAAAAAAHEAfgBIcQB+AER4cQB+ADBzcQB+AAJzcQB+AAcAAAACdwQAAAACcQB+AEhzcQB+AAJzcQB+AAcAAAAAdwQAAAAAeHEAfgBMc3EAfgACc3EAfgAHAAAAAncEAAAAAnNxAH4AAnNxAH4ABwAAAAB3BAAAAAB4cQB+ABRxAH4AUXEAfgBPeH5xAH4AJHQADk1VTFRJUExJQ0FUSU9Oc3EAfgACc3EAfgAHAAAAAncEAAAAAnEAfgBRc3EAfgACc3EAfgAHAAAAAHcEAAAAAHhxAH4ATHEAfgBXeHEAfgBVc3EAfgACc3EAfgAHAAAAAncEAAAAAnEAfgBXc3EAfgACc3EAfgAHAAAAAHcEAAAAAHhxAH4ATHEAfgBbeHEAfgBVc3EAfgACc3EAfgAHAAAAAncEAAAAAnEAfgBbc3EAfgACc3EAfgAHAAAAAHcEAAAAAHhxAH4ATHNxAH4AAnNxAH4ABwAAAAJ3BAAAAAJzcQB+AAJzcQB+AAcAAAAAdwQAAAAAeHEAfgBMcQB+AGNxAH4AYXhxAH4AVXNxAH4AAnNxAH4ABwAAAAJ3BAAAAAJxAH4AY3NxAH4AAnNxAH4ABwAAAAB3BAAAAAB4cQB+AExzcQB+AAJzcQB+AAcAAAACdwQAAAACc3EAfgACc3EAfgAHAAAAAncEAAAAAnNxAH4AAnNxAH4ABwAAAAJ3BAAAAAJzcQB+AAJzcQB+AAcAAAAAdwQAAAAAeHEAfgAUcQB+AG9zcQB+AAJzcQB+AAcAAAAAdwQAAAAAeHEAfgBGcQB+AG94cQB+ADBxAH4AbXNxAH4AAnNxAH4ABwAAAAJ3BAAAAAJzcQB+AAJzcQB+AAcAAAACdwQAAAACc3EAfgACc3EAfgAHAAAAAncEAAAAAnNxAH4AAnNxAH4ABwAAAAJ3BAAAAAJzcQB+AAJzcQB+AAcAAAAAdwQAAAAAeHEAfgAUcQB+AHtzcQB+AAJzcQB+AAcAAAAAdwQAAAAAeHEAfgBGcQB+AHt4cQB+ADBxAH4AeXNxAH4AAnNxAH4ABwAAAAB3BAAAAAB4cQB+AExxAH4AeXhxAH4AVXEAfgB3c3EAfgACc3EAfgAHAAAAAHcEAAAAAHhxAH4ATHEAfgB3eHEAfgBVcQB+AHVzcQB+AAJzcQB+AAcAAAAAdwQAAAAAeHEAfgBMcQB+AHV4cQB+AFVxAH4AbXhxAH4AVXEAfgBrcQB+AGl4cQB+AFVweHEAfgBVcHhxAH4AVXNxAH4AAnNxAH4ABwAAAAJ3BAAAAAJxAH4AX3EAfgBpeHEAfgBVcHhxAH4AVXNxAH4AAnNxAH4ABwAAAAJ3BAAAAAJxAH4ATXEAfgBZeHEAfgBVc3EAfgACc3EAfgAHAAAAAncEAAAAAnEAfgCJcQB+AF14cQB+AFVzcQB+AAJzcQB+AAcAAAACdwQAAAACcQB+AItxAH4AYXhxAH4AVXNxAH4AAnNxAH4ABwAAAAJ3BAAAAAJxAH4AjXEAfgBpeHEAfgBVcHhxAH4AMHEAfgA+cQB+AE94cQB+AFVxAH4APHEAfgBZeHEAfgBVcQB+ADpxAH4AXXhxAH4AVXEAfgA4cQB+AGF4cQB+AFVxAH4ANnEAfgBpeHEAfgBVcHNxAH4AAnNxAH4ABwAAAAB3BAAAAAB4c3EAfgALdAACeDZwc3EAfgACc3EAfgAHAAAAAncEAAAAAnNxAH4AAnNxAH4ABwAAAAB3BAAAAAB4cQB+AEZxAH4AlXNxAH4AAnNxAH4ABwAAAAJ3BAAAAAJzcQB+AAJzcQB+AAcAAAAAdwQAAAAAeHNxAH4AC3QAA3gxNXEAfgCZc3EAfgACc3EAfgAHAAAAAHcEAAAAAHhxAH4AnXNxAH4AAnNxAH4ABwAAAAJ3BAAAAAJzcQB+AAJzcQB+AAcAAAACdwQAAAACc3EAfgACc3EAfgAHAAAAAHcEAAAAAHhxAH4AnXEAfgCjc3EAfgACc3EAfgAHAAAAAHcEAAAAAHhxAH4AnXEAfgCjeHEAfgAwcQB+AKFxAH4An3hxAH4AMHNxAH4AAnNxAH4ABwAAAAJ3BAAAAAJzcQB+AAJzcQB+AAcAAAAAdwQAAAAAeHEAfgBGcQB+AKlxAH4AoXhxAH4AMHB4cQB+ADBzcQB+AAJzcQB+AAcAAAACdwQAAAACc3EAfgACc3EAfgAHAAAAAncEAAAAAnNxAH4AAnNxAH4ABwAAAAB3BAAAAAB4cQB+AEZxAH4Ar3NxAH4AAnNxAH4ABwAAAAJ3BAAAAAJzcQB+AAJzcQB+AAcAAAAAdwQAAAAAeHEAfgCdcQB+ALNzcQB+AAJzcQB+AAcAAAAAdwQAAAAAeHEAfgCdcQB+ALN4cQB+ADBxAH4Ar3hxAH4AMHEAfgCtcQB+AJl4cQB+ADBweHEAfgAwcHg=";
