ea.runOutcome(
  index = 148;
  run = ea.run(
    problem = ea.p.mr.fromData(
      trainingDataset = ea.dataset.numerical.fromFile(
        filePath = "../phase2/data-ro-ga-3-010.txt";
        folds = [0];
        nFolds = 50;
        xVarNamePattern = "x.*";
        yVarNamePattern = "y.*"
      )
    );
    randomGenerator = ea.rg.defaultRG(seed = 4);
    solver = ea.s.oGraphea(
      arcAdditionRate = 3;
      arcRemovalRate = 0.1;
      mapper = ea.m.oGraphMRF(
        dataset = ea.d.num.empty(
          xVars = [
            x01;
            x02;
            x03;
            x04;
            x05;
            x06;
            x07;
            x08;
            x09;
            x10;
            x11;
            x12;
            x13;
            x14;
            x15;
            x16
          ];
          yVars = [y1; y2; y3; y4]
        );
        postOperator = tanh
      );
      maxConst = 5;
      minConst = 0;
      nConst = 10;
      nEval = 10000;
      nPop = 100;
      nodeAdditionRate = 1;
      operators = [
        addition;
        subtraction;
        multiplication;
        prot_division;
        prot_log
      ];
      rankBase = 0.75
    )
  );
  serializedGenotypes = [
    "rO0ABXNyAENpby5naXRodWIuZXJpY21lZHZldC5qZ2VhLmNvcmUucmVwcmVzZW50YXRpb24uZ3JhcGguTGlua2VkSGFzaEdyYXBo8kE6+k8gs3gCAAJMAARhcmNzdAAPTGphdmEvdXRpbC9NYXA7TAAFbm9kZXN0AA9MamF2YS91dGlsL1NldDt4cHNyABdqYXZhLnV0aWwuTGlua2VkSGFzaE1hcDTATlwQbMD7AgABWgALYWNjZXNzT3JkZXJ4cgARamF2YS51dGlsLkhhc2hNYXAFB9rBwxZg0QMAAkYACmxvYWRGYWN0b3JJAAl0aHJlc2hvbGR4cD9AAAAAAAAwdwgAAABAAAAAInNyAD1pby5naXRodWIuZXJpY21lZHZldC5qZ2VhLmNvcmUucmVwcmVzZW50YXRpb24uZ3JhcGguR3JhcGgkQXJjdMoFPXw1b5ECAAJMAAZzb3VyY2V0ABJMamF2YS9sYW5nL09iamVjdDtMAAZ0YXJnZXRxAH4ACHhwc3IAVmlvLmdpdGh1Yi5lcmljbWVkdmV0LmpnZWEuY29yZS5yZXByZXNlbnRhdGlvbi5ncmFwaC5udW1lcmljLm9wZXJhdG9yZ3JhcGguT3BlcmF0b3JOb2Rl9BLOPf4p+ywCAAFMAAhvcGVyYXRvcnQAWExpby9naXRodWIvZXJpY21lZHZldC9qZ2VhL2NvcmUvcmVwcmVzZW50YXRpb24vZ3JhcGgvbnVtZXJpYy9vcGVyYXRvcmdyYXBoL0Jhc2VPcGVyYXRvcjt4cgA4aW8uZ2l0aHViLmVyaWNtZWR2ZXQuamdlYS5jb3JlLnJlcHJlc2VudGF0aW9uLmdyYXBoLk5vZGWuiBEpK4RnmwIAAUkABWluZGV4eHAAAAEEfnIAVmlvLmdpdGh1Yi5lcmljbWVkdmV0LmpnZWEuY29yZS5yZXByZXNlbnRhdGlvbi5ncmFwaC5udW1lcmljLm9wZXJhdG9yZ3JhcGguQmFzZU9wZXJhdG9yAAAAAAAAAAASAAB4cgAOamF2YS5sYW5nLkVudW0AAAAAAAAAABIAAHhwdAAOTVVMVElQTElDQVRJT05zcQB+AAoAAAByfnEAfgAOdAALU1VCVFJBQ1RJT05zcgBkaW8uZ2l0aHViLmVyaWNtZWR2ZXQuamdlYS5jb3JlLnJlcHJlc2VudGF0aW9uLmdyYXBoLm51bWVyaWMub3BlcmF0b3JncmFwaC5PcGVyYXRvckdyYXBoJE5vblZhbHVlZEFyY/EmOVtoAl6QAgAAeHBzcQB+AAdzcQB+AAoAAAFQcQB+ABNzcQB+AAoAAADpfnEAfgAOdAAIQURESVRJT05xAH4AFnNxAH4AB3NyAEFpby5naXRodWIuZXJpY21lZHZldC5qZ2VhLmNvcmUucmVwcmVzZW50YXRpb24uZ3JhcGgubnVtZXJpYy5JbnB1dJHp5XJzrmiuAgABTAAEbmFtZXQAEkxqYXZhL2xhbmcvU3RyaW5nO3hxAH4ADAAAAA50AAN4MTVzcQB+AAoAAAIHcQB+ABpxAH4AFnNxAH4AB3EAfgAhc3IAQmlvLmdpdGh1Yi5lcmljbWVkdmV0LmpnZWEuY29yZS5yZXByZXNlbnRhdGlvbi5ncmFwaC5udW1lcmljLk91dHB1dKtiLrjZv0dyAgABTAAEbmFtZXEAfgAeeHEAfgAMAAAAAHQAAnkxcQB+ABZzcQB+AAdzcQB+AAoAAAJbcQB+ABpxAH4AGHEAfgAWc3EAfgAHc3EAfgAKAAADGXEAfgAQcQB+ABlxAH4AFnNxAH4AB3NxAH4AHQAAAAZ0AAN4MDdzcQB+AAoAAANzcQB+ABpxAH4AFnNxAH4AB3EAfgAtc3EAfgAKAAACI3EAfgAacQB+ABZzcQB+AAdxAH4AL3NxAH4ACgAAA6pxAH4AGnEAfgAWc3EAfgAHcQB+ADFxAH4ADXEAfgAWc3EAfgAHc3EAfgAKAAAD4HEAfgAac3EAfgAjAAAAAnQAAnkzcQB+ABZzcQB+AAdzcQB+AB0AAAADdAADeDA0cQB+AC1xAH4AFnNxAH4AB3NxAH4ACgAABG1xAH4AEHNxAH4AIwAAAAF0AAJ5MnEAfgAWc3EAfgAHcQB+AB9xAH4AGHEAfgAWc3EAfgAHcQB+ABlzcQB+AAoAAATucQB+ABpxAH4AFnNxAH4AB3EAfgBAcQB+ADRxAH4AFnNxAH4AB3NxAH4AHQAAAAd0AAN4MDhxAH4AMXEAfgAWc3EAfgAHcQB+ADhzcQB+AAoAAAYicQB+ABBxAH4AFnNxAH4AB3EAfgBGcQB+ACdxAH4AFnNxAH4AB3NxAH4ACgAABqNxAH4AEHNxAH4AIwAAAAN0AAJ5NHEAfgAWc3EAfgAHc3EAfgAKAAADNXEAfgAac3EAfgAKAAAGyH5xAH4ADnQADVBST1RfRElWSVNJT05xAH4AFnNxAH4AB3EAfgBOcQB+AElxAH4AFnNxAH4AB3NxAH4ACgAABlRxAH4AT3NxAH4ACgAABz1xAH4AT3EAfgAWc3EAfgAHcQB+AFRxAH4ATXEAfgAWc3EAfgAHcQB+ABJzcQB+AAoAAAfIcQB+AE9xAH4AFnNxAH4AB3EAfgBXcQB+ADtxAH4AFnNxAH4AB3NxAH4AHQAAAAx0AAN4MTNzcQB+AAoAAAfbcQB+ABNxAH4AFnNxAH4AB3EAfgBccQB+AC9xAH4AFnNxAH4AB3EAfgANc3EAfgAKAAAICXEAfgBPcQB+ABZzcQB+AAdxAH4AX3EAfgApcQB+ABZzcQB+AAdxAH4AXHEAfgAncQB+ABZzcQB+AAdzcQB+AB0AAAAEdAADeDA1c3EAfgAKAAAIsnEAfgATcQB+ABZzcQB+AAdxAH4AZXEAfgBTcQB+ABZzcQB+AAdxAH4AH3EAfgAncQB+ABZ4AHNyABdqYXZhLnV0aWwuTGlua2VkSGFzaFNldNhs11qV3SoeAgAAeHIAEWphdmEudXRpbC5IYXNoU2V0ukSFlZa4tzQDAAB4cHcMAAAAgD9AAAAAAAA1c3EAfgAdAAAAAHQAA3gwMXNxAH4AHQAAAAF0AAN4MDJzcQB+AB0AAAACdAADeDAzcQB+ADhxAH4AY3NxAH4AHQAAAAV0AAN4MDZxAH4AK3EAfgBDc3EAfgAdAAAACHQAA3gwOXNxAH4AHQAAAAl0AAN4MTBzcQB+AB0AAAAKdAADeDExc3EAfgAdAAAAC3QAA3gxMnEAfgBac3EAfgAdAAAADXQAA3gxNHEAfgAfc3EAfgAdAAAAD3QAA3gxNnEAfgAkcQB+ADxxAH4ANXEAfgBKc3IARGlvLmdpdGh1Yi5lcmljbWVkdmV0LmpnZWEuY29yZS5yZXByZXNlbnRhdGlvbi5ncmFwaC5udW1lcmljLkNvbnN0YW50TGSPkxwUCVACAAFEAAV2YWx1ZXhxAH4ADAAAAAAAAAAAAAAAAHNxAH4AfwAAAAE/4AAAAAAAAHNxAH4AfwAAAAI/8AAAAAAAAHNxAH4AfwAAAAM/+AAAAAAAAHNxAH4AfwAAAARAAAAAAAAAAHNxAH4AfwAAAAVABAAAAAAAAHNxAH4AfwAAAAZACAAAAAAAAHNxAH4AfwAAAAdADAAAAAAAAHNxAH4AfwAAAAhAEAAAAAAAAHNxAH4AfwAAAAlAEgAAAAAAAHEAfgAScQB+ABlxAH4ADXEAfgAYcQB+ACFxAH4AL3EAfgAncQB+AClxAH4ATXEAfgAtcQB+ADFxAH4ANHEAfgA7cQB+AEBxAH4ARnEAfgBTcQB+AElxAH4ATnEAfgBUcQB+AFdxAH4AXHEAfgBfcQB+AGV4";
    "rO0ABXNyAENpby5naXRodWIuZXJpY21lZHZldC5qZ2VhLmNvcmUucmVwcmVzZW50YXRpb24uZ3JhcGguTGlua2VkSGFzaEdyYXBo8kE6+k8gs3gCAAJMAARhcmNzdAAPTGphdmEvdXRpbC9NYXA7TAAFbm9kZXN0AA9MamF2YS91dGlsL1NldDt4cHNyABdqYXZhLnV0aWwuTGlua2VkSGFzaE1hcDTATlwQbMD7AgABWgALYWNjZXNzT3JkZXJ4cgARamF2YS51dGlsLkhhc2hNYXAFB9rBwxZg0QMAAkYACmxvYWRGYWN0b3JJAAl0aHJlc2hvbGR4cD9AAAAAAAAwdwgAAABAAAAAI3NyAD1pby5naXRodWIuZXJpY21lZHZldC5qZ2VhLmNvcmUucmVwcmVzZW50YXRpb24uZ3JhcGguR3JhcGgkQXJjdMoFPXw1b5ECAAJMAAZzb3VyY2V0ABJMamF2YS9sYW5nL09iamVjdDtMAAZ0YXJnZXRxAH4ACHhwc3IAVmlvLmdpdGh1Yi5lcmljbWVkdmV0LmpnZWEuY29yZS5yZXByZXNlbnRhdGlvbi5ncmFwaC5udW1lcmljLm9wZXJhdG9yZ3JhcGguT3BlcmF0b3JOb2Rl9BLOPf4p+ywCAAFMAAhvcGVyYXRvcnQAWExpby9naXRodWIvZXJpY21lZHZldC9qZ2VhL2NvcmUvcmVwcmVzZW50YXRpb24vZ3JhcGgvbnVtZXJpYy9vcGVyYXRvcmdyYXBoL0Jhc2VPcGVyYXRvcjt4cgA4aW8uZ2l0aHViLmVyaWNtZWR2ZXQuamdlYS5jb3JlLnJlcHJlc2VudGF0aW9uLmdyYXBoLk5vZGWuiBEpK4RnmwIAAUkABWluZGV4eHAAAAEEfnIAVmlvLmdpdGh1Yi5lcmljbWVkdmV0LmpnZWEuY29yZS5yZXByZXNlbnRhdGlvbi5ncmFwaC5udW1lcmljLm9wZXJhdG9yZ3JhcGguQmFzZU9wZXJhdG9yAAAAAAAAAAASAAB4cgAOamF2YS5sYW5nLkVudW0AAAAAAAAAABIAAHhwdAAOTVVMVElQTElDQVRJT05zcQB+AAoAAAByfnEAfgAOdAALU1VCVFJBQ1RJT05zcgBkaW8uZ2l0aHViLmVyaWNtZWR2ZXQuamdlYS5jb3JlLnJlcHJlc2VudGF0aW9uLmdyYXBoLm51bWVyaWMub3BlcmF0b3JncmFwaC5PcGVyYXRvckdyYXBoJE5vblZhbHVlZEFyY/EmOVtoAl6QAgAAeHBzcQB+AAdzcQB+AAoAAAFQcQB+ABNzcQB+AAoAAADpfnEAfgAOdAAIQURESVRJT05xAH4AFnNxAH4AB3NyAEFpby5naXRodWIuZXJpY21lZHZldC5qZ2VhLmNvcmUucmVwcmVzZW50YXRpb24uZ3JhcGgubnVtZXJpYy5JbnB1dJHp5XJzrmiuAgABTAAEbmFtZXQAEkxqYXZhL2xhbmcvU3RyaW5nO3hxAH4ADAAAAA50AAN4MTVzcQB+AAoAAAIHcQB+ABpxAH4AFnNxAH4AB3EAfgAhc3IAQmlvLmdpdGh1Yi5lcmljbWVkdmV0LmpnZWEuY29yZS5yZXByZXNlbnRhdGlvbi5ncmFwaC5udW1lcmljLk91dHB1dKtiLrjZv0dyAgABTAAEbmFtZXEAfgAeeHEAfgAMAAAAAHQAAnkxcQB+ABZzcQB+AAdzcQB+AAoAAAJbcQB+ABpxAH4AGHEAfgAWc3EAfgAHc3EAfgAKAAADGXEAfgAQcQB+ABlxAH4AFnNxAH4AB3NxAH4AHQAAAAZ0AAN4MDdzcQB+AAoAAANzcQB+ABpxAH4AFnNxAH4AB3EAfgAtc3EAfgAKAAACI3EAfgAacQB+ABZzcQB+AAdxAH4AL3NxAH4ACgAAA6pxAH4AGnEAfgAWc3EAfgAHcQB+ADFxAH4ADXEAfgAWc3EAfgAHc3EAfgAKAAAD4HEAfgAac3EAfgAjAAAAAnQAAnkzcQB+ABZzcQB+AAdzcQB+AB0AAAADdAADeDA0cQB+AC1xAH4AFnNxAH4AB3NxAH4ACgAABG1xAH4AEHNxAH4AIwAAAAF0AAJ5MnEAfgAWc3EAfgAHcQB+AB9xAH4AGHEAfgAWc3EAfgAHcQB+ABlzcQB+AAoAAATucQB+ABpxAH4AFnNxAH4AB3EAfgBAcQB+ADRxAH4AFnNxAH4AB3NxAH4AHQAAAAd0AAN4MDhxAH4AMXEAfgAWc3EAfgAHcQB+ADhzcQB+AAoAAAYicQB+ABBxAH4AFnNxAH4AB3EAfgBGcQB+ACdxAH4AFnNxAH4AB3NxAH4ACgAABqNxAH4AEHNxAH4AIwAAAAN0AAJ5NHEAfgAWc3EAfgAHc3EAfgAKAAADNXEAfgAac3EAfgAKAAAGyH5xAH4ADnQADVBST1RfRElWSVNJT05xAH4AFnNxAH4AB3EAfgBOcQB+AElxAH4AFnNxAH4AB3NxAH4ACgAABlRxAH4AT3NxAH4ACgAABz1xAH4AT3EAfgAWc3EAfgAHcQB+AFRxAH4ATXEAfgAWc3EAfgAHcQB+ABJzcQB+AAoAAAfIcQB+AE9xAH4AFnNxAH4AB3EAfgBXcQB+ADtxAH4AFnNxAH4AB3NxAH4AHQAAAAx0AAN4MTNzcQB+AAoAAAfbcQB+ABNxAH4AFnNxAH4AB3EAfgBccQB+AC9xAH4AFnNxAH4AB3EAfgANc3EAfgAKAAAICXEAfgBPcQB+ABZzcQB+AAdxAH4AX3EAfgApcQB+ABZzcQB+AAdxAH4AXHEAfgAncQB+ABZzcQB+AAdzcQB+AB0AAAAEdAADeDA1c3EAfgAKAAAIsnEAfgATcQB+ABZzcQB+AAdxAH4AZXEAfgBTcQB+ABZzcQB+AAdxAH4AH3EAfgAncQB+ABZzcQB+AAdzcgBEaW8uZ2l0aHViLmVyaWNtZWR2ZXQuamdlYS5jb3JlLnJlcHJlc2VudGF0aW9uLmdyYXBoLm51bWVyaWMuQ29uc3RhbnRMZI+THBQJUAIAAUQABXZhbHVleHEAfgAMAAAAAAAAAAAAAAAAcQB+ACdxAH4AFngAc3IAF2phdmEudXRpbC5MaW5rZWRIYXNoU2V02GzXWpXdKh4CAAB4cgARamF2YS51dGlsLkhhc2hTZXS6RIWVlri3NAMAAHhwdwwAAACAP0AAAAAAADVzcQB+AB0AAAAAdAADeDAxc3EAfgAdAAAAAXQAA3gwMnNxAH4AHQAAAAJ0AAN4MDNxAH4AOHEAfgBjc3EAfgAdAAAABXQAA3gwNnEAfgArcQB+AENzcQB+AB0AAAAIdAADeDA5c3EAfgAdAAAACXQAA3gxMHNxAH4AHQAAAAp0AAN4MTFzcQB+AB0AAAALdAADeDEycQB+AFpzcQB+AB0AAAANdAADeDE0cQB+AB9zcQB+AB0AAAAPdAADeDE2cQB+ACRxAH4APHEAfgA1cQB+AEpxAH4AanNxAH4AaQAAAAE/4AAAAAAAAHNxAH4AaQAAAAI/8AAAAAAAAHNxAH4AaQAAAAM/+AAAAAAAAHNxAH4AaQAAAARAAAAAAAAAAHNxAH4AaQAAAAVABAAAAAAAAHNxAH4AaQAAAAZACAAAAAAAAHNxAH4AaQAAAAdADAAAAAAAAHNxAH4AaQAAAAhAEAAAAAAAAHNxAH4AaQAAAAlAEgAAAAAAAHEAfgAScQB+ABlxAH4ADXEAfgAYcQB+ACFxAH4AL3EAfgAncQB+AClxAH4ATXEAfgAtcQB+ADFxAH4ANHEAfgA7cQB+AEBxAH4ARnEAfgBTcQB+AElxAH4ATnEAfgBUcQB+AFdxAH4AXHEAfgBfcQB+AGV4"
  ]
)