ea.runOutcome(
  index = 241;
  run = ea.run(
    problem = ea.p.mr.fromData(
      trainingDataset = ea.dataset.numerical.fromFile(
        filePath = "../phase2/data-ro-gp-3-007.txt";
        folds = [0];
        nFolds = 40;
        xVarNamePattern = "x.*";
        yVarNamePattern = "y.*"
      )
    );
    randomGenerator = ea.rg.defaultRG(seed = 2);
    solver = ea.s.multiSRTreeGP(
      crossoverP = 0.8;
      diversity = true;
      mapper = ea.m.treeMRF(
        dataset = ea.d.num.empty(
          xVars = [
            x0;
            x1;
            x2;
            x3;
            x4;
            x5;
            x6;
            x7;
            x8;
            x9;
            x10;
            x11;
            x12;
            x13;
            x14;
            x15
          ];
          yVars = [y0; y1; y2; y3]
        );
        postOperator = tanh
      );
      maxConst = 5;
      maxTreeH = 8;
      minConst = 0;
      minNTournament = 3;
      minTreeH = 3;
      nAttemptsDiversity = 100;
      nConst = 10;
      nEval = 10000;
      nPop = 100;
      operators = [addition; subtraction; multiplication; prot_division];
      tournamentRate = 0.05
    )
  );
  serializedGenotypes = [
    "rO0ABXNyABFqYXZhLnV0aWwuQ29sbFNlcleOq7Y6G6gRAwABSQADdGFneHAAAAAEdwQAAAAEc3IAN2lvLmdpdGh1Yi5lcmljbWVkdmV0LmpnZWEuY29yZS5yZXByZXNlbnRhdGlvbi50cmVlLlRyZWUKs7/qnQrEZQIAA0wACGNoaWxkcmVudAAQTGphdmEvdXRpbC9MaXN0O0wAB2NvbnRlbnR0ABJMamF2YS9sYW5nL09iamVjdDtMAAZwYXJlbnR0ADlMaW8vZ2l0aHViL2VyaWNtZWR2ZXQvamdlYS9jb3JlL3JlcHJlc2VudGF0aW9uL3RyZWUvVHJlZTt4cHNyABNqYXZhLnV0aWwuQXJyYXlMaXN0eIHSHZnHYZ0DAAFJAARzaXpleHAAAAACdwQAAAACc3EAfgACc3EAfgAHAAAAAncEAAAAAnNxAH4AAnNxAH4ABwAAAAB3BAAAAAB4c3IAS2lvLmdpdGh1Yi5lcmljbWVkdmV0LmpnZWEuY29yZS5yZXByZXNlbnRhdGlvbi50cmVlLm51bWVyaWMuRWxlbWVudCRWYXJpYWJsZQAAAAAAAAAAAgABTAAEbmFtZXQAEkxqYXZhL2xhbmcvU3RyaW5nO3hwdAACeDBxAH4ACXNxAH4AAnNxAH4ABwAAAAB3BAAAAAB4cQB+AA9zcQB+AAJzcQB+AAcAAAACdwQAAAACc3EAfgACc3EAfgAHAAAAAncEAAAAAnNxAH4AAnNxAH4ABwAAAAJ3BAAAAAJzcQB+AAJzcQB+AAcAAAAAdwQAAAAAeHEAfgAPcQB+ABdzcQB+AAJzcQB+AAcAAAAAdwQAAAAAeHEAfgAPcQB+ABd4fnIAS2lvLmdpdGh1Yi5lcmljbWVkdmV0LmpnZWEuY29yZS5yZXByZXNlbnRhdGlvbi50cmVlLm51bWVyaWMuRWxlbWVudCRPcGVyYXRvcgAAAAAAAAAAEgAAeHIADmphdmEubGFuZy5FbnVtAAAAAAAAAAASAAB4cHQACEFERElUSU9OcQB+ABVzcQB+AAJzcQB+AAcAAAAAdwQAAAAAeHEAfgAPcQB+ABV4cQB+AB9xAH4AE3EAfgAReHEAfgAfc3EAfgACc3EAfgAHAAAAAncEAAAAAnEAfgATc3EAfgACc3EAfgAHAAAAAHcEAAAAAHhxAH4AD3NxAH4AAnNxAH4ABwAAAAJ3BAAAAAJzcQB+AAJzcQB+AAcAAAAAdwQAAAAAeHEAfgAPcQB+ACdxAH4AJXhxAH4AH3B4cQB+AB9weHEAfgAfcQB+AAZxAH4AJXhxAH4AH3BzcQB+AAJzcQB+AAcAAAACdwQAAAACc3EAfgACc3EAfgAHAAAAAncEAAAAAnNxAH4AAnNxAH4ABwAAAAB3BAAAAAB4c3EAfgANdAACeDFxAH4ALXNxAH4AAnNxAH4ABwAAAAJ3BAAAAAJzcQB+AAJzcQB+AAcAAAACdwQAAAACc3EAfgACc3EAfgAHAAAAAHcEAAAAAHhxAH4AMXEAfgA1c3EAfgACc3EAfgAHAAAAAncEAAAAAnNxAH4AAnNxAH4ABwAAAAJ3BAAAAAJzcQB+AAJzcQB+AAcAAAAAdwQAAAAAeHNxAH4ADXQAAng0cQB+ADtzcQB+AAJzcQB+AAcAAAACdwQAAAACc3EAfgACc3EAfgAHAAAAAHcEAAAAAHhxAH4AD3EAfgBBc3EAfgACc3EAfgAHAAAAAHcEAAAAAHhxAH4AP3NxAH4AAnNxAH4ABwAAAAJ3BAAAAAJzcQB+AAJzcQB+AAcAAAAAdwQAAAAAeHEAfgA/cQB+AEdxAH4ARXh+cQB+AB10AA5NVUxUSVBMSUNBVElPTnNxAH4AAnNxAH4ABwAAAAJ3BAAAAAJzcQB+AAJzcQB+AAcAAAAAdwQAAAAAeHEAfgA/cQB+AE1xAH4AR3h+cQB+AB10AAtTVUJUUkFDVElPTnNxAH4AAnNxAH4ABwAAAAJ3BAAAAAJxAH4ATXNxAH4AAnNxAH4ABwAAAAJ3BAAAAAJzcQB+AAJzcQB+AAcAAAAAdwQAAAAAeHEAfgAPcQB+AFVzcQB+AAJzcQB+AAcAAAAAdwQAAAAAeHEAfgA/cQB+AFV4cQB+AEtxAH4AU3hxAH4AUXNxAH4AAnNxAH4ABwAAAAJ3BAAAAAJzcQB+AAJzcQB+AAcAAAAAdwQAAAAAeHEAfgAxcQB+AFtxAH4AU3hxAH4AH3NxAH4AAnNxAH4ABwAAAAJ3BAAAAAJxAH4AW3NxAH4AAnNxAH4ABwAAAAJ3BAAAAAJzcQB+AAJzcQB+AAcAAAAAdwQAAAAAeHEAfgAPcQB+AGFzcQB+AAJzcQB+AAcAAAAAdwQAAAAAeHEAfgA/cQB+AGF4cQB+AEtxAH4AX3hxAH4AUXNxAH4AAnNxAH4ABwAAAAJ3BAAAAAJzcQB+AAJzcQB+AAcAAAAAdwQAAAAAeHEAfgAxcQB+AGdxAH4AX3hxAH4AH3NxAH4AAnNxAH4ABwAAAAJ3BAAAAAJxAH4AZ3NxAH4AAnNxAH4ABwAAAAJ3BAAAAAJzcQB+AAJzcQB+AAcAAAAAdwQAAAAAeHEAfgAPcQB+AG1zcQB+AAJzcQB+AAcAAAAAdwQAAAAAeHEAfgA/c3EAfgACc3EAfgAHAAAAAncEAAAAAnNxAH4AAnNxAH4ABwAAAAB3BAAAAAB4cQB+AD9xAH4Ac3EAfgBxeHEAfgBLc3EAfgACc3EAfgAHAAAAAncEAAAAAnNxAH4AAnNxAH4ABwAAAAJ3BAAAAAJzcQB+AAJzcQB+AAcAAAAAdwQAAAAAeHEAfgAxcQB+AHlzcQB+AAJzcQB+AAcAAAACdwQAAAACc3EAfgACc3EAfgAHAAAAAncEAAAAAnNxAH4AAnNxAH4ABwAAAAB3BAAAAAB4cQB+ADFxAH4Af3NxAH4AAnNxAH4ABwAAAAJ3BAAAAAJzcQB+AAJzcQB+AAcAAAAAdwQAAAAAeHEAfgA/cQB+AINzcQB+AAJzcQB+AAcAAAAAdwQAAAAAeHNxAH4ADXQAA3gxMXEAfgCDeHEAfgBRcQB+AH94cQB+AB9xAH4AfXNxAH4AAnNxAH4ABwAAAAB3BAAAAAB4cQB+AIlxAH4AfXhxAH4AUXEAfgB5eHEAfgAfcQB+AHdxAH4Ac3hxAH4AS3B4cQB+AEtxAH4Aa3hxAH4AS3B4cQB+AEtzcQB+AAJzcQB+AAcAAAACdwQAAAACc3EAfgACc3EAfgAHAAAAAHcEAAAAAHhxAH4AMXEAfgCNcQB+AEF4cQB+AFFzcQB+AAJzcQB+AAcAAAACdwQAAAACcQB+AI1xAH4AVXhxAH4AUXNxAH4AAnNxAH4ABwAAAAJ3BAAAAAJzcQB+AAJzcQB+AAcAAAAAdwQAAAAAeHEAfgAxcQB+AJNxAH4AkXhxAH4AH3NxAH4AAnNxAH4ABwAAAAJ3BAAAAAJxAH4Ak3EAfgBheHEAfgBRc3EAfgACc3EAfgAHAAAAAncEAAAAAnNxAH4AAnNxAH4ABwAAAAB3BAAAAAB4cQB+ADFxAH4AmXEAfgCXeHEAfgAfc3EAfgACc3EAfgAHAAAAAncEAAAAAnEAfgCZcQB+AG14cQB+AEtweHEAfgBRcQB+ADlxAH4AVXhxAH4AUXEAfgA1eHEAfgAfcQB+ADNxAH4AYXhxAH4AUXNxAH4AAnNxAH4ABwAAAAJ3BAAAAAJzcQB+AAJzcQB+AAcAAAACdwQAAAACc3EAfgACc3EAfgAHAAAAAHcEAAAAAHhxAH4AD3EAfgChc3EAfgACc3EAfgAHAAAAAHcEAAAAAHhxAH4AP3EAfgCheHEAfgBLcQB+AJ9xAH4AM3hxAH4AH3NxAH4AAnNxAH4ABwAAAAJ3BAAAAAJxAH4An3EAfgBteHEAfgBLcHhxAH4AH3EAfgArcQB+AG14cQB+AEtwc3EAfgACc3EAfgAHAAAAAncEAAAAAnNxAH4AAnNxAH4ABwAAAAJ3BAAAAAJzcQB+AAJzcQB+AAcAAAACdwQAAAACc3EAfgACc3EAfgAHAAAAAncEAAAAAnNxAH4AAnNxAH4ABwAAAAB3BAAAAAB4c3IAS2lvLmdpdGh1Yi5lcmljbWVkdmV0LmpnZWEuY29yZS5yZXByZXNlbnRhdGlvbi50cmVlLm51bWVyaWMuRWxlbWVudCRDb25zdGFudAAAAAAAAAAAAgABRAAFdmFsdWV4cEAQAAAAAAAAcQB+AK9zcQB+AAJzcQB+AAcAAAAAdwQAAAAAeHNxAH4As0AIAAAAAAAAc3EAfgACc3EAfgAHAAAAAncEAAAAAnNxAH4AAnNxAH4ABwAAAAJ3BAAAAAJzcQB+AAJzcQB+AAcAAAAAdwQAAAAAeHEAfgC0cQB+ALpzcQB+AAJzcQB+AAcAAAAAdwQAAAAAeHEAfgC3cQB+ALp4fnEAfgAddAANUFJPVF9ESVZJU0lPTnEAfgC4cQB+ALV4cQB+AMBzcQB+AAJzcQB+AAcAAAACdwQAAAACcQB+ALhzcQB+AAJzcQB+AAcAAAAAdwQAAAAAeHNxAH4As0AEAAAAAAAAcQB+AMJ4cQB+AMBzcQB+AAJzcQB+AAcAAAACdwQAAAACcQB+AMJzcQB+AAJzcQB+AAcAAAAAdwQAAAAAeHEAfgDGc3EAfgACc3EAfgAHAAAAAncEAAAAAnNxAH4AAnNxAH4ABwAAAAJ3BAAAAAJzcQB+AAJzcQB+AAcAAAACdwQAAAACc3EAfgACc3EAfgAHAAAAAHcEAAAAAHhxAH4AtHEAfgDPc3EAfgACc3EAfgAHAAAAAHcEAAAAAHhxAH4At3EAfgDPeHEAfgDAcQB+AM1zcQB+AAJzcQB+AAcAAAAAdwQAAAAAeHEAfgC3cQB+AM14cQB+AMBxAH4Ay3EAfgDJeHEAfgBRc3EAfgACc3EAfgAHAAAAAncEAAAAAnEAfgDLc3EAfgACc3EAfgAHAAAAAHcEAAAAAHhxAH4At3EAfgDXeHEAfgAfcHhxAH4AUXNxAH4AAnNxAH4ABwAAAAJ3BAAAAAJxAH4Ax3EAfgDZeHEAfgAfcHhxAH4AwHEAfgCtcQB+AMR4cQB+AMBxAH4Aq3EAfgDJeHEAfgBRcQB+AKlxAH4A2XhxAH4AH3BzcQB+AAJzcQB+AAcAAAACdwQAAAACc3EAfgACc3EAfgAHAAAAAHcEAAAAAHhzcQB+AA10AAJ4OXEAfgDdc3EAfgACc3EAfgAHAAAAAncEAAAAAnNxAH4AAnNxAH4ABwAAAAB3BAAAAAB4cQB+AOFxAH4A43NxAH4AAnNxAH4ABwAAAAB3BAAAAAB4c3EAfgCzP/AAAAAAAABxAH4A43hxAH4AH3NxAH4AAnNxAH4ABwAAAAJ3BAAAAAJzcQB+AAJzcQB+AAcAAAACdwQAAAACc3EAfgACc3EAfgAHAAAAAHcEAAAAAHhxAH4A4XEAfgDsc3EAfgACc3EAfgAHAAAAAHcEAAAAAHhxAH4A6XEAfgDseHEAfgAfcQB+AOpxAH4A43hxAH4AUXB4cQB+AFFweA==";
    "rO0ABXNyABFqYXZhLnV0aWwuQ29sbFNlcleOq7Y6G6gRAwABSQADdGFneHAAAAAEdwQAAAAEc3IAN2lvLmdpdGh1Yi5lcmljbWVkdmV0LmpnZWEuY29yZS5yZXByZXNlbnRhdGlvbi50cmVlLlRyZWUKs7/qnQrEZQIAA0wACGNoaWxkcmVudAAQTGphdmEvdXRpbC9MaXN0O0wAB2NvbnRlbnR0ABJMamF2YS9sYW5nL09iamVjdDtMAAZwYXJlbnR0ADlMaW8vZ2l0aHViL2VyaWNtZWR2ZXQvamdlYS9jb3JlL3JlcHJlc2VudGF0aW9uL3RyZWUvVHJlZTt4cHNyABNqYXZhLnV0aWwuQXJyYXlMaXN0eIHSHZnHYZ0DAAFJAARzaXpleHAAAAACdwQAAAACc3EAfgACc3EAfgAHAAAAAncEAAAAAnNxAH4AAnNxAH4ABwAAAAB3BAAAAAB4c3IAS2lvLmdpdGh1Yi5lcmljbWVkdmV0LmpnZWEuY29yZS5yZXByZXNlbnRhdGlvbi50cmVlLm51bWVyaWMuRWxlbWVudCRWYXJpYWJsZQAAAAAAAAAAAgABTAAEbmFtZXQAEkxqYXZhL2xhbmcvU3RyaW5nO3hwdAACeDBxAH4ACXNxAH4AAnNxAH4ABwAAAAB3BAAAAAB4cQB+AA9zcQB+AAJzcQB+AAcAAAACdwQAAAACc3EAfgACc3EAfgAHAAAAAncEAAAAAnNxAH4AAnNxAH4ABwAAAAB3BAAAAAB4cQB+AA9xAH4AFXNxAH4AAnNxAH4ABwAAAAB3BAAAAAB4cQB+AA9xAH4AFXh+cgBLaW8uZ2l0aHViLmVyaWNtZWR2ZXQuamdlYS5jb3JlLnJlcHJlc2VudGF0aW9uLnRyZWUubnVtZXJpYy5FbGVtZW50JE9wZXJhdG9yAAAAAAAAAAASAAB4cgAOamF2YS5sYW5nLkVudW0AAAAAAAAAABIAAHhwdAAIQURESVRJT05xAH4AE3EAfgAReHEAfgAdc3EAfgACc3EAfgAHAAAAAncEAAAAAnEAfgATc3EAfgACc3EAfgAHAAAAAHcEAAAAAHhxAH4AD3NxAH4AAnNxAH4ABwAAAAJ3BAAAAAJzcQB+AAJzcQB+AAcAAAAAdwQAAAAAeHEAfgAPcQB+ACNxAH4AIXhxAH4AHXB4cQB+AB1weHEAfgAdcQB+AAZxAH4AIXhxAH4AHXBzcQB+AAJzcQB+AAcAAAACdwQAAAACc3EAfgACc3EAfgAHAAAAAncEAAAAAnNxAH4AAnNxAH4ABwAAAAB3BAAAAAB4c3EAfgANdAACeDFxAH4AKXNxAH4AAnNxAH4ABwAAAAJ3BAAAAAJzcQB+AAJzcQB+AAcAAAACdwQAAAACc3EAfgACc3EAfgAHAAAAAHcEAAAAAHhxAH4ALXEAfgAxc3EAfgACc3EAfgAHAAAAAncEAAAAAnNxAH4AAnNxAH4ABwAAAAJ3BAAAAAJzcQB+AAJzcQB+AAcAAAAAdwQAAAAAeHNxAH4ADXQAAng0cQB+ADdzcQB+AAJzcQB+AAcAAAACdwQAAAACc3EAfgACc3EAfgAHAAAAAHcEAAAAAHhxAH4AD3EAfgA9c3EAfgACc3EAfgAHAAAAAHcEAAAAAHhxAH4AO3NxAH4AAnNxAH4ABwAAAAJ3BAAAAAJzcQB+AAJzcQB+AAcAAAAAdwQAAAAAeHEAfgA7cQB+AENxAH4AQXh+cQB+ABt0AA5NVUxUSVBMSUNBVElPTnNxAH4AAnNxAH4ABwAAAAJ3BAAAAAJzcQB+AAJzcQB+AAcAAAAAdwQAAAAAeHEAfgA7cQB+AElxAH4AQ3h+cQB+ABt0AAtTVUJUUkFDVElPTnNxAH4AAnNxAH4ABwAAAAJ3BAAAAAJxAH4ASXNxAH4AAnNxAH4ABwAAAAJ3BAAAAAJzcQB+AAJzcQB+AAcAAAAAdwQAAAAAeHEAfgAPcQB+AFFzcQB+AAJzcQB+AAcAAAAAdwQAAAAAeHEAfgA7cQB+AFF4cQB+AEdxAH4AT3hxAH4ATXNxAH4AAnNxAH4ABwAAAAJ3BAAAAAJzcQB+AAJzcQB+AAcAAAAAdwQAAAAAeHEAfgAtcQB+AFdxAH4AT3hxAH4AHXNxAH4AAnNxAH4ABwAAAAJ3BAAAAAJxAH4AV3NxAH4AAnNxAH4ABwAAAAJ3BAAAAAJzcQB+AAJzcQB+AAcAAAAAdwQAAAAAeHEAfgAPcQB+AF1zcQB+AAJzcQB+AAcAAAAAdwQAAAAAeHEAfgA7cQB+AF14cQB+AEdxAH4AW3hxAH4ATXNxAH4AAnNxAH4ABwAAAAJ3BAAAAAJzcQB+AAJzcQB+AAcAAAAAdwQAAAAAeHEAfgAtcQB+AGNxAH4AW3hxAH4AHXNxAH4AAnNxAH4ABwAAAAJ3BAAAAAJxAH4AY3NxAH4AAnNxAH4ABwAAAAJ3BAAAAAJzcQB+AAJzcQB+AAcAAAAAdwQAAAAAeHEAfgAPcQB+AGlzcQB+AAJzcQB+AAcAAAAAdwQAAAAAeHEAfgA7c3EAfgACc3EAfgAHAAAAAncEAAAAAnNxAH4AAnNxAH4ABwAAAAB3BAAAAAB4cQB+ADtxAH4Ab3EAfgBteHEAfgBHc3EAfgACc3EAfgAHAAAAAncEAAAAAnNxAH4AAnNxAH4ABwAAAAJ3BAAAAAJzcQB+AAJzcQB+AAcAAAAAdwQAAAAAeHEAfgAtcQB+AHVzcQB+AAJzcQB+AAcAAAACdwQAAAACc3EAfgACc3EAfgAHAAAAAncEAAAAAnNxAH4AAnNxAH4ABwAAAAB3BAAAAAB4cQB+AC1xAH4Ae3NxAH4AAnNxAH4ABwAAAAJ3BAAAAAJzcQB+AAJzcQB+AAcAAAAAdwQAAAAAeHEAfgA7cQB+AH9zcQB+AAJzcQB+AAcAAAAAdwQAAAAAeHNxAH4ADXQAA3gxMXEAfgB/eHEAfgBNcQB+AHt4cQB+AB1xAH4AeXNxAH4AAnNxAH4ABwAAAAB3BAAAAAB4cQB+AIVxAH4AeXhxAH4ATXEAfgB1eHEAfgAdcQB+AHNxAH4Ab3hxAH4AR3B4cQB+AEdxAH4AZ3hxAH4AR3B4cQB+AEdzcQB+AAJzcQB+AAcAAAACdwQAAAACc3EAfgACc3EAfgAHAAAAAHcEAAAAAHhxAH4ALXEAfgCJcQB+AD14cQB+AE1zcQB+AAJzcQB+AAcAAAACdwQAAAACcQB+AIlxAH4AUXhxAH4ATXNxAH4AAnNxAH4ABwAAAAJ3BAAAAAJzcQB+AAJzcQB+AAcAAAAAdwQAAAAAeHEAfgAtcQB+AI9xAH4AjXhxAH4AHXNxAH4AAnNxAH4ABwAAAAJ3BAAAAAJxAH4Aj3EAfgBdeHEAfgBNc3EAfgACc3EAfgAHAAAAAncEAAAAAnNxAH4AAnNxAH4ABwAAAAB3BAAAAAB4cQB+AC1xAH4AlXEAfgCTeHEAfgAdc3EAfgACc3EAfgAHAAAAAncEAAAAAnEAfgCVcQB+AGl4cQB+AEdweHEAfgBNcQB+ADVxAH4AUXhxAH4ATXEAfgAxeHEAfgAdcQB+AC9xAH4AXXhxAH4ATXNxAH4AAnNxAH4ABwAAAAJ3BAAAAAJzcQB+AAJzcQB+AAcAAAACdwQAAAACc3EAfgACc3EAfgAHAAAAAHcEAAAAAHhxAH4AD3EAfgCdc3EAfgACc3EAfgAHAAAAAHcEAAAAAHhxAH4AO3EAfgCdeHEAfgBHcQB+AJtxAH4AL3hxAH4AHXNxAH4AAnNxAH4ABwAAAAJ3BAAAAAJxAH4Am3EAfgBpeHEAfgBHcHhxAH4AHXEAfgAncQB+AGl4cQB+AEdwc3EAfgACc3EAfgAHAAAAAncEAAAAAnNxAH4AAnNxAH4ABwAAAAJ3BAAAAAJzcQB+AAJzcQB+AAcAAAACdwQAAAACc3EAfgACc3EAfgAHAAAAAncEAAAAAnNxAH4AAnNxAH4ABwAAAAB3BAAAAAB4c3IAS2lvLmdpdGh1Yi5lcmljbWVkdmV0LmpnZWEuY29yZS5yZXByZXNlbnRhdGlvbi50cmVlLm51bWVyaWMuRWxlbWVudCRDb25zdGFudAAAAAAAAAAAAgABRAAFdmFsdWV4cEAQAAAAAAAAcQB+AKtzcQB+AAJzcQB+AAcAAAAAdwQAAAAAeHNxAH4Ar0AIAAAAAAAAc3EAfgACc3EAfgAHAAAAAncEAAAAAnNxAH4AAnNxAH4ABwAAAAJ3BAAAAAJzcQB+AAJzcQB+AAcAAAAAdwQAAAAAeHEAfgCwcQB+ALZzcQB+AAJzcQB+AAcAAAAAdwQAAAAAeHEAfgCzcQB+ALZ4fnEAfgAbdAANUFJPVF9ESVZJU0lPTnEAfgC0cQB+ALF4cQB+ALxzcQB+AAJzcQB+AAcAAAACdwQAAAACcQB+ALRzcQB+AAJzcQB+AAcAAAAAdwQAAAAAeHNxAH4Ar0AEAAAAAAAAcQB+AL54cQB+ALxzcQB+AAJzcQB+AAcAAAACdwQAAAACcQB+AL5zcQB+AAJzcQB+AAcAAAAAdwQAAAAAeHEAfgDCc3EAfgACc3EAfgAHAAAAAncEAAAAAnNxAH4AAnNxAH4ABwAAAAJ3BAAAAAJzcQB+AAJzcQB+AAcAAAACdwQAAAACc3EAfgACc3EAfgAHAAAAAHcEAAAAAHhxAH4AsHEAfgDLc3EAfgACc3EAfgAHAAAAAHcEAAAAAHhxAH4As3EAfgDLeHEAfgC8cQB+AMlzcQB+AAJzcQB+AAcAAAAAdwQAAAAAeHEAfgCzcQB+AMl4cQB+ALxxAH4Ax3EAfgDFeHEAfgBNc3EAfgACc3EAfgAHAAAAAncEAAAAAnEAfgDHc3EAfgACc3EAfgAHAAAAAHcEAAAAAHhxAH4As3EAfgDTeHEAfgAdcHhxAH4ATXNxAH4AAnNxAH4ABwAAAAJ3BAAAAAJxAH4Aw3EAfgDVeHEAfgAdcHhxAH4AvHEAfgCpcQB+AMB4cQB+ALxxAH4Ap3EAfgDFeHEAfgBNcQB+AKVxAH4A1XhxAH4AHXBzcQB+AAJzcQB+AAcAAAACdwQAAAACc3EAfgACc3EAfgAHAAAAAHcEAAAAAHhzcQB+AA10AAJ4OXEAfgDZc3EAfgACc3EAfgAHAAAAAncEAAAAAnNxAH4AAnNxAH4ABwAAAAB3BAAAAAB4cQB+AN1xAH4A33NxAH4AAnNxAH4ABwAAAAB3BAAAAAB4c3EAfgCvP/AAAAAAAABxAH4A33hxAH4AHXNxAH4AAnNxAH4ABwAAAAJ3BAAAAAJzcQB+AAJzcQB+AAcAAAACdwQAAAACc3EAfgACc3EAfgAHAAAAAHcEAAAAAHhxAH4A3XEAfgDoc3EAfgACc3EAfgAHAAAAAHcEAAAAAHhxAH4A5XEAfgDoeHEAfgAdcQB+AOZxAH4A33hxAH4ATXB4cQB+AE1weA==";
    "rO0ABXNyABFqYXZhLnV0aWwuQ29sbFNlcleOq7Y6G6gRAwABSQADdGFneHAAAAAEdwQAAAAEc3IAN2lvLmdpdGh1Yi5lcmljbWVkdmV0LmpnZWEuY29yZS5yZXByZXNlbnRhdGlvbi50cmVlLlRyZWUKs7/qnQrEZQIAA0wACGNoaWxkcmVudAAQTGphdmEvdXRpbC9MaXN0O0wAB2NvbnRlbnR0ABJMamF2YS9sYW5nL09iamVjdDtMAAZwYXJlbnR0ADlMaW8vZ2l0aHViL2VyaWNtZWR2ZXQvamdlYS9jb3JlL3JlcHJlc2VudGF0aW9uL3RyZWUvVHJlZTt4cHNyABNqYXZhLnV0aWwuQXJyYXlMaXN0eIHSHZnHYZ0DAAFJAARzaXpleHAAAAACdwQAAAACc3EAfgACc3EAfgAHAAAAAncEAAAAAnNxAH4AAnNxAH4ABwAAAAB3BAAAAAB4c3IAS2lvLmdpdGh1Yi5lcmljbWVkdmV0LmpnZWEuY29yZS5yZXByZXNlbnRhdGlvbi50cmVlLm51bWVyaWMuRWxlbWVudCRWYXJpYWJsZQAAAAAAAAAAAgABTAAEbmFtZXQAEkxqYXZhL2xhbmcvU3RyaW5nO3hwdAACeDBxAH4ACXNxAH4AAnNxAH4ABwAAAAB3BAAAAAB4cQB+AA9zcQB+AAJzcQB+AAcAAAACdwQAAAACc3EAfgACc3EAfgAHAAAAAncEAAAAAnNxAH4AAnNxAH4ABwAAAAJ3BAAAAAJzcQB+AAJzcQB+AAcAAAAAdwQAAAAAeHEAfgAPcQB+ABdzcQB+AAJzcQB+AAcAAAAAdwQAAAAAeHEAfgAPcQB+ABd4fnIAS2lvLmdpdGh1Yi5lcmljbWVkdmV0LmpnZWEuY29yZS5yZXByZXNlbnRhdGlvbi50cmVlLm51bWVyaWMuRWxlbWVudCRPcGVyYXRvcgAAAAAAAAAAEgAAeHIADmphdmEubGFuZy5FbnVtAAAAAAAAAAASAAB4cHQACEFERElUSU9OcQB+ABVzcQB+AAJzcQB+AAcAAAAAdwQAAAAAeHEAfgAPcQB+ABV4cQB+AB9xAH4AE3EAfgAReHEAfgAfc3EAfgACc3EAfgAHAAAAAncEAAAAAnEAfgATc3EAfgACc3EAfgAHAAAAAHcEAAAAAHhxAH4AD3NxAH4AAnNxAH4ABwAAAAJ3BAAAAAJzcQB+AAJzcQB+AAcAAAAAdwQAAAAAeHEAfgAPcQB+ACdxAH4AJXhxAH4AH3B4cQB+AB9weHEAfgAfcQB+AAZxAH4AJXhxAH4AH3BzcQB+AAJzcQB+AAcAAAACdwQAAAACc3EAfgACc3EAfgAHAAAAAncEAAAAAnNxAH4AAnNxAH4ABwAAAAB3BAAAAAB4c3EAfgANdAACeDFxAH4ALXNxAH4AAnNxAH4ABwAAAAJ3BAAAAAJzcQB+AAJzcQB+AAcAAAACdwQAAAACc3EAfgACc3EAfgAHAAAAAHcEAAAAAHhxAH4AMXEAfgA1c3EAfgACc3EAfgAHAAAAAncEAAAAAnNxAH4AAnNxAH4ABwAAAAJ3BAAAAAJzcQB+AAJzcQB+AAcAAAAAdwQAAAAAeHNxAH4ADXQAAng0cQB+ADtzcQB+AAJzcQB+AAcAAAACdwQAAAACc3EAfgACc3EAfgAHAAAAAHcEAAAAAHhxAH4AD3EAfgBBc3EAfgACc3EAfgAHAAAAAHcEAAAAAHhxAH4AP3NxAH4AAnNxAH4ABwAAAAJ3BAAAAAJzcQB+AAJzcQB+AAcAAAAAdwQAAAAAeHEAfgA/cQB+AEdxAH4ARXh+cQB+AB10AA5NVUxUSVBMSUNBVElPTnNxAH4AAnNxAH4ABwAAAAJ3BAAAAAJzcQB+AAJzcQB+AAcAAAAAdwQAAAAAeHEAfgA/cQB+AE1xAH4AR3h+cQB+AB10AAtTVUJUUkFDVElPTnNxAH4AAnNxAH4ABwAAAAJ3BAAAAAJxAH4ATXNxAH4AAnNxAH4ABwAAAAJ3BAAAAAJzcQB+AAJzcQB+AAcAAAAAdwQAAAAAeHEAfgAPcQB+AFVzcQB+AAJzcQB+AAcAAAAAdwQAAAAAeHEAfgA/cQB+AFV4cQB+AEtxAH4AU3hxAH4AUXNxAH4AAnNxAH4ABwAAAAJ3BAAAAAJzcQB+AAJzcQB+AAcAAAAAdwQAAAAAeHEAfgAxcQB+AFtxAH4AU3hxAH4AH3NxAH4AAnNxAH4ABwAAAAJ3BAAAAAJxAH4AW3NxAH4AAnNxAH4ABwAAAAJ3BAAAAAJzcQB+AAJzcQB+AAcAAAAAdwQAAAAAeHEAfgAPcQB+AGFzcQB+AAJzcQB+AAcAAAAAdwQAAAAAeHEAfgA/cQB+AGF4cQB+AEtxAH4AX3hxAH4AUXNxAH4AAnNxAH4ABwAAAAJ3BAAAAAJzcQB+AAJzcQB+AAcAAAAAdwQAAAAAeHEAfgAxcQB+AGdxAH4AX3hxAH4AH3NxAH4AAnNxAH4ABwAAAAJ3BAAAAAJxAH4AZ3NxAH4AAnNxAH4ABwAAAAJ3BAAAAAJzcQB+AAJzcQB+AAcAAAAAdwQAAAAAeHEAfgAPcQB+AG1zcQB+AAJzcQB+AAcAAAAAdwQAAAAAeHEAfgA/c3EAfgACc3EAfgAHAAAAAncEAAAAAnNxAH4AAnNxAH4ABwAAAAB3BAAAAAB4cQB+AD9xAH4Ac3EAfgBxeHEAfgBLc3EAfgACc3EAfgAHAAAAAncEAAAAAnNxAH4AAnNxAH4ABwAAAAJ3BAAAAAJzcQB+AAJzcQB+AAcAAAAAdwQAAAAAeHEAfgAxcQB+AHlzcQB+AAJzcQB+AAcAAAACdwQAAAACc3EAfgACc3EAfgAHAAAAAncEAAAAAnNxAH4AAnNxAH4ABwAAAAB3BAAAAAB4cQB+ADFxAH4Af3NxAH4AAnNxAH4ABwAAAAJ3BAAAAAJzcQB+AAJzcQB+AAcAAAAAdwQAAAAAeHEAfgA/cQB+AINzcQB+AAJzcQB+AAcAAAAAdwQAAAAAeHNxAH4ADXQAA3gxMXEAfgCDeHEAfgBRcQB+AH94cQB+AB9xAH4AfXNxAH4AAnNxAH4ABwAAAAB3BAAAAAB4cQB+AIlxAH4AfXhxAH4AUXEAfgB5eHEAfgAfcQB+AHdxAH4Ac3hxAH4AS3B4cQB+AEtxAH4Aa3hxAH4AS3B4cQB+AEtzcQB+AAJzcQB+AAcAAAACdwQAAAACc3EAfgACc3EAfgAHAAAAAHcEAAAAAHhxAH4AMXEAfgCNcQB+AEF4cQB+AFFzcQB+AAJzcQB+AAcAAAACdwQAAAACcQB+AI1xAH4AVXhxAH4AUXNxAH4AAnNxAH4ABwAAAAJ3BAAAAAJzcQB+AAJzcQB+AAcAAAAAdwQAAAAAeHEAfgAxcQB+AJNxAH4AkXhxAH4AH3NxAH4AAnNxAH4ABwAAAAJ3BAAAAAJxAH4Ak3EAfgBheHEAfgBRc3EAfgACc3EAfgAHAAAAAncEAAAAAnNxAH4AAnNxAH4ABwAAAAB3BAAAAAB4cQB+ADFxAH4AmXEAfgCXeHEAfgAfc3EAfgACc3EAfgAHAAAAAncEAAAAAnEAfgCZcQB+AG14cQB+AEtweHEAfgBRcQB+ADlxAH4AVXhxAH4AUXEAfgA1eHEAfgAfcQB+ADNxAH4AYXhxAH4AUXNxAH4AAnNxAH4ABwAAAAJ3BAAAAAJzcQB+AAJzcQB+AAcAAAACdwQAAAACc3EAfgACc3EAfgAHAAAAAHcEAAAAAHhxAH4AD3EAfgChc3EAfgACc3EAfgAHAAAAAHcEAAAAAHhxAH4AP3EAfgCheHEAfgBLcQB+AJ9xAH4AM3hxAH4AH3NxAH4AAnNxAH4ABwAAAAJ3BAAAAAJxAH4An3EAfgBteHEAfgBLcHhxAH4AH3EAfgArcQB+AG14cQB+AEtwc3EAfgACc3EAfgAHAAAAAncEAAAAAnNxAH4AAnNxAH4ABwAAAAJ3BAAAAAJzcQB+AAJzcQB+AAcAAAACdwQAAAACc3EAfgACc3EAfgAHAAAAAncEAAAAAnNxAH4AAnNxAH4ABwAAAAB3BAAAAAB4c3IAS2lvLmdpdGh1Yi5lcmljbWVkdmV0LmpnZWEuY29yZS5yZXByZXNlbnRhdGlvbi50cmVlLm51bWVyaWMuRWxlbWVudCRDb25zdGFudAAAAAAAAAAAAgABRAAFdmFsdWV4cEAQAAAAAAAAcQB+AK9zcQB+AAJzcQB+AAcAAAAAdwQAAAAAeHNxAH4As0AIAAAAAAAAc3EAfgACc3EAfgAHAAAAAncEAAAAAnNxAH4AAnNxAH4ABwAAAAJ3BAAAAAJzcQB+AAJzcQB+AAcAAAAAdwQAAAAAeHEAfgC0cQB+ALpzcQB+AAJzcQB+AAcAAAAAdwQAAAAAeHEAfgC3cQB+ALp4fnEAfgAddAANUFJPVF9ESVZJU0lPTnEAfgC4cQB+ALV4cQB+AMBzcQB+AAJzcQB+AAcAAAACdwQAAAACcQB+ALhzcQB+AAJzcQB+AAcAAAAAdwQAAAAAeHNxAH4As0AEAAAAAAAAcQB+AMJ4cQB+AMBzcQB+AAJzcQB+AAcAAAACdwQAAAACcQB+AMJzcQB+AAJzcQB+AAcAAAAAdwQAAAAAeHEAfgDGc3EAfgACc3EAfgAHAAAAAncEAAAAAnNxAH4AAnNxAH4ABwAAAAJ3BAAAAAJzcQB+AAJzcQB+AAcAAAACdwQAAAACc3EAfgACc3EAfgAHAAAAAHcEAAAAAHhxAH4AtHEAfgDPc3EAfgACc3EAfgAHAAAAAHcEAAAAAHhxAH4At3EAfgDPeHEAfgDAcQB+AM1zcQB+AAJzcQB+AAcAAAAAdwQAAAAAeHEAfgC3cQB+AM14cQB+AMBxAH4Ay3EAfgDJeHEAfgBRc3EAfgACc3EAfgAHAAAAAncEAAAAAnEAfgDLc3EAfgACc3EAfgAHAAAAAHcEAAAAAHhxAH4At3EAfgDXeHEAfgAfcHhxAH4AUXNxAH4AAnNxAH4ABwAAAAJ3BAAAAAJxAH4Ax3EAfgDZeHEAfgAfcHhxAH4AwHEAfgCtcQB+AMR4cQB+AMBxAH4Aq3EAfgDJeHEAfgBRcQB+AKlxAH4A2XhxAH4AH3BzcQB+AAJzcQB+AAcAAAACdwQAAAACc3EAfgACc3EAfgAHAAAAAHcEAAAAAHhzcQB+AA10AAJ4OXEAfgDdc3EAfgACc3EAfgAHAAAAAncEAAAAAnNxAH4AAnNxAH4ABwAAAAB3BAAAAAB4cQB+AOFxAH4A43NxAH4AAnNxAH4ABwAAAAB3BAAAAAB4c3EAfgCzP/AAAAAAAABxAH4A43hxAH4AH3NxAH4AAnNxAH4ABwAAAAJ3BAAAAAJzcQB+AAJzcQB+AAcAAAAAdwQAAAAAeHEAfgDpcQB+AOpxAH4A43hxAH4AUXB4cQB+AFFweA==";
    "rO0ABXNyABFqYXZhLnV0aWwuQ29sbFNlcleOq7Y6G6gRAwABSQADdGFneHAAAAAEdwQAAAAEc3IAN2lvLmdpdGh1Yi5lcmljbWVkdmV0LmpnZWEuY29yZS5yZXByZXNlbnRhdGlvbi50cmVlLlRyZWUKs7/qnQrEZQIAA0wACGNoaWxkcmVudAAQTGphdmEvdXRpbC9MaXN0O0wAB2NvbnRlbnR0ABJMamF2YS9sYW5nL09iamVjdDtMAAZwYXJlbnR0ADlMaW8vZ2l0aHViL2VyaWNtZWR2ZXQvamdlYS9jb3JlL3JlcHJlc2VudGF0aW9uL3RyZWUvVHJlZTt4cHNyABNqYXZhLnV0aWwuQXJyYXlMaXN0eIHSHZnHYZ0DAAFJAARzaXpleHAAAAACdwQAAAACc3EAfgACc3EAfgAHAAAAAncEAAAAAnNxAH4AAnNxAH4ABwAAAAB3BAAAAAB4c3IAS2lvLmdpdGh1Yi5lcmljbWVkdmV0LmpnZWEuY29yZS5yZXByZXNlbnRhdGlvbi50cmVlLm51bWVyaWMuRWxlbWVudCRWYXJpYWJsZQAAAAAAAAAAAgABTAAEbmFtZXQAEkxqYXZhL2xhbmcvU3RyaW5nO3hwdAACeDBxAH4ACXNxAH4AAnNxAH4ABwAAAAB3BAAAAAB4cQB+AA9zcQB+AAJzcQB+AAcAAAACdwQAAAACc3EAfgACc3EAfgAHAAAAAncEAAAAAnNxAH4AAnNxAH4ABwAAAAJ3BAAAAAJzcQB+AAJzcQB+AAcAAAAAdwQAAAAAeHEAfgAPcQB+ABdzcQB+AAJzcQB+AAcAAAAAdwQAAAAAeHEAfgAPcQB+ABd4fnIAS2lvLmdpdGh1Yi5lcmljbWVkdmV0LmpnZWEuY29yZS5yZXByZXNlbnRhdGlvbi50cmVlLm51bWVyaWMuRWxlbWVudCRPcGVyYXRvcgAAAAAAAAAAEgAAeHIADmphdmEubGFuZy5FbnVtAAAAAAAAAAASAAB4cHQACEFERElUSU9OcQB+ABVzcQB+AAJzcQB+AAcAAAAAdwQAAAAAeHEAfgAPcQB+ABV4cQB+AB9xAH4AE3EAfgAReHEAfgAfc3EAfgACc3EAfgAHAAAAAncEAAAAAnEAfgATc3EAfgACc3EAfgAHAAAAAHcEAAAAAHhxAH4AD3NxAH4AAnNxAH4ABwAAAAJ3BAAAAAJzcQB+AAJzcQB+AAcAAAAAdwQAAAAAeHEAfgAPcQB+ACdxAH4AJXhxAH4AH3B4cQB+AB9weHEAfgAfcQB+AAZxAH4AJXhxAH4AH3BzcQB+AAJzcQB+AAcAAAACdwQAAAACc3EAfgACc3EAfgAHAAAAAncEAAAAAnNxAH4AAnNxAH4ABwAAAAB3BAAAAAB4c3EAfgANdAACeDFxAH4ALXNxAH4AAnNxAH4ABwAAAAJ3BAAAAAJzcQB+AAJzcQB+AAcAAAACdwQAAAACc3EAfgACc3EAfgAHAAAAAHcEAAAAAHhxAH4AMXEAfgA1c3EAfgACc3EAfgAHAAAAAncEAAAAAnNxAH4AAnNxAH4ABwAAAAJ3BAAAAAJzcQB+AAJzcQB+AAcAAAAAdwQAAAAAeHNxAH4ADXQAAng0cQB+ADtzcQB+AAJzcQB+AAcAAAACdwQAAAACc3EAfgACc3EAfgAHAAAAAHcEAAAAAHhxAH4AD3EAfgBBc3EAfgACc3EAfgAHAAAAAHcEAAAAAHhxAH4AP3NxAH4AAnNxAH4ABwAAAAJ3BAAAAAJzcQB+AAJzcQB+AAcAAAAAdwQAAAAAeHEAfgA/cQB+AEdxAH4ARXh+cQB+AB10AA5NVUxUSVBMSUNBVElPTnNxAH4AAnNxAH4ABwAAAAJ3BAAAAAJzcQB+AAJzcQB+AAcAAAAAdwQAAAAAeHEAfgA/cQB+AE1xAH4AR3h+cQB+AB10AAtTVUJUUkFDVElPTnNxAH4AAnNxAH4ABwAAAAJ3BAAAAAJxAH4ATXNxAH4AAnNxAH4ABwAAAAJ3BAAAAAJzcQB+AAJzcQB+AAcAAAAAdwQAAAAAeHEAfgAPcQB+AFVzcQB+AAJzcQB+AAcAAAAAdwQAAAAAeHEAfgA/cQB+AFV4cQB+AEtxAH4AU3hxAH4AUXNxAH4AAnNxAH4ABwAAAAJ3BAAAAAJzcQB+AAJzcQB+AAcAAAAAdwQAAAAAeHEAfgAxcQB+AFtxAH4AU3hxAH4AH3NxAH4AAnNxAH4ABwAAAAJ3BAAAAAJxAH4AW3NxAH4AAnNxAH4ABwAAAAJ3BAAAAAJzcQB+AAJzcQB+AAcAAAAAdwQAAAAAeHEAfgAPcQB+AGFzcQB+AAJzcQB+AAcAAAAAdwQAAAAAeHEAfgA/cQB+AGF4cQB+AEtxAH4AX3hxAH4AUXNxAH4AAnNxAH4ABwAAAAJ3BAAAAAJzcQB+AAJzcQB+AAcAAAAAdwQAAAAAeHEAfgAxcQB+AGdxAH4AX3hxAH4AH3NxAH4AAnNxAH4ABwAAAAJ3BAAAAAJxAH4AZ3NxAH4AAnNxAH4ABwAAAAJ3BAAAAAJzcQB+AAJzcQB+AAcAAAAAdwQAAAAAeHEAfgAPcQB+AG1zcQB+AAJzcQB+AAcAAAAAdwQAAAAAeHEAfgA/c3EAfgACc3EAfgAHAAAAAncEAAAAAnNxAH4AAnNxAH4ABwAAAAB3BAAAAAB4cQB+AD9xAH4Ac3EAfgBxeHEAfgBLc3EAfgACc3EAfgAHAAAAAncEAAAAAnNxAH4AAnNxAH4ABwAAAAJ3BAAAAAJzcQB+AAJzcQB+AAcAAAAAdwQAAAAAeHEAfgAxcQB+AHlzcQB+AAJzcQB+AAcAAAACdwQAAAACc3EAfgACc3EAfgAHAAAAAncEAAAAAnNxAH4AAnNxAH4ABwAAAAB3BAAAAAB4cQB+ADFxAH4Af3NxAH4AAnNxAH4ABwAAAAJ3BAAAAAJzcQB+AAJzcQB+AAcAAAAAdwQAAAAAeHEAfgA/cQB+AINzcQB+AAJzcQB+AAcAAAAAdwQAAAAAeHNxAH4ADXQAA3gxMXEAfgCDeHEAfgBRcQB+AH94cQB+AB9xAH4AfXNxAH4AAnNxAH4ABwAAAAB3BAAAAAB4cQB+AIlxAH4AfXhxAH4AUXEAfgB5eHEAfgAfcQB+AHdxAH4Ac3hxAH4AS3B4cQB+AEtxAH4Aa3hxAH4AS3B4cQB+AEtzcQB+AAJzcQB+AAcAAAACdwQAAAACc3EAfgACc3EAfgAHAAAAAHcEAAAAAHhxAH4AMXEAfgCNcQB+AEF4cQB+AFFzcQB+AAJzcQB+AAcAAAACdwQAAAACcQB+AI1xAH4AVXhxAH4AUXNxAH4AAnNxAH4ABwAAAAJ3BAAAAAJzcQB+AAJzcQB+AAcAAAAAdwQAAAAAeHEAfgAxcQB+AJNxAH4AkXhxAH4AH3NxAH4AAnNxAH4ABwAAAAJ3BAAAAAJxAH4Ak3EAfgBheHEAfgBRc3EAfgACc3EAfgAHAAAAAncEAAAAAnNxAH4AAnNxAH4ABwAAAAB3BAAAAAB4cQB+ADFxAH4AmXEAfgCXeHEAfgAfc3EAfgACc3EAfgAHAAAAAncEAAAAAnEAfgCZcQB+AG14cQB+AEtweHEAfgBRcQB+ADlxAH4AVXhxAH4AUXEAfgA1eHEAfgAfcQB+ADNxAH4AYXhxAH4AUXNxAH4AAnNxAH4ABwAAAAJ3BAAAAAJzcQB+AAJzcQB+AAcAAAACdwQAAAACc3EAfgACc3EAfgAHAAAAAHcEAAAAAHhxAH4AD3EAfgChc3EAfgACc3EAfgAHAAAAAHcEAAAAAHhxAH4AP3EAfgCheHEAfgBLcQB+AJ9xAH4AM3hxAH4AH3NxAH4AAnNxAH4ABwAAAAJ3BAAAAAJxAH4An3EAfgBteHEAfgBLcHhxAH4AH3EAfgArcQB+AG14cQB+AEtwc3EAfgACc3EAfgAHAAAAAncEAAAAAnNxAH4AAnNxAH4ABwAAAAJ3BAAAAAJzcQB+AAJzcQB+AAcAAAACdwQAAAACc3EAfgACc3EAfgAHAAAAAncEAAAAAnNxAH4AAnNxAH4ABwAAAAB3BAAAAAB4c3IAS2lvLmdpdGh1Yi5lcmljbWVkdmV0LmpnZWEuY29yZS5yZXByZXNlbnRhdGlvbi50cmVlLm51bWVyaWMuRWxlbWVudCRDb25zdGFudAAAAAAAAAAAAgABRAAFdmFsdWV4cEAQAAAAAAAAcQB+AK9zcQB+AAJzcQB+AAcAAAAAdwQAAAAAeHNxAH4As0AIAAAAAAAAc3EAfgACc3EAfgAHAAAAAncEAAAAAnNxAH4AAnNxAH4ABwAAAAJ3BAAAAAJzcQB+AAJzcQB+AAcAAAAAdwQAAAAAeHEAfgC0cQB+ALpzcQB+AAJzcQB+AAcAAAAAdwQAAAAAeHEAfgC3cQB+ALp4fnEAfgAddAANUFJPVF9ESVZJU0lPTnEAfgC4cQB+ALV4cQB+AMBzcQB+AAJzcQB+AAcAAAACdwQAAAACcQB+ALhzcQB+AAJzcQB+AAcAAAAAdwQAAAAAeHNxAH4As0AEAAAAAAAAcQB+AMJ4cQB+AMBzcQB+AAJzcQB+AAcAAAACdwQAAAACcQB+AMJzcQB+AAJzcQB+AAcAAAAAdwQAAAAAeHEAfgDGc3EAfgACc3EAfgAHAAAAAncEAAAAAnNxAH4AAnNxAH4ABwAAAAJ3BAAAAAJzcQB+AAJzcQB+AAcAAAACdwQAAAACc3EAfgACc3EAfgAHAAAAAHcEAAAAAHhxAH4AtHEAfgDPc3EAfgACc3EAfgAHAAAAAHcEAAAAAHhxAH4At3EAfgDPeHEAfgDAcQB+AM1zcQB+AAJzcQB+AAcAAAAAdwQAAAAAeHEAfgC3cQB+AM14cQB+AMBxAH4Ay3EAfgDJeHEAfgBRc3EAfgACc3EAfgAHAAAAAncEAAAAAnEAfgDLc3EAfgACc3EAfgAHAAAAAHcEAAAAAHhxAH4At3EAfgDXeHEAfgAfcHhxAH4AUXNxAH4AAnNxAH4ABwAAAAJ3BAAAAAJxAH4Ax3EAfgDZeHEAfgAfcHhxAH4AwHEAfgCtcQB+AMR4cQB+AMBxAH4Aq3EAfgDJeHEAfgBRcQB+AKlxAH4A2XhxAH4AH3BzcQB+AAJzcQB+AAcAAAACdwQAAAACc3EAfgACc3EAfgAHAAAAAHcEAAAAAHhzcQB+AA10AAJ4OXEAfgDdc3EAfgACc3EAfgAHAAAAAncEAAAAAnNxAH4AAnNxAH4ABwAAAAB3BAAAAAB4cQB+AOFxAH4A43NxAH4AAnNxAH4ABwAAAAB3BAAAAAB4c3EAfgCzP/AAAAAAAABxAH4A43hxAH4AH3NxAH4AAnNxAH4ABwAAAAJ3BAAAAAJzcQB+AAJzcQB+AAcAAAAAdwQAAAAAeHEAfgDpcQB+AOpxAH4A43hxAH4AUXB4cQB+AFFweA==";
    "rO0ABXNyABFqYXZhLnV0aWwuQ29sbFNlcleOq7Y6G6gRAwABSQADdGFneHAAAAAEdwQAAAAEc3IAN2lvLmdpdGh1Yi5lcmljbWVkdmV0LmpnZWEuY29yZS5yZXByZXNlbnRhdGlvbi50cmVlLlRyZWUKs7/qnQrEZQIAA0wACGNoaWxkcmVudAAQTGphdmEvdXRpbC9MaXN0O0wAB2NvbnRlbnR0ABJMamF2YS9sYW5nL09iamVjdDtMAAZwYXJlbnR0ADlMaW8vZ2l0aHViL2VyaWNtZWR2ZXQvamdlYS9jb3JlL3JlcHJlc2VudGF0aW9uL3RyZWUvVHJlZTt4cHNyABNqYXZhLnV0aWwuQXJyYXlMaXN0eIHSHZnHYZ0DAAFJAARzaXpleHAAAAACdwQAAAACc3EAfgACc3EAfgAHAAAAAncEAAAAAnNxAH4AAnNxAH4ABwAAAAB3BAAAAAB4c3IAS2lvLmdpdGh1Yi5lcmljbWVkdmV0LmpnZWEuY29yZS5yZXByZXNlbnRhdGlvbi50cmVlLm51bWVyaWMuRWxlbWVudCRWYXJpYWJsZQAAAAAAAAAAAgABTAAEbmFtZXQAEkxqYXZhL2xhbmcvU3RyaW5nO3hwdAACeDBxAH4ACXNxAH4AAnNxAH4ABwAAAAB3BAAAAAB4cQB+AA9zcQB+AAJzcQB+AAcAAAACdwQAAAACc3EAfgACc3EAfgAHAAAAAncEAAAAAnNxAH4AAnNxAH4ABwAAAAB3BAAAAAB4cQB+AA9xAH4AFXNxAH4AAnNxAH4ABwAAAAB3BAAAAAB4cQB+AA9xAH4AFXh+cgBLaW8uZ2l0aHViLmVyaWNtZWR2ZXQuamdlYS5jb3JlLnJlcHJlc2VudGF0aW9uLnRyZWUubnVtZXJpYy5FbGVtZW50JE9wZXJhdG9yAAAAAAAAAAASAAB4cgAOamF2YS5sYW5nLkVudW0AAAAAAAAAABIAAHhwdAAIQURESVRJT05xAH4AE3EAfgAReHEAfgAdc3EAfgACc3EAfgAHAAAAAncEAAAAAnEAfgATc3EAfgACc3EAfgAHAAAAAHcEAAAAAHhxAH4AD3NxAH4AAnNxAH4ABwAAAAJ3BAAAAAJzcQB+AAJzcQB+AAcAAAAAdwQAAAAAeHEAfgAPcQB+ACNxAH4AIXhxAH4AHXB4cQB+AB1weHEAfgAdcQB+AAZxAH4AIXhxAH4AHXBzcQB+AAJzcQB+AAcAAAACdwQAAAACc3EAfgACc3EAfgAHAAAAAncEAAAAAnNxAH4AAnNxAH4ABwAAAAB3BAAAAAB4c3EAfgANdAACeDFxAH4AKXNxAH4AAnNxAH4ABwAAAAJ3BAAAAAJzcQB+AAJzcQB+AAcAAAACdwQAAAACc3EAfgACc3EAfgAHAAAAAHcEAAAAAHhxAH4ALXEAfgAxc3EAfgACc3EAfgAHAAAAAncEAAAAAnNxAH4AAnNxAH4ABwAAAAJ3BAAAAAJzcQB+AAJzcQB+AAcAAAAAdwQAAAAAeHNxAH4ADXQAAng0cQB+ADdzcQB+AAJzcQB+AAcAAAACdwQAAAACc3EAfgACc3EAfgAHAAAAAHcEAAAAAHhxAH4AD3EAfgA9c3EAfgACc3EAfgAHAAAAAHcEAAAAAHhxAH4AO3NxAH4AAnNxAH4ABwAAAAJ3BAAAAAJzcQB+AAJzcQB+AAcAAAAAdwQAAAAAeHEAfgA7cQB+AENxAH4AQXh+cQB+ABt0AA5NVUxUSVBMSUNBVElPTnNxAH4AAnNxAH4ABwAAAAJ3BAAAAAJzcQB+AAJzcQB+AAcAAAAAdwQAAAAAeHEAfgA7cQB+AElxAH4AQ3h+cQB+ABt0AAtTVUJUUkFDVElPTnNxAH4AAnNxAH4ABwAAAAJ3BAAAAAJxAH4ASXNxAH4AAnNxAH4ABwAAAAJ3BAAAAAJzcQB+AAJzcQB+AAcAAAAAdwQAAAAAeHEAfgAPcQB+AFFzcQB+AAJzcQB+AAcAAAAAdwQAAAAAeHEAfgA7cQB+AFF4cQB+AEdxAH4AT3hxAH4ATXNxAH4AAnNxAH4ABwAAAAJ3BAAAAAJzcQB+AAJzcQB+AAcAAAAAdwQAAAAAeHEAfgAtcQB+AFdxAH4AT3hxAH4AHXNxAH4AAnNxAH4ABwAAAAJ3BAAAAAJxAH4AV3NxAH4AAnNxAH4ABwAAAAJ3BAAAAAJzcQB+AAJzcQB+AAcAAAAAdwQAAAAAeHEAfgAPcQB+AF1zcQB+AAJzcQB+AAcAAAAAdwQAAAAAeHEAfgA7cQB+AF14cQB+AEdxAH4AW3hxAH4ATXNxAH4AAnNxAH4ABwAAAAJ3BAAAAAJzcQB+AAJzcQB+AAcAAAAAdwQAAAAAeHEAfgAtcQB+AGNxAH4AW3hxAH4AHXNxAH4AAnNxAH4ABwAAAAJ3BAAAAAJxAH4AY3NxAH4AAnNxAH4ABwAAAAJ3BAAAAAJzcQB+AAJzcQB+AAcAAAAAdwQAAAAAeHEAfgAPcQB+AGlzcQB+AAJzcQB+AAcAAAAAdwQAAAAAeHEAfgA7c3EAfgACc3EAfgAHAAAAAncEAAAAAnNxAH4AAnNxAH4ABwAAAAB3BAAAAAB4cQB+ADtxAH4Ab3EAfgBteHEAfgBHc3EAfgACc3EAfgAHAAAAAncEAAAAAnNxAH4AAnNxAH4ABwAAAAJ3BAAAAAJzcQB+AAJzcQB+AAcAAAAAdwQAAAAAeHEAfgAtcQB+AHVzcQB+AAJzcQB+AAcAAAACdwQAAAACc3EAfgACc3EAfgAHAAAAAncEAAAAAnNxAH4AAnNxAH4ABwAAAAB3BAAAAAB4cQB+AC1xAH4Ae3NxAH4AAnNxAH4ABwAAAAJ3BAAAAAJzcQB+AAJzcQB+AAcAAAAAdwQAAAAAeHEAfgA7cQB+AH9zcQB+AAJzcQB+AAcAAAAAdwQAAAAAeHNxAH4ADXQAA3gxMXEAfgB/eHEAfgBNcQB+AHt4cQB+AB1xAH4AeXNxAH4AAnNxAH4ABwAAAAB3BAAAAAB4cQB+AIVxAH4AeXhxAH4ATXEAfgB1eHEAfgAdcQB+AHNxAH4Ab3hxAH4AR3B4cQB+AEdxAH4AZ3hxAH4AR3B4cQB+AEdzcQB+AAJzcQB+AAcAAAACdwQAAAACc3EAfgACc3EAfgAHAAAAAHcEAAAAAHhxAH4ALXEAfgCJcQB+AD14cQB+AE1zcQB+AAJzcQB+AAcAAAACdwQAAAACcQB+AIlxAH4AUXhxAH4ATXNxAH4AAnNxAH4ABwAAAAJ3BAAAAAJzcQB+AAJzcQB+AAcAAAAAdwQAAAAAeHEAfgAtcQB+AI9xAH4AjXhxAH4AHXNxAH4AAnNxAH4ABwAAAAJ3BAAAAAJxAH4Aj3EAfgBdeHEAfgBNc3EAfgACc3EAfgAHAAAAAncEAAAAAnNxAH4AAnNxAH4ABwAAAAB3BAAAAAB4cQB+AC1xAH4AlXEAfgCTeHEAfgAdc3EAfgACc3EAfgAHAAAAAncEAAAAAnEAfgCVcQB+AGl4cQB+AEdweHEAfgBNcQB+ADVxAH4AUXhxAH4ATXEAfgAxeHEAfgAdcQB+AC9xAH4AXXhxAH4ATXNxAH4AAnNxAH4ABwAAAAJ3BAAAAAJzcQB+AAJzcQB+AAcAAAACdwQAAAACc3EAfgACc3EAfgAHAAAAAHcEAAAAAHhxAH4AD3EAfgCdc3EAfgACc3EAfgAHAAAAAHcEAAAAAHhxAH4AO3EAfgCdeHEAfgBHcQB+AJtxAH4AL3hxAH4AHXNxAH4AAnNxAH4ABwAAAAJ3BAAAAAJxAH4Am3EAfgBpeHEAfgBHcHhxAH4AHXEAfgAncQB+AGl4cQB+AEdwc3EAfgACc3EAfgAHAAAAAncEAAAAAnNxAH4AAnNxAH4ABwAAAAJ3BAAAAAJzcQB+AAJzcQB+AAcAAAACdwQAAAACc3EAfgACc3EAfgAHAAAAAncEAAAAAnNxAH4AAnNxAH4ABwAAAAB3BAAAAAB4c3IAS2lvLmdpdGh1Yi5lcmljbWVkdmV0LmpnZWEuY29yZS5yZXByZXNlbnRhdGlvbi50cmVlLm51bWVyaWMuRWxlbWVudCRDb25zdGFudAAAAAAAAAAAAgABRAAFdmFsdWV4cEAQAAAAAAAAcQB+AKtzcQB+AAJzcQB+AAcAAAAAdwQAAAAAeHNxAH4Ar0AIAAAAAAAAc3EAfgACc3EAfgAHAAAAAncEAAAAAnNxAH4AAnNxAH4ABwAAAAJ3BAAAAAJzcQB+AAJzcQB+AAcAAAAAdwQAAAAAeHEAfgCwcQB+ALZzcQB+AAJzcQB+AAcAAAAAdwQAAAAAeHEAfgCzcQB+ALZ4fnEAfgAbdAANUFJPVF9ESVZJU0lPTnEAfgC0cQB+ALF4cQB+ALxzcQB+AAJzcQB+AAcAAAACdwQAAAACcQB+ALRzcQB+AAJzcQB+AAcAAAAAdwQAAAAAeHNxAH4Ar0AEAAAAAAAAcQB+AL54cQB+ALxzcQB+AAJzcQB+AAcAAAACdwQAAAACcQB+AL5zcQB+AAJzcQB+AAcAAAAAdwQAAAAAeHEAfgDCc3EAfgACc3EAfgAHAAAAAncEAAAAAnNxAH4AAnNxAH4ABwAAAAJ3BAAAAAJzcQB+AAJzcQB+AAcAAAACdwQAAAACc3EAfgACc3EAfgAHAAAAAHcEAAAAAHhxAH4AsHEAfgDLc3EAfgACc3EAfgAHAAAAAHcEAAAAAHhxAH4As3EAfgDLeHEAfgC8cQB+AMlzcQB+AAJzcQB+AAcAAAAAdwQAAAAAeHEAfgCzcQB+AMl4cQB+ALxxAH4Ax3EAfgDFeHEAfgBNc3EAfgACc3EAfgAHAAAAAncEAAAAAnEAfgDHc3EAfgACc3EAfgAHAAAAAHcEAAAAAHhxAH4As3EAfgDTeHEAfgAdcHhxAH4ATXNxAH4AAnNxAH4ABwAAAAJ3BAAAAAJxAH4Aw3EAfgDVeHEAfgAdcHhxAH4AvHEAfgCpcQB+AMB4cQB+ALxxAH4Ap3EAfgDFeHEAfgBNcQB+AKVxAH4A1XhxAH4AHXBzcQB+AAJzcQB+AAcAAAACdwQAAAACc3EAfgACc3EAfgAHAAAAAHcEAAAAAHhzcQB+AA10AAJ4OXEAfgDZc3EAfgACc3EAfgAHAAAAAncEAAAAAnNxAH4AAnNxAH4ABwAAAAB3BAAAAAB4cQB+AN1xAH4A33NxAH4AAnNxAH4ABwAAAAB3BAAAAAB4c3EAfgCvP/AAAAAAAABxAH4A33hxAH4AHXNxAH4AAnNxAH4ABwAAAAJ3BAAAAAJzcQB+AAJzcQB+AAcAAAACdwQAAAACc3EAfgACc3EAfgAHAAAAAHcEAAAAAHhxAH4A3XEAfgDoc3EAfgACc3EAfgAHAAAAAHcEAAAAAHhxAH4A5XEAfgDoeHEAfgAdcQB+AOZxAH4A33hxAH4ATXB4cQB+AE1weA==";
    "rO0ABXNyABFqYXZhLnV0aWwuQ29sbFNlcleOq7Y6G6gRAwABSQADdGFneHAAAAAEdwQAAAAEc3IAN2lvLmdpdGh1Yi5lcmljbWVkdmV0LmpnZWEuY29yZS5yZXByZXNlbnRhdGlvbi50cmVlLlRyZWUKs7/qnQrEZQIAA0wACGNoaWxkcmVudAAQTGphdmEvdXRpbC9MaXN0O0wAB2NvbnRlbnR0ABJMamF2YS9sYW5nL09iamVjdDtMAAZwYXJlbnR0ADlMaW8vZ2l0aHViL2VyaWNtZWR2ZXQvamdlYS9jb3JlL3JlcHJlc2VudGF0aW9uL3RyZWUvVHJlZTt4cHNyABNqYXZhLnV0aWwuQXJyYXlMaXN0eIHSHZnHYZ0DAAFJAARzaXpleHAAAAACdwQAAAACc3EAfgACc3EAfgAHAAAAAncEAAAAAnNxAH4AAnNxAH4ABwAAAAB3BAAAAAB4c3IAS2lvLmdpdGh1Yi5lcmljbWVkdmV0LmpnZWEuY29yZS5yZXByZXNlbnRhdGlvbi50cmVlLm51bWVyaWMuRWxlbWVudCRWYXJpYWJsZQAAAAAAAAAAAgABTAAEbmFtZXQAEkxqYXZhL2xhbmcvU3RyaW5nO3hwdAACeDBxAH4ACXNxAH4AAnNxAH4ABwAAAAB3BAAAAAB4cQB+AA9zcQB+AAJzcQB+AAcAAAACdwQAAAACc3EAfgACc3EAfgAHAAAAAncEAAAAAnNxAH4AAnNxAH4ABwAAAAB3BAAAAAB4cQB+AA9xAH4AFXNxAH4AAnNxAH4ABwAAAAB3BAAAAAB4cQB+AA9xAH4AFXh+cgBLaW8uZ2l0aHViLmVyaWNtZWR2ZXQuamdlYS5jb3JlLnJlcHJlc2VudGF0aW9uLnRyZWUubnVtZXJpYy5FbGVtZW50JE9wZXJhdG9yAAAAAAAAAAASAAB4cgAOamF2YS5sYW5nLkVudW0AAAAAAAAAABIAAHhwdAAIQURESVRJT05xAH4AE3EAfgAReHEAfgAdc3EAfgACc3EAfgAHAAAAAncEAAAAAnEAfgATc3EAfgACc3EAfgAHAAAAAHcEAAAAAHhxAH4AD3NxAH4AAnNxAH4ABwAAAAJ3BAAAAAJzcQB+AAJzcQB+AAcAAAAAdwQAAAAAeHEAfgAPcQB+ACNxAH4AIXhxAH4AHXB4cQB+AB1weHEAfgAdcQB+AAZxAH4AIXhxAH4AHXBzcQB+AAJzcQB+AAcAAAACdwQAAAACc3EAfgACc3EAfgAHAAAAAncEAAAAAnNxAH4AAnNxAH4ABwAAAAB3BAAAAAB4c3EAfgANdAACeDFxAH4AKXNxAH4AAnNxAH4ABwAAAAJ3BAAAAAJzcQB+AAJzcQB+AAcAAAACdwQAAAACc3EAfgACc3EAfgAHAAAAAHcEAAAAAHhxAH4ALXEAfgAxc3EAfgACc3EAfgAHAAAAAncEAAAAAnNxAH4AAnNxAH4ABwAAAAJ3BAAAAAJzcQB+AAJzcQB+AAcAAAAAdwQAAAAAeHNxAH4ADXQAAng0cQB+ADdzcQB+AAJzcQB+AAcAAAACdwQAAAACc3EAfgACc3EAfgAHAAAAAHcEAAAAAHhxAH4AD3EAfgA9c3EAfgACc3EAfgAHAAAAAHcEAAAAAHhxAH4AO3NxAH4AAnNxAH4ABwAAAAJ3BAAAAAJzcQB+AAJzcQB+AAcAAAAAdwQAAAAAeHEAfgA7cQB+AENxAH4AQXh+cQB+ABt0AA5NVUxUSVBMSUNBVElPTnNxAH4AAnNxAH4ABwAAAAJ3BAAAAAJzcQB+AAJzcQB+AAcAAAAAdwQAAAAAeHEAfgA7cQB+AElxAH4AQ3h+cQB+ABt0AAtTVUJUUkFDVElPTnNxAH4AAnNxAH4ABwAAAAJ3BAAAAAJxAH4ASXNxAH4AAnNxAH4ABwAAAAJ3BAAAAAJzcQB+AAJzcQB+AAcAAAAAdwQAAAAAeHEAfgAPcQB+AFFzcQB+AAJzcQB+AAcAAAAAdwQAAAAAeHEAfgA7cQB+AFF4cQB+AEdxAH4AT3hxAH4ATXNxAH4AAnNxAH4ABwAAAAJ3BAAAAAJzcQB+AAJzcQB+AAcAAAAAdwQAAAAAeHEAfgAtcQB+AFdxAH4AT3hxAH4AHXNxAH4AAnNxAH4ABwAAAAJ3BAAAAAJxAH4AV3NxAH4AAnNxAH4ABwAAAAJ3BAAAAAJzcQB+AAJzcQB+AAcAAAAAdwQAAAAAeHEAfgAPcQB+AF1zcQB+AAJzcQB+AAcAAAAAdwQAAAAAeHEAfgA7cQB+AF14cQB+AEdxAH4AW3hxAH4ATXNxAH4AAnNxAH4ABwAAAAJ3BAAAAAJzcQB+AAJzcQB+AAcAAAAAdwQAAAAAeHEAfgAtcQB+AGNxAH4AW3hxAH4AHXNxAH4AAnNxAH4ABwAAAAJ3BAAAAAJxAH4AY3NxAH4AAnNxAH4ABwAAAAJ3BAAAAAJzcQB+AAJzcQB+AAcAAAAAdwQAAAAAeHEAfgAPcQB+AGlzcQB+AAJzcQB+AAcAAAAAdwQAAAAAeHEAfgA7c3EAfgACc3EAfgAHAAAAAncEAAAAAnNxAH4AAnNxAH4ABwAAAAB3BAAAAAB4cQB+ADtxAH4Ab3EAfgBteHEAfgBHc3EAfgACc3EAfgAHAAAAAncEAAAAAnNxAH4AAnNxAH4ABwAAAAJ3BAAAAAJzcQB+AAJzcQB+AAcAAAAAdwQAAAAAeHEAfgAtcQB+AHVzcQB+AAJzcQB+AAcAAAACdwQAAAACc3EAfgACc3EAfgAHAAAAAncEAAAAAnNxAH4AAnNxAH4ABwAAAAB3BAAAAAB4cQB+AC1xAH4Ae3NxAH4AAnNxAH4ABwAAAAJ3BAAAAAJzcQB+AAJzcQB+AAcAAAAAdwQAAAAAeHEAfgA7cQB+AH9zcQB+AAJzcQB+AAcAAAAAdwQAAAAAeHNxAH4ADXQAA3gxMXEAfgB/eHEAfgBNcQB+AHt4cQB+AB1xAH4AeXNxAH4AAnNxAH4ABwAAAAB3BAAAAAB4cQB+AIVxAH4AeXhxAH4ATXEAfgB1eHEAfgAdcQB+AHNxAH4Ab3hxAH4AR3B4cQB+AEdxAH4AZ3hxAH4AR3B4cQB+AEdzcQB+AAJzcQB+AAcAAAACdwQAAAACc3EAfgACc3EAfgAHAAAAAHcEAAAAAHhxAH4ALXEAfgCJcQB+AD14cQB+AE1zcQB+AAJzcQB+AAcAAAACdwQAAAACcQB+AIlxAH4AUXhxAH4ATXNxAH4AAnNxAH4ABwAAAAJ3BAAAAAJzcQB+AAJzcQB+AAcAAAAAdwQAAAAAeHEAfgAtcQB+AI9xAH4AjXhxAH4AHXNxAH4AAnNxAH4ABwAAAAJ3BAAAAAJxAH4Aj3EAfgBdeHEAfgBNc3EAfgACc3EAfgAHAAAAAncEAAAAAnNxAH4AAnNxAH4ABwAAAAB3BAAAAAB4cQB+AC1xAH4AlXEAfgCTeHEAfgAdc3EAfgACc3EAfgAHAAAAAncEAAAAAnEAfgCVcQB+AGl4cQB+AEdweHEAfgBNcQB+ADVxAH4AUXhxAH4ATXEAfgAxeHEAfgAdcQB+AC9xAH4AXXhxAH4ATXNxAH4AAnNxAH4ABwAAAAJ3BAAAAAJzcQB+AAJzcQB+AAcAAAACdwQAAAACc3EAfgACc3EAfgAHAAAAAHcEAAAAAHhxAH4AD3EAfgCdc3EAfgACc3EAfgAHAAAAAHcEAAAAAHhxAH4AO3EAfgCdeHEAfgBHcQB+AJtxAH4AL3hxAH4AHXNxAH4AAnNxAH4ABwAAAAJ3BAAAAAJxAH4Am3EAfgBpeHEAfgBHcHhxAH4AHXEAfgAncQB+AGl4cQB+AEdwc3EAfgACc3EAfgAHAAAAAncEAAAAAnNxAH4AAnNxAH4ABwAAAAJ3BAAAAAJzcQB+AAJzcQB+AAcAAAACdwQAAAACc3EAfgACc3EAfgAHAAAAAncEAAAAAnNxAH4AAnNxAH4ABwAAAAB3BAAAAAB4c3IAS2lvLmdpdGh1Yi5lcmljbWVkdmV0LmpnZWEuY29yZS5yZXByZXNlbnRhdGlvbi50cmVlLm51bWVyaWMuRWxlbWVudCRDb25zdGFudAAAAAAAAAAAAgABRAAFdmFsdWV4cEAQAAAAAAAAcQB+AKtzcQB+AAJzcQB+AAcAAAAAdwQAAAAAeHNxAH4Ar0AIAAAAAAAAc3EAfgACc3EAfgAHAAAAAncEAAAAAnNxAH4AAnNxAH4ABwAAAAJ3BAAAAAJzcQB+AAJzcQB+AAcAAAAAdwQAAAAAeHEAfgCwcQB+ALZzcQB+AAJzcQB+AAcAAAAAdwQAAAAAeHEAfgCzcQB+ALZ4fnEAfgAbdAANUFJPVF9ESVZJU0lPTnEAfgC0cQB+ALF4cQB+ALxzcQB+AAJzcQB+AAcAAAACdwQAAAACcQB+ALRzcQB+AAJzcQB+AAcAAAAAdwQAAAAAeHNxAH4Ar0AEAAAAAAAAcQB+AL54cQB+ALxzcQB+AAJzcQB+AAcAAAACdwQAAAACcQB+AL5zcQB+AAJzcQB+AAcAAAAAdwQAAAAAeHEAfgDCc3EAfgACc3EAfgAHAAAAAncEAAAAAnNxAH4AAnNxAH4ABwAAAAJ3BAAAAAJzcQB+AAJzcQB+AAcAAAACdwQAAAACc3EAfgACc3EAfgAHAAAAAHcEAAAAAHhxAH4AsHEAfgDLc3EAfgACc3EAfgAHAAAAAHcEAAAAAHhxAH4As3EAfgDLeHEAfgC8cQB+AMlzcQB+AAJzcQB+AAcAAAAAdwQAAAAAeHEAfgCzcQB+AMl4cQB+ALxxAH4Ax3EAfgDFeHEAfgBNc3EAfgACc3EAfgAHAAAAAncEAAAAAnEAfgDHc3EAfgACc3EAfgAHAAAAAHcEAAAAAHhxAH4As3EAfgDTeHEAfgAdcHhxAH4ATXNxAH4AAnNxAH4ABwAAAAJ3BAAAAAJxAH4Aw3EAfgDVeHEAfgAdcHhxAH4AvHEAfgCpcQB+AMB4cQB+ALxxAH4Ap3EAfgDFeHEAfgBNcQB+AKVxAH4A1XhxAH4AHXBzcQB+AAJzcQB+AAcAAAACdwQAAAACc3EAfgACc3EAfgAHAAAAAHcEAAAAAHhzcQB+AA10AAJ4OXEAfgDZc3EAfgACc3EAfgAHAAAAAncEAAAAAnNxAH4AAnNxAH4ABwAAAAB3BAAAAAB4cQB+AN1xAH4A33NxAH4AAnNxAH4ABwAAAAB3BAAAAAB4c3EAfgCvP/AAAAAAAABxAH4A33hxAH4AHXNxAH4AAnNxAH4ABwAAAAJ3BAAAAAJzcQB+AAJzcQB+AAcAAAAAdwQAAAAAeHEAfgDlcQB+AOZxAH4A33hxAH4ATXB4cQB+AE1weA==";
    "rO0ABXNyABFqYXZhLnV0aWwuQ29sbFNlcleOq7Y6G6gRAwABSQADdGFneHAAAAAEdwQAAAAEc3IAN2lvLmdpdGh1Yi5lcmljbWVkdmV0LmpnZWEuY29yZS5yZXByZXNlbnRhdGlvbi50cmVlLlRyZWUKs7/qnQrEZQIAA0wACGNoaWxkcmVudAAQTGphdmEvdXRpbC9MaXN0O0wAB2NvbnRlbnR0ABJMamF2YS9sYW5nL09iamVjdDtMAAZwYXJlbnR0ADlMaW8vZ2l0aHViL2VyaWNtZWR2ZXQvamdlYS9jb3JlL3JlcHJlc2VudGF0aW9uL3RyZWUvVHJlZTt4cHNyABNqYXZhLnV0aWwuQXJyYXlMaXN0eIHSHZnHYZ0DAAFJAARzaXpleHAAAAACdwQAAAACc3EAfgACc3EAfgAHAAAAAncEAAAAAnNxAH4AAnNxAH4ABwAAAAB3BAAAAAB4c3IAS2lvLmdpdGh1Yi5lcmljbWVkdmV0LmpnZWEuY29yZS5yZXByZXNlbnRhdGlvbi50cmVlLm51bWVyaWMuRWxlbWVudCRWYXJpYWJsZQAAAAAAAAAAAgABTAAEbmFtZXQAEkxqYXZhL2xhbmcvU3RyaW5nO3hwdAACeDBxAH4ACXNxAH4AAnNxAH4ABwAAAAB3BAAAAAB4cQB+AA9zcQB+AAJzcQB+AAcAAAACdwQAAAACc3EAfgACc3EAfgAHAAAAAncEAAAAAnNxAH4AAnNxAH4ABwAAAAJ3BAAAAAJzcQB+AAJzcQB+AAcAAAAAdwQAAAAAeHEAfgAPcQB+ABdzcQB+AAJzcQB+AAcAAAAAdwQAAAAAeHEAfgAPcQB+ABd4fnIAS2lvLmdpdGh1Yi5lcmljbWVkdmV0LmpnZWEuY29yZS5yZXByZXNlbnRhdGlvbi50cmVlLm51bWVyaWMuRWxlbWVudCRPcGVyYXRvcgAAAAAAAAAAEgAAeHIADmphdmEubGFuZy5FbnVtAAAAAAAAAAASAAB4cHQACEFERElUSU9OcQB+ABVzcQB+AAJzcQB+AAcAAAAAdwQAAAAAeHEAfgAPcQB+ABV4cQB+AB9xAH4AE3EAfgAReHEAfgAfc3EAfgACc3EAfgAHAAAAAncEAAAAAnEAfgATc3EAfgACc3EAfgAHAAAAAHcEAAAAAHhxAH4AD3NxAH4AAnNxAH4ABwAAAAJ3BAAAAAJzcQB+AAJzcQB+AAcAAAAAdwQAAAAAeHEAfgAPcQB+ACdxAH4AJXhxAH4AH3B4cQB+AB9weHEAfgAfcQB+AAZxAH4AJXhxAH4AH3BzcQB+AAJzcQB+AAcAAAACdwQAAAACc3EAfgACc3EAfgAHAAAAAncEAAAAAnNxAH4AAnNxAH4ABwAAAAB3BAAAAAB4c3EAfgANdAACeDFxAH4ALXNxAH4AAnNxAH4ABwAAAAJ3BAAAAAJzcQB+AAJzcQB+AAcAAAACdwQAAAACc3EAfgACc3EAfgAHAAAAAHcEAAAAAHhxAH4AMXEAfgA1c3EAfgACc3EAfgAHAAAAAncEAAAAAnNxAH4AAnNxAH4ABwAAAAJ3BAAAAAJzcQB+AAJzcQB+AAcAAAAAdwQAAAAAeHNxAH4ADXQAAng0cQB+ADtzcQB+AAJzcQB+AAcAAAACdwQAAAACc3EAfgACc3EAfgAHAAAAAHcEAAAAAHhxAH4AD3EAfgBBc3EAfgACc3EAfgAHAAAAAHcEAAAAAHhxAH4AP3NxAH4AAnNxAH4ABwAAAAJ3BAAAAAJzcQB+AAJzcQB+AAcAAAAAdwQAAAAAeHEAfgA/cQB+AEdxAH4ARXh+cQB+AB10AA5NVUxUSVBMSUNBVElPTnNxAH4AAnNxAH4ABwAAAAJ3BAAAAAJzcQB+AAJzcQB+AAcAAAAAdwQAAAAAeHEAfgA/cQB+AE1xAH4AR3h+cQB+AB10AAtTVUJUUkFDVElPTnNxAH4AAnNxAH4ABwAAAAJ3BAAAAAJxAH4ATXNxAH4AAnNxAH4ABwAAAAJ3BAAAAAJzcQB+AAJzcQB+AAcAAAAAdwQAAAAAeHEAfgAPcQB+AFVzcQB+AAJzcQB+AAcAAAAAdwQAAAAAeHEAfgA/cQB+AFV4cQB+AEtxAH4AU3hxAH4AUXNxAH4AAnNxAH4ABwAAAAJ3BAAAAAJzcQB+AAJzcQB+AAcAAAAAdwQAAAAAeHEAfgAxcQB+AFtxAH4AU3hxAH4AH3NxAH4AAnNxAH4ABwAAAAJ3BAAAAAJxAH4AW3NxAH4AAnNxAH4ABwAAAAJ3BAAAAAJzcQB+AAJzcQB+AAcAAAAAdwQAAAAAeHEAfgAPcQB+AGFzcQB+AAJzcQB+AAcAAAAAdwQAAAAAeHEAfgA/cQB+AGF4cQB+AEtxAH4AX3hxAH4AUXNxAH4AAnNxAH4ABwAAAAJ3BAAAAAJzcQB+AAJzcQB+AAcAAAAAdwQAAAAAeHEAfgAxcQB+AGdxAH4AX3hxAH4AH3NxAH4AAnNxAH4ABwAAAAJ3BAAAAAJxAH4AZ3NxAH4AAnNxAH4ABwAAAAJ3BAAAAAJzcQB+AAJzcQB+AAcAAAAAdwQAAAAAeHEAfgAPcQB+AG1zcQB+AAJzcQB+AAcAAAAAdwQAAAAAeHEAfgA/c3EAfgACc3EAfgAHAAAAAncEAAAAAnNxAH4AAnNxAH4ABwAAAAB3BAAAAAB4cQB+AD9xAH4Ac3EAfgBxeHEAfgBLc3EAfgACc3EAfgAHAAAAAncEAAAAAnNxAH4AAnNxAH4ABwAAAAJ3BAAAAAJzcQB+AAJzcQB+AAcAAAAAdwQAAAAAeHEAfgAxcQB+AHlzcQB+AAJzcQB+AAcAAAACdwQAAAACc3EAfgACc3EAfgAHAAAAAncEAAAAAnNxAH4AAnNxAH4ABwAAAAB3BAAAAAB4cQB+ADFxAH4Af3NxAH4AAnNxAH4ABwAAAAJ3BAAAAAJzcQB+AAJzcQB+AAcAAAAAdwQAAAAAeHEAfgA/cQB+AINzcQB+AAJzcQB+AAcAAAAAdwQAAAAAeHNxAH4ADXQAA3gxMXEAfgCDeHEAfgBRcQB+AH94cQB+AB9xAH4AfXNxAH4AAnNxAH4ABwAAAAB3BAAAAAB4cQB+AIlxAH4AfXhxAH4AUXEAfgB5eHEAfgAfcQB+AHdxAH4Ac3hxAH4AS3B4cQB+AEtxAH4Aa3hxAH4AS3B4cQB+AEtzcQB+AAJzcQB+AAcAAAACdwQAAAACc3EAfgACc3EAfgAHAAAAAHcEAAAAAHhxAH4AMXEAfgCNcQB+AEF4cQB+AFFzcQB+AAJzcQB+AAcAAAACdwQAAAACcQB+AI1xAH4AVXhxAH4AUXNxAH4AAnNxAH4ABwAAAAJ3BAAAAAJzcQB+AAJzcQB+AAcAAAAAdwQAAAAAeHEAfgAxcQB+AJNxAH4AkXhxAH4AH3NxAH4AAnNxAH4ABwAAAAJ3BAAAAAJxAH4Ak3EAfgBheHEAfgBRc3EAfgACc3EAfgAHAAAAAncEAAAAAnNxAH4AAnNxAH4ABwAAAAB3BAAAAAB4cQB+ADFxAH4AmXEAfgCXeHEAfgAfc3EAfgACc3EAfgAHAAAAAncEAAAAAnEAfgCZcQB+AG14cQB+AEtweHEAfgBRcQB+ADlxAH4AVXhxAH4AUXEAfgA1eHEAfgAfcQB+ADNxAH4AYXhxAH4AUXNxAH4AAnNxAH4ABwAAAAJ3BAAAAAJzcQB+AAJzcQB+AAcAAAACdwQAAAACc3EAfgACc3EAfgAHAAAAAHcEAAAAAHhxAH4AD3EAfgChc3EAfgACc3EAfgAHAAAAAHcEAAAAAHhxAH4AP3EAfgCheHEAfgBLcQB+AJ9xAH4AM3hxAH4AH3NxAH4AAnNxAH4ABwAAAAJ3BAAAAAJxAH4An3EAfgBteHEAfgBLcHhxAH4AH3EAfgArcQB+AG14cQB+AEtwc3EAfgACc3EAfgAHAAAAAncEAAAAAnNxAH4AAnNxAH4ABwAAAAJ3BAAAAAJzcQB+AAJzcQB+AAcAAAACdwQAAAACc3EAfgACc3EAfgAHAAAAAncEAAAAAnNxAH4AAnNxAH4ABwAAAAB3BAAAAAB4c3IAS2lvLmdpdGh1Yi5lcmljbWVkdmV0LmpnZWEuY29yZS5yZXByZXNlbnRhdGlvbi50cmVlLm51bWVyaWMuRWxlbWVudCRDb25zdGFudAAAAAAAAAAAAgABRAAFdmFsdWV4cEAQAAAAAAAAcQB+AK9zcQB+AAJzcQB+AAcAAAAAdwQAAAAAeHNxAH4As0AIAAAAAAAAc3EAfgACc3EAfgAHAAAAAncEAAAAAnNxAH4AAnNxAH4ABwAAAAJ3BAAAAAJzcQB+AAJzcQB+AAcAAAAAdwQAAAAAeHEAfgC0cQB+ALpzcQB+AAJzcQB+AAcAAAAAdwQAAAAAeHEAfgC3cQB+ALp4fnEAfgAddAANUFJPVF9ESVZJU0lPTnEAfgC4cQB+ALV4cQB+AMBzcQB+AAJzcQB+AAcAAAACdwQAAAACcQB+ALhzcQB+AAJzcQB+AAcAAAAAdwQAAAAAeHNxAH4As0AEAAAAAAAAcQB+AMJ4cQB+AMBzcQB+AAJzcQB+AAcAAAACdwQAAAACcQB+AMJzcQB+AAJzcQB+AAcAAAAAdwQAAAAAeHEAfgDGc3EAfgACc3EAfgAHAAAAAncEAAAAAnNxAH4AAnNxAH4ABwAAAAJ3BAAAAAJzcQB+AAJzcQB+AAcAAAACdwQAAAACc3EAfgACc3EAfgAHAAAAAHcEAAAAAHhxAH4AtHEAfgDPc3EAfgACc3EAfgAHAAAAAHcEAAAAAHhxAH4At3EAfgDPeHEAfgDAcQB+AM1zcQB+AAJzcQB+AAcAAAAAdwQAAAAAeHEAfgC3cQB+AM14cQB+AMBxAH4Ay3EAfgDJeHEAfgBRc3EAfgACc3EAfgAHAAAAAncEAAAAAnEAfgDLc3EAfgACc3EAfgAHAAAAAHcEAAAAAHhxAH4At3EAfgDXeHEAfgAfcHhxAH4AUXNxAH4AAnNxAH4ABwAAAAJ3BAAAAAJxAH4Ax3EAfgDZeHEAfgAfcHhxAH4AwHEAfgCtcQB+AMR4cQB+AMBxAH4Aq3EAfgDJeHEAfgBRcQB+AKlxAH4A2XhxAH4AH3BzcQB+AAJzcQB+AAcAAAACdwQAAAACc3EAfgACc3EAfgAHAAAAAHcEAAAAAHhzcQB+AA10AAJ4OXEAfgDdc3EAfgACc3EAfgAHAAAAAncEAAAAAnNxAH4AAnNxAH4ABwAAAAB3BAAAAAB4cQB+AOFxAH4A43NxAH4AAnNxAH4ABwAAAAB3BAAAAAB4c3EAfgCzP/AAAAAAAABxAH4A43hxAH4AH3NxAH4AAnNxAH4ABwAAAAJ3BAAAAAJzcQB+AAJzcQB+AAcAAAAAdwQAAAAAeHEAfgDpcQB+AOpxAH4A43hxAH4AUXB4cQB+AFFweA==";
    "rO0ABXNyABFqYXZhLnV0aWwuQ29sbFNlcleOq7Y6G6gRAwABSQADdGFneHAAAAAEdwQAAAAEc3IAN2lvLmdpdGh1Yi5lcmljbWVkdmV0LmpnZWEuY29yZS5yZXByZXNlbnRhdGlvbi50cmVlLlRyZWUKs7/qnQrEZQIAA0wACGNoaWxkcmVudAAQTGphdmEvdXRpbC9MaXN0O0wAB2NvbnRlbnR0ABJMamF2YS9sYW5nL09iamVjdDtMAAZwYXJlbnR0ADlMaW8vZ2l0aHViL2VyaWNtZWR2ZXQvamdlYS9jb3JlL3JlcHJlc2VudGF0aW9uL3RyZWUvVHJlZTt4cHNyABNqYXZhLnV0aWwuQXJyYXlMaXN0eIHSHZnHYZ0DAAFJAARzaXpleHAAAAACdwQAAAACc3EAfgACc3EAfgAHAAAAAncEAAAAAnNxAH4AAnNxAH4ABwAAAAB3BAAAAAB4c3IAS2lvLmdpdGh1Yi5lcmljbWVkdmV0LmpnZWEuY29yZS5yZXByZXNlbnRhdGlvbi50cmVlLm51bWVyaWMuRWxlbWVudCRWYXJpYWJsZQAAAAAAAAAAAgABTAAEbmFtZXQAEkxqYXZhL2xhbmcvU3RyaW5nO3hwdAACeDBxAH4ACXNxAH4AAnNxAH4ABwAAAAB3BAAAAAB4cQB+AA9zcQB+AAJzcQB+AAcAAAACdwQAAAACc3EAfgACc3EAfgAHAAAAAncEAAAAAnNxAH4AAnNxAH4ABwAAAAB3BAAAAAB4cQB+AA9xAH4AFXNxAH4AAnNxAH4ABwAAAAB3BAAAAAB4cQB+AA9xAH4AFXh+cgBLaW8uZ2l0aHViLmVyaWNtZWR2ZXQuamdlYS5jb3JlLnJlcHJlc2VudGF0aW9uLnRyZWUubnVtZXJpYy5FbGVtZW50JE9wZXJhdG9yAAAAAAAAAAASAAB4cgAOamF2YS5sYW5nLkVudW0AAAAAAAAAABIAAHhwdAAIQURESVRJT05xAH4AE3EAfgAReHEAfgAdc3EAfgACc3EAfgAHAAAAAncEAAAAAnEAfgATc3EAfgACc3EAfgAHAAAAAHcEAAAAAHhxAH4AD3NxAH4AAnNxAH4ABwAAAAJ3BAAAAAJzcQB+AAJzcQB+AAcAAAAAdwQAAAAAeHEAfgAPcQB+ACNxAH4AIXhxAH4AHXB4cQB+AB1weHEAfgAdcQB+AAZxAH4AIXhxAH4AHXBzcQB+AAJzcQB+AAcAAAACdwQAAAACc3EAfgACc3EAfgAHAAAAAncEAAAAAnNxAH4AAnNxAH4ABwAAAAB3BAAAAAB4c3EAfgANdAACeDFxAH4AKXNxAH4AAnNxAH4ABwAAAAJ3BAAAAAJzcQB+AAJzcQB+AAcAAAACdwQAAAACc3EAfgACc3EAfgAHAAAAAHcEAAAAAHhxAH4ALXEAfgAxc3EAfgACc3EAfgAHAAAAAncEAAAAAnNxAH4AAnNxAH4ABwAAAAJ3BAAAAAJzcQB+AAJzcQB+AAcAAAAAdwQAAAAAeHNxAH4ADXQAAng0cQB+ADdzcQB+AAJzcQB+AAcAAAACdwQAAAACc3EAfgACc3EAfgAHAAAAAHcEAAAAAHhxAH4AD3EAfgA9c3EAfgACc3EAfgAHAAAAAHcEAAAAAHhxAH4AO3NxAH4AAnNxAH4ABwAAAAJ3BAAAAAJzcQB+AAJzcQB+AAcAAAAAdwQAAAAAeHEAfgA7cQB+AENxAH4AQXh+cQB+ABt0AA5NVUxUSVBMSUNBVElPTnNxAH4AAnNxAH4ABwAAAAJ3BAAAAAJzcQB+AAJzcQB+AAcAAAAAdwQAAAAAeHEAfgA7cQB+AElxAH4AQ3h+cQB+ABt0AAtTVUJUUkFDVElPTnNxAH4AAnNxAH4ABwAAAAJ3BAAAAAJxAH4ASXNxAH4AAnNxAH4ABwAAAAJ3BAAAAAJzcQB+AAJzcQB+AAcAAAAAdwQAAAAAeHEAfgAPcQB+AFFzcQB+AAJzcQB+AAcAAAAAdwQAAAAAeHEAfgA7cQB+AFF4cQB+AEdxAH4AT3hxAH4ATXNxAH4AAnNxAH4ABwAAAAJ3BAAAAAJzcQB+AAJzcQB+AAcAAAAAdwQAAAAAeHEAfgAtcQB+AFdxAH4AT3hxAH4AHXNxAH4AAnNxAH4ABwAAAAJ3BAAAAAJxAH4AV3NxAH4AAnNxAH4ABwAAAAJ3BAAAAAJzcQB+AAJzcQB+AAcAAAAAdwQAAAAAeHEAfgAPcQB+AF1zcQB+AAJzcQB+AAcAAAAAdwQAAAAAeHEAfgA7cQB+AF14cQB+AEdxAH4AW3hxAH4ATXNxAH4AAnNxAH4ABwAAAAJ3BAAAAAJzcQB+AAJzcQB+AAcAAAAAdwQAAAAAeHEAfgAtcQB+AGNxAH4AW3hxAH4AHXNxAH4AAnNxAH4ABwAAAAJ3BAAAAAJxAH4AY3NxAH4AAnNxAH4ABwAAAAJ3BAAAAAJzcQB+AAJzcQB+AAcAAAAAdwQAAAAAeHEAfgAPcQB+AGlzcQB+AAJzcQB+AAcAAAAAdwQAAAAAeHEAfgA7c3EAfgACc3EAfgAHAAAAAncEAAAAAnNxAH4AAnNxAH4ABwAAAAB3BAAAAAB4cQB+ADtxAH4Ab3EAfgBteHEAfgBHc3EAfgACc3EAfgAHAAAAAncEAAAAAnNxAH4AAnNxAH4ABwAAAAJ3BAAAAAJzcQB+AAJzcQB+AAcAAAAAdwQAAAAAeHEAfgAtcQB+AHVzcQB+AAJzcQB+AAcAAAACdwQAAAACc3EAfgACc3EAfgAHAAAAAncEAAAAAnNxAH4AAnNxAH4ABwAAAAB3BAAAAAB4cQB+AC1xAH4Ae3NxAH4AAnNxAH4ABwAAAAJ3BAAAAAJzcQB+AAJzcQB+AAcAAAAAdwQAAAAAeHEAfgA7cQB+AH9zcQB+AAJzcQB+AAcAAAAAdwQAAAAAeHNxAH4ADXQAA3gxMXEAfgB/eHEAfgBNcQB+AHt4cQB+AB1xAH4AeXNxAH4AAnNxAH4ABwAAAAB3BAAAAAB4cQB+AIVxAH4AeXhxAH4ATXEAfgB1eHEAfgAdcQB+AHNxAH4Ab3hxAH4AR3B4cQB+AEdxAH4AZ3hxAH4AR3B4cQB+AEdzcQB+AAJzcQB+AAcAAAACdwQAAAACc3EAfgACc3EAfgAHAAAAAHcEAAAAAHhxAH4ALXEAfgCJcQB+AD14cQB+AE1zcQB+AAJzcQB+AAcAAAACdwQAAAACcQB+AIlxAH4AUXhxAH4ATXNxAH4AAnNxAH4ABwAAAAJ3BAAAAAJzcQB+AAJzcQB+AAcAAAAAdwQAAAAAeHEAfgAtcQB+AI9xAH4AjXhxAH4AHXNxAH4AAnNxAH4ABwAAAAJ3BAAAAAJxAH4Aj3EAfgBdeHEAfgBNc3EAfgACc3EAfgAHAAAAAncEAAAAAnNxAH4AAnNxAH4ABwAAAAB3BAAAAAB4cQB+AC1xAH4AlXEAfgCTeHEAfgAdc3EAfgACc3EAfgAHAAAAAncEAAAAAnEAfgCVcQB+AGl4cQB+AEdweHEAfgBNcQB+ADVxAH4AUXhxAH4ATXEAfgAxeHEAfgAdcQB+AC9xAH4AXXhxAH4ATXNxAH4AAnNxAH4ABwAAAAJ3BAAAAAJzcQB+AAJzcQB+AAcAAAACdwQAAAACc3EAfgACc3EAfgAHAAAAAHcEAAAAAHhxAH4AD3EAfgCdc3EAfgACc3EAfgAHAAAAAHcEAAAAAHhxAH4AO3EAfgCdeHEAfgBHcQB+AJtxAH4AL3hxAH4AHXNxAH4AAnNxAH4ABwAAAAJ3BAAAAAJxAH4Am3EAfgBpeHEAfgBHcHhxAH4AHXEAfgAncQB+AGl4cQB+AEdwc3EAfgACc3EAfgAHAAAAAncEAAAAAnNxAH4AAnNxAH4ABwAAAAJ3BAAAAAJzcQB+AAJzcQB+AAcAAAACdwQAAAACc3EAfgACc3EAfgAHAAAAAncEAAAAAnNxAH4AAnNxAH4ABwAAAAB3BAAAAAB4c3IAS2lvLmdpdGh1Yi5lcmljbWVkdmV0LmpnZWEuY29yZS5yZXByZXNlbnRhdGlvbi50cmVlLm51bWVyaWMuRWxlbWVudCRDb25zdGFudAAAAAAAAAAAAgABRAAFdmFsdWV4cEAQAAAAAAAAcQB+AKtzcQB+AAJzcQB+AAcAAAAAdwQAAAAAeHNxAH4Ar0AIAAAAAAAAc3EAfgACc3EAfgAHAAAAAncEAAAAAnNxAH4AAnNxAH4ABwAAAAJ3BAAAAAJzcQB+AAJzcQB+AAcAAAAAdwQAAAAAeHEAfgCwcQB+ALZzcQB+AAJzcQB+AAcAAAAAdwQAAAAAeHEAfgCzcQB+ALZ4fnEAfgAbdAANUFJPVF9ESVZJU0lPTnEAfgC0cQB+ALF4cQB+ALxzcQB+AAJzcQB+AAcAAAACdwQAAAACcQB+ALRzcQB+AAJzcQB+AAcAAAAAdwQAAAAAeHNxAH4Ar0AEAAAAAAAAcQB+AL54cQB+ALxzcQB+AAJzcQB+AAcAAAACdwQAAAACcQB+AL5zcQB+AAJzcQB+AAcAAAAAdwQAAAAAeHEAfgDCc3EAfgACc3EAfgAHAAAAAncEAAAAAnNxAH4AAnNxAH4ABwAAAAJ3BAAAAAJzcQB+AAJzcQB+AAcAAAACdwQAAAACc3EAfgACc3EAfgAHAAAAAHcEAAAAAHhxAH4AsHEAfgDLc3EAfgACc3EAfgAHAAAAAHcEAAAAAHhxAH4As3EAfgDLeHEAfgC8cQB+AMlzcQB+AAJzcQB+AAcAAAAAdwQAAAAAeHEAfgCzcQB+AMl4cQB+ALxxAH4Ax3EAfgDFeHEAfgBNc3EAfgACc3EAfgAHAAAAAncEAAAAAnEAfgDHc3EAfgACc3EAfgAHAAAAAHcEAAAAAHhxAH4As3EAfgDTeHEAfgAdcHhxAH4ATXNxAH4AAnNxAH4ABwAAAAJ3BAAAAAJxAH4Aw3EAfgDVeHEAfgAdcHhxAH4AvHEAfgCpcQB+AMB4cQB+ALxxAH4Ap3EAfgDFeHEAfgBNcQB+AKVxAH4A1XhxAH4AHXBzcQB+AAJzcQB+AAcAAAACdwQAAAACc3EAfgACc3EAfgAHAAAAAHcEAAAAAHhzcQB+AA10AAJ4OXEAfgDZc3EAfgACc3EAfgAHAAAAAncEAAAAAnNxAH4AAnNxAH4ABwAAAAB3BAAAAAB4cQB+AN1xAH4A33NxAH4AAnNxAH4ABwAAAAB3BAAAAAB4c3EAfgCvP/AAAAAAAABxAH4A33hxAH4AHXNxAH4AAnNxAH4ABwAAAAJ3BAAAAAJzcQB+AAJzcQB+AAcAAAAAdwQAAAAAeHEAfgDlcQB+AOZxAH4A33hxAH4ATXB4cQB+AE1weA==";
    "rO0ABXNyABFqYXZhLnV0aWwuQ29sbFNlcleOq7Y6G6gRAwABSQADdGFneHAAAAAEdwQAAAAEc3IAN2lvLmdpdGh1Yi5lcmljbWVkdmV0LmpnZWEuY29yZS5yZXByZXNlbnRhdGlvbi50cmVlLlRyZWUKs7/qnQrEZQIAA0wACGNoaWxkcmVudAAQTGphdmEvdXRpbC9MaXN0O0wAB2NvbnRlbnR0ABJMamF2YS9sYW5nL09iamVjdDtMAAZwYXJlbnR0ADlMaW8vZ2l0aHViL2VyaWNtZWR2ZXQvamdlYS9jb3JlL3JlcHJlc2VudGF0aW9uL3RyZWUvVHJlZTt4cHNyABNqYXZhLnV0aWwuQXJyYXlMaXN0eIHSHZnHYZ0DAAFJAARzaXpleHAAAAACdwQAAAACc3EAfgACc3EAfgAHAAAAAncEAAAAAnNxAH4AAnNxAH4ABwAAAAB3BAAAAAB4c3IAS2lvLmdpdGh1Yi5lcmljbWVkdmV0LmpnZWEuY29yZS5yZXByZXNlbnRhdGlvbi50cmVlLm51bWVyaWMuRWxlbWVudCRWYXJpYWJsZQAAAAAAAAAAAgABTAAEbmFtZXQAEkxqYXZhL2xhbmcvU3RyaW5nO3hwdAACeDBxAH4ACXNxAH4AAnNxAH4ABwAAAAB3BAAAAAB4cQB+AA9zcQB+AAJzcQB+AAcAAAACdwQAAAACc3EAfgACc3EAfgAHAAAAAncEAAAAAnNxAH4AAnNxAH4ABwAAAAB3BAAAAAB4cQB+AA9xAH4AFXNxAH4AAnNxAH4ABwAAAAB3BAAAAAB4cQB+AA9xAH4AFXh+cgBLaW8uZ2l0aHViLmVyaWNtZWR2ZXQuamdlYS5jb3JlLnJlcHJlc2VudGF0aW9uLnRyZWUubnVtZXJpYy5FbGVtZW50JE9wZXJhdG9yAAAAAAAAAAASAAB4cgAOamF2YS5sYW5nLkVudW0AAAAAAAAAABIAAHhwdAAIQURESVRJT05xAH4AE3EAfgAReHEAfgAdc3EAfgACc3EAfgAHAAAAAncEAAAAAnEAfgATc3EAfgACc3EAfgAHAAAAAHcEAAAAAHhxAH4AD3NxAH4AAnNxAH4ABwAAAAJ3BAAAAAJzcQB+AAJzcQB+AAcAAAAAdwQAAAAAeHEAfgAPcQB+ACNxAH4AIXhxAH4AHXB4cQB+AB1weHEAfgAdcQB+AAZxAH4AIXhxAH4AHXBzcQB+AAJzcQB+AAcAAAACdwQAAAACc3EAfgACc3EAfgAHAAAAAncEAAAAAnNxAH4AAnNxAH4ABwAAAAB3BAAAAAB4c3EAfgANdAACeDFxAH4AKXNxAH4AAnNxAH4ABwAAAAJ3BAAAAAJzcQB+AAJzcQB+AAcAAAACdwQAAAACc3EAfgACc3EAfgAHAAAAAHcEAAAAAHhxAH4ALXEAfgAxc3EAfgACc3EAfgAHAAAAAncEAAAAAnNxAH4AAnNxAH4ABwAAAAJ3BAAAAAJzcQB+AAJzcQB+AAcAAAAAdwQAAAAAeHNxAH4ADXQAAng0cQB+ADdzcQB+AAJzcQB+AAcAAAACdwQAAAACc3EAfgACc3EAfgAHAAAAAHcEAAAAAHhxAH4AD3EAfgA9c3EAfgACc3EAfgAHAAAAAHcEAAAAAHhxAH4AO3NxAH4AAnNxAH4ABwAAAAJ3BAAAAAJzcQB+AAJzcQB+AAcAAAAAdwQAAAAAeHEAfgA7cQB+AENxAH4AQXh+cQB+ABt0AA5NVUxUSVBMSUNBVElPTnNxAH4AAnNxAH4ABwAAAAJ3BAAAAAJzcQB+AAJzcQB+AAcAAAAAdwQAAAAAeHEAfgA7cQB+AElxAH4AQ3h+cQB+ABt0AAtTVUJUUkFDVElPTnNxAH4AAnNxAH4ABwAAAAJ3BAAAAAJxAH4ASXNxAH4AAnNxAH4ABwAAAAJ3BAAAAAJzcQB+AAJzcQB+AAcAAAAAdwQAAAAAeHEAfgAPcQB+AFFzcQB+AAJzcQB+AAcAAAAAdwQAAAAAeHEAfgA7cQB+AFF4cQB+AEdxAH4AT3hxAH4ATXNxAH4AAnNxAH4ABwAAAAJ3BAAAAAJzcQB+AAJzcQB+AAcAAAAAdwQAAAAAeHEAfgAtcQB+AFdxAH4AT3hxAH4AHXNxAH4AAnNxAH4ABwAAAAJ3BAAAAAJxAH4AV3NxAH4AAnNxAH4ABwAAAAJ3BAAAAAJzcQB+AAJzcQB+AAcAAAAAdwQAAAAAeHEAfgAPcQB+AF1zcQB+AAJzcQB+AAcAAAAAdwQAAAAAeHEAfgA7cQB+AF14cQB+AEdxAH4AW3hxAH4ATXNxAH4AAnNxAH4ABwAAAAJ3BAAAAAJzcQB+AAJzcQB+AAcAAAAAdwQAAAAAeHEAfgAtcQB+AGNxAH4AW3hxAH4AHXNxAH4AAnNxAH4ABwAAAAJ3BAAAAAJxAH4AY3NxAH4AAnNxAH4ABwAAAAJ3BAAAAAJzcQB+AAJzcQB+AAcAAAAAdwQAAAAAeHEAfgAPcQB+AGlzcQB+AAJzcQB+AAcAAAAAdwQAAAAAeHEAfgA7c3EAfgACc3EAfgAHAAAAAncEAAAAAnNxAH4AAnNxAH4ABwAAAAB3BAAAAAB4cQB+ADtxAH4Ab3EAfgBteHEAfgBHc3EAfgACc3EAfgAHAAAAAncEAAAAAnNxAH4AAnNxAH4ABwAAAAJ3BAAAAAJzcQB+AAJzcQB+AAcAAAAAdwQAAAAAeHEAfgAtcQB+AHVzcQB+AAJzcQB+AAcAAAACdwQAAAACc3EAfgACc3EAfgAHAAAAAncEAAAAAnNxAH4AAnNxAH4ABwAAAAB3BAAAAAB4cQB+AC1xAH4Ae3NxAH4AAnNxAH4ABwAAAAJ3BAAAAAJzcQB+AAJzcQB+AAcAAAAAdwQAAAAAeHEAfgA7cQB+AH9zcQB+AAJzcQB+AAcAAAAAdwQAAAAAeHNxAH4ADXQAA3gxMXEAfgB/eHEAfgBNcQB+AHt4cQB+AB1xAH4AeXNxAH4AAnNxAH4ABwAAAAB3BAAAAAB4cQB+AIVxAH4AeXhxAH4ATXEAfgB1eHEAfgAdcQB+AHNxAH4Ab3hxAH4AR3B4cQB+AEdxAH4AZ3hxAH4AR3B4cQB+AEdzcQB+AAJzcQB+AAcAAAACdwQAAAACc3EAfgACc3EAfgAHAAAAAHcEAAAAAHhxAH4ALXEAfgCJcQB+AD14cQB+AE1zcQB+AAJzcQB+AAcAAAACdwQAAAACcQB+AIlxAH4AUXhxAH4ATXNxAH4AAnNxAH4ABwAAAAJ3BAAAAAJzcQB+AAJzcQB+AAcAAAAAdwQAAAAAeHEAfgAtcQB+AI9xAH4AjXhxAH4AHXNxAH4AAnNxAH4ABwAAAAJ3BAAAAAJxAH4Aj3EAfgBdeHEAfgBNc3EAfgACc3EAfgAHAAAAAncEAAAAAnNxAH4AAnNxAH4ABwAAAAB3BAAAAAB4cQB+AC1xAH4AlXEAfgCTeHEAfgAdc3EAfgACc3EAfgAHAAAAAncEAAAAAnEAfgCVcQB+AGl4cQB+AEdweHEAfgBNcQB+ADVxAH4AUXhxAH4ATXEAfgAxeHEAfgAdcQB+AC9xAH4AXXhxAH4ATXNxAH4AAnNxAH4ABwAAAAJ3BAAAAAJzcQB+AAJzcQB+AAcAAAACdwQAAAACc3EAfgACc3EAfgAHAAAAAHcEAAAAAHhxAH4AD3EAfgCdc3EAfgACc3EAfgAHAAAAAHcEAAAAAHhxAH4AO3EAfgCdeHEAfgBHcQB+AJtxAH4AL3hxAH4AHXNxAH4AAnNxAH4ABwAAAAJ3BAAAAAJxAH4Am3EAfgBpeHEAfgBHcHhxAH4AHXEAfgAncQB+AGl4cQB+AEdwc3EAfgACc3EAfgAHAAAAAncEAAAAAnNxAH4AAnNxAH4ABwAAAAJ3BAAAAAJzcQB+AAJzcQB+AAcAAAACdwQAAAACc3EAfgACc3EAfgAHAAAAAncEAAAAAnNxAH4AAnNxAH4ABwAAAAB3BAAAAAB4c3IAS2lvLmdpdGh1Yi5lcmljbWVkdmV0LmpnZWEuY29yZS5yZXByZXNlbnRhdGlvbi50cmVlLm51bWVyaWMuRWxlbWVudCRDb25zdGFudAAAAAAAAAAAAgABRAAFdmFsdWV4cEAQAAAAAAAAcQB+AKtzcQB+AAJzcQB+AAcAAAAAdwQAAAAAeHNxAH4Ar0AIAAAAAAAAc3EAfgACc3EAfgAHAAAAAncEAAAAAnNxAH4AAnNxAH4ABwAAAAB3BAAAAAB4c3EAfgCvQAQAAAAAAABxAH4AtHEAfgCxeH5xAH4AG3QADVBST1RfRElWSVNJT05zcQB+AAJzcQB+AAcAAAACdwQAAAACcQB+ALRzcQB+AAJzcQB+AAcAAAAAdwQAAAAAeHEAfgC4c3EAfgACc3EAfgAHAAAAAncEAAAAAnNxAH4AAnNxAH4ABwAAAAB3BAAAAAB4cQB+ALNxAH4Av3EAfgC9eHEAfgC5c3EAfgACc3EAfgAHAAAAAncEAAAAAnEAfgC/c3EAfgACc3EAfgAHAAAAAHcEAAAAAHhxAH4AuHEAfgDDeHEAfgBNc3EAfgACc3EAfgAHAAAAAncEAAAAAnEAfgDDc3EAfgACc3EAfgAHAAAAAHcEAAAAAHhxAH4As3EAfgDHeHEAfgAdcHhxAH4AuXNxAH4AAnNxAH4ABwAAAAJ3BAAAAAJxAH4Au3EAfgDFeHEAfgBNc3EAfgACc3EAfgAHAAAAAncEAAAAAnEAfgDLcQB+AMl4cQB+AB1weHEAfgC5cQB+AKlxAH4AvXhxAH4AuXEAfgCncQB+AMV4cQB+AE1xAH4ApXEAfgDJeHEAfgAdcHNxAH4AAnNxAH4ABwAAAAJ3BAAAAAJzcQB+AAJzcQB+AAcAAAAAdwQAAAAAeHNxAH4ADXQAAng5cQB+AM9zcQB+AAJzcQB+AAcAAAACdwQAAAACc3EAfgACc3EAfgAHAAAAAHcEAAAAAHhxAH4A03EAfgDVc3EAfgACc3EAfgAHAAAAAHcEAAAAAHhzcQB+AK8/8AAAAAAAAHEAfgDVeHEAfgAdc3EAfgACc3EAfgAHAAAAAncEAAAAAnNxAH4AAnNxAH4ABwAAAAB3BAAAAAB4cQB+ANtxAH4A3HEAfgDVeHEAfgBNcHhxAH4ATXB4";
    "rO0ABXNyABFqYXZhLnV0aWwuQ29sbFNlcleOq7Y6G6gRAwABSQADdGFneHAAAAAEdwQAAAAEc3IAN2lvLmdpdGh1Yi5lcmljbWVkdmV0LmpnZWEuY29yZS5yZXByZXNlbnRhdGlvbi50cmVlLlRyZWUKs7/qnQrEZQIAA0wACGNoaWxkcmVudAAQTGphdmEvdXRpbC9MaXN0O0wAB2NvbnRlbnR0ABJMamF2YS9sYW5nL09iamVjdDtMAAZwYXJlbnR0ADlMaW8vZ2l0aHViL2VyaWNtZWR2ZXQvamdlYS9jb3JlL3JlcHJlc2VudGF0aW9uL3RyZWUvVHJlZTt4cHNyABNqYXZhLnV0aWwuQXJyYXlMaXN0eIHSHZnHYZ0DAAFJAARzaXpleHAAAAACdwQAAAACc3EAfgACc3EAfgAHAAAAAncEAAAAAnNxAH4AAnNxAH4ABwAAAAB3BAAAAAB4c3IAS2lvLmdpdGh1Yi5lcmljbWVkdmV0LmpnZWEuY29yZS5yZXByZXNlbnRhdGlvbi50cmVlLm51bWVyaWMuRWxlbWVudCRWYXJpYWJsZQAAAAAAAAAAAgABTAAEbmFtZXQAEkxqYXZhL2xhbmcvU3RyaW5nO3hwdAACeDBxAH4ACXNxAH4AAnNxAH4ABwAAAAB3BAAAAAB4cQB+AA9zcQB+AAJzcQB+AAcAAAACdwQAAAACc3EAfgACc3EAfgAHAAAAAncEAAAAAnNxAH4AAnNxAH4ABwAAAAB3BAAAAAB4cQB+AA9xAH4AFXNxAH4AAnNxAH4ABwAAAAB3BAAAAAB4cQB+AA9xAH4AFXh+cgBLaW8uZ2l0aHViLmVyaWNtZWR2ZXQuamdlYS5jb3JlLnJlcHJlc2VudGF0aW9uLnRyZWUubnVtZXJpYy5FbGVtZW50JE9wZXJhdG9yAAAAAAAAAAASAAB4cgAOamF2YS5sYW5nLkVudW0AAAAAAAAAABIAAHhwdAAIQURESVRJT05xAH4AE3EAfgAReHEAfgAdc3EAfgACc3EAfgAHAAAAAncEAAAAAnEAfgATc3EAfgACc3EAfgAHAAAAAHcEAAAAAHhxAH4AD3NxAH4AAnNxAH4ABwAAAAJ3BAAAAAJzcQB+AAJzcQB+AAcAAAAAdwQAAAAAeHEAfgAPcQB+ACNxAH4AIXhxAH4AHXB4cQB+AB1weHEAfgAdcQB+AAZxAH4AIXhxAH4AHXBzcQB+AAJzcQB+AAcAAAACdwQAAAACc3EAfgACc3EAfgAHAAAAAncEAAAAAnNxAH4AAnNxAH4ABwAAAAB3BAAAAAB4c3EAfgANdAACeDFxAH4AKXNxAH4AAnNxAH4ABwAAAAJ3BAAAAAJzcQB+AAJzcQB+AAcAAAACdwQAAAACc3EAfgACc3EAfgAHAAAAAHcEAAAAAHhxAH4ALXEAfgAxc3EAfgACc3EAfgAHAAAAAncEAAAAAnNxAH4AAnNxAH4ABwAAAAJ3BAAAAAJzcQB+AAJzcQB+AAcAAAAAdwQAAAAAeHNxAH4ADXQAAng0cQB+ADdzcQB+AAJzcQB+AAcAAAACdwQAAAACc3EAfgACc3EAfgAHAAAAAHcEAAAAAHhxAH4AD3EAfgA9c3EAfgACc3EAfgAHAAAAAHcEAAAAAHhxAH4AO3NxAH4AAnNxAH4ABwAAAAJ3BAAAAAJzcQB+AAJzcQB+AAcAAAAAdwQAAAAAeHEAfgA7cQB+AENxAH4AQXh+cQB+ABt0AA5NVUxUSVBMSUNBVElPTnNxAH4AAnNxAH4ABwAAAAJ3BAAAAAJzcQB+AAJzcQB+AAcAAAAAdwQAAAAAeHEAfgA7cQB+AElxAH4AQ3h+cQB+ABt0AAtTVUJUUkFDVElPTnNxAH4AAnNxAH4ABwAAAAJ3BAAAAAJxAH4ASXNxAH4AAnNxAH4ABwAAAAJ3BAAAAAJzcQB+AAJzcQB+AAcAAAAAdwQAAAAAeHEAfgAPcQB+AFFzcQB+AAJzcQB+AAcAAAAAdwQAAAAAeHEAfgA7cQB+AFF4cQB+AEdxAH4AT3hxAH4ATXNxAH4AAnNxAH4ABwAAAAJ3BAAAAAJzcQB+AAJzcQB+AAcAAAAAdwQAAAAAeHEAfgAtcQB+AFdxAH4AT3hxAH4AHXNxAH4AAnNxAH4ABwAAAAJ3BAAAAAJxAH4AV3NxAH4AAnNxAH4ABwAAAAJ3BAAAAAJzcQB+AAJzcQB+AAcAAAAAdwQAAAAAeHEAfgAPcQB+AF1zcQB+AAJzcQB+AAcAAAAAdwQAAAAAeHEAfgA7cQB+AF14cQB+AEdxAH4AW3hxAH4ATXNxAH4AAnNxAH4ABwAAAAJ3BAAAAAJzcQB+AAJzcQB+AAcAAAAAdwQAAAAAeHEAfgAtcQB+AGNxAH4AW3hxAH4AHXNxAH4AAnNxAH4ABwAAAAJ3BAAAAAJxAH4AY3NxAH4AAnNxAH4ABwAAAAJ3BAAAAAJzcQB+AAJzcQB+AAcAAAAAdwQAAAAAeHEAfgAPcQB+AGlzcQB+AAJzcQB+AAcAAAAAdwQAAAAAeHEAfgA7c3EAfgACc3EAfgAHAAAAAncEAAAAAnNxAH4AAnNxAH4ABwAAAAB3BAAAAAB4cQB+ADtxAH4Ab3EAfgBteHEAfgBHc3EAfgACc3EAfgAHAAAAAncEAAAAAnNxAH4AAnNxAH4ABwAAAAJ3BAAAAAJzcQB+AAJzcQB+AAcAAAAAdwQAAAAAeHEAfgAtcQB+AHVzcQB+AAJzcQB+AAcAAAACdwQAAAACc3EAfgACc3EAfgAHAAAAAncEAAAAAnNxAH4AAnNxAH4ABwAAAAB3BAAAAAB4cQB+AC1xAH4Ae3NxAH4AAnNxAH4ABwAAAAJ3BAAAAAJzcQB+AAJzcQB+AAcAAAAAdwQAAAAAeHEAfgA7cQB+AH9zcQB+AAJzcQB+AAcAAAAAdwQAAAAAeHNxAH4ADXQAA3gxMXEAfgB/eHEAfgBNcQB+AHt4cQB+AB1xAH4AeXNxAH4AAnNxAH4ABwAAAAB3BAAAAAB4cQB+AIVxAH4AeXhxAH4ATXEAfgB1eHEAfgAdcQB+AHNxAH4Ab3hxAH4AR3B4cQB+AEdxAH4AZ3hxAH4AR3B4cQB+AEdzcQB+AAJzcQB+AAcAAAACdwQAAAACc3EAfgACc3EAfgAHAAAAAHcEAAAAAHhxAH4ALXEAfgCJcQB+AD14cQB+AE1zcQB+AAJzcQB+AAcAAAACdwQAAAACcQB+AIlxAH4AUXhxAH4ATXNxAH4AAnNxAH4ABwAAAAJ3BAAAAAJzcQB+AAJzcQB+AAcAAAAAdwQAAAAAeHEAfgAtcQB+AI9xAH4AjXhxAH4AHXNxAH4AAnNxAH4ABwAAAAJ3BAAAAAJxAH4Aj3EAfgBdeHEAfgBNc3EAfgACc3EAfgAHAAAAAncEAAAAAnNxAH4AAnNxAH4ABwAAAAB3BAAAAAB4cQB+AC1xAH4AlXEAfgCTeHEAfgAdc3EAfgACc3EAfgAHAAAAAncEAAAAAnEAfgCVcQB+AGl4cQB+AEdweHEAfgBNcQB+ADVxAH4AUXhxAH4ATXEAfgAxeHEAfgAdcQB+AC9xAH4AXXhxAH4ATXNxAH4AAnNxAH4ABwAAAAJ3BAAAAAJzcQB+AAJzcQB+AAcAAAACdwQAAAACc3EAfgACc3EAfgAHAAAAAHcEAAAAAHhxAH4AD3EAfgCdc3EAfgACc3EAfgAHAAAAAHcEAAAAAHhxAH4AO3EAfgCdeHEAfgBHcQB+AJtxAH4AL3hxAH4AHXNxAH4AAnNxAH4ABwAAAAJ3BAAAAAJxAH4Am3EAfgBpeHEAfgBHcHhxAH4AHXEAfgAncQB+AGl4cQB+AEdwc3EAfgACc3EAfgAHAAAAAncEAAAAAnNxAH4AAnNxAH4ABwAAAAJ3BAAAAAJzcQB+AAJzcQB+AAcAAAACdwQAAAACc3EAfgACc3EAfgAHAAAAAncEAAAAAnNxAH4AAnNxAH4ABwAAAAB3BAAAAAB4c3IAS2lvLmdpdGh1Yi5lcmljbWVkdmV0LmpnZWEuY29yZS5yZXByZXNlbnRhdGlvbi50cmVlLm51bWVyaWMuRWxlbWVudCRDb25zdGFudAAAAAAAAAAAAgABRAAFdmFsdWV4cEAQAAAAAAAAcQB+AKtzcQB+AAJzcQB+AAcAAAAAdwQAAAAAeHNxAH4Ar0AIAAAAAAAAc3EAfgACc3EAfgAHAAAAAncEAAAAAnNxAH4AAnNxAH4ABwAAAAJ3BAAAAAJzcQB+AAJzcQB+AAcAAAAAdwQAAAAAeHEAfgCwcQB+ALZzcQB+AAJzcQB+AAcAAAAAdwQAAAAAeHEAfgCzcQB+ALZ4fnEAfgAbdAANUFJPVF9ESVZJU0lPTnEAfgC0cQB+ALF4cQB+ALxzcQB+AAJzcQB+AAcAAAACdwQAAAACcQB+ALRzcQB+AAJzcQB+AAcAAAAAdwQAAAAAeHNxAH4Ar0AEAAAAAAAAcQB+AL54cQB+ALxzcQB+AAJzcQB+AAcAAAACdwQAAAACcQB+AL5zcQB+AAJzcQB+AAcAAAAAdwQAAAAAeHEAfgDCc3EAfgACc3EAfgAHAAAAAncEAAAAAnNxAH4AAnNxAH4ABwAAAAJ3BAAAAAJzcQB+AAJzcQB+AAcAAAACdwQAAAACc3EAfgACc3EAfgAHAAAAAHcEAAAAAHhxAH4AsHEAfgDLc3EAfgACc3EAfgAHAAAAAHcEAAAAAHhxAH4As3EAfgDLeHEAfgC8cQB+AMlzcQB+AAJzcQB+AAcAAAAAdwQAAAAAeHEAfgCzcQB+AMl4cQB+ALxxAH4Ax3EAfgDFeHEAfgBNc3EAfgACc3EAfgAHAAAAAncEAAAAAnEAfgDHc3EAfgACc3EAfgAHAAAAAHcEAAAAAHhxAH4As3EAfgDTeHEAfgAdcHhxAH4ATXNxAH4AAnNxAH4ABwAAAAJ3BAAAAAJxAH4Aw3EAfgDVeHEAfgAdcHhxAH4AvHEAfgCpcQB+AMB4cQB+ALxxAH4Ap3EAfgDFeHEAfgBNcQB+AKVxAH4A1XhxAH4AHXBzcQB+AAJzcQB+AAcAAAACdwQAAAACc3EAfgACc3EAfgAHAAAAAHcEAAAAAHhzcQB+AA10AAJ4OXEAfgDZc3EAfgACc3EAfgAHAAAAAncEAAAAAnNxAH4AAnNxAH4ABwAAAAB3BAAAAAB4cQB+AN1xAH4A33NxAH4AAnNxAH4ABwAAAAB3BAAAAAB4c3EAfgCvP/AAAAAAAABxAH4A33hxAH4AHXNxAH4AAnNxAH4ABwAAAAJ3BAAAAAJzcQB+AAJzcQB+AAcAAAACdwQAAAACc3EAfgACc3EAfgAHAAAAAHcEAAAAAHhxAH4A3XEAfgDoc3EAfgACc3EAfgAHAAAAAHcEAAAAAHhxAH4A5XEAfgDoeHEAfgAdcQB+AOZxAH4A33hxAH4ATXB4cQB+AE1weA==";
    "rO0ABXNyABFqYXZhLnV0aWwuQ29sbFNlcleOq7Y6G6gRAwABSQADdGFneHAAAAAEdwQAAAAEc3IAN2lvLmdpdGh1Yi5lcmljbWVkdmV0LmpnZWEuY29yZS5yZXByZXNlbnRhdGlvbi50cmVlLlRyZWUKs7/qnQrEZQIAA0wACGNoaWxkcmVudAAQTGphdmEvdXRpbC9MaXN0O0wAB2NvbnRlbnR0ABJMamF2YS9sYW5nL09iamVjdDtMAAZwYXJlbnR0ADlMaW8vZ2l0aHViL2VyaWNtZWR2ZXQvamdlYS9jb3JlL3JlcHJlc2VudGF0aW9uL3RyZWUvVHJlZTt4cHNyABNqYXZhLnV0aWwuQXJyYXlMaXN0eIHSHZnHYZ0DAAFJAARzaXpleHAAAAACdwQAAAACc3EAfgACc3EAfgAHAAAAAncEAAAAAnNxAH4AAnNxAH4ABwAAAAB3BAAAAAB4c3IAS2lvLmdpdGh1Yi5lcmljbWVkdmV0LmpnZWEuY29yZS5yZXByZXNlbnRhdGlvbi50cmVlLm51bWVyaWMuRWxlbWVudCRWYXJpYWJsZQAAAAAAAAAAAgABTAAEbmFtZXQAEkxqYXZhL2xhbmcvU3RyaW5nO3hwdAACeDBxAH4ACXNxAH4AAnNxAH4ABwAAAAB3BAAAAAB4cQB+AA9zcQB+AAJzcQB+AAcAAAACdwQAAAACc3EAfgACc3EAfgAHAAAAAncEAAAAAnNxAH4AAnNxAH4ABwAAAAB3BAAAAAB4cQB+AA9xAH4AFXNxAH4AAnNxAH4ABwAAAAB3BAAAAAB4cQB+AA9xAH4AFXh+cgBLaW8uZ2l0aHViLmVyaWNtZWR2ZXQuamdlYS5jb3JlLnJlcHJlc2VudGF0aW9uLnRyZWUubnVtZXJpYy5FbGVtZW50JE9wZXJhdG9yAAAAAAAAAAASAAB4cgAOamF2YS5sYW5nLkVudW0AAAAAAAAAABIAAHhwdAAIQURESVRJT05xAH4AE3EAfgAReHEAfgAdc3EAfgACc3EAfgAHAAAAAncEAAAAAnEAfgATc3EAfgACc3EAfgAHAAAAAHcEAAAAAHhxAH4AD3NxAH4AAnNxAH4ABwAAAAJ3BAAAAAJzcQB+AAJzcQB+AAcAAAAAdwQAAAAAeHEAfgAPcQB+ACNxAH4AIXhxAH4AHXB4cQB+AB1weHEAfgAdcQB+AAZxAH4AIXhxAH4AHXBzcQB+AAJzcQB+AAcAAAACdwQAAAACc3EAfgACc3EAfgAHAAAAAncEAAAAAnNxAH4AAnNxAH4ABwAAAAB3BAAAAAB4c3EAfgANdAACeDFxAH4AKXNxAH4AAnNxAH4ABwAAAAJ3BAAAAAJzcQB+AAJzcQB+AAcAAAACdwQAAAACc3EAfgACc3EAfgAHAAAAAHcEAAAAAHhxAH4ALXEAfgAxc3EAfgACc3EAfgAHAAAAAncEAAAAAnNxAH4AAnNxAH4ABwAAAAJ3BAAAAAJzcQB+AAJzcQB+AAcAAAAAdwQAAAAAeHNxAH4ADXQAAng0cQB+ADdzcQB+AAJzcQB+AAcAAAACdwQAAAACc3EAfgACc3EAfgAHAAAAAHcEAAAAAHhxAH4AD3EAfgA9c3EAfgACc3EAfgAHAAAAAHcEAAAAAHhxAH4AO3NxAH4AAnNxAH4ABwAAAAJ3BAAAAAJzcQB+AAJzcQB+AAcAAAAAdwQAAAAAeHEAfgA7cQB+AENxAH4AQXh+cQB+ABt0AA5NVUxUSVBMSUNBVElPTnNxAH4AAnNxAH4ABwAAAAJ3BAAAAAJzcQB+AAJzcQB+AAcAAAAAdwQAAAAAeHEAfgA7cQB+AElxAH4AQ3h+cQB+ABt0AAtTVUJUUkFDVElPTnNxAH4AAnNxAH4ABwAAAAJ3BAAAAAJxAH4ASXNxAH4AAnNxAH4ABwAAAAJ3BAAAAAJzcQB+AAJzcQB+AAcAAAAAdwQAAAAAeHEAfgAPcQB+AFFzcQB+AAJzcQB+AAcAAAAAdwQAAAAAeHEAfgA7cQB+AFF4cQB+AEdxAH4AT3hxAH4ATXNxAH4AAnNxAH4ABwAAAAJ3BAAAAAJzcQB+AAJzcQB+AAcAAAAAdwQAAAAAeHEAfgAtcQB+AFdxAH4AT3hxAH4AHXNxAH4AAnNxAH4ABwAAAAJ3BAAAAAJxAH4AV3NxAH4AAnNxAH4ABwAAAAJ3BAAAAAJzcQB+AAJzcQB+AAcAAAAAdwQAAAAAeHEAfgAPcQB+AF1zcQB+AAJzcQB+AAcAAAAAdwQAAAAAeHEAfgA7cQB+AF14cQB+AEdxAH4AW3hxAH4ATXNxAH4AAnNxAH4ABwAAAAJ3BAAAAAJzcQB+AAJzcQB+AAcAAAAAdwQAAAAAeHEAfgAtcQB+AGNxAH4AW3hxAH4AHXNxAH4AAnNxAH4ABwAAAAJ3BAAAAAJxAH4AY3NxAH4AAnNxAH4ABwAAAAJ3BAAAAAJzcQB+AAJzcQB+AAcAAAAAdwQAAAAAeHEAfgAPcQB+AGlzcQB+AAJzcQB+AAcAAAAAdwQAAAAAeHEAfgA7c3EAfgACc3EAfgAHAAAAAncEAAAAAnNxAH4AAnNxAH4ABwAAAAB3BAAAAAB4cQB+ADtxAH4Ab3EAfgBteHEAfgBHc3EAfgACc3EAfgAHAAAAAncEAAAAAnNxAH4AAnNxAH4ABwAAAAJ3BAAAAAJzcQB+AAJzcQB+AAcAAAAAdwQAAAAAeHEAfgAtcQB+AHVzcQB+AAJzcQB+AAcAAAACdwQAAAACc3EAfgACc3EAfgAHAAAAAncEAAAAAnNxAH4AAnNxAH4ABwAAAAB3BAAAAAB4cQB+AC1xAH4Ae3NxAH4AAnNxAH4ABwAAAAJ3BAAAAAJzcQB+AAJzcQB+AAcAAAAAdwQAAAAAeHEAfgA7cQB+AH9zcQB+AAJzcQB+AAcAAAAAdwQAAAAAeHNxAH4ADXQAA3gxMXEAfgB/eHEAfgBNcQB+AHt4cQB+AB1xAH4AeXNxAH4AAnNxAH4ABwAAAAB3BAAAAAB4cQB+AIVxAH4AeXhxAH4ATXEAfgB1eHEAfgAdcQB+AHNxAH4Ab3hxAH4AR3B4cQB+AEdxAH4AZ3hxAH4AR3B4cQB+AEdzcQB+AAJzcQB+AAcAAAACdwQAAAACc3EAfgACc3EAfgAHAAAAAHcEAAAAAHhxAH4ALXEAfgCJcQB+AD14cQB+AE1zcQB+AAJzcQB+AAcAAAACdwQAAAACcQB+AIlxAH4AUXhxAH4ATXNxAH4AAnNxAH4ABwAAAAJ3BAAAAAJzcQB+AAJzcQB+AAcAAAAAdwQAAAAAeHEAfgAtcQB+AI9xAH4AjXhxAH4AHXNxAH4AAnNxAH4ABwAAAAJ3BAAAAAJxAH4Aj3EAfgBdeHEAfgBNc3EAfgACc3EAfgAHAAAAAncEAAAAAnNxAH4AAnNxAH4ABwAAAAB3BAAAAAB4cQB+AC1xAH4AlXEAfgCTeHEAfgAdc3EAfgACc3EAfgAHAAAAAncEAAAAAnEAfgCVcQB+AGl4cQB+AEdweHEAfgBNcQB+ADVxAH4AUXhxAH4ATXEAfgAxeHEAfgAdcQB+AC9xAH4AXXhxAH4ATXNxAH4AAnNxAH4ABwAAAAJ3BAAAAAJzcQB+AAJzcQB+AAcAAAACdwQAAAACc3EAfgACc3EAfgAHAAAAAHcEAAAAAHhxAH4AD3EAfgCdc3EAfgACc3EAfgAHAAAAAHcEAAAAAHhxAH4AO3EAfgCdeHEAfgBHcQB+AJtxAH4AL3hxAH4AHXNxAH4AAnNxAH4ABwAAAAJ3BAAAAAJxAH4Am3EAfgBpeHEAfgBHcHhxAH4AHXEAfgAncQB+AGl4cQB+AEdwc3EAfgACc3EAfgAHAAAAAncEAAAAAnNxAH4AAnNxAH4ABwAAAAJ3BAAAAAJzcQB+AAJzcQB+AAcAAAACdwQAAAACc3EAfgACc3EAfgAHAAAAAncEAAAAAnNxAH4AAnNxAH4ABwAAAAB3BAAAAAB4c3IAS2lvLmdpdGh1Yi5lcmljbWVkdmV0LmpnZWEuY29yZS5yZXByZXNlbnRhdGlvbi50cmVlLm51bWVyaWMuRWxlbWVudCRDb25zdGFudAAAAAAAAAAAAgABRAAFdmFsdWV4cEAQAAAAAAAAcQB+AKtzcQB+AAJzcQB+AAcAAAAAdwQAAAAAeHNxAH4Ar0AIAAAAAAAAc3EAfgACc3EAfgAHAAAAAncEAAAAAnNxAH4AAnNxAH4ABwAAAAJ3BAAAAAJzcQB+AAJzcQB+AAcAAAAAdwQAAAAAeHEAfgCwcQB+ALZzcQB+AAJzcQB+AAcAAAAAdwQAAAAAeHEAfgCzcQB+ALZ4fnEAfgAbdAANUFJPVF9ESVZJU0lPTnEAfgC0cQB+ALF4cQB+ALxzcQB+AAJzcQB+AAcAAAACdwQAAAACcQB+ALRzcQB+AAJzcQB+AAcAAAAAdwQAAAAAeHNxAH4Ar0AEAAAAAAAAcQB+AL54cQB+ALxzcQB+AAJzcQB+AAcAAAACdwQAAAACcQB+AL5zcQB+AAJzcQB+AAcAAAAAdwQAAAAAeHEAfgDCc3EAfgACc3EAfgAHAAAAAncEAAAAAnNxAH4AAnNxAH4ABwAAAAJ3BAAAAAJzcQB+AAJzcQB+AAcAAAACdwQAAAACc3EAfgACc3EAfgAHAAAAAHcEAAAAAHhxAH4AsHEAfgDLc3EAfgACc3EAfgAHAAAAAHcEAAAAAHhxAH4As3EAfgDLeHEAfgC8cQB+AMlzcQB+AAJzcQB+AAcAAAAAdwQAAAAAeHEAfgCzcQB+AMl4cQB+ALxxAH4Ax3EAfgDFeHEAfgBNc3EAfgACc3EAfgAHAAAAAncEAAAAAnEAfgDHc3EAfgACc3EAfgAHAAAAAHcEAAAAAHhxAH4As3EAfgDTeHEAfgAdcHhxAH4ATXNxAH4AAnNxAH4ABwAAAAJ3BAAAAAJxAH4Aw3EAfgDVeHEAfgAdcHhxAH4AvHEAfgCpcQB+AMB4cQB+ALxxAH4Ap3EAfgDFeHEAfgBNcQB+AKVxAH4A1XhxAH4AHXBzcQB+AAJzcQB+AAcAAAACdwQAAAACc3EAfgACc3EAfgAHAAAAAHcEAAAAAHhzcQB+AA10AAJ4OXEAfgDZc3EAfgACc3EAfgAHAAAAAncEAAAAAnNxAH4AAnNxAH4ABwAAAAB3BAAAAAB4cQB+AN1xAH4A33NxAH4AAnNxAH4ABwAAAAB3BAAAAAB4c3EAfgCvP/AAAAAAAABxAH4A33hxAH4AHXNxAH4AAnNxAH4ABwAAAAJ3BAAAAAJzcQB+AAJzcQB+AAcAAAACdwQAAAACc3EAfgACc3EAfgAHAAAAAHcEAAAAAHhxAH4A3XEAfgDoc3EAfgACc3EAfgAHAAAAAHcEAAAAAHhxAH4A5XEAfgDoeHEAfgAdcQB+AOZxAH4A33hxAH4ATXB4cQB+AE1weA==";
    "rO0ABXNyABFqYXZhLnV0aWwuQ29sbFNlcleOq7Y6G6gRAwABSQADdGFneHAAAAAEdwQAAAAEc3IAN2lvLmdpdGh1Yi5lcmljbWVkdmV0LmpnZWEuY29yZS5yZXByZXNlbnRhdGlvbi50cmVlLlRyZWUKs7/qnQrEZQIAA0wACGNoaWxkcmVudAAQTGphdmEvdXRpbC9MaXN0O0wAB2NvbnRlbnR0ABJMamF2YS9sYW5nL09iamVjdDtMAAZwYXJlbnR0ADlMaW8vZ2l0aHViL2VyaWNtZWR2ZXQvamdlYS9jb3JlL3JlcHJlc2VudGF0aW9uL3RyZWUvVHJlZTt4cHNyABNqYXZhLnV0aWwuQXJyYXlMaXN0eIHSHZnHYZ0DAAFJAARzaXpleHAAAAACdwQAAAACc3EAfgACc3EAfgAHAAAAAncEAAAAAnNxAH4AAnNxAH4ABwAAAAB3BAAAAAB4c3IAS2lvLmdpdGh1Yi5lcmljbWVkdmV0LmpnZWEuY29yZS5yZXByZXNlbnRhdGlvbi50cmVlLm51bWVyaWMuRWxlbWVudCRWYXJpYWJsZQAAAAAAAAAAAgABTAAEbmFtZXQAEkxqYXZhL2xhbmcvU3RyaW5nO3hwdAACeDBxAH4ACXNxAH4AAnNxAH4ABwAAAAB3BAAAAAB4cQB+AA9zcQB+AAJzcQB+AAcAAAACdwQAAAACc3EAfgACc3EAfgAHAAAAAncEAAAAAnNxAH4AAnNxAH4ABwAAAAB3BAAAAAB4cQB+AA9xAH4AFXNxAH4AAnNxAH4ABwAAAAB3BAAAAAB4cQB+AA9xAH4AFXh+cgBLaW8uZ2l0aHViLmVyaWNtZWR2ZXQuamdlYS5jb3JlLnJlcHJlc2VudGF0aW9uLnRyZWUubnVtZXJpYy5FbGVtZW50JE9wZXJhdG9yAAAAAAAAAAASAAB4cgAOamF2YS5sYW5nLkVudW0AAAAAAAAAABIAAHhwdAAIQURESVRJT05xAH4AE3EAfgAReHEAfgAdc3EAfgACc3EAfgAHAAAAAncEAAAAAnEAfgATc3EAfgACc3EAfgAHAAAAAHcEAAAAAHhxAH4AD3NxAH4AAnNxAH4ABwAAAAJ3BAAAAAJzcQB+AAJzcQB+AAcAAAAAdwQAAAAAeHEAfgAPcQB+ACNxAH4AIXhxAH4AHXB4cQB+AB1weHEAfgAdcQB+AAZxAH4AIXhxAH4AHXBzcQB+AAJzcQB+AAcAAAACdwQAAAACc3EAfgACc3EAfgAHAAAAAncEAAAAAnNxAH4AAnNxAH4ABwAAAAB3BAAAAAB4c3EAfgANdAACeDFxAH4AKXNxAH4AAnNxAH4ABwAAAAJ3BAAAAAJzcQB+AAJzcQB+AAcAAAACdwQAAAACc3EAfgACc3EAfgAHAAAAAHcEAAAAAHhxAH4ALXEAfgAxc3EAfgACc3EAfgAHAAAAAncEAAAAAnNxAH4AAnNxAH4ABwAAAAJ3BAAAAAJzcQB+AAJzcQB+AAcAAAAAdwQAAAAAeHNxAH4ADXQAAng0cQB+ADdzcQB+AAJzcQB+AAcAAAACdwQAAAACc3EAfgACc3EAfgAHAAAAAHcEAAAAAHhxAH4AD3EAfgA9c3EAfgACc3EAfgAHAAAAAHcEAAAAAHhxAH4AO3NxAH4AAnNxAH4ABwAAAAJ3BAAAAAJzcQB+AAJzcQB+AAcAAAAAdwQAAAAAeHEAfgA7cQB+AENxAH4AQXh+cQB+ABt0AA5NVUxUSVBMSUNBVElPTnNxAH4AAnNxAH4ABwAAAAJ3BAAAAAJzcQB+AAJzcQB+AAcAAAAAdwQAAAAAeHEAfgA7cQB+AElxAH4AQ3h+cQB+ABt0AAtTVUJUUkFDVElPTnNxAH4AAnNxAH4ABwAAAAJ3BAAAAAJxAH4ASXNxAH4AAnNxAH4ABwAAAAJ3BAAAAAJzcQB+AAJzcQB+AAcAAAAAdwQAAAAAeHEAfgAPcQB+AFFzcQB+AAJzcQB+AAcAAAAAdwQAAAAAeHEAfgA7cQB+AFF4cQB+AEdxAH4AT3hxAH4ATXNxAH4AAnNxAH4ABwAAAAJ3BAAAAAJzcQB+AAJzcQB+AAcAAAAAdwQAAAAAeHEAfgAtcQB+AFdxAH4AT3hxAH4AHXNxAH4AAnNxAH4ABwAAAAJ3BAAAAAJxAH4AV3NxAH4AAnNxAH4ABwAAAAJ3BAAAAAJzcQB+AAJzcQB+AAcAAAAAdwQAAAAAeHEAfgAPcQB+AF1zcQB+AAJzcQB+AAcAAAAAdwQAAAAAeHEAfgA7cQB+AF14cQB+AEdxAH4AW3hxAH4ATXNxAH4AAnNxAH4ABwAAAAJ3BAAAAAJzcQB+AAJzcQB+AAcAAAAAdwQAAAAAeHEAfgAtcQB+AGNxAH4AW3hxAH4AHXNxAH4AAnNxAH4ABwAAAAJ3BAAAAAJxAH4AY3NxAH4AAnNxAH4ABwAAAAJ3BAAAAAJzcQB+AAJzcQB+AAcAAAAAdwQAAAAAeHEAfgAPcQB+AGlzcQB+AAJzcQB+AAcAAAAAdwQAAAAAeHEAfgA7c3EAfgACc3EAfgAHAAAAAncEAAAAAnNxAH4AAnNxAH4ABwAAAAB3BAAAAAB4cQB+ADtxAH4Ab3EAfgBteHEAfgBHc3EAfgACc3EAfgAHAAAAAncEAAAAAnNxAH4AAnNxAH4ABwAAAAJ3BAAAAAJzcQB+AAJzcQB+AAcAAAAAdwQAAAAAeHEAfgAtcQB+AHVzcQB+AAJzcQB+AAcAAAACdwQAAAACc3EAfgACc3EAfgAHAAAAAncEAAAAAnNxAH4AAnNxAH4ABwAAAAB3BAAAAAB4cQB+AC1xAH4Ae3NxAH4AAnNxAH4ABwAAAAJ3BAAAAAJzcQB+AAJzcQB+AAcAAAAAdwQAAAAAeHEAfgA7cQB+AH9zcQB+AAJzcQB+AAcAAAAAdwQAAAAAeHNxAH4ADXQAA3gxMXEAfgB/eHEAfgBNcQB+AHt4cQB+AB1xAH4AeXNxAH4AAnNxAH4ABwAAAAB3BAAAAAB4cQB+AIVxAH4AeXhxAH4ATXEAfgB1eHEAfgAdcQB+AHNxAH4Ab3hxAH4AR3B4cQB+AEdxAH4AZ3hxAH4AR3B4cQB+AEdzcQB+AAJzcQB+AAcAAAACdwQAAAACc3EAfgACc3EAfgAHAAAAAHcEAAAAAHhxAH4ALXEAfgCJcQB+AD14cQB+AE1zcQB+AAJzcQB+AAcAAAACdwQAAAACcQB+AIlxAH4AUXhxAH4ATXNxAH4AAnNxAH4ABwAAAAJ3BAAAAAJzcQB+AAJzcQB+AAcAAAAAdwQAAAAAeHEAfgAtcQB+AI9xAH4AjXhxAH4AHXNxAH4AAnNxAH4ABwAAAAJ3BAAAAAJxAH4Aj3EAfgBdeHEAfgBNc3EAfgACc3EAfgAHAAAAAncEAAAAAnNxAH4AAnNxAH4ABwAAAAB3BAAAAAB4cQB+AC1xAH4AlXEAfgCTeHEAfgAdc3EAfgACc3EAfgAHAAAAAncEAAAAAnEAfgCVcQB+AGl4cQB+AEdweHEAfgBNcQB+ADVxAH4AUXhxAH4ATXEAfgAxeHEAfgAdcQB+AC9xAH4AXXhxAH4ATXNxAH4AAnNxAH4ABwAAAAJ3BAAAAAJzcQB+AAJzcQB+AAcAAAACdwQAAAACc3EAfgACc3EAfgAHAAAAAHcEAAAAAHhxAH4AD3EAfgCdc3EAfgACc3EAfgAHAAAAAHcEAAAAAHhxAH4AO3EAfgCdeHEAfgBHcQB+AJtxAH4AL3hxAH4AHXNxAH4AAnNxAH4ABwAAAAJ3BAAAAAJxAH4Am3EAfgBpeHEAfgBHcHhxAH4AHXEAfgAncQB+AGl4cQB+AEdwc3EAfgACc3EAfgAHAAAAAncEAAAAAnNxAH4AAnNxAH4ABwAAAAJ3BAAAAAJzcQB+AAJzcQB+AAcAAAACdwQAAAACc3EAfgACc3EAfgAHAAAAAncEAAAAAnNxAH4AAnNxAH4ABwAAAAB3BAAAAAB4c3IAS2lvLmdpdGh1Yi5lcmljbWVkdmV0LmpnZWEuY29yZS5yZXByZXNlbnRhdGlvbi50cmVlLm51bWVyaWMuRWxlbWVudCRDb25zdGFudAAAAAAAAAAAAgABRAAFdmFsdWV4cEAQAAAAAAAAcQB+AKtzcQB+AAJzcQB+AAcAAAAAdwQAAAAAeHNxAH4Ar0AIAAAAAAAAc3EAfgACc3EAfgAHAAAAAncEAAAAAnNxAH4AAnNxAH4ABwAAAAJ3BAAAAAJzcQB+AAJzcQB+AAcAAAAAdwQAAAAAeHEAfgCwcQB+ALZzcQB+AAJzcQB+AAcAAAAAdwQAAAAAeHEAfgCzcQB+ALZ4fnEAfgAbdAANUFJPVF9ESVZJU0lPTnEAfgC0cQB+ALF4cQB+ALxzcQB+AAJzcQB+AAcAAAACdwQAAAACcQB+ALRzcQB+AAJzcQB+AAcAAAAAdwQAAAAAeHNxAH4Ar0AEAAAAAAAAcQB+AL54cQB+ALxzcQB+AAJzcQB+AAcAAAACdwQAAAACcQB+AL5zcQB+AAJzcQB+AAcAAAAAdwQAAAAAeHEAfgDCc3EAfgACc3EAfgAHAAAAAncEAAAAAnNxAH4AAnNxAH4ABwAAAAJ3BAAAAAJzcQB+AAJzcQB+AAcAAAACdwQAAAACc3EAfgACc3EAfgAHAAAAAHcEAAAAAHhxAH4AsHEAfgDLc3EAfgACc3EAfgAHAAAAAHcEAAAAAHhxAH4As3EAfgDLeHEAfgC8cQB+AMlzcQB+AAJzcQB+AAcAAAAAdwQAAAAAeHEAfgCzcQB+AMl4cQB+ALxxAH4Ax3EAfgDFeHEAfgBNc3EAfgACc3EAfgAHAAAAAncEAAAAAnEAfgDHc3EAfgACc3EAfgAHAAAAAHcEAAAAAHhxAH4As3EAfgDTeHEAfgAdcHhxAH4ATXNxAH4AAnNxAH4ABwAAAAJ3BAAAAAJxAH4Aw3EAfgDVeHEAfgAdcHhxAH4AvHEAfgCpcQB+AMB4cQB+ALxxAH4Ap3EAfgDFeHEAfgBNcQB+AKVxAH4A1XhxAH4AHXBzcQB+AAJzcQB+AAcAAAACdwQAAAACc3EAfgACc3EAfgAHAAAAAHcEAAAAAHhzcQB+AA10AAJ4OXEAfgDZc3EAfgACc3EAfgAHAAAAAncEAAAAAnNxAH4AAnNxAH4ABwAAAAB3BAAAAAB4cQB+AN1xAH4A33NxAH4AAnNxAH4ABwAAAAB3BAAAAAB4c3EAfgCvP/AAAAAAAABxAH4A33hxAH4AHXNxAH4AAnNxAH4ABwAAAAJ3BAAAAAJzcQB+AAJzcQB+AAcAAAACdwQAAAACc3EAfgACc3EAfgAHAAAAAHcEAAAAAHhxAH4A3XEAfgDoc3EAfgACc3EAfgAHAAAAAHcEAAAAAHhxAH4A5XEAfgDoeHEAfgAdcQB+AOZxAH4A33hxAH4ATXB4cQB+AE1weA==";
    "rO0ABXNyABFqYXZhLnV0aWwuQ29sbFNlcleOq7Y6G6gRAwABSQADdGFneHAAAAAEdwQAAAAEc3IAN2lvLmdpdGh1Yi5lcmljbWVkdmV0LmpnZWEuY29yZS5yZXByZXNlbnRhdGlvbi50cmVlLlRyZWUKs7/qnQrEZQIAA0wACGNoaWxkcmVudAAQTGphdmEvdXRpbC9MaXN0O0wAB2NvbnRlbnR0ABJMamF2YS9sYW5nL09iamVjdDtMAAZwYXJlbnR0ADlMaW8vZ2l0aHViL2VyaWNtZWR2ZXQvamdlYS9jb3JlL3JlcHJlc2VudGF0aW9uL3RyZWUvVHJlZTt4cHNyABNqYXZhLnV0aWwuQXJyYXlMaXN0eIHSHZnHYZ0DAAFJAARzaXpleHAAAAACdwQAAAACc3EAfgACc3EAfgAHAAAAAncEAAAAAnNxAH4AAnNxAH4ABwAAAAB3BAAAAAB4c3IAS2lvLmdpdGh1Yi5lcmljbWVkdmV0LmpnZWEuY29yZS5yZXByZXNlbnRhdGlvbi50cmVlLm51bWVyaWMuRWxlbWVudCRWYXJpYWJsZQAAAAAAAAAAAgABTAAEbmFtZXQAEkxqYXZhL2xhbmcvU3RyaW5nO3hwdAACeDBxAH4ACXNxAH4AAnNxAH4ABwAAAAB3BAAAAAB4cQB+AA9zcQB+AAJzcQB+AAcAAAACdwQAAAACc3EAfgACc3EAfgAHAAAAAncEAAAAAnNxAH4AAnNxAH4ABwAAAAB3BAAAAAB4cQB+AA9xAH4AFXNxAH4AAnNxAH4ABwAAAAB3BAAAAAB4cQB+AA9xAH4AFXh+cgBLaW8uZ2l0aHViLmVyaWNtZWR2ZXQuamdlYS5jb3JlLnJlcHJlc2VudGF0aW9uLnRyZWUubnVtZXJpYy5FbGVtZW50JE9wZXJhdG9yAAAAAAAAAAASAAB4cgAOamF2YS5sYW5nLkVudW0AAAAAAAAAABIAAHhwdAAIQURESVRJT05xAH4AE3EAfgAReHEAfgAdc3EAfgACc3EAfgAHAAAAAncEAAAAAnEAfgATc3EAfgACc3EAfgAHAAAAAHcEAAAAAHhxAH4AD3NxAH4AAnNxAH4ABwAAAAJ3BAAAAAJzcQB+AAJzcQB+AAcAAAAAdwQAAAAAeHEAfgAPcQB+ACNxAH4AIXhxAH4AHXB4cQB+AB1weHEAfgAdcQB+AAZxAH4AIXhxAH4AHXBzcQB+AAJzcQB+AAcAAAACdwQAAAACc3EAfgACc3EAfgAHAAAAAncEAAAAAnNxAH4AAnNxAH4ABwAAAAB3BAAAAAB4c3EAfgANdAACeDFxAH4AKXNxAH4AAnNxAH4ABwAAAAJ3BAAAAAJzcQB+AAJzcQB+AAcAAAACdwQAAAACc3EAfgACc3EAfgAHAAAAAHcEAAAAAHhxAH4ALXEAfgAxc3EAfgACc3EAfgAHAAAAAncEAAAAAnNxAH4AAnNxAH4ABwAAAAJ3BAAAAAJzcQB+AAJzcQB+AAcAAAAAdwQAAAAAeHNxAH4ADXQAAng0cQB+ADdzcQB+AAJzcQB+AAcAAAACdwQAAAACc3EAfgACc3EAfgAHAAAAAHcEAAAAAHhxAH4AD3EAfgA9c3EAfgACc3EAfgAHAAAAAHcEAAAAAHhxAH4AO3NxAH4AAnNxAH4ABwAAAAJ3BAAAAAJzcQB+AAJzcQB+AAcAAAAAdwQAAAAAeHEAfgA7cQB+AENxAH4AQXh+cQB+ABt0AA5NVUxUSVBMSUNBVElPTnNxAH4AAnNxAH4ABwAAAAJ3BAAAAAJzcQB+AAJzcQB+AAcAAAAAdwQAAAAAeHEAfgA7cQB+AElxAH4AQ3h+cQB+ABt0AAtTVUJUUkFDVElPTnNxAH4AAnNxAH4ABwAAAAJ3BAAAAAJxAH4ASXNxAH4AAnNxAH4ABwAAAAJ3BAAAAAJzcQB+AAJzcQB+AAcAAAAAdwQAAAAAeHEAfgAPcQB+AFFzcQB+AAJzcQB+AAcAAAAAdwQAAAAAeHEAfgA7cQB+AFF4cQB+AEdxAH4AT3hxAH4ATXNxAH4AAnNxAH4ABwAAAAJ3BAAAAAJzcQB+AAJzcQB+AAcAAAAAdwQAAAAAeHEAfgAtcQB+AFdxAH4AT3hxAH4AHXNxAH4AAnNxAH4ABwAAAAJ3BAAAAAJxAH4AV3NxAH4AAnNxAH4ABwAAAAJ3BAAAAAJzcQB+AAJzcQB+AAcAAAAAdwQAAAAAeHEAfgAPcQB+AF1zcQB+AAJzcQB+AAcAAAAAdwQAAAAAeHEAfgA7cQB+AF14cQB+AEdxAH4AW3hxAH4ATXNxAH4AAnNxAH4ABwAAAAJ3BAAAAAJzcQB+AAJzcQB+AAcAAAAAdwQAAAAAeHEAfgAtcQB+AGNxAH4AW3hxAH4AHXNxAH4AAnNxAH4ABwAAAAJ3BAAAAAJxAH4AY3NxAH4AAnNxAH4ABwAAAAJ3BAAAAAJzcQB+AAJzcQB+AAcAAAAAdwQAAAAAeHEAfgAPcQB+AGlzcQB+AAJzcQB+AAcAAAAAdwQAAAAAeHEAfgA7c3EAfgACc3EAfgAHAAAAAncEAAAAAnNxAH4AAnNxAH4ABwAAAAB3BAAAAAB4cQB+ADtxAH4Ab3EAfgBteHEAfgBHc3EAfgACc3EAfgAHAAAAAncEAAAAAnNxAH4AAnNxAH4ABwAAAAJ3BAAAAAJzcQB+AAJzcQB+AAcAAAAAdwQAAAAAeHEAfgAtcQB+AHVzcQB+AAJzcQB+AAcAAAACdwQAAAACc3EAfgACc3EAfgAHAAAAAncEAAAAAnNxAH4AAnNxAH4ABwAAAAB3BAAAAAB4cQB+AC1xAH4Ae3NxAH4AAnNxAH4ABwAAAAJ3BAAAAAJzcQB+AAJzcQB+AAcAAAAAdwQAAAAAeHEAfgA7cQB+AH9zcQB+AAJzcQB+AAcAAAAAdwQAAAAAeHNxAH4ADXQAA3gxMXEAfgB/eHEAfgBNcQB+AHt4cQB+AB1xAH4AeXNxAH4AAnNxAH4ABwAAAAB3BAAAAAB4cQB+AIVxAH4AeXhxAH4ATXEAfgB1eHEAfgAdcQB+AHNxAH4Ab3hxAH4AR3B4cQB+AEdxAH4AZ3hxAH4AR3B4cQB+AEdzcQB+AAJzcQB+AAcAAAACdwQAAAACc3EAfgACc3EAfgAHAAAAAHcEAAAAAHhxAH4ALXEAfgCJcQB+AD14cQB+AE1zcQB+AAJzcQB+AAcAAAACdwQAAAACcQB+AIlxAH4AUXhxAH4ATXNxAH4AAnNxAH4ABwAAAAJ3BAAAAAJzcQB+AAJzcQB+AAcAAAAAdwQAAAAAeHEAfgAtcQB+AI9xAH4AjXhxAH4AHXNxAH4AAnNxAH4ABwAAAAJ3BAAAAAJxAH4Aj3EAfgBdeHEAfgBNc3EAfgACc3EAfgAHAAAAAncEAAAAAnNxAH4AAnNxAH4ABwAAAAB3BAAAAAB4cQB+AC1xAH4AlXEAfgCTeHEAfgAdc3EAfgACc3EAfgAHAAAAAncEAAAAAnEAfgCVcQB+AGl4cQB+AEdweHEAfgBNcQB+ADVxAH4AUXhxAH4ATXEAfgAxeHEAfgAdcQB+AC9xAH4AXXhxAH4ATXNxAH4AAnNxAH4ABwAAAAJ3BAAAAAJzcQB+AAJzcQB+AAcAAAACdwQAAAACc3EAfgACc3EAfgAHAAAAAHcEAAAAAHhxAH4AD3EAfgCdc3EAfgACc3EAfgAHAAAAAHcEAAAAAHhxAH4AO3EAfgCdeHEAfgBHcQB+AJtxAH4AL3hxAH4AHXNxAH4AAnNxAH4ABwAAAAJ3BAAAAAJxAH4Am3EAfgBpeHEAfgBHcHhxAH4AHXEAfgAncQB+AGl4cQB+AEdwc3EAfgACc3EAfgAHAAAAAncEAAAAAnNxAH4AAnNxAH4ABwAAAAJ3BAAAAAJzcQB+AAJzcQB+AAcAAAACdwQAAAACc3EAfgACc3EAfgAHAAAAAncEAAAAAnNxAH4AAnNxAH4ABwAAAAB3BAAAAAB4c3IAS2lvLmdpdGh1Yi5lcmljbWVkdmV0LmpnZWEuY29yZS5yZXByZXNlbnRhdGlvbi50cmVlLm51bWVyaWMuRWxlbWVudCRDb25zdGFudAAAAAAAAAAAAgABRAAFdmFsdWV4cEAQAAAAAAAAcQB+AKtzcQB+AAJzcQB+AAcAAAAAdwQAAAAAeHNxAH4Ar0AIAAAAAAAAc3EAfgACc3EAfgAHAAAAAncEAAAAAnNxAH4AAnNxAH4ABwAAAAB3BAAAAAB4c3EAfgCvQAQAAAAAAABxAH4AtHEAfgCxeH5xAH4AG3QADVBST1RfRElWSVNJT05zcQB+AAJzcQB+AAcAAAACdwQAAAACcQB+ALRzcQB+AAJzcQB+AAcAAAAAdwQAAAAAeHEAfgC4c3EAfgACc3EAfgAHAAAAAncEAAAAAnNxAH4AAnNxAH4ABwAAAAB3BAAAAAB4cQB+ALNxAH4Av3EAfgC9eHEAfgC5c3EAfgACc3EAfgAHAAAAAncEAAAAAnEAfgC/c3EAfgACc3EAfgAHAAAAAHcEAAAAAHhxAH4AuHEAfgDDeHEAfgBNc3EAfgACc3EAfgAHAAAAAncEAAAAAnEAfgDDc3EAfgACc3EAfgAHAAAAAHcEAAAAAHhxAH4As3EAfgDHeHEAfgAdcHhxAH4AuXNxAH4AAnNxAH4ABwAAAAJ3BAAAAAJxAH4Au3EAfgDFeHEAfgBNc3EAfgACc3EAfgAHAAAAAncEAAAAAnEAfgDLcQB+AMl4cQB+AB1weHEAfgC5cQB+AKlxAH4AvXhxAH4AuXEAfgCncQB+AMV4cQB+AE1xAH4ApXEAfgDJeHEAfgAdcHNxAH4AAnNxAH4ABwAAAAJ3BAAAAAJzcQB+AAJzcQB+AAcAAAAAdwQAAAAAeHNxAH4ADXQAAng5cQB+AM9zcQB+AAJzcQB+AAcAAAACdwQAAAACc3EAfgACc3EAfgAHAAAAAHcEAAAAAHhxAH4A03EAfgDVc3EAfgACc3EAfgAHAAAAAHcEAAAAAHhzcQB+AK8/8AAAAAAAAHEAfgDVeHEAfgAdc3EAfgACc3EAfgAHAAAAAncEAAAAAnNxAH4AAnNxAH4ABwAAAAJ3BAAAAAJzcQB+AAJzcQB+AAcAAAAAdwQAAAAAeHEAfgDTcQB+AN5zcQB+AAJzcQB+AAcAAAACdwQAAAACc3EAfgACc3EAfgAHAAAAAHcEAAAAAHhxAH4A03EAfgDic3EAfgACc3EAfgAHAAAAAHcEAAAAAHhxAH4A23EAfgDieHEAfgAdcQB+AN54cQB+AE1xAH4A3HEAfgDVeHEAfgBNcHhxAH4ATXB4";
    "rO0ABXNyABFqYXZhLnV0aWwuQ29sbFNlcleOq7Y6G6gRAwABSQADdGFneHAAAAAEdwQAAAAEc3IAN2lvLmdpdGh1Yi5lcmljbWVkdmV0LmpnZWEuY29yZS5yZXByZXNlbnRhdGlvbi50cmVlLlRyZWUKs7/qnQrEZQIAA0wACGNoaWxkcmVudAAQTGphdmEvdXRpbC9MaXN0O0wAB2NvbnRlbnR0ABJMamF2YS9sYW5nL09iamVjdDtMAAZwYXJlbnR0ADlMaW8vZ2l0aHViL2VyaWNtZWR2ZXQvamdlYS9jb3JlL3JlcHJlc2VudGF0aW9uL3RyZWUvVHJlZTt4cHNyABNqYXZhLnV0aWwuQXJyYXlMaXN0eIHSHZnHYZ0DAAFJAARzaXpleHAAAAACdwQAAAACc3EAfgACc3EAfgAHAAAAAncEAAAAAnNxAH4AAnNxAH4ABwAAAAB3BAAAAAB4c3IAS2lvLmdpdGh1Yi5lcmljbWVkdmV0LmpnZWEuY29yZS5yZXByZXNlbnRhdGlvbi50cmVlLm51bWVyaWMuRWxlbWVudCRWYXJpYWJsZQAAAAAAAAAAAgABTAAEbmFtZXQAEkxqYXZhL2xhbmcvU3RyaW5nO3hwdAACeDBxAH4ACXNxAH4AAnNxAH4ABwAAAAB3BAAAAAB4cQB+AA9zcQB+AAJzcQB+AAcAAAACdwQAAAACc3EAfgACc3EAfgAHAAAAAncEAAAAAnNxAH4AAnNxAH4ABwAAAAB3BAAAAAB4cQB+AA9xAH4AFXNxAH4AAnNxAH4ABwAAAAB3BAAAAAB4cQB+AA9xAH4AFXh+cgBLaW8uZ2l0aHViLmVyaWNtZWR2ZXQuamdlYS5jb3JlLnJlcHJlc2VudGF0aW9uLnRyZWUubnVtZXJpYy5FbGVtZW50JE9wZXJhdG9yAAAAAAAAAAASAAB4cgAOamF2YS5sYW5nLkVudW0AAAAAAAAAABIAAHhwdAAIQURESVRJT05xAH4AE3EAfgAReHEAfgAdc3EAfgACc3EAfgAHAAAAAncEAAAAAnEAfgATc3EAfgACc3EAfgAHAAAAAHcEAAAAAHhxAH4AD3NxAH4AAnNxAH4ABwAAAAJ3BAAAAAJzcQB+AAJzcQB+AAcAAAAAdwQAAAAAeHEAfgAPcQB+ACNxAH4AIXhxAH4AHXB4cQB+AB1weHEAfgAdcQB+AAZxAH4AIXhxAH4AHXBzcQB+AAJzcQB+AAcAAAACdwQAAAACc3EAfgACc3EAfgAHAAAAAncEAAAAAnNxAH4AAnNxAH4ABwAAAAB3BAAAAAB4c3EAfgANdAACeDFxAH4AKXNxAH4AAnNxAH4ABwAAAAJ3BAAAAAJzcQB+AAJzcQB+AAcAAAACdwQAAAACc3EAfgACc3EAfgAHAAAAAHcEAAAAAHhxAH4ALXEAfgAxc3EAfgACc3EAfgAHAAAAAncEAAAAAnNxAH4AAnNxAH4ABwAAAAJ3BAAAAAJzcQB+AAJzcQB+AAcAAAAAdwQAAAAAeHNxAH4ADXQAAng0cQB+ADdzcQB+AAJzcQB+AAcAAAACdwQAAAACc3EAfgACc3EAfgAHAAAAAHcEAAAAAHhxAH4AD3EAfgA9c3EAfgACc3EAfgAHAAAAAHcEAAAAAHhxAH4AO3NxAH4AAnNxAH4ABwAAAAJ3BAAAAAJzcQB+AAJzcQB+AAcAAAAAdwQAAAAAeHEAfgA7cQB+AENxAH4AQXh+cQB+ABt0AA5NVUxUSVBMSUNBVElPTnNxAH4AAnNxAH4ABwAAAAJ3BAAAAAJzcQB+AAJzcQB+AAcAAAAAdwQAAAAAeHEAfgA7cQB+AElxAH4AQ3h+cQB+ABt0AAtTVUJUUkFDVElPTnNxAH4AAnNxAH4ABwAAAAJ3BAAAAAJxAH4ASXNxAH4AAnNxAH4ABwAAAAJ3BAAAAAJzcQB+AAJzcQB+AAcAAAAAdwQAAAAAeHEAfgAPcQB+AFFzcQB+AAJzcQB+AAcAAAAAdwQAAAAAeHEAfgA7cQB+AFF4cQB+AEdxAH4AT3hxAH4ATXNxAH4AAnNxAH4ABwAAAAJ3BAAAAAJzcQB+AAJzcQB+AAcAAAAAdwQAAAAAeHEAfgAtcQB+AFdxAH4AT3hxAH4AHXNxAH4AAnNxAH4ABwAAAAJ3BAAAAAJxAH4AV3NxAH4AAnNxAH4ABwAAAAJ3BAAAAAJzcQB+AAJzcQB+AAcAAAAAdwQAAAAAeHEAfgAPcQB+AF1zcQB+AAJzcQB+AAcAAAAAdwQAAAAAeHEAfgA7cQB+AF14cQB+AEdxAH4AW3hxAH4ATXNxAH4AAnNxAH4ABwAAAAJ3BAAAAAJzcQB+AAJzcQB+AAcAAAAAdwQAAAAAeHEAfgAtcQB+AGNxAH4AW3hxAH4AHXNxAH4AAnNxAH4ABwAAAAJ3BAAAAAJxAH4AY3NxAH4AAnNxAH4ABwAAAAJ3BAAAAAJzcQB+AAJzcQB+AAcAAAAAdwQAAAAAeHEAfgAPcQB+AGlzcQB+AAJzcQB+AAcAAAAAdwQAAAAAeHEAfgA7c3EAfgACc3EAfgAHAAAAAncEAAAAAnNxAH4AAnNxAH4ABwAAAAB3BAAAAAB4cQB+ADtxAH4Ab3EAfgBteHEAfgBHc3EAfgACc3EAfgAHAAAAAncEAAAAAnNxAH4AAnNxAH4ABwAAAAJ3BAAAAAJzcQB+AAJzcQB+AAcAAAAAdwQAAAAAeHEAfgAtcQB+AHVzcQB+AAJzcQB+AAcAAAACdwQAAAACc3EAfgACc3EAfgAHAAAAAncEAAAAAnNxAH4AAnNxAH4ABwAAAAB3BAAAAAB4cQB+AC1xAH4Ae3NxAH4AAnNxAH4ABwAAAAJ3BAAAAAJzcQB+AAJzcQB+AAcAAAAAdwQAAAAAeHEAfgA7cQB+AH9zcQB+AAJzcQB+AAcAAAAAdwQAAAAAeHNxAH4ADXQAA3gxMXEAfgB/eHEAfgBNcQB+AHt4cQB+AB1xAH4AeXNxAH4AAnNxAH4ABwAAAAB3BAAAAAB4cQB+AIVxAH4AeXhxAH4ATXEAfgB1eHEAfgAdcQB+AHNxAH4Ab3hxAH4AR3B4cQB+AEdxAH4AZ3hxAH4AR3B4cQB+AEdzcQB+AAJzcQB+AAcAAAACdwQAAAACc3EAfgACc3EAfgAHAAAAAHcEAAAAAHhxAH4ALXEAfgCJcQB+AD14cQB+AE1zcQB+AAJzcQB+AAcAAAACdwQAAAACcQB+AIlxAH4AUXhxAH4ATXNxAH4AAnNxAH4ABwAAAAJ3BAAAAAJzcQB+AAJzcQB+AAcAAAAAdwQAAAAAeHEAfgAtcQB+AI9xAH4AjXhxAH4AHXNxAH4AAnNxAH4ABwAAAAJ3BAAAAAJxAH4Aj3EAfgBdeHEAfgBNc3EAfgACc3EAfgAHAAAAAncEAAAAAnNxAH4AAnNxAH4ABwAAAAB3BAAAAAB4cQB+AC1xAH4AlXEAfgCTeHEAfgAdc3EAfgACc3EAfgAHAAAAAncEAAAAAnEAfgCVcQB+AGl4cQB+AEdweHEAfgBNcQB+ADVxAH4AUXhxAH4ATXEAfgAxeHEAfgAdcQB+AC9xAH4AXXhxAH4ATXNxAH4AAnNxAH4ABwAAAAJ3BAAAAAJzcQB+AAJzcQB+AAcAAAACdwQAAAACc3EAfgACc3EAfgAHAAAAAHcEAAAAAHhxAH4AD3EAfgCdc3EAfgACc3EAfgAHAAAAAHcEAAAAAHhxAH4AO3EAfgCdeHEAfgBHcQB+AJtxAH4AL3hxAH4AHXNxAH4AAnNxAH4ABwAAAAJ3BAAAAAJxAH4Am3EAfgBpeHEAfgBHcHhxAH4AHXEAfgAncQB+AGl4cQB+AEdwc3EAfgACc3EAfgAHAAAAAncEAAAAAnNxAH4AAnNxAH4ABwAAAAJ3BAAAAAJzcQB+AAJzcQB+AAcAAAACdwQAAAACc3EAfgACc3EAfgAHAAAAAncEAAAAAnNxAH4AAnNxAH4ABwAAAAB3BAAAAAB4c3IAS2lvLmdpdGh1Yi5lcmljbWVkdmV0LmpnZWEuY29yZS5yZXByZXNlbnRhdGlvbi50cmVlLm51bWVyaWMuRWxlbWVudCRDb25zdGFudAAAAAAAAAAAAgABRAAFdmFsdWV4cEAQAAAAAAAAcQB+AKtzcQB+AAJzcQB+AAcAAAAAdwQAAAAAeHNxAH4Ar0AIAAAAAAAAc3EAfgACc3EAfgAHAAAAAncEAAAAAnNxAH4AAnNxAH4ABwAAAAJ3BAAAAAJzcQB+AAJzcQB+AAcAAAAAdwQAAAAAeHEAfgCwcQB+ALZzcQB+AAJzcQB+AAcAAAAAdwQAAAAAeHEAfgCzcQB+ALZ4fnEAfgAbdAANUFJPVF9ESVZJU0lPTnEAfgC0cQB+ALF4cQB+ALxzcQB+AAJzcQB+AAcAAAACdwQAAAACcQB+ALRzcQB+AAJzcQB+AAcAAAAAdwQAAAAAeHNxAH4Ar0AEAAAAAAAAcQB+AL54cQB+ALxzcQB+AAJzcQB+AAcAAAACdwQAAAACcQB+AL5zcQB+AAJzcQB+AAcAAAAAdwQAAAAAeHEAfgDCc3EAfgACc3EAfgAHAAAAAncEAAAAAnNxAH4AAnNxAH4ABwAAAAJ3BAAAAAJzcQB+AAJzcQB+AAcAAAACdwQAAAACc3EAfgACc3EAfgAHAAAAAHcEAAAAAHhxAH4AsHEAfgDLc3EAfgACc3EAfgAHAAAAAHcEAAAAAHhxAH4As3EAfgDLeHEAfgC8cQB+AMlzcQB+AAJzcQB+AAcAAAAAdwQAAAAAeHEAfgCzcQB+AMl4cQB+ALxxAH4Ax3EAfgDFeHEAfgBNc3EAfgACc3EAfgAHAAAAAncEAAAAAnEAfgDHc3EAfgACc3EAfgAHAAAAAHcEAAAAAHhxAH4As3EAfgDTeHEAfgAdcHhxAH4ATXNxAH4AAnNxAH4ABwAAAAJ3BAAAAAJxAH4Aw3EAfgDVeHEAfgAdcHhxAH4AvHEAfgCpcQB+AMB4cQB+ALxxAH4Ap3EAfgDFeHEAfgBNcQB+AKVxAH4A1XhxAH4AHXBzcQB+AAJzcQB+AAcAAAACdwQAAAACc3EAfgACc3EAfgAHAAAAAHcEAAAAAHhzcQB+AA10AAJ4OXEAfgDZc3EAfgACc3EAfgAHAAAAAncEAAAAAnNxAH4AAnNxAH4ABwAAAAB3BAAAAAB4cQB+AN1xAH4A33NxAH4AAnNxAH4ABwAAAAB3BAAAAAB4c3EAfgCvP/AAAAAAAABxAH4A33hxAH4AHXNxAH4AAnNxAH4ABwAAAAJ3BAAAAAJzcQB+AAJzcQB+AAcAAAAAdwQAAAAAeHEAfgDlcQB+AOZxAH4A33hxAH4ATXB4cQB+AE1weA==";
    "rO0ABXNyABFqYXZhLnV0aWwuQ29sbFNlcleOq7Y6G6gRAwABSQADdGFneHAAAAAEdwQAAAAEc3IAN2lvLmdpdGh1Yi5lcmljbWVkdmV0LmpnZWEuY29yZS5yZXByZXNlbnRhdGlvbi50cmVlLlRyZWUKs7/qnQrEZQIAA0wACGNoaWxkcmVudAAQTGphdmEvdXRpbC9MaXN0O0wAB2NvbnRlbnR0ABJMamF2YS9sYW5nL09iamVjdDtMAAZwYXJlbnR0ADlMaW8vZ2l0aHViL2VyaWNtZWR2ZXQvamdlYS9jb3JlL3JlcHJlc2VudGF0aW9uL3RyZWUvVHJlZTt4cHNyABNqYXZhLnV0aWwuQXJyYXlMaXN0eIHSHZnHYZ0DAAFJAARzaXpleHAAAAACdwQAAAACc3EAfgACc3EAfgAHAAAAAncEAAAAAnNxAH4AAnNxAH4ABwAAAAB3BAAAAAB4c3IAS2lvLmdpdGh1Yi5lcmljbWVkdmV0LmpnZWEuY29yZS5yZXByZXNlbnRhdGlvbi50cmVlLm51bWVyaWMuRWxlbWVudCRWYXJpYWJsZQAAAAAAAAAAAgABTAAEbmFtZXQAEkxqYXZhL2xhbmcvU3RyaW5nO3hwdAACeDBxAH4ACXNxAH4AAnNxAH4ABwAAAAB3BAAAAAB4cQB+AA9zcQB+AAJzcQB+AAcAAAACdwQAAAACc3EAfgACc3EAfgAHAAAAAncEAAAAAnNxAH4AAnNxAH4ABwAAAAB3BAAAAAB4cQB+AA9xAH4AFXNxAH4AAnNxAH4ABwAAAAB3BAAAAAB4cQB+AA9xAH4AFXh+cgBLaW8uZ2l0aHViLmVyaWNtZWR2ZXQuamdlYS5jb3JlLnJlcHJlc2VudGF0aW9uLnRyZWUubnVtZXJpYy5FbGVtZW50JE9wZXJhdG9yAAAAAAAAAAASAAB4cgAOamF2YS5sYW5nLkVudW0AAAAAAAAAABIAAHhwdAAIQURESVRJT05xAH4AE3EAfgAReHEAfgAdc3EAfgACc3EAfgAHAAAAAncEAAAAAnEAfgATc3EAfgACc3EAfgAHAAAAAHcEAAAAAHhxAH4AD3NxAH4AAnNxAH4ABwAAAAJ3BAAAAAJzcQB+AAJzcQB+AAcAAAAAdwQAAAAAeHEAfgAPcQB+ACNxAH4AIXhxAH4AHXB4cQB+AB1weHEAfgAdcQB+AAZxAH4AIXhxAH4AHXBzcQB+AAJzcQB+AAcAAAACdwQAAAACc3EAfgACc3EAfgAHAAAAAncEAAAAAnNxAH4AAnNxAH4ABwAAAAB3BAAAAAB4c3EAfgANdAACeDFxAH4AKXNxAH4AAnNxAH4ABwAAAAJ3BAAAAAJzcQB+AAJzcQB+AAcAAAACdwQAAAACc3EAfgACc3EAfgAHAAAAAHcEAAAAAHhxAH4ALXEAfgAxc3EAfgACc3EAfgAHAAAAAncEAAAAAnNxAH4AAnNxAH4ABwAAAAJ3BAAAAAJzcQB+AAJzcQB+AAcAAAAAdwQAAAAAeHNxAH4ADXQAAng0cQB+ADdzcQB+AAJzcQB+AAcAAAACdwQAAAACc3EAfgACc3EAfgAHAAAAAHcEAAAAAHhxAH4AD3EAfgA9c3EAfgACc3EAfgAHAAAAAHcEAAAAAHhxAH4AO3NxAH4AAnNxAH4ABwAAAAJ3BAAAAAJzcQB+AAJzcQB+AAcAAAAAdwQAAAAAeHEAfgA7cQB+AENxAH4AQXh+cQB+ABt0AA5NVUxUSVBMSUNBVElPTnNxAH4AAnNxAH4ABwAAAAJ3BAAAAAJzcQB+AAJzcQB+AAcAAAAAdwQAAAAAeHEAfgA7cQB+AElxAH4AQ3h+cQB+ABt0AAtTVUJUUkFDVElPTnNxAH4AAnNxAH4ABwAAAAJ3BAAAAAJxAH4ASXNxAH4AAnNxAH4ABwAAAAJ3BAAAAAJzcQB+AAJzcQB+AAcAAAAAdwQAAAAAeHEAfgAPcQB+AFFzcQB+AAJzcQB+AAcAAAAAdwQAAAAAeHEAfgA7cQB+AFF4cQB+AEdxAH4AT3hxAH4ATXNxAH4AAnNxAH4ABwAAAAJ3BAAAAAJzcQB+AAJzcQB+AAcAAAAAdwQAAAAAeHEAfgAtcQB+AFdxAH4AT3hxAH4AHXNxAH4AAnNxAH4ABwAAAAJ3BAAAAAJxAH4AV3NxAH4AAnNxAH4ABwAAAAJ3BAAAAAJzcQB+AAJzcQB+AAcAAAAAdwQAAAAAeHEAfgAPcQB+AF1zcQB+AAJzcQB+AAcAAAAAdwQAAAAAeHEAfgA7cQB+AF14cQB+AEdxAH4AW3hxAH4ATXNxAH4AAnNxAH4ABwAAAAJ3BAAAAAJzcQB+AAJzcQB+AAcAAAAAdwQAAAAAeHEAfgAtcQB+AGNxAH4AW3hxAH4AHXNxAH4AAnNxAH4ABwAAAAJ3BAAAAAJxAH4AY3NxAH4AAnNxAH4ABwAAAAJ3BAAAAAJzcQB+AAJzcQB+AAcAAAAAdwQAAAAAeHEAfgAPcQB+AGlzcQB+AAJzcQB+AAcAAAAAdwQAAAAAeHEAfgA7c3EAfgACc3EAfgAHAAAAAncEAAAAAnNxAH4AAnNxAH4ABwAAAAB3BAAAAAB4cQB+ADtxAH4Ab3EAfgBteHEAfgBHc3EAfgACc3EAfgAHAAAAAncEAAAAAnNxAH4AAnNxAH4ABwAAAAJ3BAAAAAJzcQB+AAJzcQB+AAcAAAAAdwQAAAAAeHEAfgAtcQB+AHVzcQB+AAJzcQB+AAcAAAACdwQAAAACc3EAfgACc3EAfgAHAAAAAncEAAAAAnNxAH4AAnNxAH4ABwAAAAB3BAAAAAB4cQB+AC1xAH4Ae3NxAH4AAnNxAH4ABwAAAAJ3BAAAAAJzcQB+AAJzcQB+AAcAAAAAdwQAAAAAeHEAfgA7cQB+AH9zcQB+AAJzcQB+AAcAAAAAdwQAAAAAeHNxAH4ADXQAA3gxMXEAfgB/eHEAfgBNcQB+AHt4cQB+AB1xAH4AeXNxAH4AAnNxAH4ABwAAAAB3BAAAAAB4cQB+AIVxAH4AeXhxAH4ATXEAfgB1eHEAfgAdcQB+AHNxAH4Ab3hxAH4AR3B4cQB+AEdxAH4AZ3hxAH4AR3B4cQB+AEdzcQB+AAJzcQB+AAcAAAACdwQAAAACc3EAfgACc3EAfgAHAAAAAHcEAAAAAHhxAH4ALXEAfgCJcQB+AD14cQB+AE1zcQB+AAJzcQB+AAcAAAACdwQAAAACcQB+AIlxAH4AUXhxAH4ATXNxAH4AAnNxAH4ABwAAAAJ3BAAAAAJzcQB+AAJzcQB+AAcAAAAAdwQAAAAAeHEAfgAtcQB+AI9xAH4AjXhxAH4AHXNxAH4AAnNxAH4ABwAAAAJ3BAAAAAJxAH4Aj3EAfgBdeHEAfgBNc3EAfgACc3EAfgAHAAAAAncEAAAAAnNxAH4AAnNxAH4ABwAAAAB3BAAAAAB4cQB+AC1xAH4AlXEAfgCTeHEAfgAdc3EAfgACc3EAfgAHAAAAAncEAAAAAnEAfgCVcQB+AGl4cQB+AEdweHEAfgBNcQB+ADVxAH4AUXhxAH4ATXEAfgAxeHEAfgAdcQB+AC9xAH4AXXhxAH4ATXNxAH4AAnNxAH4ABwAAAAJ3BAAAAAJzcQB+AAJzcQB+AAcAAAACdwQAAAACc3EAfgACc3EAfgAHAAAAAHcEAAAAAHhxAH4AD3EAfgCdc3EAfgACc3EAfgAHAAAAAHcEAAAAAHhxAH4AO3EAfgCdeHEAfgBHcQB+AJtxAH4AL3hxAH4AHXNxAH4AAnNxAH4ABwAAAAJ3BAAAAAJxAH4Am3EAfgBpeHEAfgBHcHhxAH4AHXEAfgAncQB+AGl4cQB+AEdwc3EAfgACc3EAfgAHAAAAAncEAAAAAnNxAH4AAnNxAH4ABwAAAAJ3BAAAAAJzcQB+AAJzcQB+AAcAAAACdwQAAAACc3EAfgACc3EAfgAHAAAAAncEAAAAAnNxAH4AAnNxAH4ABwAAAAB3BAAAAAB4c3IAS2lvLmdpdGh1Yi5lcmljbWVkdmV0LmpnZWEuY29yZS5yZXByZXNlbnRhdGlvbi50cmVlLm51bWVyaWMuRWxlbWVudCRDb25zdGFudAAAAAAAAAAAAgABRAAFdmFsdWV4cEAQAAAAAAAAcQB+AKtzcQB+AAJzcQB+AAcAAAAAdwQAAAAAeHNxAH4Ar0AIAAAAAAAAc3EAfgACc3EAfgAHAAAAAncEAAAAAnNxAH4AAnNxAH4ABwAAAAJ3BAAAAAJzcQB+AAJzcQB+AAcAAAAAdwQAAAAAeHEAfgCwcQB+ALZzcQB+AAJzcQB+AAcAAAAAdwQAAAAAeHEAfgCzcQB+ALZ4fnEAfgAbdAANUFJPVF9ESVZJU0lPTnEAfgC0cQB+ALF4cQB+ALxzcQB+AAJzcQB+AAcAAAACdwQAAAACcQB+ALRzcQB+AAJzcQB+AAcAAAAAdwQAAAAAeHNxAH4Ar0AEAAAAAAAAcQB+AL54cQB+ALxzcQB+AAJzcQB+AAcAAAACdwQAAAACcQB+AL5zcQB+AAJzcQB+AAcAAAAAdwQAAAAAeHEAfgDCc3EAfgACc3EAfgAHAAAAAncEAAAAAnNxAH4AAnNxAH4ABwAAAAJ3BAAAAAJzcQB+AAJzcQB+AAcAAAACdwQAAAACc3EAfgACc3EAfgAHAAAAAHcEAAAAAHhxAH4AsHEAfgDLc3EAfgACc3EAfgAHAAAAAHcEAAAAAHhxAH4As3EAfgDLeHEAfgC8cQB+AMlzcQB+AAJzcQB+AAcAAAAAdwQAAAAAeHEAfgCzcQB+AMl4cQB+ALxxAH4Ax3EAfgDFeHEAfgBNc3EAfgACc3EAfgAHAAAAAncEAAAAAnEAfgDHc3EAfgACc3EAfgAHAAAAAHcEAAAAAHhxAH4As3EAfgDTeHEAfgAdcHhxAH4ATXNxAH4AAnNxAH4ABwAAAAJ3BAAAAAJxAH4Aw3EAfgDVeHEAfgAdcHhxAH4AvHEAfgCpcQB+AMB4cQB+ALxxAH4Ap3EAfgDFeHEAfgBNcQB+AKVxAH4A1XhxAH4AHXBzcQB+AAJzcQB+AAcAAAACdwQAAAACc3EAfgACc3EAfgAHAAAAAHcEAAAAAHhzcQB+AA10AAJ4OXEAfgDZc3EAfgACc3EAfgAHAAAAAncEAAAAAnNxAH4AAnNxAH4ABwAAAAB3BAAAAAB4cQB+AN1xAH4A33NxAH4AAnNxAH4ABwAAAAB3BAAAAAB4c3EAfgCvP/AAAAAAAABxAH4A33hxAH4AHXNxAH4AAnNxAH4ABwAAAAJ3BAAAAAJzcQB+AAJzcQB+AAcAAAACdwQAAAACc3EAfgACc3EAfgAHAAAAAHcEAAAAAHhxAH4A3XEAfgDoc3EAfgACc3EAfgAHAAAAAHcEAAAAAHhxAH4A5XEAfgDoeHEAfgAdcQB+AOZxAH4A33hxAH4ATXB4cQB+AE1weA==";
    "rO0ABXNyABFqYXZhLnV0aWwuQ29sbFNlcleOq7Y6G6gRAwABSQADdGFneHAAAAAEdwQAAAAEc3IAN2lvLmdpdGh1Yi5lcmljbWVkdmV0LmpnZWEuY29yZS5yZXByZXNlbnRhdGlvbi50cmVlLlRyZWUKs7/qnQrEZQIAA0wACGNoaWxkcmVudAAQTGphdmEvdXRpbC9MaXN0O0wAB2NvbnRlbnR0ABJMamF2YS9sYW5nL09iamVjdDtMAAZwYXJlbnR0ADlMaW8vZ2l0aHViL2VyaWNtZWR2ZXQvamdlYS9jb3JlL3JlcHJlc2VudGF0aW9uL3RyZWUvVHJlZTt4cHNyABNqYXZhLnV0aWwuQXJyYXlMaXN0eIHSHZnHYZ0DAAFJAARzaXpleHAAAAACdwQAAAACc3EAfgACc3EAfgAHAAAAAncEAAAAAnNxAH4AAnNxAH4ABwAAAAB3BAAAAAB4c3IAS2lvLmdpdGh1Yi5lcmljbWVkdmV0LmpnZWEuY29yZS5yZXByZXNlbnRhdGlvbi50cmVlLm51bWVyaWMuRWxlbWVudCRWYXJpYWJsZQAAAAAAAAAAAgABTAAEbmFtZXQAEkxqYXZhL2xhbmcvU3RyaW5nO3hwdAACeDBxAH4ACXNxAH4AAnNxAH4ABwAAAAB3BAAAAAB4cQB+AA9zcQB+AAJzcQB+AAcAAAACdwQAAAACc3EAfgACc3EAfgAHAAAAAncEAAAAAnNxAH4AAnNxAH4ABwAAAAB3BAAAAAB4cQB+AA9xAH4AFXNxAH4AAnNxAH4ABwAAAAB3BAAAAAB4cQB+AA9xAH4AFXh+cgBLaW8uZ2l0aHViLmVyaWNtZWR2ZXQuamdlYS5jb3JlLnJlcHJlc2VudGF0aW9uLnRyZWUubnVtZXJpYy5FbGVtZW50JE9wZXJhdG9yAAAAAAAAAAASAAB4cgAOamF2YS5sYW5nLkVudW0AAAAAAAAAABIAAHhwdAAIQURESVRJT05xAH4AE3EAfgAReHEAfgAdc3EAfgACc3EAfgAHAAAAAncEAAAAAnEAfgATc3EAfgACc3EAfgAHAAAAAHcEAAAAAHhxAH4AD3NxAH4AAnNxAH4ABwAAAAJ3BAAAAAJzcQB+AAJzcQB+AAcAAAAAdwQAAAAAeHEAfgAPcQB+ACNxAH4AIXhxAH4AHXB4cQB+AB1weHEAfgAdcQB+AAZxAH4AIXhxAH4AHXBzcQB+AAJzcQB+AAcAAAACdwQAAAACc3EAfgACc3EAfgAHAAAAAncEAAAAAnNxAH4AAnNxAH4ABwAAAAB3BAAAAAB4c3EAfgANdAACeDFxAH4AKXNxAH4AAnNxAH4ABwAAAAJ3BAAAAAJzcQB+AAJzcQB+AAcAAAACdwQAAAACc3EAfgACc3EAfgAHAAAAAHcEAAAAAHhxAH4ALXEAfgAxc3EAfgACc3EAfgAHAAAAAncEAAAAAnNxAH4AAnNxAH4ABwAAAAJ3BAAAAAJzcQB+AAJzcQB+AAcAAAAAdwQAAAAAeHNxAH4ADXQAAng0cQB+ADdzcQB+AAJzcQB+AAcAAAACdwQAAAACc3EAfgACc3EAfgAHAAAAAHcEAAAAAHhxAH4AD3EAfgA9c3EAfgACc3EAfgAHAAAAAHcEAAAAAHhxAH4AO3NxAH4AAnNxAH4ABwAAAAJ3BAAAAAJzcQB+AAJzcQB+AAcAAAAAdwQAAAAAeHEAfgA7cQB+AENxAH4AQXh+cQB+ABt0AA5NVUxUSVBMSUNBVElPTnNxAH4AAnNxAH4ABwAAAAJ3BAAAAAJzcQB+AAJzcQB+AAcAAAAAdwQAAAAAeHEAfgA7cQB+AElxAH4AQ3h+cQB+ABt0AAtTVUJUUkFDVElPTnNxAH4AAnNxAH4ABwAAAAJ3BAAAAAJxAH4ASXNxAH4AAnNxAH4ABwAAAAJ3BAAAAAJzcQB+AAJzcQB+AAcAAAAAdwQAAAAAeHEAfgAPcQB+AFFzcQB+AAJzcQB+AAcAAAAAdwQAAAAAeHEAfgA7cQB+AFF4cQB+AEdxAH4AT3hxAH4ATXNxAH4AAnNxAH4ABwAAAAJ3BAAAAAJzcQB+AAJzcQB+AAcAAAAAdwQAAAAAeHEAfgAtcQB+AFdxAH4AT3hxAH4AHXNxAH4AAnNxAH4ABwAAAAJ3BAAAAAJxAH4AV3NxAH4AAnNxAH4ABwAAAAJ3BAAAAAJzcQB+AAJzcQB+AAcAAAAAdwQAAAAAeHEAfgAPcQB+AF1zcQB+AAJzcQB+AAcAAAAAdwQAAAAAeHEAfgA7cQB+AF14cQB+AEdxAH4AW3hxAH4ATXNxAH4AAnNxAH4ABwAAAAJ3BAAAAAJzcQB+AAJzcQB+AAcAAAAAdwQAAAAAeHEAfgAtcQB+AGNxAH4AW3hxAH4AHXNxAH4AAnNxAH4ABwAAAAJ3BAAAAAJxAH4AY3NxAH4AAnNxAH4ABwAAAAJ3BAAAAAJzcQB+AAJzcQB+AAcAAAAAdwQAAAAAeHEAfgAPcQB+AGlzcQB+AAJzcQB+AAcAAAAAdwQAAAAAeHEAfgA7c3EAfgACc3EAfgAHAAAAAncEAAAAAnNxAH4AAnNxAH4ABwAAAAB3BAAAAAB4cQB+ADtxAH4Ab3EAfgBteHEAfgBHc3EAfgACc3EAfgAHAAAAAncEAAAAAnNxAH4AAnNxAH4ABwAAAAJ3BAAAAAJzcQB+AAJzcQB+AAcAAAAAdwQAAAAAeHEAfgAtcQB+AHVzcQB+AAJzcQB+AAcAAAACdwQAAAACc3EAfgACc3EAfgAHAAAAAncEAAAAAnNxAH4AAnNxAH4ABwAAAAB3BAAAAAB4cQB+AC1xAH4Ae3NxAH4AAnNxAH4ABwAAAAJ3BAAAAAJzcQB+AAJzcQB+AAcAAAAAdwQAAAAAeHEAfgA7cQB+AH9zcQB+AAJzcQB+AAcAAAAAdwQAAAAAeHNxAH4ADXQAA3gxMXEAfgB/eHEAfgBNcQB+AHt4cQB+AB1xAH4AeXNxAH4AAnNxAH4ABwAAAAB3BAAAAAB4cQB+AIVxAH4AeXhxAH4ATXEAfgB1eHEAfgAdcQB+AHNxAH4Ab3hxAH4AR3B4cQB+AEdxAH4AZ3hxAH4AR3B4cQB+AEdzcQB+AAJzcQB+AAcAAAACdwQAAAACc3EAfgACc3EAfgAHAAAAAHcEAAAAAHhxAH4ALXEAfgCJcQB+AD14cQB+AE1zcQB+AAJzcQB+AAcAAAACdwQAAAACcQB+AIlxAH4AUXhxAH4ATXNxAH4AAnNxAH4ABwAAAAJ3BAAAAAJzcQB+AAJzcQB+AAcAAAAAdwQAAAAAeHEAfgAtcQB+AI9xAH4AjXhxAH4AHXNxAH4AAnNxAH4ABwAAAAJ3BAAAAAJxAH4Aj3EAfgBdeHEAfgBNc3EAfgACc3EAfgAHAAAAAncEAAAAAnNxAH4AAnNxAH4ABwAAAAB3BAAAAAB4cQB+AC1xAH4AlXEAfgCTeHEAfgAdc3EAfgACc3EAfgAHAAAAAncEAAAAAnEAfgCVcQB+AGl4cQB+AEdweHEAfgBNcQB+ADVxAH4AUXhxAH4ATXEAfgAxeHEAfgAdcQB+AC9xAH4AXXhxAH4ATXNxAH4AAnNxAH4ABwAAAAJ3BAAAAAJzcQB+AAJzcQB+AAcAAAACdwQAAAACc3EAfgACc3EAfgAHAAAAAHcEAAAAAHhxAH4AD3EAfgCdc3EAfgACc3EAfgAHAAAAAHcEAAAAAHhxAH4AO3EAfgCdeHEAfgBHcQB+AJtxAH4AL3hxAH4AHXNxAH4AAnNxAH4ABwAAAAJ3BAAAAAJxAH4Am3EAfgBpeHEAfgBHcHhxAH4AHXEAfgAncQB+AGl4cQB+AEdwc3EAfgACc3EAfgAHAAAAAncEAAAAAnNxAH4AAnNxAH4ABwAAAAJ3BAAAAAJzcQB+AAJzcQB+AAcAAAACdwQAAAACc3EAfgACc3EAfgAHAAAAAncEAAAAAnNxAH4AAnNxAH4ABwAAAAB3BAAAAAB4c3IAS2lvLmdpdGh1Yi5lcmljbWVkdmV0LmpnZWEuY29yZS5yZXByZXNlbnRhdGlvbi50cmVlLm51bWVyaWMuRWxlbWVudCRDb25zdGFudAAAAAAAAAAAAgABRAAFdmFsdWV4cEAQAAAAAAAAcQB+AKtzcQB+AAJzcQB+AAcAAAAAdwQAAAAAeHNxAH4Ar0AIAAAAAAAAc3EAfgACc3EAfgAHAAAAAncEAAAAAnNxAH4AAnNxAH4ABwAAAAJ3BAAAAAJzcQB+AAJzcQB+AAcAAAAAdwQAAAAAeHEAfgCwcQB+ALZzcQB+AAJzcQB+AAcAAAAAdwQAAAAAeHEAfgCzcQB+ALZ4fnEAfgAbdAANUFJPVF9ESVZJU0lPTnEAfgC0cQB+ALF4cQB+ALxzcQB+AAJzcQB+AAcAAAACdwQAAAACcQB+ALRzcQB+AAJzcQB+AAcAAAAAdwQAAAAAeHNxAH4Ar0AEAAAAAAAAcQB+AL54cQB+ALxzcQB+AAJzcQB+AAcAAAACdwQAAAACcQB+AL5zcQB+AAJzcQB+AAcAAAAAdwQAAAAAeHEAfgDCc3EAfgACc3EAfgAHAAAAAncEAAAAAnNxAH4AAnNxAH4ABwAAAAJ3BAAAAAJzcQB+AAJzcQB+AAcAAAACdwQAAAACc3EAfgACc3EAfgAHAAAAAHcEAAAAAHhxAH4AsHEAfgDLc3EAfgACc3EAfgAHAAAAAHcEAAAAAHhxAH4As3EAfgDLeHEAfgC8cQB+AMlzcQB+AAJzcQB+AAcAAAAAdwQAAAAAeHEAfgCzcQB+AMl4cQB+ALxxAH4Ax3EAfgDFeHEAfgBNc3EAfgACc3EAfgAHAAAAAncEAAAAAnEAfgDHc3EAfgACc3EAfgAHAAAAAHcEAAAAAHhxAH4As3EAfgDTeHEAfgAdcHhxAH4ATXNxAH4AAnNxAH4ABwAAAAJ3BAAAAAJxAH4Aw3EAfgDVeHEAfgAdcHhxAH4AvHEAfgCpcQB+AMB4cQB+ALxxAH4Ap3EAfgDFeHEAfgBNcQB+AKVxAH4A1XhxAH4AHXBzcQB+AAJzcQB+AAcAAAACdwQAAAACc3EAfgACc3EAfgAHAAAAAHcEAAAAAHhzcQB+AA10AAJ4OXEAfgDZc3EAfgACc3EAfgAHAAAAAncEAAAAAnNxAH4AAnNxAH4ABwAAAAB3BAAAAAB4cQB+AN1xAH4A33NxAH4AAnNxAH4ABwAAAAB3BAAAAAB4c3EAfgCvP/AAAAAAAABxAH4A33hxAH4AHXNxAH4AAnNxAH4ABwAAAAJ3BAAAAAJzcQB+AAJzcQB+AAcAAAACdwQAAAACc3EAfgACc3EAfgAHAAAAAHcEAAAAAHhxAH4A3XEAfgDoc3EAfgACc3EAfgAHAAAAAHcEAAAAAHhxAH4A5XEAfgDoeHEAfgAdcQB+AOZxAH4A33hxAH4ATXB4cQB+AE1weA==";
    "rO0ABXNyABFqYXZhLnV0aWwuQ29sbFNlcleOq7Y6G6gRAwABSQADdGFneHAAAAAEdwQAAAAEc3IAN2lvLmdpdGh1Yi5lcmljbWVkdmV0LmpnZWEuY29yZS5yZXByZXNlbnRhdGlvbi50cmVlLlRyZWUKs7/qnQrEZQIAA0wACGNoaWxkcmVudAAQTGphdmEvdXRpbC9MaXN0O0wAB2NvbnRlbnR0ABJMamF2YS9sYW5nL09iamVjdDtMAAZwYXJlbnR0ADlMaW8vZ2l0aHViL2VyaWNtZWR2ZXQvamdlYS9jb3JlL3JlcHJlc2VudGF0aW9uL3RyZWUvVHJlZTt4cHNyABNqYXZhLnV0aWwuQXJyYXlMaXN0eIHSHZnHYZ0DAAFJAARzaXpleHAAAAACdwQAAAACc3EAfgACc3EAfgAHAAAAAncEAAAAAnNxAH4AAnNxAH4ABwAAAAB3BAAAAAB4c3IAS2lvLmdpdGh1Yi5lcmljbWVkdmV0LmpnZWEuY29yZS5yZXByZXNlbnRhdGlvbi50cmVlLm51bWVyaWMuRWxlbWVudCRWYXJpYWJsZQAAAAAAAAAAAgABTAAEbmFtZXQAEkxqYXZhL2xhbmcvU3RyaW5nO3hwdAACeDBxAH4ACXNxAH4AAnNxAH4ABwAAAAB3BAAAAAB4cQB+AA9zcQB+AAJzcQB+AAcAAAACdwQAAAACc3EAfgACc3EAfgAHAAAAAncEAAAAAnNxAH4AAnNxAH4ABwAAAAB3BAAAAAB4cQB+AA9xAH4AFXNxAH4AAnNxAH4ABwAAAAB3BAAAAAB4cQB+AA9xAH4AFXh+cgBLaW8uZ2l0aHViLmVyaWNtZWR2ZXQuamdlYS5jb3JlLnJlcHJlc2VudGF0aW9uLnRyZWUubnVtZXJpYy5FbGVtZW50JE9wZXJhdG9yAAAAAAAAAAASAAB4cgAOamF2YS5sYW5nLkVudW0AAAAAAAAAABIAAHhwdAAIQURESVRJT05xAH4AE3EAfgAReHEAfgAdc3EAfgACc3EAfgAHAAAAAncEAAAAAnEAfgATc3EAfgACc3EAfgAHAAAAAHcEAAAAAHhxAH4AD3NxAH4AAnNxAH4ABwAAAAJ3BAAAAAJzcQB+AAJzcQB+AAcAAAAAdwQAAAAAeHEAfgAPcQB+ACNxAH4AIXhxAH4AHXB4cQB+AB1weHEAfgAdcQB+AAZxAH4AIXhxAH4AHXBzcQB+AAJzcQB+AAcAAAACdwQAAAACc3EAfgACc3EAfgAHAAAAAncEAAAAAnNxAH4AAnNxAH4ABwAAAAB3BAAAAAB4c3EAfgANdAACeDFxAH4AKXNxAH4AAnNxAH4ABwAAAAJ3BAAAAAJzcQB+AAJzcQB+AAcAAAACdwQAAAACc3EAfgACc3EAfgAHAAAAAHcEAAAAAHhxAH4ALXEAfgAxc3EAfgACc3EAfgAHAAAAAncEAAAAAnNxAH4AAnNxAH4ABwAAAAJ3BAAAAAJzcQB+AAJzcQB+AAcAAAAAdwQAAAAAeHNxAH4ADXQAAng0cQB+ADdzcQB+AAJzcQB+AAcAAAACdwQAAAACc3EAfgACc3EAfgAHAAAAAHcEAAAAAHhxAH4AD3EAfgA9c3EAfgACc3EAfgAHAAAAAHcEAAAAAHhxAH4AO3NxAH4AAnNxAH4ABwAAAAJ3BAAAAAJzcQB+AAJzcQB+AAcAAAAAdwQAAAAAeHEAfgA7cQB+AENxAH4AQXh+cQB+ABt0AA5NVUxUSVBMSUNBVElPTnNxAH4AAnNxAH4ABwAAAAJ3BAAAAAJzcQB+AAJzcQB+AAcAAAAAdwQAAAAAeHEAfgA7cQB+AElxAH4AQ3h+cQB+ABt0AAtTVUJUUkFDVElPTnNxAH4AAnNxAH4ABwAAAAJ3BAAAAAJxAH4ASXNxAH4AAnNxAH4ABwAAAAJ3BAAAAAJzcQB+AAJzcQB+AAcAAAAAdwQAAAAAeHEAfgAPcQB+AFFzcQB+AAJzcQB+AAcAAAAAdwQAAAAAeHEAfgA7cQB+AFF4cQB+AEdxAH4AT3hxAH4ATXNxAH4AAnNxAH4ABwAAAAJ3BAAAAAJzcQB+AAJzcQB+AAcAAAAAdwQAAAAAeHEAfgAtcQB+AFdxAH4AT3hxAH4AHXNxAH4AAnNxAH4ABwAAAAJ3BAAAAAJxAH4AV3NxAH4AAnNxAH4ABwAAAAJ3BAAAAAJzcQB+AAJzcQB+AAcAAAAAdwQAAAAAeHEAfgAPcQB+AF1zcQB+AAJzcQB+AAcAAAAAdwQAAAAAeHEAfgA7cQB+AF14cQB+AEdxAH4AW3hxAH4ATXNxAH4AAnNxAH4ABwAAAAJ3BAAAAAJzcQB+AAJzcQB+AAcAAAAAdwQAAAAAeHEAfgAtcQB+AGNxAH4AW3hxAH4AHXNxAH4AAnNxAH4ABwAAAAJ3BAAAAAJxAH4AY3NxAH4AAnNxAH4ABwAAAAJ3BAAAAAJzcQB+AAJzcQB+AAcAAAAAdwQAAAAAeHEAfgAPcQB+AGlzcQB+AAJzcQB+AAcAAAAAdwQAAAAAeHEAfgA7c3EAfgACc3EAfgAHAAAAAncEAAAAAnNxAH4AAnNxAH4ABwAAAAB3BAAAAAB4cQB+ADtxAH4Ab3EAfgBteHEAfgBHc3EAfgACc3EAfgAHAAAAAncEAAAAAnNxAH4AAnNxAH4ABwAAAAJ3BAAAAAJzcQB+AAJzcQB+AAcAAAAAdwQAAAAAeHEAfgAtcQB+AHVzcQB+AAJzcQB+AAcAAAACdwQAAAACc3EAfgACc3EAfgAHAAAAAncEAAAAAnNxAH4AAnNxAH4ABwAAAAB3BAAAAAB4cQB+AC1xAH4Ae3NxAH4AAnNxAH4ABwAAAAJ3BAAAAAJzcQB+AAJzcQB+AAcAAAAAdwQAAAAAeHEAfgA7cQB+AH9zcQB+AAJzcQB+AAcAAAAAdwQAAAAAeHNxAH4ADXQAA3gxMXEAfgB/eHEAfgBNcQB+AHt4cQB+AB1xAH4AeXNxAH4AAnNxAH4ABwAAAAB3BAAAAAB4cQB+AIVxAH4AeXhxAH4ATXEAfgB1eHEAfgAdcQB+AHNxAH4Ab3hxAH4AR3B4cQB+AEdxAH4AZ3hxAH4AR3B4cQB+AEdzcQB+AAJzcQB+AAcAAAACdwQAAAACc3EAfgACc3EAfgAHAAAAAHcEAAAAAHhxAH4ALXEAfgCJcQB+AD14cQB+AE1zcQB+AAJzcQB+AAcAAAACdwQAAAACcQB+AIlxAH4AUXhxAH4ATXNxAH4AAnNxAH4ABwAAAAJ3BAAAAAJzcQB+AAJzcQB+AAcAAAAAdwQAAAAAeHEAfgAtcQB+AI9xAH4AjXhxAH4AHXNxAH4AAnNxAH4ABwAAAAJ3BAAAAAJxAH4Aj3EAfgBdeHEAfgBNc3EAfgACc3EAfgAHAAAAAncEAAAAAnNxAH4AAnNxAH4ABwAAAAB3BAAAAAB4cQB+AC1xAH4AlXEAfgCTeHEAfgAdc3EAfgACc3EAfgAHAAAAAncEAAAAAnEAfgCVcQB+AGl4cQB+AEdweHEAfgBNcQB+ADVxAH4AUXhxAH4ATXEAfgAxeHEAfgAdcQB+AC9xAH4AXXhxAH4ATXNxAH4AAnNxAH4ABwAAAAJ3BAAAAAJzcQB+AAJzcQB+AAcAAAACdwQAAAACc3EAfgACc3EAfgAHAAAAAHcEAAAAAHhxAH4AD3EAfgCdc3EAfgACc3EAfgAHAAAAAHcEAAAAAHhxAH4AO3EAfgCdeHEAfgBHcQB+AJtxAH4AL3hxAH4AHXNxAH4AAnNxAH4ABwAAAAJ3BAAAAAJxAH4Am3EAfgBpeHEAfgBHcHhxAH4AHXEAfgAncQB+AGl4cQB+AEdwc3EAfgACc3EAfgAHAAAAAncEAAAAAnNxAH4AAnNxAH4ABwAAAAJ3BAAAAAJzcQB+AAJzcQB+AAcAAAACdwQAAAACc3EAfgACc3EAfgAHAAAAAncEAAAAAnNxAH4AAnNxAH4ABwAAAAB3BAAAAAB4c3IAS2lvLmdpdGh1Yi5lcmljbWVkdmV0LmpnZWEuY29yZS5yZXByZXNlbnRhdGlvbi50cmVlLm51bWVyaWMuRWxlbWVudCRDb25zdGFudAAAAAAAAAAAAgABRAAFdmFsdWV4cEAQAAAAAAAAcQB+AKtzcQB+AAJzcQB+AAcAAAAAdwQAAAAAeHNxAH4Ar0AIAAAAAAAAc3EAfgACc3EAfgAHAAAAAncEAAAAAnNxAH4AAnNxAH4ABwAAAAJ3BAAAAAJzcQB+AAJzcQB+AAcAAAAAdwQAAAAAeHEAfgCwcQB+ALZzcQB+AAJzcQB+AAcAAAAAdwQAAAAAeHEAfgCzcQB+ALZ4fnEAfgAbdAANUFJPVF9ESVZJU0lPTnEAfgC0cQB+ALF4cQB+ALxzcQB+AAJzcQB+AAcAAAACdwQAAAACcQB+ALRzcQB+AAJzcQB+AAcAAAAAdwQAAAAAeHNxAH4Ar0AEAAAAAAAAcQB+AL54cQB+ALxzcQB+AAJzcQB+AAcAAAACdwQAAAACcQB+AL5zcQB+AAJzcQB+AAcAAAAAdwQAAAAAeHEAfgDCc3EAfgACc3EAfgAHAAAAAncEAAAAAnNxAH4AAnNxAH4ABwAAAAJ3BAAAAAJzcQB+AAJzcQB+AAcAAAACdwQAAAACc3EAfgACc3EAfgAHAAAAAHcEAAAAAHhxAH4AsHEAfgDLc3EAfgACc3EAfgAHAAAAAHcEAAAAAHhxAH4As3EAfgDLeHEAfgC8cQB+AMlzcQB+AAJzcQB+AAcAAAAAdwQAAAAAeHEAfgCzcQB+AMl4cQB+ALxxAH4Ax3EAfgDFeHEAfgBNc3EAfgACc3EAfgAHAAAAAncEAAAAAnEAfgDHc3EAfgACc3EAfgAHAAAAAHcEAAAAAHhxAH4As3EAfgDTeHEAfgAdcHhxAH4ATXNxAH4AAnNxAH4ABwAAAAJ3BAAAAAJxAH4Aw3EAfgDVeHEAfgAdcHhxAH4AvHEAfgCpcQB+AMB4cQB+ALxxAH4Ap3EAfgDFeHEAfgBNcQB+AKVxAH4A1XhxAH4AHXBzcQB+AAJzcQB+AAcAAAACdwQAAAACc3EAfgACc3EAfgAHAAAAAHcEAAAAAHhzcQB+AA10AAJ4OXEAfgDZc3EAfgACc3EAfgAHAAAAAncEAAAAAnNxAH4AAnNxAH4ABwAAAAB3BAAAAAB4cQB+AN1xAH4A33NxAH4AAnNxAH4ABwAAAAB3BAAAAAB4c3EAfgCvP/AAAAAAAABxAH4A33hxAH4AHXNxAH4AAnNxAH4ABwAAAAJ3BAAAAAJzcQB+AAJzcQB+AAcAAAAAdwQAAAAAeHEAfgDlcQB+AOZxAH4A33hxAH4ATXB4cQB+AE1weA==";
    "rO0ABXNyABFqYXZhLnV0aWwuQ29sbFNlcleOq7Y6G6gRAwABSQADdGFneHAAAAAEdwQAAAAEc3IAN2lvLmdpdGh1Yi5lcmljbWVkdmV0LmpnZWEuY29yZS5yZXByZXNlbnRhdGlvbi50cmVlLlRyZWUKs7/qnQrEZQIAA0wACGNoaWxkcmVudAAQTGphdmEvdXRpbC9MaXN0O0wAB2NvbnRlbnR0ABJMamF2YS9sYW5nL09iamVjdDtMAAZwYXJlbnR0ADlMaW8vZ2l0aHViL2VyaWNtZWR2ZXQvamdlYS9jb3JlL3JlcHJlc2VudGF0aW9uL3RyZWUvVHJlZTt4cHNyABNqYXZhLnV0aWwuQXJyYXlMaXN0eIHSHZnHYZ0DAAFJAARzaXpleHAAAAACdwQAAAACc3EAfgACc3EAfgAHAAAAAncEAAAAAnNxAH4AAnNxAH4ABwAAAAB3BAAAAAB4c3IAS2lvLmdpdGh1Yi5lcmljbWVkdmV0LmpnZWEuY29yZS5yZXByZXNlbnRhdGlvbi50cmVlLm51bWVyaWMuRWxlbWVudCRWYXJpYWJsZQAAAAAAAAAAAgABTAAEbmFtZXQAEkxqYXZhL2xhbmcvU3RyaW5nO3hwdAACeDBxAH4ACXNxAH4AAnNxAH4ABwAAAAB3BAAAAAB4cQB+AA9zcQB+AAJzcQB+AAcAAAACdwQAAAACc3EAfgACc3EAfgAHAAAAAncEAAAAAnNxAH4AAnNxAH4ABwAAAAB3BAAAAAB4cQB+AA9xAH4AFXNxAH4AAnNxAH4ABwAAAAB3BAAAAAB4cQB+AA9xAH4AFXh+cgBLaW8uZ2l0aHViLmVyaWNtZWR2ZXQuamdlYS5jb3JlLnJlcHJlc2VudGF0aW9uLnRyZWUubnVtZXJpYy5FbGVtZW50JE9wZXJhdG9yAAAAAAAAAAASAAB4cgAOamF2YS5sYW5nLkVudW0AAAAAAAAAABIAAHhwdAAIQURESVRJT05xAH4AE3EAfgAReHEAfgAdc3EAfgACc3EAfgAHAAAAAncEAAAAAnEAfgATc3EAfgACc3EAfgAHAAAAAHcEAAAAAHhxAH4AD3NxAH4AAnNxAH4ABwAAAAJ3BAAAAAJzcQB+AAJzcQB+AAcAAAAAdwQAAAAAeHEAfgAPcQB+ACNxAH4AIXhxAH4AHXB4cQB+AB1weHEAfgAdcQB+AAZxAH4AIXhxAH4AHXBzcQB+AAJzcQB+AAcAAAACdwQAAAACc3EAfgACc3EAfgAHAAAAAncEAAAAAnNxAH4AAnNxAH4ABwAAAAB3BAAAAAB4c3EAfgANdAACeDFxAH4AKXNxAH4AAnNxAH4ABwAAAAJ3BAAAAAJzcQB+AAJzcQB+AAcAAAACdwQAAAACc3EAfgACc3EAfgAHAAAAAHcEAAAAAHhxAH4ALXEAfgAxc3EAfgACc3EAfgAHAAAAAncEAAAAAnNxAH4AAnNxAH4ABwAAAAJ3BAAAAAJzcQB+AAJzcQB+AAcAAAAAdwQAAAAAeHNxAH4ADXQAAng0cQB+ADdzcQB+AAJzcQB+AAcAAAACdwQAAAACc3EAfgACc3EAfgAHAAAAAHcEAAAAAHhxAH4AD3EAfgA9c3EAfgACc3EAfgAHAAAAAHcEAAAAAHhxAH4AO3NxAH4AAnNxAH4ABwAAAAJ3BAAAAAJzcQB+AAJzcQB+AAcAAAAAdwQAAAAAeHEAfgA7cQB+AENxAH4AQXh+cQB+ABt0AA5NVUxUSVBMSUNBVElPTnNxAH4AAnNxAH4ABwAAAAJ3BAAAAAJzcQB+AAJzcQB+AAcAAAAAdwQAAAAAeHEAfgA7cQB+AElxAH4AQ3h+cQB+ABt0AAtTVUJUUkFDVElPTnNxAH4AAnNxAH4ABwAAAAJ3BAAAAAJxAH4ASXNxAH4AAnNxAH4ABwAAAAJ3BAAAAAJzcQB+AAJzcQB+AAcAAAAAdwQAAAAAeHEAfgAPcQB+AFFzcQB+AAJzcQB+AAcAAAAAdwQAAAAAeHEAfgA7cQB+AFF4cQB+AEdxAH4AT3hxAH4ATXNxAH4AAnNxAH4ABwAAAAJ3BAAAAAJzcQB+AAJzcQB+AAcAAAAAdwQAAAAAeHEAfgAtcQB+AFdxAH4AT3hxAH4AHXNxAH4AAnNxAH4ABwAAAAJ3BAAAAAJxAH4AV3NxAH4AAnNxAH4ABwAAAAJ3BAAAAAJzcQB+AAJzcQB+AAcAAAAAdwQAAAAAeHEAfgAPcQB+AF1zcQB+AAJzcQB+AAcAAAAAdwQAAAAAeHEAfgA7cQB+AF14cQB+AEdxAH4AW3hxAH4ATXNxAH4AAnNxAH4ABwAAAAJ3BAAAAAJzcQB+AAJzcQB+AAcAAAAAdwQAAAAAeHEAfgAtcQB+AGNxAH4AW3hxAH4AHXNxAH4AAnNxAH4ABwAAAAJ3BAAAAAJxAH4AY3NxAH4AAnNxAH4ABwAAAAJ3BAAAAAJzcQB+AAJzcQB+AAcAAAAAdwQAAAAAeHEAfgAPcQB+AGlzcQB+AAJzcQB+AAcAAAAAdwQAAAAAeHEAfgA7c3EAfgACc3EAfgAHAAAAAncEAAAAAnNxAH4AAnNxAH4ABwAAAAB3BAAAAAB4cQB+ADtxAH4Ab3EAfgBteHEAfgBHc3EAfgACc3EAfgAHAAAAAncEAAAAAnNxAH4AAnNxAH4ABwAAAAJ3BAAAAAJzcQB+AAJzcQB+AAcAAAAAdwQAAAAAeHEAfgAtcQB+AHVzcQB+AAJzcQB+AAcAAAACdwQAAAACc3EAfgACc3EAfgAHAAAAAncEAAAAAnNxAH4AAnNxAH4ABwAAAAB3BAAAAAB4cQB+AC1xAH4Ae3NxAH4AAnNxAH4ABwAAAAJ3BAAAAAJzcQB+AAJzcQB+AAcAAAAAdwQAAAAAeHEAfgA7cQB+AH9zcQB+AAJzcQB+AAcAAAAAdwQAAAAAeHNxAH4ADXQAA3gxMXEAfgB/eHEAfgBNcQB+AHt4cQB+AB1xAH4AeXNxAH4AAnNxAH4ABwAAAAB3BAAAAAB4cQB+AIVxAH4AeXhxAH4ATXEAfgB1eHEAfgAdcQB+AHNxAH4Ab3hxAH4AR3B4cQB+AEdxAH4AZ3hxAH4AR3B4cQB+AEdzcQB+AAJzcQB+AAcAAAACdwQAAAACc3EAfgACc3EAfgAHAAAAAHcEAAAAAHhxAH4ALXEAfgCJcQB+AD14cQB+AE1zcQB+AAJzcQB+AAcAAAACdwQAAAACcQB+AIlxAH4AUXhxAH4ATXNxAH4AAnNxAH4ABwAAAAJ3BAAAAAJzcQB+AAJzcQB+AAcAAAAAdwQAAAAAeHEAfgAtcQB+AI9xAH4AjXhxAH4AHXNxAH4AAnNxAH4ABwAAAAJ3BAAAAAJxAH4Aj3EAfgBdeHEAfgBNc3EAfgACc3EAfgAHAAAAAncEAAAAAnNxAH4AAnNxAH4ABwAAAAB3BAAAAAB4cQB+AC1xAH4AlXEAfgCTeHEAfgAdc3EAfgACc3EAfgAHAAAAAncEAAAAAnEAfgCVcQB+AGl4cQB+AEdweHEAfgBNcQB+ADVxAH4AUXhxAH4ATXEAfgAxeHEAfgAdcQB+AC9xAH4AXXhxAH4ATXNxAH4AAnNxAH4ABwAAAAJ3BAAAAAJzcQB+AAJzcQB+AAcAAAACdwQAAAACc3EAfgACc3EAfgAHAAAAAHcEAAAAAHhxAH4AD3EAfgCdc3EAfgACc3EAfgAHAAAAAHcEAAAAAHhxAH4AO3EAfgCdeHEAfgBHcQB+AJtxAH4AL3hxAH4AHXNxAH4AAnNxAH4ABwAAAAJ3BAAAAAJxAH4Am3EAfgBpeHEAfgBHcHhxAH4AHXEAfgAncQB+AGl4cQB+AEdwc3EAfgACc3EAfgAHAAAAAncEAAAAAnNxAH4AAnNxAH4ABwAAAAJ3BAAAAAJzcQB+AAJzcQB+AAcAAAACdwQAAAACc3EAfgACc3EAfgAHAAAAAncEAAAAAnNxAH4AAnNxAH4ABwAAAAB3BAAAAAB4c3IAS2lvLmdpdGh1Yi5lcmljbWVkdmV0LmpnZWEuY29yZS5yZXByZXNlbnRhdGlvbi50cmVlLm51bWVyaWMuRWxlbWVudCRDb25zdGFudAAAAAAAAAAAAgABRAAFdmFsdWV4cEAQAAAAAAAAcQB+AKtzcQB+AAJzcQB+AAcAAAAAdwQAAAAAeHNxAH4Ar0AIAAAAAAAAc3EAfgACc3EAfgAHAAAAAncEAAAAAnNxAH4AAnNxAH4ABwAAAAJ3BAAAAAJzcQB+AAJzcQB+AAcAAAAAdwQAAAAAeHEAfgCwcQB+ALZzcQB+AAJzcQB+AAcAAAAAdwQAAAAAeHEAfgCzcQB+ALZ4fnEAfgAbdAANUFJPVF9ESVZJU0lPTnEAfgC0cQB+ALF4cQB+ALxzcQB+AAJzcQB+AAcAAAACdwQAAAACcQB+ALRzcQB+AAJzcQB+AAcAAAAAdwQAAAAAeHNxAH4Ar0AEAAAAAAAAcQB+AL54cQB+ALxzcQB+AAJzcQB+AAcAAAACdwQAAAACcQB+AL5zcQB+AAJzcQB+AAcAAAAAdwQAAAAAeHEAfgDCc3EAfgACc3EAfgAHAAAAAncEAAAAAnNxAH4AAnNxAH4ABwAAAAJ3BAAAAAJzcQB+AAJzcQB+AAcAAAACdwQAAAACc3EAfgACc3EAfgAHAAAAAHcEAAAAAHhxAH4AsHEAfgDLc3EAfgACc3EAfgAHAAAAAHcEAAAAAHhxAH4As3EAfgDLeHEAfgC8cQB+AMlzcQB+AAJzcQB+AAcAAAAAdwQAAAAAeHEAfgCzcQB+AMl4cQB+ALxxAH4Ax3EAfgDFeHEAfgBNc3EAfgACc3EAfgAHAAAAAncEAAAAAnEAfgDHc3EAfgACc3EAfgAHAAAAAHcEAAAAAHhxAH4As3EAfgDTeHEAfgAdcHhxAH4ATXNxAH4AAnNxAH4ABwAAAAJ3BAAAAAJxAH4Aw3EAfgDVeHEAfgAdcHhxAH4AvHEAfgCpcQB+AMB4cQB+ALxxAH4Ap3EAfgDFeHEAfgBNcQB+AKVxAH4A1XhxAH4AHXBzcQB+AAJzcQB+AAcAAAACdwQAAAACc3EAfgACc3EAfgAHAAAAAHcEAAAAAHhzcQB+AA10AAJ4OXEAfgDZc3EAfgACc3EAfgAHAAAAAncEAAAAAnNxAH4AAnNxAH4ABwAAAAB3BAAAAAB4cQB+AN1xAH4A33NxAH4AAnNxAH4ABwAAAAB3BAAAAAB4c3EAfgCvP/AAAAAAAABxAH4A33hxAH4AHXNxAH4AAnNxAH4ABwAAAAJ3BAAAAAJzcQB+AAJzcQB+AAcAAAAAdwQAAAAAeHEAfgDlcQB+AOZxAH4A33hxAH4ATXB4cQB+AE1weA==";
