ea.runOutcome(
  index = 199;
  run = ea.run(
    problem = ea.p.mr.fromData(
      trainingDataset = ea.dataset.numerical.fromFile(
        filePath = "../phase2/data-ro-gp-3-004.txt";
        folds = [0];
        nFolds = 50;
        xVarNamePattern = "x.*";
        yVarNamePattern = "y.*"
      )
    );
    randomGenerator = ea.rg.defaultRG(seed = 5);
    solver = ea.s.multiSRTreeGP(
      crossoverP = 0.8;
      diversity = true;
      mapper = ea.m.treeMRF(
        dataset = ea.d.num.empty(
          xVars = [
            x01;
            x02;
            x03;
            x04;
            x05;
            x06;
            x07;
            x08;
            x09;
            x10;
            x11;
            x12;
            x13;
            x14;
            x15;
            x16
          ];
          yVars = [y1; y2; y3; y4]
        );
        postOperator = tanh
      );
      maxConst = 5;
      maxTreeH = 8;
      minConst = 0;
      minNTournament = 3;
      minTreeH = 3;
      nAttemptsDiversity = 100;
      nConst = 10;
      nEval = 10000;
      nPop = 100;
      operators = [
        addition;
        subtraction;
        multiplication;
        prot_division;
        prot_log
      ];
      tournamentRate = 0.05
    )
  );
  serializedGenotypes = [
    "rO0ABXNyABFqYXZhLnV0aWwuQ29sbFNlcleOq7Y6G6gRAwABSQADdGFneHAAAAAEdwQAAAAEc3IAN2lvLmdpdGh1Yi5lcmljbWVkdmV0LmpnZWEuY29yZS5yZXByZXNlbnRhdGlvbi50cmVlLlRyZWUKs7/qnQrEZQIAA0wACGNoaWxkcmVudAAQTGphdmEvdXRpbC9MaXN0O0wAB2NvbnRlbnR0ABJMamF2YS9sYW5nL09iamVjdDtMAAZwYXJlbnR0ADlMaW8vZ2l0aHViL2VyaWNtZWR2ZXQvamdlYS9jb3JlL3JlcHJlc2VudGF0aW9uL3RyZWUvVHJlZTt4cHNyABNqYXZhLnV0aWwuQXJyYXlMaXN0eIHSHZnHYZ0DAAFJAARzaXpleHAAAAACdwQAAAACc3EAfgACc3EAfgAHAAAAAncEAAAAAnNxAH4AAnNxAH4ABwAAAAB3BAAAAAB4c3IAS2lvLmdpdGh1Yi5lcmljbWVkdmV0LmpnZWEuY29yZS5yZXByZXNlbnRhdGlvbi50cmVlLm51bWVyaWMuRWxlbWVudCRWYXJpYWJsZQAAAAAAAAAAAgABTAAEbmFtZXQAEkxqYXZhL2xhbmcvU3RyaW5nO3hwdAADeDAxcQB+AAlzcQB+AAJzcQB+AAcAAAAAdwQAAAAAeHEAfgAPc3EAfgACc3EAfgAHAAAAAncEAAAAAnNxAH4AAnNxAH4ABwAAAAJ3BAAAAAJzcQB+AAJzcQB+AAcAAAAAdwQAAAAAeHEAfgAPcQB+ABVzcQB+AAJzcQB+AAcAAAAAdwQAAAAAeHEAfgAPcQB+ABV4fnIAS2lvLmdpdGh1Yi5lcmljbWVkdmV0LmpnZWEuY29yZS5yZXByZXNlbnRhdGlvbi50cmVlLm51bWVyaWMuRWxlbWVudCRPcGVyYXRvcgAAAAAAAAAAEgAAeHIADmphdmEubGFuZy5FbnVtAAAAAAAAAAASAAB4cHQACEFERElUSU9OcQB+ABNxAH4AEXhxAH4AHXNxAH4AAnNxAH4ABwAAAAJ3BAAAAAJxAH4AE3NxAH4AAnNxAH4ABwAAAAJ3BAAAAAJzcQB+AAJzcQB+AAcAAAAAdwQAAAAAeHEAfgAPcQB+ACFzcQB+AAJzcQB+AAcAAAAAdwQAAAAAeHNxAH4ADXQAA3gwNnEAfgAheH5xAH4AG3QADVBST1RfRElWSVNJT05xAH4AH3hxAH4AHXB4cQB+AB1xAH4ABnEAfgAheHEAfgAdcHNxAH4AAnNxAH4ABwAAAAJ3BAAAAAJzcQB+AAJzcQB+AAcAAAACdwQAAAACc3EAfgACc3EAfgAHAAAAAncEAAAAAnNxAH4AAnNxAH4ABwAAAAB3BAAAAAB4c3EAfgANdAADeDEycQB+AC9zcQB+AAJzcQB+AAcAAAAAdwQAAAAAeHNyAEtpby5naXRodWIuZXJpY21lZHZldC5qZ2VhLmNvcmUucmVwcmVzZW50YXRpb24udHJlZS5udW1lcmljLkVsZW1lbnQkQ29uc3RhbnQAAAAAAAAAAAIAAUQABXZhbHVleHBABAAAAAAAAHNxAH4AAnNxAH4ABwAAAAJ3BAAAAAJzcQB+AAJzcQB+AAcAAAACdwQAAAACc3EAfgACc3EAfgAHAAAAAHcEAAAAAHhzcQB+AA10AAN4MTBxAH4AO3NxAH4AAnNxAH4ABwAAAAJ3BAAAAAJzcQB+AAJzcQB+AAcAAAAAdwQAAAAAeHNxAH4ADXQAA3gxMXEAfgBBc3EAfgACc3EAfgAHAAAAAHcEAAAAAHhxAH4ARXEAfgBBeHEAfgAdcQB+ADt4fnEAfgAbdAAIUFJPVF9MT0dxAH4AOXEAfgA1eHEAfgBJc3EAfgACc3EAfgAHAAAAAncEAAAAAnEAfgA5c3EAfgACc3EAfgAHAAAAAncEAAAAAnNxAH4AAnNxAH4ABwAAAAJ3BAAAAAJzcQB+AAJzcQB+AAcAAAAAdwQAAAAAeHNxAH4ANwAAAAAAAAAAcQB+AE9zcQB+AAJzcQB+AAcAAAAAdwQAAAAAeHEAfgBFc3EAfgACc3EAfgAHAAAAAncEAAAAAnNxAH4AAnNxAH4ABwAAAAB3BAAAAAB4c3EAfgA3P/AAAAAAAABxAH4AVnEAfgBUeHEAfgAdc3EAfgACc3EAfgAHAAAAAncEAAAAAnEAfgBWc3EAfgACc3EAfgAHAAAAAncEAAAAAnNxAH4AAnNxAH4ABwAAAAB3BAAAAAB4cQB+AFpxAH4AXXNxAH4AAnNxAH4ABwAAAAJ3BAAAAAJzcQB+AAJzcQB+AAcAAAAAdwQAAAAAeHEAfgBFcQB+AGFzcQB+AAJzcQB+AAcAAAAAdwQAAAAAeHEAfgBacQB+AGF4cQB+AB1zcQB+AAJzcQB+AAcAAAACdwQAAAACc3EAfgACc3EAfgAHAAAAAncEAAAAAnNxAH4AAnNxAH4ABwAAAAB3BAAAAAB4cQB+AD9xAH4AaXNxAH4AAnNxAH4ABwAAAAJ3BAAAAAJzcQB+AAJzcQB+AAcAAAAAdwQAAAAAeHEAfgBFcQB+AG1zcQB+AAJzcQB+AAcAAAAAdwQAAAAAeHEAfgBacQB+AG14cQB+AB1xAH4AaXhxAH4ASXEAfgBncQB+AGF4cQB+AElzcQB+AAJzcQB+AAcAAAACdwQAAAACc3EAfgACc3EAfgAHAAAAAncEAAAAAnNxAH4AAnNxAH4ABwAAAAB3BAAAAAB4cQB+AFNxAH4AdXNxAH4AAnNxAH4ABwAAAAB3BAAAAAB4cQB+AEVxAH4AdXhxAH4AHXEAfgBzcQB+AGd4cQB+AB1zcQB+AAJzcQB+AAcAAAACdwQAAAACc3EAfgACc3EAfgAHAAAAAncEAAAAAnNxAH4AAnNxAH4ABwAAAAB3BAAAAAB4cQB+ADNxAH4AfXNxAH4AAnNxAH4ABwAAAAB3BAAAAAB4cQB+ADhxAH4AfXhxAH4ASXEAfgB7cQB+AHN4cQB+AElzcQB+AAJzcQB+AAcAAAACdwQAAAACcQB+AHtzcQB+AAJzcQB+AAcAAAACdwQAAAACc3EAfgACc3EAfgAHAAAAAHcEAAAAAHhzcQB+AA10AAN4MDVxAH4AhXNxAH4AAnNxAH4ABwAAAAJ3BAAAAAJzcQB+AAJzcQB+AAcAAAAAdwQAAAAAeHEAfgA/cQB+AItzcQB+AAJzcQB+AAcAAAAAdwQAAAAAeHNxAH4AN0AMAAAAAAAAc3EAfgACc3EAfgAHAAAAAncEAAAAAnNxAH4AAnNxAH4ABwAAAAJ3BAAAAAJzcQB+AAJzcQB+AAcAAAACdwQAAAACc3EAfgACc3EAfgAHAAAAAHcEAAAAAHhxAH4AM3EAfgCWc3EAfgACc3EAfgAHAAAAAHcEAAAAAHhxAH4AOHEAfgCWeHEAfgBJcQB+AJRzcQB+AAJzcQB+AAcAAAACdwQAAAACc3EAfgACc3EAfgAHAAAAAncEAAAAAnNxAH4AAnNxAH4ABwAAAAB3BAAAAAB4cQB+AFNxAH4AnnNxAH4AAnNxAH4ABwAAAAB3BAAAAAB4cQB+AEVxAH4AnnhxAH4AHXEAfgCcc3EAfgACc3EAfgAHAAAAAncEAAAAAnNxAH4AAnNxAH4ABwAAAAB3BAAAAAB4cQB+AFpxAH4ApHNxAH4AAnNxAH4ABwAAAAJ3BAAAAAJzcQB+AAJzcQB+AAcAAAAAdwQAAAAAeHEAfgBFcQB+AKhzcQB+AAJzcQB+AAcAAAAAdwQAAAAAeHEAfgBacQB+AKh4cQB+AB1xAH4ApHhxAH4ASXEAfgCceHEAfgAdcQB+AJR4cQB+AElxAH4AknEAfgCPeH5xAH4AG3QADk1VTFRJUExJQ0FUSU9Oc3EAfgACc3EAfgAHAAAAAncEAAAAAnNxAH4AAnNxAH4ABwAAAAB3BAAAAAB4cQB+AIlxAH4AsHEAfgCSeHEAfgCuc3EAfgACc3EAfgAHAAAAAncEAAAAAnNxAH4AAnNxAH4ABwAAAAJ3BAAAAAJzcQB+AAJzcQB+AAcAAAACdwQAAAACc3EAfgACc3EAfgAHAAAAAHcEAAAAAHhxAH4AM3EAfgC4c3EAfgACc3EAfgAHAAAAAHcEAAAAAHhxAH4AOHEAfgC4eHEAfgBJcQB+ALZzcQB+AAJzcQB+AAcAAAACdwQAAAACc3EAfgACc3EAfgAHAAAAAncEAAAAAnNxAH4AAnNxAH4ABwAAAAB3BAAAAAB4cQB+AFNxAH4AwHNxAH4AAnNxAH4ABwAAAAB3BAAAAAB4cQB+AEVxAH4AwHhxAH4AHXEAfgC+c3EAfgACc3EAfgAHAAAAAncEAAAAAnNxAH4AAnNxAH4ABwAAAAB3BAAAAAB4cQB+AFpxAH4AxnNxAH4AAnNxAH4ABwAAAAJ3BAAAAAJzcQB+AAJzcQB+AAcAAAAAdwQAAAAAeHEAfgBFcQB+AMpzcQB+AAJzcQB+AAcAAAAAdwQAAAAAeHEAfgBacQB+AMp4cQB+AB1xAH4AxnhxAH4ASXEAfgC+eHEAfgAdcQB+ALZ4cQB+AElxAH4AtHEAfgCweH5xAH4AG3QAC1NVQlRSQUNUSU9OcHhxAH4ArnNxAH4AAnNxAH4ABwAAAAJ3BAAAAAJzcQB+AAJzcQB+AAcAAAACdwQAAAACc3EAfgACc3EAfgAHAAAAAHcEAAAAAHhxAH4AWnEAfgDUc3EAfgACc3EAfgAHAAAAAncEAAAAAnNxAH4AAnNxAH4ABwAAAAB3BAAAAAB4cQB+AEVxAH4A2HNxAH4AAnNxAH4ABwAAAAB3BAAAAAB4cQB+AFpxAH4A2HhxAH4AHXEAfgDUeHEAfgBJcQB+ANJxAH4Ai3hxAH4ArnNxAH4AAnNxAH4ABwAAAAJ3BAAAAAJzcQB+AAJzcQB+AAcAAAACdwQAAAACc3EAfgACc3EAfgAHAAAAAncEAAAAAnNxAH4AAnNxAH4ABwAAAAB3BAAAAAB4cQB+ADNxAH4A4nNxAH4AAnNxAH4ABwAAAAB3BAAAAAB4cQB+ADhxAH4A4nhxAH4ASXEAfgDgc3EAfgACc3EAfgAHAAAAAncEAAAAAnNxAH4AAnNxAH4ABwAAAAJ3BAAAAAJzcQB+AAJzcQB+AAcAAAAAdwQAAAAAeHEAfgBTcQB+AOpzcQB+AAJzcQB+AAcAAAAAdwQAAAAAeHEAfgBFcQB+AOp4cQB+AB1xAH4A6HNxAH4AAnNxAH4ABwAAAAJ3BAAAAAJzcQB+AAJzcQB+AAcAAAAAdwQAAAAAeHEAfgA/cQB+APBzcQB+AAJzcQB+AAcAAAACdwQAAAACc3EAfgACc3EAfgAHAAAAAHcEAAAAAHhxAH4ARXEAfgD0c3EAfgACc3EAfgAHAAAAAHcEAAAAAHhxAH4AWnEAfgD0eHEAfgAdcQB+APB4cQB+AElxAH4A6HhxAH4AHXEAfgDgeHEAfgBJcQB+AN5xAH4A0nhxAH4A0HB4cQB+AK5zcQB+AAJzcQB+AAcAAAACdwQAAAACc3EAfgACc3EAfgAHAAAAAncEAAAAAnNxAH4AAnNxAH4ABwAAAAJ3BAAAAAJzcQB+AAJzcQB+AAcAAAAAdwQAAAAAeHEAfgAzcQB+AP5zcQB+AAJzcQB+AAcAAAAAdwQAAAAAeHEAfgA4cQB+AP54cQB+AElxAH4A/HNxAH4AAnNxAH4ABwAAAAB3BAAAAAB4cQB+AJFxAH4A/HhxAH4ASXEAfgD6cQB+AIV4cQB+ANBweHEAfgDQcHhxAH4ASXNxAH4AAnNxAH4ABwAAAAJ3BAAAAAJzcQB+AAJzcQB+AAcAAAACdwQAAAACc3EAfgACc3EAfgAHAAAAAHcEAAAAAHhxAH4AU3EAfgEIc3EAfgACc3EAfgAHAAAAAncEAAAAAnNxAH4AAnNxAH4ABwAAAAJ3BAAAAAJzcQB+AAJzcQB+AAcAAAAAdwQAAAAAeHEAfgBTcQB+AQ5zcQB+AAJzcQB+AAcAAAAAdwQAAAAAeHEAfgBFcQB+AQ54cQB+AB1xAH4BDHNxAH4AAnNxAH4ABwAAAAJ3BAAAAAJzcQB+AAJzcQB+AAcAAAAAdwQAAAAAeHEAfgBacQB+ARRzcQB+AAJzcQB+AAcAAAACdwQAAAACc3EAfgACc3EAfgAHAAAAAHcEAAAAAHhxAH4ARXEAfgEYc3EAfgACc3EAfgAHAAAAAHcEAAAAAHhxAH4AWnEAfgEYeHEAfgAdcQB+ARR4cQB+AElxAH4BDHhxAH4AHXEAfgEIeHEAfgAdcQB+AQZxAH4AXXhxAH4AHXNxAH4AAnNxAH4ABwAAAAJ3BAAAAAJzcQB+AAJzcQB+AAcAAAACdwQAAAACc3EAfgACc3EAfgAHAAAAAHcEAAAAAHhxAH4AM3EAfgEgc3EAfgACc3EAfgAHAAAAAHcEAAAAAHhxAH4AOHEAfgEgeHEAfgBJcQB+AR5xAH4BBnhxAH4ASXNxAH4AAnNxAH4ABwAAAAJ3BAAAAAJxAH4BHnEAfgCFeHEAfgDQcHhxAH4AHXNxAH4AAnNxAH4ABwAAAAJ3BAAAAAJzcQB+AAJzcQB+AAcAAAACdwQAAAACc3EAfgACc3EAfgAHAAAAAHcEAAAAAHhxAH4AM3EAfgEqc3EAfgACc3EAfgAHAAAAAHcEAAAAAHhxAH4AOHEAfgEqeHEAfgBJcQB+AShxAH4AW3hxAH4ASXNxAH4AAnNxAH4ABwAAAAJ3BAAAAAJxAH4BKHEAfgCFeHEAfgDQcHhxAH4AHXEAfgBNcQB+AF14cQB+AB1zcQB+AAJzcQB+AAcAAAACdwQAAAACc3EAfgACc3EAfgAHAAAAAncEAAAAAnNxAH4AAnNxAH4ABwAAAAB3BAAAAAB4cQB+AD9xAH4BNHNxAH4AAnNxAH4ABwAAAAJ3BAAAAAJzcQB+AAJzcQB+AAcAAAAAdwQAAAAAeHEAfgBFcQB+AThzcQB+AAJzcQB+AAcAAAAAdwQAAAAAeHEAfgBFcQB+ATh4cQB+AB1xAH4BNHhxAH4ASXEAfgEycQB+AE14cQB+AElzcQB+AAJzcQB+AAcAAAACdwQAAAACcQB+ATJxAH4AhXhxAH4A0HB4cQB+AElzcQB+AAJzcQB+AAcAAAACdwQAAAACcQB+AEtxAH4AhXhxAH4A0HB4cQB+AElxAH4ALXEAfgBNeHEAfgBJcQB+ACtxAH4AhXhxAH4A0HBzcQB+AAJzcQB+AAcAAAACdwQAAAACc3EAfgACc3EAfgAHAAAAAncEAAAAAnNxAH4AAnNxAH4ABwAAAAJ3BAAAAAJzcQB+AAJzcQB+AAcAAAAAdwQAAAAAeHEAfgBacQB+AUZzcQB+AAJzcQB+AAcAAAACdwQAAAACc3EAfgACc3EAfgAHAAAAAHcEAAAAAHhxAH4AWnEAfgFKc3EAfgACc3EAfgAHAAAAAncEAAAAAnNxAH4AAnNxAH4ABwAAAAJ3BAAAAAJzcQB+AAJzcQB+AAcAAAAAdwQAAAAAeHNxAH4ADXQAA3gxNHEAfgFQc3EAfgACc3EAfgAHAAAAAHcEAAAAAHhzcQB+AA10AAN4MDlzcQB+AAJzcQB+AAcAAAACdwQAAAACc3EAfgACc3EAfgAHAAAAAHcEAAAAAHhxAH4BWHEAfgFacQB+AVZ4cQB+AK5zcQB+AAJzcQB+AAcAAAACdwQAAAACcQB+AVpzcQB+AAJzcQB+AAcAAAAAdwQAAAAAeHEAfgFYc3EAfgACc3EAfgAHAAAAAncEAAAAAnNxAH4AAnNxAH4ABwAAAAJ3BAAAAAJzcQB+AAJzcQB+AAcAAAAAdwQAAAAAeHEAfgFUcQB+AWRzcQB+AAJzcQB+AAcAAAAAdwQAAAAAeHEAfgFUcQB+AWR4cQB+AK5xAH4BYnEAfgFgeHEAfgCuc3EAfgACc3EAfgAHAAAAAncEAAAAAnNxAH4AAnNxAH4ABwAAAAB3BAAAAAB4cQB+AFpxAH4BanEAfgFieHEAfgCuc3EAfgACc3EAfgAHAAAAAncEAAAAAnNxAH4AAnNxAH4ABwAAAAB3BAAAAAB4cQB+AFpxAH4BbnEAfgFqeHEAfgAdc3EAfgACc3EAfgAHAAAAAncEAAAAAnEAfgFuc3EAfgACc3EAfgAHAAAAAncEAAAAAnNxAH4AAnNxAH4ABwAAAAB3BAAAAAB4cQB+AVhxAH4BdHNxAH4AAnNxAH4ABwAAAAJ3BAAAAAJzcQB+AAJzcQB+AAcAAAAAdwQAAAAAeHEAfgFUcQB+AXhzcQB+AAJzcQB+AAcAAAAAdwQAAAAAeHEAfgFYcQB+AXh4cQB+AK5xAH4BdHhxAH4ArnEAfgFyeHEAfgAdc3EAfgACc3EAfgAHAAAAAncEAAAAAnEAfgFyc3EAfgACc3EAfgAHAAAAAncEAAAAAnNxAH4AAnNxAH4ABwAAAAB3BAAAAAB4cQB+AVhxAH4BgHNxAH4AAnNxAH4ABwAAAAJ3BAAAAAJzcQB+AAJzcQB+AAcAAAAAdwQAAAAAeHEAfgFUcQB+AYRzcQB+AAJzcQB+AAcAAAAAdwQAAAAAeHEAfgFYc3EAfgACc3EAfgAHAAAAAncEAAAAAnNxAH4AAnNxAH4ABwAAAAB3BAAAAAB4cQB+AVhxAH4BinEAfgGIeHEAfgCuc3EAfgACc3EAfgAHAAAAAncEAAAAAnNxAH4AAnNxAH4ABwAAAAB3BAAAAAB4cQB+AVhxAH4BjnEAfgGKeHEAfgCuc3EAfgACc3EAfgAHAAAAAncEAAAAAnNxAH4AAnNxAH4ABwAAAAB3BAAAAAB4cQB+AFpxAH4BknEAfgGOeHEAfgAdcHhxAH4ArnNxAH4AAnNxAH4ABwAAAAJ3BAAAAAJzcQB+AAJzcQB+AAcAAAACdwQAAAACc3EAfgACc3EAfgAHAAAAAHcEAAAAAHhxAH4BVHEAfgGYc3EAfgACc3EAfgAHAAAAAHcEAAAAAHhxAH4BWHEAfgGYeHEAfgCucQB+AZZxAH4BhHhxAH4ArnNxAH4AAnNxAH4ABwAAAAJ3BAAAAAJzcQB+AAJzcQB+AAcAAAAAdwQAAAAAeHEAfgBacQB+AZ5xAH4BlnhxAH4AHXB4cQB+AK5xAH4BfnhxAH4AHXB4cQB+AK5zcQB+AAJzcQB+AAcAAAACdwQAAAACc3EAfgACc3EAfgAHAAAAAHcEAAAAAHhxAH4AWnEAfgGicQB+AV54cQB+AK5zcQB+AAJzcQB+AAcAAAACdwQAAAACc3EAfgACc3EAfgAHAAAAAHcEAAAAAHhxAH4AWnEAfgGmcQB+AaJ4cQB+AB1zcQB+AAJzcQB+AAcAAAACdwQAAAACcQB+AaZxAH4BdHhxAH4AHXNxAH4AAnNxAH4ABwAAAAJ3BAAAAAJxAH4BqnEAfgGAeHEAfgAdcHhxAH4ArnEAfgFOcQB+AWB4cQB+AK5xAH4BSnhxAH4ArnNxAH4AAnNxAH4ABwAAAAJ3BAAAAAJzcQB+AAJzcQB+AAcAAAACdwQAAAACc3EAfgACc3EAfgAHAAAAAHcEAAAAAHhxAH4BVHEAfgGwc3EAfgACc3EAfgAHAAAAAHcEAAAAAHhxAH4BWHEAfgGweHEAfgCucQB+Aa5xAH4BSnhxAH4AHXNxAH4AAnNxAH4ABwAAAAJ3BAAAAAJxAH4BrnEAfgF0eHEAfgAdc3EAfgACc3EAfgAHAAAAAncEAAAAAnEAfgG2cQB+AYB4cQB+AB1weHEAfgAdcQB+AURxAH4BdHhxAH4AHXEAfgFCcQB+AYB4cQB+AB1wc3EAfgACc3EAfgAHAAAAAncEAAAAAnNxAH4AAnNxAH4ABwAAAAJ3BAAAAAJzcQB+AAJzcQB+AAcAAAAAdwQAAAAAeHNxAH4ANz/gAAAAAAAAcQB+AbxzcQB+AAJzcQB+AAcAAAAAdwQAAAAAeHNxAH4AN0AAAAAAAAAAc3EAfgACc3EAfgAHAAAAAncEAAAAAnNxAH4AAnNxAH4ABwAAAAB3BAAAAAB4cQB+AcNxAH4BxHEAfgHBeHEAfgCuc3EAfgACc3EAfgAHAAAAAncEAAAAAnEAfgHEc3EAfgACc3EAfgAHAAAAAncEAAAAAnNxAH4AAnNxAH4ABwAAAAJ3BAAAAAJzcQB+AAJzcQB+AAcAAAAAdwQAAAAAeHEAfgHDcQB+AcxzcQB+AAJzcQB+AAcAAAACdwQAAAACc3EAfgACc3EAfgAHAAAAAncEAAAAAnNxAH4AAnNxAH4ABwAAAAJ3BAAAAAJzcQB+AAJzcQB+AAcAAAAAdwQAAAAAeHEAfgHDcQB+AdRzcQB+AAJzcQB+AAcAAAACdwQAAAACc3EAfgACc3EAfgAHAAAAAncEAAAAAnNxAH4AAnNxAH4ABwAAAAJ3BAAAAAJzcQB+AAJzcQB+AAcAAAACdwQAAAACc3EAfgACc3EAfgAHAAAAAHcEAAAAAHhxAH4BVHEAfgHec3EAfgACc3EAfgAHAAAAAHcEAAAAAHhxAH4BVHNxAH4AAnNxAH4ABwAAAAJ3BAAAAAJzcQB+AAJzcQB+AAcAAAACdwQAAAACc3EAfgACc3EAfgAHAAAAAHcEAAAAAHhzcQB+AA10AAN4MTZxAH4B5nNxAH4AAnNxAH4ABwAAAAB3BAAAAAB4cQB+AVRxAH4B5nhxAH4A0HEAfgHkcQB+AeJ4cQB+ANBzcQB+AAJzcQB+AAcAAAACdwQAAAACcQB+AeRzcQB+AAJzcQB+AAcAAAAAdwQAAAAAeHEAfgFUcQB+Ae54cQB+ANBzcQB+AAJzcQB+AAcAAAACdwQAAAACcQB+Ae5zcQB+AAJzcQB+AAcAAAAAdwQAAAAAeHEAfgFUcQB+AfJ4cQB+ANBzcQB+AAJzcQB+AAcAAAACdwQAAAACcQB+AfJzcQB+AAJzcQB+AAcAAAAAdwQAAAAAeHEAfgFUc3EAfgACc3EAfgAHAAAAAncEAAAAAnNxAH4AAnNxAH4ABwAAAAB3BAAAAAB4cQB+AcNxAH4B+nEAfgH4eHEAfgDQc3EAfgACc3EAfgAHAAAAAncEAAAAAnNxAH4AAnNxAH4ABwAAAAB3BAAAAAB4cQB+AcNxAH4B/nEAfgH6eHEAfgCuc3EAfgACc3EAfgAHAAAAAncEAAAAAnEAfgH+c3EAfgACc3EAfgAHAAAAAHcEAAAAAHhxAH4BVHEAfgICeHEAfgDQc3EAfgACc3EAfgAHAAAAAncEAAAAAnEAfgICc3EAfgACc3EAfgAHAAAAAHcEAAAAAHhxAH4BVHEAfgIGeHEAfgDQc3EAfgACc3EAfgAHAAAAAncEAAAAAnNxAH4AAnNxAH4ABwAAAAB3BAAAAAB4cQB+AcNxAH4CCnEAfgIGeHEAfgCuc3EAfgACc3EAfgAHAAAAAncEAAAAAnEAfgIKc3EAfgACc3EAfgAHAAAAAncEAAAAAnNxAH4AAnNxAH4ABwAAAAJ3BAAAAAJzcQB+AAJzcQB+AAcAAAACdwQAAAACc3EAfgACc3EAfgAHAAAAAncEAAAAAnNxAH4AAnNxAH4ABwAAAAB3BAAAAAB4cQB+AepxAH4CFnNxAH4AAnNxAH4ABwAAAAB3BAAAAAB4cQB+AVRzcQB+AAJzcQB+AAcAAAACdwQAAAACc3EAfgACc3EAfgAHAAAAAHcEAAAAAHhxAH4BVHEAfgIccQB+Ahp4cQB+ANBzcQB+AAJzcQB+AAcAAAACdwQAAAACcQB+AhxzcQB+AAJzcQB+AAcAAAAAdwQAAAAAeHEAfgFUcQB+AiB4cQB+ANBzcQB+AAJzcQB+AAcAAAACdwQAAAACcQB+AiBzcQB+AAJzcQB+AAcAAAACdwQAAAACc3EAfgACc3EAfgAHAAAAAHcEAAAAAHhxAH4B6nEAfgImc3EAfgACc3EAfgAHAAAAAHcEAAAAAHhxAH4BVHNxAH4AAnNxAH4ABwAAAAJ3BAAAAAJzcQB+AAJzcQB+AAcAAAACdwQAAAACc3EAfgACc3EAfgAHAAAAAHcEAAAAAHhxAH4BVHEAfgIuc3EAfgACc3EAfgAHAAAAAHcEAAAAAHhxAH4BVHEAfgIueHEAfgDQcQB+AixxAH4CKnhxAH4A0HNxAH4AAnNxAH4ABwAAAAJ3BAAAAAJzcQB+AAJzcQB+AAcAAAAAdwQAAAAAeHEAfgHDcQB+AjRxAH4CLHhxAH4ArnNxAH4AAnNxAH4ABwAAAAJ3BAAAAAJxAH4CNHNxAH4AAnNxAH4ABwAAAAB3BAAAAAB4cQB+ACdzcQB+AAJzcQB+AAcAAAACdwQAAAACcQB+AiRxAH4COnhxAH4AHXNxAH4AAnNxAH4ABwAAAAJ3BAAAAAJzcQB+AAJzcQB+AAcAAAACdwQAAAACc3EAfgACc3EAfgAHAAAAAHcEAAAAAHhxAH4Bw3EAfgJAc3EAfgACc3EAfgAHAAAAAncEAAAAAnNxAH4AAnNxAH4ABwAAAAJ3BAAAAAJzcQB+AAJzcQB+AAcAAAACdwQAAAACc3EAfgACc3EAfgAHAAAAAHcEAAAAAHhxAH4Bw3EAfgJIc3EAfgACc3EAfgAHAAAAAncEAAAAAnNxAH4AAnNxAH4ABwAAAAJ3BAAAAAJzcQB+AAJzcQB+AAcAAAACdwQAAAACc3EAfgACc3EAfgAHAAAAAncEAAAAAnNxAH4AAnNxAH4ABwAAAAB3BAAAAAB4cQB+AVRxAH4CUnNxAH4AAnNxAH4ABwAAAAB3BAAAAAB4cQB+AVRxAH4CUnhxAH4A0HEAfgJQc3EAfgACc3EAfgAHAAAAAHcEAAAAAHhxAH4BVHEAfgJQeHEAfgDQcQB+Ak5zcQB+AAJzcQB+AAcAAAAAdwQAAAAAeHEAfgFUcQB+Ak54cQB+ANBxAH4CTHNxAH4AAnNxAH4ABwAAAAB3BAAAAAB4cQB+AVRxAH4CTHhxAH4A0HEAfgJIeHEAfgCucQB+AkZzcQB+AAJzcQB+AAcAAAAAdwQAAAAAeHEAfgFUcQB+AkZ4cQB+ANBxAH4CRHNxAH4AAnNxAH4ABwAAAAB3BAAAAAB4cQB+AVRxAH4CRHhxAH4A0HEAfgJAeHEAfgCucQB+Aj5xAH4CPHhxAH4AHXNxAH4AAnNxAH4ABwAAAAJ3BAAAAAJzcQB+AAJzcQB+AAcAAAACdwQAAAACc3EAfgACc3EAfgAHAAAAAHcEAAAAAHhxAH4BwHEAfgJkc3EAfgACc3EAfgAHAAAAAHcEAAAAAHhxAH4Bw3EAfgJkeHEAfgCucQB+AmJxAH4CPnhxAH4A0HB4cQB+AB1zcQB+AAJzcQB+AAcAAAACdwQAAAACc3EAfgACc3EAfgAHAAAAAncEAAAAAnNxAH4AAnNxAH4ABwAAAAB3BAAAAAB4cQB+AcNxAH4CbHNxAH4AAnNxAH4ABwAAAAJ3BAAAAAJzcQB+AAJzcQB+AAcAAAACdwQAAAACc3EAfgACc3EAfgAHAAAAAncEAAAAAnNxAH4AAnNxAH4ABwAAAAB3BAAAAAB4cQB+AcNxAH4CdHNxAH4AAnNxAH4ABwAAAAJ3BAAAAAJzcQB+AAJzcQB+AAcAAAACdwQAAAACc3EAfgACc3EAfgAHAAAAAncEAAAAAnNxAH4AAnNxAH4ABwAAAAB3BAAAAAB4cQB+AVRxAH4CfHNxAH4AAnNxAH4ABwAAAAB3BAAAAAB4cQB+AVRxAH4CfHhxAH4A0HEAfgJ6c3EAfgACc3EAfgAHAAAAAHcEAAAAAHhxAH4BVHEAfgJ6eHEAfgDQcQB+AnhzcQB+AAJzcQB+AAcAAAAAdwQAAAAAeHEAfgFUcQB+Anh4cQB+ANBxAH4CdHhxAH4ArnEAfgJyc3EAfgACc3EAfgAHAAAAAHcEAAAAAHhxAH4BVHEAfgJyeHEAfgDQcQB+AnBzcQB+AAJzcQB+AAcAAAAAdwQAAAAAeHEAfgFUcQB+AnB4cQB+ANBxAH4CbHhxAH4ArnEAfgJqcQB+Ajh4cQB+AB1zcQB+AAJzcQB+AAcAAAACdwQAAAACc3EAfgACc3EAfgAHAAAAAncEAAAAAnNxAH4AAnNxAH4ABwAAAAB3BAAAAAB4cQB+AcBxAH4CjHNxAH4AAnNxAH4ABwAAAAB3BAAAAAB4cQB+AcNxAH4CjHhxAH4ArnEAfgKKcQB+Amp4cQB+ANBweHEAfgDQcQB+AiR4cQB+AK5xAH4CPHhxAH4A0HEAfgIUcQB+AiJ4cQB+ANBxAH4CEnEAfgImeHEAfgCucQB+AhBxAH4COnhxAH4AHXEAfgIOeHEAfgAdc3EAfgACc3EAfgAHAAAAAncEAAAAAnNxAH4AAnNxAH4ABwAAAAJ3BAAAAAJzcQB+AAJzcQB+AAcAAAAAdwQAAAAAeHEAfgHAcQB+ApRzcQB+AAJzcQB+AAcAAAAAdwQAAAAAeHEAfgHDcQB+ApR4cQB+AK5xAH4CknEAfgIOeHEAfgDQcHhxAH4A0HNxAH4AAnNxAH4ABwAAAAJ3BAAAAAJzcQB+AAJzcQB+AAcAAAAAdwQAAAAAeHEAfgHDcQB+AppxAH4B9nhxAH4ArnNxAH4AAnNxAH4ABwAAAAJ3BAAAAAJxAH4CmnEAfgIEeHEAfgDQc3EAfgACc3EAfgAHAAAAAncEAAAAAnEAfgKecQB+Agh4cQB+ANBzcQB+AAJzcQB+AAcAAAACdwQAAAACc3EAfgACc3EAfgAHAAAAAHcEAAAAAHhxAH4Bw3EAfgKicQB+AqB4cQB+AK5zcQB+AAJzcQB+AAcAAAACdwQAAAACcQB+AqJxAH4CEHhxAH4AHXNxAH4AAnNxAH4ABwAAAAJ3BAAAAAJzcQB+AAJzcQB+AAcAAAACdwQAAAACc3EAfgACc3EAfgAHAAAAAHcEAAAAAHhxAH4BwHEAfgKqc3EAfgACc3EAfgAHAAAAAHcEAAAAAHhxAH4Bw3EAfgKqeHEAfgCucQB+AqhxAH4CpnhxAH4A0HB4cQB+ANBxAH4B3HEAfgHweHEAfgDQcQB+AdpxAH4B9HhxAH4A0HEAfgHYcQB+Afh4cQB+ANBxAH4B1HhxAH4ArnEAfgHScQB+AgR4cQB+ANBxAH4B0HEAfgIIeHEAfgDQcQB+Acx4cQB+AK5xAH4BynEAfgIQeHEAfgAdc3EAfgACc3EAfgAHAAAAAncEAAAAAnNxAH4AAnNxAH4ABwAAAAJ3BAAAAAJzcQB+AAJzcQB+AAcAAAAAdwQAAAAAeHEAfgFUcQB+ArJzcQB+AAJzcQB+AAcAAAAAdwQAAAAAeHEAfgFUcQB+ArJ4cQB+ANBxAH4CsHEAfgHKeHEAfgDQcHhxAH4A0HB4cQB+AK5xAH4BunEAfgHKeHEAfgDQcHg=";
    "rO0ABXNyABFqYXZhLnV0aWwuQ29sbFNlcleOq7Y6G6gRAwABSQADdGFneHAAAAAEdwQAAAAEc3IAN2lvLmdpdGh1Yi5lcmljbWVkdmV0LmpnZWEuY29yZS5yZXByZXNlbnRhdGlvbi50cmVlLlRyZWUKs7/qnQrEZQIAA0wACGNoaWxkcmVudAAQTGphdmEvdXRpbC9MaXN0O0wAB2NvbnRlbnR0ABJMamF2YS9sYW5nL09iamVjdDtMAAZwYXJlbnR0ADlMaW8vZ2l0aHViL2VyaWNtZWR2ZXQvamdlYS9jb3JlL3JlcHJlc2VudGF0aW9uL3RyZWUvVHJlZTt4cHNyABNqYXZhLnV0aWwuQXJyYXlMaXN0eIHSHZnHYZ0DAAFJAARzaXpleHAAAAACdwQAAAACc3EAfgACc3EAfgAHAAAAAncEAAAAAnNxAH4AAnNxAH4ABwAAAAB3BAAAAAB4c3IAS2lvLmdpdGh1Yi5lcmljbWVkdmV0LmpnZWEuY29yZS5yZXByZXNlbnRhdGlvbi50cmVlLm51bWVyaWMuRWxlbWVudCRWYXJpYWJsZQAAAAAAAAAAAgABTAAEbmFtZXQAEkxqYXZhL2xhbmcvU3RyaW5nO3hwdAADeDAxcQB+AAlzcQB+AAJzcQB+AAcAAAAAdwQAAAAAeHEAfgAPc3EAfgACc3EAfgAHAAAAAncEAAAAAnNxAH4AAnNxAH4ABwAAAAJ3BAAAAAJzcQB+AAJzcQB+AAcAAAAAdwQAAAAAeHEAfgAPcQB+ABVzcQB+AAJzcQB+AAcAAAAAdwQAAAAAeHEAfgAPcQB+ABV4fnIAS2lvLmdpdGh1Yi5lcmljbWVkdmV0LmpnZWEuY29yZS5yZXByZXNlbnRhdGlvbi50cmVlLm51bWVyaWMuRWxlbWVudCRPcGVyYXRvcgAAAAAAAAAAEgAAeHIADmphdmEubGFuZy5FbnVtAAAAAAAAAAASAAB4cHQACEFERElUSU9OcQB+ABNxAH4AEXhxAH4AHXNxAH4AAnNxAH4ABwAAAAJ3BAAAAAJxAH4AE3NxAH4AAnNxAH4ABwAAAAJ3BAAAAAJzcQB+AAJzcQB+AAcAAAAAdwQAAAAAeHEAfgAPcQB+ACFzcQB+AAJzcQB+AAcAAAAAdwQAAAAAeHNxAH4ADXQAA3gwNnEAfgAheH5xAH4AG3QADVBST1RfRElWSVNJT05xAH4AH3hxAH4AHXB4cQB+AB1xAH4ABnEAfgAheHEAfgAdcHNxAH4AAnNxAH4ABwAAAAJ3BAAAAAJzcQB+AAJzcQB+AAcAAAACdwQAAAACc3EAfgACc3EAfgAHAAAAAncEAAAAAnNxAH4AAnNxAH4ABwAAAAB3BAAAAAB4c3EAfgANdAADeDEycQB+AC9zcQB+AAJzcQB+AAcAAAAAdwQAAAAAeHNyAEtpby5naXRodWIuZXJpY21lZHZldC5qZ2VhLmNvcmUucmVwcmVzZW50YXRpb24udHJlZS5udW1lcmljLkVsZW1lbnQkQ29uc3RhbnQAAAAAAAAAAAIAAUQABXZhbHVleHBABAAAAAAAAHNxAH4AAnNxAH4ABwAAAAJ3BAAAAAJzcQB+AAJzcQB+AAcAAAAAdwQAAAAAeHNxAH4ANz/wAAAAAAAAcQB+ADlxAH4ANXh+cQB+ABt0AAhQUk9UX0xPR3NxAH4AAnNxAH4ABwAAAAJ3BAAAAAJxAH4AOXNxAH4AAnNxAH4ABwAAAAJ3BAAAAAJzcQB+AAJzcQB+AAcAAAACdwQAAAACc3EAfgACc3EAfgAHAAAAAHcEAAAAAHhzcQB+ADcAAAAAAAAAAHEAfgBEc3EAfgACc3EAfgAHAAAAAHcEAAAAAHhzcQB+AA10AAN4MTFzcQB+AAJzcQB+AAcAAAACdwQAAAACc3EAfgACc3EAfgAHAAAAAHcEAAAAAHhxAH4APXEAfgBNcQB+AEl4cQB+AB1zcQB+AAJzcQB+AAcAAAACdwQAAAACcQB+AE1zcQB+AAJzcQB+AAcAAAACdwQAAAACc3EAfgACc3EAfgAHAAAAAHcEAAAAAHhzcQB+AA10AAN4MTBxAH4AU3NxAH4AAnNxAH4ABwAAAAJ3BAAAAAJzcQB+AAJzcQB+AAcAAAAAdwQAAAAAeHEAfgBLcQB+AFlzcQB+AAJzcQB+AAcAAAAAdwQAAAAAeHEAfgBLcQB+AFl4cQB+AB1zcQB+AAJzcQB+AAcAAAACdwQAAAACc3EAfgACc3EAfgAHAAAAAHcEAAAAAHhxAH4AS3EAfgBfcQB+AFl4cQB+AD5zcQB+AAJzcQB+AAcAAAACdwQAAAACc3EAfgACc3EAfgAHAAAAAncEAAAAAnNxAH4AAnNxAH4ABwAAAAB3BAAAAAB4cQB+AEhxAH4AZXNxAH4AAnNxAH4ABwAAAAB3BAAAAAB4cQB+AEtxAH4AZXhxAH4AHXEAfgBjcQB+AF94cQB+AB1zcQB+AAJzcQB+AAcAAAACdwQAAAACc3EAfgACc3EAfgAHAAAAAncEAAAAAnNxAH4AAnNxAH4ABwAAAAB3BAAAAAB4cQB+ADNxAH4AbXNxAH4AAnNxAH4ABwAAAAB3BAAAAAB4cQB+ADhxAH4AbXhxAH4APnEAfgBrcQB+AGN4cQB+AD5zcQB+AAJzcQB+AAcAAAACdwQAAAACcQB+AGtzcQB+AAJzcQB+AAcAAAACdwQAAAACc3EAfgACc3EAfgAHAAAAAHcEAAAAAHhzcQB+AA10AAN4MDVxAH4AdXNxAH4AAnNxAH4ABwAAAAJ3BAAAAAJzcQB+AAJzcQB+AAcAAAAAdwQAAAAAeHEAfgBXcQB+AHtzcQB+AAJzcQB+AAcAAAAAdwQAAAAAeHNxAH4AN0AMAAAAAAAAc3EAfgACc3EAfgAHAAAAAncEAAAAAnNxAH4AAnNxAH4ABwAAAAJ3BAAAAAJzcQB+AAJzcQB+AAcAAAACdwQAAAACc3EAfgACc3EAfgAHAAAAAHcEAAAAAHhxAH4AM3EAfgCGc3EAfgACc3EAfgAHAAAAAHcEAAAAAHhxAH4AOHEAfgCGeHEAfgA+cQB+AIRzcQB+AAJzcQB+AAcAAAACdwQAAAACc3EAfgACc3EAfgAHAAAAAncEAAAAAnNxAH4AAnNxAH4ABwAAAAB3BAAAAAB4cQB+AEhxAH4AjnNxAH4AAnNxAH4ABwAAAAB3BAAAAAB4cQB+AEtxAH4AjnhxAH4AHXEAfgCMc3EAfgACc3EAfgAHAAAAAncEAAAAAnNxAH4AAnNxAH4ABwAAAAB3BAAAAAB4cQB+AD1xAH4AlHNxAH4AAnNxAH4ABwAAAAJ3BAAAAAJzcQB+AAJzcQB+AAcAAAAAdwQAAAAAeHEAfgBLcQB+AJhzcQB+AAJzcQB+AAcAAAAAdwQAAAAAeHEAfgA9cQB+AJh4cQB+AB1xAH4AlHhxAH4APnEAfgCMeHEAfgAdcQB+AIR4cQB+AD5xAH4AgnEAfgB/eH5xAH4AG3QADk1VTFRJUExJQ0FUSU9Oc3EAfgACc3EAfgAHAAAAAncEAAAAAnNxAH4AAnNxAH4ABwAAAAB3BAAAAAB4cQB+AHlxAH4AoHEAfgCCeHEAfgCec3EAfgACc3EAfgAHAAAAAncEAAAAAnNxAH4AAnNxAH4ABwAAAAJ3BAAAAAJzcQB+AAJzcQB+AAcAAAACdwQAAAACc3EAfgACc3EAfgAHAAAAAHcEAAAAAHhxAH4AM3EAfgCoc3EAfgACc3EAfgAHAAAAAHcEAAAAAHhxAH4AOHEAfgCoeHEAfgA+cQB+AKZzcQB+AAJzcQB+AAcAAAACdwQAAAACc3EAfgACc3EAfgAHAAAAAncEAAAAAnNxAH4AAnNxAH4ABwAAAAB3BAAAAAB4cQB+AEhxAH4AsHNxAH4AAnNxAH4ABwAAAAB3BAAAAAB4cQB+AEtxAH4AsHhxAH4AHXEAfgCuc3EAfgACc3EAfgAHAAAAAncEAAAAAnNxAH4AAnNxAH4ABwAAAAB3BAAAAAB4cQB+AD1xAH4AtnNxAH4AAnNxAH4ABwAAAAJ3BAAAAAJzcQB+AAJzcQB+AAcAAAAAdwQAAAAAeHEAfgBLcQB+ALpzcQB+AAJzcQB+AAcAAAAAdwQAAAAAeHEAfgA9cQB+ALp4cQB+AB1xAH4AtnhxAH4APnEAfgCueHEAfgAdcQB+AKZ4cQB+AD5xAH4ApHEAfgCgeH5xAH4AG3QAC1NVQlRSQUNUSU9OcHhxAH4AnnNxAH4AAnNxAH4ABwAAAAJ3BAAAAAJzcQB+AAJzcQB+AAcAAAACdwQAAAACc3EAfgACc3EAfgAHAAAAAHcEAAAAAHhxAH4APXEAfgDEc3EAfgACc3EAfgAHAAAAAncEAAAAAnNxAH4AAnNxAH4ABwAAAAB3BAAAAAB4cQB+AEtxAH4AyHNxAH4AAnNxAH4ABwAAAAB3BAAAAAB4cQB+AD1xAH4AyHhxAH4AHXEAfgDEeHEAfgA+cQB+AMJxAH4Ae3hxAH4AnnNxAH4AAnNxAH4ABwAAAAJ3BAAAAAJzcQB+AAJzcQB+AAcAAAACdwQAAAACc3EAfgACc3EAfgAHAAAAAncEAAAAAnNxAH4AAnNxAH4ABwAAAAB3BAAAAAB4cQB+ADNxAH4A0nNxAH4AAnNxAH4ABwAAAAB3BAAAAAB4cQB+ADhxAH4A0nhxAH4APnEAfgDQc3EAfgACc3EAfgAHAAAAAncEAAAAAnNxAH4AAnNxAH4ABwAAAAJ3BAAAAAJzcQB+AAJzcQB+AAcAAAAAdwQAAAAAeHEAfgBIcQB+ANpzcQB+AAJzcQB+AAcAAAAAdwQAAAAAeHEAfgBLcQB+ANp4cQB+AB1xAH4A2HNxAH4AAnNxAH4ABwAAAAJ3BAAAAAJzcQB+AAJzcQB+AAcAAAAAdwQAAAAAeHEAfgBXcQB+AOBzcQB+AAJzcQB+AAcAAAACdwQAAAACc3EAfgACc3EAfgAHAAAAAHcEAAAAAHhxAH4AS3EAfgDkc3EAfgACc3EAfgAHAAAAAHcEAAAAAHhxAH4APXEAfgDkeHEAfgAdcQB+AOB4cQB+AD5xAH4A2HhxAH4AHXEAfgDQeHEAfgA+cQB+AM5xAH4AwnhxAH4AwHB4cQB+AJ5zcQB+AAJzcQB+AAcAAAACdwQAAAACc3EAfgACc3EAfgAHAAAAAncEAAAAAnNxAH4AAnNxAH4ABwAAAAJ3BAAAAAJzcQB+AAJzcQB+AAcAAAAAdwQAAAAAeHEAfgAzcQB+AO5zcQB+AAJzcQB+AAcAAAAAdwQAAAAAeHEAfgA4cQB+AO54cQB+AD5xAH4A7HNxAH4AAnNxAH4ABwAAAAB3BAAAAAB4cQB+AIFxAH4A7HhxAH4APnEAfgDqcQB+AHV4cQB+AMBweHEAfgDAcHhxAH4APnNxAH4AAnNxAH4ABwAAAAJ3BAAAAAJzcQB+AAJzcQB+AAcAAAAAdwQAAAAAeHEAfgBXcQB+APZxAH4AU3hxAH4AHXNxAH4AAnNxAH4ABwAAAAJ3BAAAAAJzcQB+AAJzcQB+AAcAAAACdwQAAAACc3EAfgACc3EAfgAHAAAAAHcEAAAAAHhxAH4AM3EAfgD8c3EAfgACc3EAfgAHAAAAAHcEAAAAAHhxAH4AOHEAfgD8eHEAfgA+cQB+APpxAH4A9nhxAH4APnNxAH4AAnNxAH4ABwAAAAJ3BAAAAAJxAH4A+nEAfgB1eHEAfgDAcHhxAH4AHXNxAH4AAnNxAH4ABwAAAAJ3BAAAAAJzcQB+AAJzcQB+AAcAAAACdwQAAAACc3EAfgACc3EAfgAHAAAAAHcEAAAAAHhxAH4AM3EAfgEGc3EAfgACc3EAfgAHAAAAAHcEAAAAAHhxAH4AOHEAfgEGeHEAfgA+cQB+AQRxAH4AUXhxAH4APnNxAH4AAnNxAH4ABwAAAAJ3BAAAAAJxAH4BBHEAfgB1eHEAfgDAcHhxAH4AHXEAfgBCcQB+AFN4cQB+AB1zcQB+AAJzcQB+AAcAAAACdwQAAAACc3EAfgACc3EAfgAHAAAAAHcEAAAAAHhxAH4AS3EAfgEOcQB+AEJ4cQB+AD5zcQB+AAJzcQB+AAcAAAACdwQAAAACcQB+AQ5xAH4AdXhxAH4AwHB4cQB+AD5zcQB+AAJzcQB+AAcAAAACdwQAAAACcQB+AEBxAH4AdXhxAH4AwHB4cQB+AD5xAH4ALXEAfgBCeHEAfgA+cQB+ACtxAH4AdXhxAH4AwHBzcQB+AAJzcQB+AAcAAAACdwQAAAACc3EAfgACc3EAfgAHAAAAAncEAAAAAnNxAH4AAnNxAH4ABwAAAAJ3BAAAAAJzcQB+AAJzcQB+AAcAAAAAdwQAAAAAeHEAfgA9cQB+ARpzcQB+AAJzcQB+AAcAAAACdwQAAAACc3EAfgACc3EAfgAHAAAAAHcEAAAAAHhxAH4APXEAfgEec3EAfgACc3EAfgAHAAAAAncEAAAAAnNxAH4AAnNxAH4ABwAAAAJ3BAAAAAJzcQB+AAJzcQB+AAcAAAAAdwQAAAAAeHNxAH4ADXQAA3gxNHEAfgEkc3EAfgACc3EAfgAHAAAAAHcEAAAAAHhzcQB+AA10AAN4MDlzcQB+AAJzcQB+AAcAAAACdwQAAAACc3EAfgACc3EAfgAHAAAAAHcEAAAAAHhxAH4BLHEAfgEucQB+ASp4cQB+AJ5zcQB+AAJzcQB+AAcAAAACdwQAAAACcQB+AS5zcQB+AAJzcQB+AAcAAAAAdwQAAAAAeHEAfgEsc3EAfgACc3EAfgAHAAAAAncEAAAAAnNxAH4AAnNxAH4ABwAAAAJ3BAAAAAJzcQB+AAJzcQB+AAcAAAAAdwQAAAAAeHEAfgEocQB+AThzcQB+AAJzcQB+AAcAAAAAdwQAAAAAeHEAfgEocQB+ATh4cQB+AJ5xAH4BNnEAfgE0eHEAfgCec3EAfgACc3EAfgAHAAAAAncEAAAAAnNxAH4AAnNxAH4ABwAAAAB3BAAAAAB4cQB+AD1xAH4BPnEAfgE2eHEAfgCec3EAfgACc3EAfgAHAAAAAncEAAAAAnNxAH4AAnNxAH4ABwAAAAB3BAAAAAB4cQB+AD1xAH4BQnEAfgE+eHEAfgAdc3EAfgACc3EAfgAHAAAAAncEAAAAAnEAfgFCc3EAfgACc3EAfgAHAAAAAncEAAAAAnNxAH4AAnNxAH4ABwAAAAB3BAAAAAB4cQB+ASxxAH4BSHNxAH4AAnNxAH4ABwAAAAJ3BAAAAAJzcQB+AAJzcQB+AAcAAAAAdwQAAAAAeHEAfgEocQB+AUxzcQB+AAJzcQB+AAcAAAAAdwQAAAAAeHEAfgEscQB+AUx4cQB+AJ5xAH4BSHhxAH4AnnEAfgFGeHEAfgAdc3EAfgACc3EAfgAHAAAAAncEAAAAAnEAfgFGc3EAfgACc3EAfgAHAAAAAncEAAAAAnNxAH4AAnNxAH4ABwAAAAB3BAAAAAB4cQB+ASxxAH4BVHNxAH4AAnNxAH4ABwAAAAJ3BAAAAAJzcQB+AAJzcQB+AAcAAAAAdwQAAAAAeHEAfgEocQB+AVhzcQB+AAJzcQB+AAcAAAAAdwQAAAAAeHEAfgEsc3EAfgACc3EAfgAHAAAAAncEAAAAAnNxAH4AAnNxAH4ABwAAAAB3BAAAAAB4cQB+ASxxAH4BXnEAfgFceHEAfgCec3EAfgACc3EAfgAHAAAAAncEAAAAAnNxAH4AAnNxAH4ABwAAAAB3BAAAAAB4cQB+ASxxAH4BYnEAfgFeeHEAfgCec3EAfgACc3EAfgAHAAAAAncEAAAAAnNxAH4AAnNxAH4ABwAAAAB3BAAAAAB4cQB+AD1xAH4BZnEAfgFieHEAfgAdcHhxAH4AnnNxAH4AAnNxAH4ABwAAAAJ3BAAAAAJzcQB+AAJzcQB+AAcAAAACdwQAAAACc3EAfgACc3EAfgAHAAAAAHcEAAAAAHhxAH4BKHEAfgFsc3EAfgACc3EAfgAHAAAAAHcEAAAAAHhxAH4BLHEAfgFseHEAfgCecQB+AWpxAH4BWHhxAH4AnnNxAH4AAnNxAH4ABwAAAAJ3BAAAAAJzcQB+AAJzcQB+AAcAAAAAdwQAAAAAeHEAfgA9cQB+AXJxAH4BanhxAH4AHXB4cQB+AJ5xAH4BUnhxAH4AHXB4cQB+AJ5zcQB+AAJzcQB+AAcAAAACdwQAAAACc3EAfgACc3EAfgAHAAAAAHcEAAAAAHhxAH4APXEAfgF2cQB+ATJ4cQB+AJ5zcQB+AAJzcQB+AAcAAAACdwQAAAACc3EAfgACc3EAfgAHAAAAAHcEAAAAAHhxAH4APXEAfgF6cQB+AXZ4cQB+AB1zcQB+AAJzcQB+AAcAAAACdwQAAAACcQB+AXpxAH4BSHhxAH4AHXNxAH4AAnNxAH4ABwAAAAJ3BAAAAAJxAH4BfnEAfgFUeHEAfgAdcHhxAH4AnnEAfgEicQB+ATR4cQB+AJ5xAH4BHnhxAH4AnnNxAH4AAnNxAH4ABwAAAAJ3BAAAAAJzcQB+AAJzcQB+AAcAAAACdwQAAAACc3EAfgACc3EAfgAHAAAAAHcEAAAAAHhxAH4BKHEAfgGEc3EAfgACc3EAfgAHAAAAAHcEAAAAAHhxAH4BLHEAfgGEeHEAfgCecQB+AYJxAH4BHnhxAH4AHXNxAH4AAnNxAH4ABwAAAAJ3BAAAAAJxAH4BgnEAfgFIeHEAfgAdc3EAfgACc3EAfgAHAAAAAncEAAAAAnEAfgGKcQB+AVR4cQB+AB1weHEAfgAdcQB+ARhxAH4BSHhxAH4AHXEAfgEWcQB+AVR4cQB+AB1wc3EAfgACc3EAfgAHAAAAAncEAAAAAnNxAH4AAnNxAH4ABwAAAAJ3BAAAAAJzcQB+AAJzcQB+AAcAAAAAdwQAAAAAeHNxAH4ANz/gAAAAAAAAcQB+AZBzcQB+AAJzcQB+AAcAAAAAdwQAAAAAeHNxAH4AN0AAAAAAAAAAc3EAfgACc3EAfgAHAAAAAncEAAAAAnNxAH4AAnNxAH4ABwAAAAB3BAAAAAB4cQB+AShxAH4BmHEAfgGVeHEAfgCec3EAfgACc3EAfgAHAAAAAncEAAAAAnEAfgGYc3EAfgACc3EAfgAHAAAAAncEAAAAAnNxAH4AAnNxAH4ABwAAAAJ3BAAAAAJzcQB+AAJzcQB+AAcAAAAAdwQAAAAAeHEAfgGXcQB+AaBzcQB+AAJzcQB+AAcAAAACdwQAAAACc3EAfgACc3EAfgAHAAAAAncEAAAAAnNxAH4AAnNxAH4ABwAAAAJ3BAAAAAJzcQB+AAJzcQB+AAcAAAAAdwQAAAAAeHEAfgGXcQB+AahzcQB+AAJzcQB+AAcAAAACdwQAAAACc3EAfgACc3EAfgAHAAAAAncEAAAAAnNxAH4AAnNxAH4ABwAAAAJ3BAAAAAJzcQB+AAJzcQB+AAcAAAACdwQAAAACc3EAfgACc3EAfgAHAAAAAHcEAAAAAHhxAH4BKHEAfgGyc3EAfgACc3EAfgAHAAAAAHcEAAAAAHhxAH4BKHNxAH4AAnNxAH4ABwAAAAJ3BAAAAAJzcQB+AAJzcQB+AAcAAAACdwQAAAACc3EAfgACc3EAfgAHAAAAAHcEAAAAAHhzcQB+AA10AAN4MTZxAH4BunNxAH4AAnNxAH4ABwAAAAB3BAAAAAB4cQB+AShxAH4BunhxAH4AwHEAfgG4cQB+AbZ4cQB+AMBzcQB+AAJzcQB+AAcAAAACdwQAAAACcQB+AbhzcQB+AAJzcQB+AAcAAAAAdwQAAAAAeHEAfgEocQB+AcJ4cQB+AMBzcQB+AAJzcQB+AAcAAAACdwQAAAACcQB+AcJzcQB+AAJzcQB+AAcAAAAAdwQAAAAAeHEAfgEocQB+AcZ4cQB+AMBzcQB+AAJzcQB+AAcAAAACdwQAAAACcQB+AcZzcQB+AAJzcQB+AAcAAAAAdwQAAAAAeHEAfgEocQB+Acp4cQB+AMBzcQB+AAJzcQB+AAcAAAACdwQAAAACc3EAfgACc3EAfgAHAAAAAHcEAAAAAHhxAH4Bl3EAfgHOcQB+Acp4cQB+AJ5zcQB+AAJzcQB+AAcAAAACdwQAAAACcQB+Ac5zcQB+AAJzcQB+AAcAAAAAdwQAAAAAeHEAfgEocQB+AdJ4cQB+AMBzcQB+AAJzcQB+AAcAAAACdwQAAAACcQB+AdJzcQB+AAJzcQB+AAcAAAAAdwQAAAAAeHEAfgEoc3EAfgACc3EAfgAHAAAAAncEAAAAAnNxAH4AAnNxAH4ABwAAAAJ3BAAAAAJzcQB+AAJzcQB+AAcAAAAAdwQAAAAAeHEAfgGUcQB+AdxzcQB+AAJzcQB+AAcAAAAAdwQAAAAAeHEAfgGXcQB+Adx4cQB+AJ5xAH4B2nEAfgHYeHEAfgDAc3EAfgACc3EAfgAHAAAAAncEAAAAAnNxAH4AAnNxAH4ABwAAAAB3BAAAAAB4cQB+AZdxAH4B4nEAfgHaeHEAfgCec3EAfgACc3EAfgAHAAAAAncEAAAAAnEAfgHic3EAfgACc3EAfgAHAAAAAncEAAAAAnNxAH4AAnNxAH4ABwAAAAJ3BAAAAAJzcQB+AAJzcQB+AAcAAAACdwQAAAACc3EAfgACc3EAfgAHAAAAAncEAAAAAnNxAH4AAnNxAH4ABwAAAAB3BAAAAAB4cQB+Ab5xAH4B7nNxAH4AAnNxAH4ABwAAAAB3BAAAAAB4cQB+AShzcQB+AAJzcQB+AAcAAAACdwQAAAACc3EAfgACc3EAfgAHAAAAAHcEAAAAAHhxAH4Bl3EAfgH0cQB+AfJ4cQB+AMBzcQB+AAJzcQB+AAcAAAACdwQAAAACcQB+AfRzcQB+AAJzcQB+AAcAAAAAdwQAAAAAeHEAfgEoc3EAfgACc3EAfgAHAAAAAncEAAAAAnNxAH4AAnNxAH4ABwAAAAJ3BAAAAAJzcQB+AAJzcQB+AAcAAAACdwQAAAACc3EAfgACc3EAfgAHAAAAAHcEAAAAAHhxAH4BvnEAfgIAc3EAfgACc3EAfgAHAAAAAHcEAAAAAHhxAH4BKHEAfgIAeHEAfgDAcQB+Af5zcQB+AAJzcQB+AAcAAAAAdwQAAAAAeHEAfgEocQB+Af54cQB+AMBxAH4B/HEAfgH6eHEAfgDAc3EAfgACc3EAfgAHAAAAAncEAAAAAnEAfgH8c3EAfgACc3EAfgAHAAAAAncEAAAAAnNxAH4AAnNxAH4ABwAAAAB3BAAAAAB4cQB+Ab5xAH4CCnNxAH4AAnNxAH4ABwAAAAB3BAAAAAB4cQB+AShxAH4CCnhxAH4AwHEAfgIIeHEAfgCec3EAfgACc3EAfgAHAAAAAncEAAAAAnEAfgIIc3EAfgACc3EAfgAHAAAAAHcEAAAAAHhxAH4AJ3EAfgIQeHEAfgAdc3EAfgACc3EAfgAHAAAAAncEAAAAAnNxAH4AAnNxAH4ABwAAAAJ3BAAAAAJzcQB+AAJzcQB+AAcAAAAAdwQAAAAAeHEAfgGXcQB+AhZzcQB+AAJzcQB+AAcAAAACdwQAAAACc3EAfgACc3EAfgAHAAAAAncEAAAAAnNxAH4AAnNxAH4ABwAAAAJ3BAAAAAJzcQB+AAJzcQB+AAcAAAAAdwQAAAAAeHEAfgGXcQB+Ah5zcQB+AAJzcQB+AAcAAAACdwQAAAACc3EAfgACc3EAfgAHAAAAAncEAAAAAnNxAH4AAnNxAH4ABwAAAAJ3BAAAAAJzcQB+AAJzcQB+AAcAAAACdwQAAAACc3EAfgACc3EAfgAHAAAAAHcEAAAAAHhxAH4BKHEAfgIoc3EAfgACc3EAfgAHAAAAAHcEAAAAAHhxAH4BKHEAfgIoeHEAfgDAcQB+AiZzcQB+AAJzcQB+AAcAAAAAdwQAAAAAeHEAfgEocQB+AiZ4cQB+AMBxAH4CJHNxAH4AAnNxAH4ABwAAAAB3BAAAAAB4cQB+AShxAH4CJHhxAH4AwHEAfgIic3EAfgACc3EAfgAHAAAAAHcEAAAAAHhxAH4BKHEAfgIieHEAfgDAcQB+Ah54cQB+AJ5xAH4CHHNxAH4AAnNxAH4ABwAAAAB3BAAAAAB4cQB+AShxAH4CHHhxAH4AwHEAfgIac3EAfgACc3EAfgAHAAAAAHcEAAAAAHhxAH4BKHEAfgIaeHEAfgDAcQB+AhZ4cQB+AJ5xAH4CFHEAfgIQeHEAfgAdc3EAfgACc3EAfgAHAAAAAncEAAAAAnNxAH4AAnNxAH4ABwAAAAJ3BAAAAAJzcQB+AAJzcQB+AAcAAAAAdwQAAAAAeHEAfgGUcQB+AjpzcQB+AAJzcQB+AAcAAAAAdwQAAAAAeHEAfgGXcQB+Ajp4cQB+AJ5xAH4COHEAfgIUeHEAfgDAcHhxAH4AwHNxAH4AAnNxAH4ABwAAAAJ3BAAAAAJxAH4B+HEAfgIKeHEAfgCec3EAfgACc3EAfgAHAAAAAncEAAAAAnEAfgJAcQB+AhJ4cQB+AB1zcQB+AAJzcQB+AAcAAAACdwQAAAACc3EAfgACc3EAfgAHAAAAAncEAAAAAnNxAH4AAnNxAH4ABwAAAAB3BAAAAAB4cQB+AZdxAH4CRnNxAH4AAnNxAH4ABwAAAAJ3BAAAAAJzcQB+AAJzcQB+AAcAAAACdwQAAAACc3EAfgACc3EAfgAHAAAAAncEAAAAAnNxAH4AAnNxAH4ABwAAAAB3BAAAAAB4cQB+AZdxAH4CTnNxAH4AAnNxAH4ABwAAAAJ3BAAAAAJzcQB+AAJzcQB+AAcAAAACdwQAAAACc3EAfgACc3EAfgAHAAAAAncEAAAAAnNxAH4AAnNxAH4ABwAAAAJ3BAAAAAJzcQB+AAJzcQB+AAcAAAAAdwQAAAAAeHEAfgEocQB+AlhzcQB+AAJzcQB+AAcAAAAAdwQAAAAAeHEAfgEocQB+Alh4cQB+AMBxAH4CVnNxAH4AAnNxAH4ABwAAAAB3BAAAAAB4cQB+AShxAH4CVnhxAH4AwHEAfgJUc3EAfgACc3EAfgAHAAAAAHcEAAAAAHhxAH4BKHEAfgJUeHEAfgDAcQB+AlJzcQB+AAJzcQB+AAcAAAAAdwQAAAAAeHEAfgEocQB+AlJ4cQB+AMBxAH4CTnhxAH4AnnEAfgJMc3EAfgACc3EAfgAHAAAAAHcEAAAAAHhxAH4BKHEAfgJMeHEAfgDAcQB+AkpzcQB+AAJzcQB+AAcAAAAAdwQAAAAAeHEAfgEocQB+Akp4cQB+AMBxAH4CRnhxAH4AnnEAfgJEcQB+AkJ4cQB+AB1zcQB+AAJzcQB+AAcAAAACdwQAAAACc3EAfgACc3EAfgAHAAAAAncEAAAAAnNxAH4AAnNxAH4ABwAAAAB3BAAAAAB4cQB+AZRxAH4CanNxAH4AAnNxAH4ABwAAAAB3BAAAAAB4cQB+AZdxAH4CanhxAH4AnnEAfgJocQB+AkR4cQB+AMBweHEAfgDAcQB+AexxAH4B+nhxAH4AwHEAfgHqcQB+Agp4cQB+AJ5xAH4B6HEAfgISeHEAfgAdcQB+AeZ4cQB+AB1zcQB+AAJzcQB+AAcAAAACdwQAAAACc3EAfgACc3EAfgAHAAAAAncEAAAAAnNxAH4AAnNxAH4ABwAAAAB3BAAAAAB4cQB+AZRxAH4CcnNxAH4AAnNxAH4ABwAAAAB3BAAAAAB4cQB+AZdxAH4CcnhxAH4AnnEAfgJwcQB+AeZ4cQB+AMBweHEAfgDAc3EAfgACc3EAfgAHAAAAAncEAAAAAnNxAH4AAnNxAH4ABwAAAAB3BAAAAAB4cQB+AZdxAH4CeHEAfgHWeHEAfgCec3EAfgACc3EAfgAHAAAAAncEAAAAAnEAfgJ4cQB+Aeh4cQB+AB1zcQB+AAJzcQB+AAcAAAACdwQAAAACc3EAfgACc3EAfgAHAAAAAncEAAAAAnNxAH4AAnNxAH4ABwAAAAB3BAAAAAB4cQB+AZRxAH4CgHNxAH4AAnNxAH4ABwAAAAB3BAAAAAB4cQB+AZdxAH4CgHhxAH4AnnEAfgJ+cQB+Anx4cQB+AMBweHEAfgDAcQB+AbBxAH4BxHhxAH4AwHEAfgGucQB+Ach4cQB+AMBxAH4BrHEAfgHMeHEAfgDAcQB+Aah4cQB+AJ5xAH4BpnEAfgHUeHEAfgDAcQB+AaRxAH4B2HhxAH4AwHEAfgGgeHEAfgCecQB+AZ5xAH4B6HhxAH4AHXNxAH4AAnNxAH4ABwAAAAJ3BAAAAAJzcQB+AAJzcQB+AAcAAAACdwQAAAACc3EAfgACc3EAfgAHAAAAAHcEAAAAAHhxAH4BlHEAfgKIc3EAfgACc3EAfgAHAAAAAHcEAAAAAHhxAH4AJ3EAfgKIeHEAfgCecQB+AoZxAH4BnnhxAH4AwHB4cQB+AMBweHEAfgCecQB+AY5xAH4BnnhxAH4AwHB4";
    "rO0ABXNyABFqYXZhLnV0aWwuQ29sbFNlcleOq7Y6G6gRAwABSQADdGFneHAAAAAEdwQAAAAEc3IAN2lvLmdpdGh1Yi5lcmljbWVkdmV0LmpnZWEuY29yZS5yZXByZXNlbnRhdGlvbi50cmVlLlRyZWUKs7/qnQrEZQIAA0wACGNoaWxkcmVudAAQTGphdmEvdXRpbC9MaXN0O0wAB2NvbnRlbnR0ABJMamF2YS9sYW5nL09iamVjdDtMAAZwYXJlbnR0ADlMaW8vZ2l0aHViL2VyaWNtZWR2ZXQvamdlYS9jb3JlL3JlcHJlc2VudGF0aW9uL3RyZWUvVHJlZTt4cHNyABNqYXZhLnV0aWwuQXJyYXlMaXN0eIHSHZnHYZ0DAAFJAARzaXpleHAAAAACdwQAAAACc3EAfgACc3EAfgAHAAAAAncEAAAAAnNxAH4AAnNxAH4ABwAAAAB3BAAAAAB4c3IAS2lvLmdpdGh1Yi5lcmljbWVkdmV0LmpnZWEuY29yZS5yZXByZXNlbnRhdGlvbi50cmVlLm51bWVyaWMuRWxlbWVudCRWYXJpYWJsZQAAAAAAAAAAAgABTAAEbmFtZXQAEkxqYXZhL2xhbmcvU3RyaW5nO3hwdAADeDAxcQB+AAlzcQB+AAJzcQB+AAcAAAAAdwQAAAAAeHEAfgAPc3EAfgACc3EAfgAHAAAAAncEAAAAAnNxAH4AAnNxAH4ABwAAAAJ3BAAAAAJzcQB+AAJzcQB+AAcAAAAAdwQAAAAAeHEAfgAPcQB+ABVzcQB+AAJzcQB+AAcAAAAAdwQAAAAAeHEAfgAPcQB+ABV4fnIAS2lvLmdpdGh1Yi5lcmljbWVkdmV0LmpnZWEuY29yZS5yZXByZXNlbnRhdGlvbi50cmVlLm51bWVyaWMuRWxlbWVudCRPcGVyYXRvcgAAAAAAAAAAEgAAeHIADmphdmEubGFuZy5FbnVtAAAAAAAAAAASAAB4cHQACEFERElUSU9OcQB+ABNxAH4AEXhxAH4AHXNxAH4AAnNxAH4ABwAAAAJ3BAAAAAJxAH4AE3NxAH4AAnNxAH4ABwAAAAJ3BAAAAAJzcQB+AAJzcQB+AAcAAAAAdwQAAAAAeHEAfgAPcQB+ACFzcQB+AAJzcQB+AAcAAAAAdwQAAAAAeHNxAH4ADXQAA3gwNnEAfgAheH5xAH4AG3QADVBST1RfRElWSVNJT05xAH4AH3hxAH4AHXB4cQB+AB1xAH4ABnEAfgAheHEAfgAdcHNxAH4AAnNxAH4ABwAAAAJ3BAAAAAJzcQB+AAJzcQB+AAcAAAACdwQAAAACc3EAfgACc3EAfgAHAAAAAncEAAAAAnNxAH4AAnNxAH4ABwAAAAB3BAAAAAB4c3EAfgANdAADeDEycQB+AC9zcQB+AAJzcQB+AAcAAAAAdwQAAAAAeHNyAEtpby5naXRodWIuZXJpY21lZHZldC5qZ2VhLmNvcmUucmVwcmVzZW50YXRpb24udHJlZS5udW1lcmljLkVsZW1lbnQkQ29uc3RhbnQAAAAAAAAAAAIAAUQABXZhbHVleHBABAAAAAAAAHNxAH4AAnNxAH4ABwAAAAJ3BAAAAAJzcQB+AAJzcQB+AAcAAAACdwQAAAACc3EAfgACc3EAfgAHAAAAAHcEAAAAAHhzcQB+AA10AAN4MTBxAH4AO3NxAH4AAnNxAH4ABwAAAAJ3BAAAAAJzcQB+AAJzcQB+AAcAAAAAdwQAAAAAeHNxAH4ADXQAA3gxMXEAfgBBc3EAfgACc3EAfgAHAAAAAHcEAAAAAHhxAH4ARXEAfgBBeHEAfgAdcQB+ADt4fnEAfgAbdAAIUFJPVF9MT0dxAH4AOXEAfgA1eHEAfgBJc3EAfgACc3EAfgAHAAAAAncEAAAAAnEAfgA5c3EAfgACc3EAfgAHAAAAAncEAAAAAnNxAH4AAnNxAH4ABwAAAAJ3BAAAAAJzcQB+AAJzcQB+AAcAAAAAdwQAAAAAeHNxAH4ANwAAAAAAAAAAcQB+AE9zcQB+AAJzcQB+AAcAAAAAdwQAAAAAeHEAfgBFc3EAfgACc3EAfgAHAAAAAncEAAAAAnNxAH4AAnNxAH4ABwAAAAB3BAAAAAB4c3EAfgA3P/AAAAAAAABxAH4AVnEAfgBUeHEAfgAdc3EAfgACc3EAfgAHAAAAAncEAAAAAnEAfgBWc3EAfgACc3EAfgAHAAAAAncEAAAAAnNxAH4AAnNxAH4ABwAAAAB3BAAAAAB4cQB+AFpxAH4AXXNxAH4AAnNxAH4ABwAAAAJ3BAAAAAJzcQB+AAJzcQB+AAcAAAAAdwQAAAAAeHEAfgBFcQB+AGFzcQB+AAJzcQB+AAcAAAAAdwQAAAAAeHEAfgBacQB+AGF4cQB+AB1zcQB+AAJzcQB+AAcAAAACdwQAAAACc3EAfgACc3EAfgAHAAAAAncEAAAAAnNxAH4AAnNxAH4ABwAAAAB3BAAAAAB4cQB+AD9xAH4AaXNxAH4AAnNxAH4ABwAAAAJ3BAAAAAJzcQB+AAJzcQB+AAcAAAAAdwQAAAAAeHEAfgBFcQB+AG1zcQB+AAJzcQB+AAcAAAAAdwQAAAAAeHEAfgBacQB+AG14cQB+AB1xAH4AaXhxAH4ASXEAfgBncQB+AGF4cQB+AElzcQB+AAJzcQB+AAcAAAACdwQAAAACc3EAfgACc3EAfgAHAAAAAncEAAAAAnNxAH4AAnNxAH4ABwAAAAB3BAAAAAB4cQB+AFNxAH4AdXNxAH4AAnNxAH4ABwAAAAB3BAAAAAB4cQB+AEVxAH4AdXhxAH4AHXEAfgBzcQB+AGd4cQB+AB1zcQB+AAJzcQB+AAcAAAACdwQAAAACc3EAfgACc3EAfgAHAAAAAncEAAAAAnNxAH4AAnNxAH4ABwAAAAB3BAAAAAB4cQB+ADNxAH4AfXNxAH4AAnNxAH4ABwAAAAB3BAAAAAB4cQB+ADhxAH4AfXhxAH4ASXEAfgB7cQB+AHN4cQB+AElzcQB+AAJzcQB+AAcAAAACdwQAAAACcQB+AHtzcQB+AAJzcQB+AAcAAAACdwQAAAACc3EAfgACc3EAfgAHAAAAAHcEAAAAAHhzcQB+AA10AAN4MDVxAH4AhXNxAH4AAnNxAH4ABwAAAAJ3BAAAAAJzcQB+AAJzcQB+AAcAAAAAdwQAAAAAeHEAfgA/cQB+AItzcQB+AAJzcQB+AAcAAAAAdwQAAAAAeHNxAH4AN0AMAAAAAAAAc3EAfgACc3EAfgAHAAAAAncEAAAAAnNxAH4AAnNxAH4ABwAAAAJ3BAAAAAJzcQB+AAJzcQB+AAcAAAACdwQAAAACc3EAfgACc3EAfgAHAAAAAHcEAAAAAHhxAH4AM3EAfgCWc3EAfgACc3EAfgAHAAAAAHcEAAAAAHhxAH4AOHEAfgCWeHEAfgBJcQB+AJRzcQB+AAJzcQB+AAcAAAACdwQAAAACc3EAfgACc3EAfgAHAAAAAncEAAAAAnNxAH4AAnNxAH4ABwAAAAB3BAAAAAB4cQB+AFNxAH4AnnNxAH4AAnNxAH4ABwAAAAB3BAAAAAB4cQB+AEVxAH4AnnhxAH4AHXEAfgCcc3EAfgACc3EAfgAHAAAAAncEAAAAAnNxAH4AAnNxAH4ABwAAAAB3BAAAAAB4cQB+AFpxAH4ApHNxAH4AAnNxAH4ABwAAAAJ3BAAAAAJzcQB+AAJzcQB+AAcAAAAAdwQAAAAAeHEAfgBFcQB+AKhzcQB+AAJzcQB+AAcAAAAAdwQAAAAAeHEAfgBacQB+AKh4cQB+AB1xAH4ApHhxAH4ASXEAfgCceHEAfgAdcQB+AJR4cQB+AElxAH4AknEAfgCPeH5xAH4AG3QADk1VTFRJUExJQ0FUSU9Oc3EAfgACc3EAfgAHAAAAAncEAAAAAnNxAH4AAnNxAH4ABwAAAAB3BAAAAAB4cQB+AIlxAH4AsHEAfgCSeHEAfgCuc3EAfgACc3EAfgAHAAAAAncEAAAAAnNxAH4AAnNxAH4ABwAAAAJ3BAAAAAJzcQB+AAJzcQB+AAcAAAACdwQAAAACc3EAfgACc3EAfgAHAAAAAHcEAAAAAHhxAH4AM3EAfgC4c3EAfgACc3EAfgAHAAAAAHcEAAAAAHhxAH4AOHEAfgC4eHEAfgBJcQB+ALZzcQB+AAJzcQB+AAcAAAACdwQAAAACc3EAfgACc3EAfgAHAAAAAncEAAAAAnNxAH4AAnNxAH4ABwAAAAB3BAAAAAB4cQB+AFNxAH4AwHNxAH4AAnNxAH4ABwAAAAB3BAAAAAB4cQB+AEVxAH4AwHhxAH4AHXEAfgC+c3EAfgACc3EAfgAHAAAAAncEAAAAAnNxAH4AAnNxAH4ABwAAAAB3BAAAAAB4cQB+AFpxAH4AxnNxAH4AAnNxAH4ABwAAAAJ3BAAAAAJzcQB+AAJzcQB+AAcAAAAAdwQAAAAAeHEAfgBFcQB+AMpzcQB+AAJzcQB+AAcAAAAAdwQAAAAAeHEAfgBacQB+AMp4cQB+AB1xAH4AxnhxAH4ASXEAfgC+eHEAfgAdcQB+ALZ4cQB+AElxAH4AtHEAfgCweH5xAH4AG3QAC1NVQlRSQUNUSU9OcHhxAH4ArnNxAH4AAnNxAH4ABwAAAAJ3BAAAAAJzcQB+AAJzcQB+AAcAAAACdwQAAAACc3EAfgACc3EAfgAHAAAAAHcEAAAAAHhxAH4AWnEAfgDUc3EAfgACc3EAfgAHAAAAAncEAAAAAnNxAH4AAnNxAH4ABwAAAAB3BAAAAAB4cQB+AEVxAH4A2HNxAH4AAnNxAH4ABwAAAAB3BAAAAAB4cQB+AFpxAH4A2HhxAH4AHXEAfgDUeHEAfgBJcQB+ANJxAH4Ai3hxAH4ArnNxAH4AAnNxAH4ABwAAAAJ3BAAAAAJzcQB+AAJzcQB+AAcAAAACdwQAAAACc3EAfgACc3EAfgAHAAAAAncEAAAAAnNxAH4AAnNxAH4ABwAAAAB3BAAAAAB4cQB+ADNxAH4A4nNxAH4AAnNxAH4ABwAAAAB3BAAAAAB4cQB+ADhxAH4A4nhxAH4ASXEAfgDgc3EAfgACc3EAfgAHAAAAAncEAAAAAnNxAH4AAnNxAH4ABwAAAAJ3BAAAAAJzcQB+AAJzcQB+AAcAAAAAdwQAAAAAeHEAfgBTcQB+AOpzcQB+AAJzcQB+AAcAAAAAdwQAAAAAeHEAfgBFcQB+AOp4cQB+AB1xAH4A6HNxAH4AAnNxAH4ABwAAAAJ3BAAAAAJzcQB+AAJzcQB+AAcAAAAAdwQAAAAAeHEAfgA/cQB+APBzcQB+AAJzcQB+AAcAAAACdwQAAAACc3EAfgACc3EAfgAHAAAAAHcEAAAAAHhxAH4ARXEAfgD0c3EAfgACc3EAfgAHAAAAAHcEAAAAAHhxAH4AWnEAfgD0eHEAfgAdcQB+APB4cQB+AElxAH4A6HhxAH4AHXEAfgDgeHEAfgBJcQB+AN5xAH4A0nhxAH4A0HB4cQB+AK5zcQB+AAJzcQB+AAcAAAACdwQAAAACc3EAfgACc3EAfgAHAAAAAncEAAAAAnNxAH4AAnNxAH4ABwAAAAJ3BAAAAAJzcQB+AAJzcQB+AAcAAAAAdwQAAAAAeHEAfgAzcQB+AP5zcQB+AAJzcQB+AAcAAAAAdwQAAAAAeHEAfgA4cQB+AP54cQB+AElxAH4A/HNxAH4AAnNxAH4ABwAAAAB3BAAAAAB4cQB+AJFxAH4A/HhxAH4ASXEAfgD6cQB+AIV4cQB+ANBweHEAfgDQcHhxAH4ASXNxAH4AAnNxAH4ABwAAAAJ3BAAAAAJzcQB+AAJzcQB+AAcAAAACdwQAAAACc3EAfgACc3EAfgAHAAAAAHcEAAAAAHhxAH4AU3EAfgEIc3EAfgACc3EAfgAHAAAAAncEAAAAAnNxAH4AAnNxAH4ABwAAAAJ3BAAAAAJzcQB+AAJzcQB+AAcAAAAAdwQAAAAAeHEAfgBTcQB+AQ5zcQB+AAJzcQB+AAcAAAAAdwQAAAAAeHEAfgBFcQB+AQ54cQB+AB1xAH4BDHNxAH4AAnNxAH4ABwAAAAJ3BAAAAAJzcQB+AAJzcQB+AAcAAAAAdwQAAAAAeHEAfgBacQB+ARRzcQB+AAJzcQB+AAcAAAACdwQAAAACc3EAfgACc3EAfgAHAAAAAHcEAAAAAHhxAH4ARXEAfgEYc3EAfgACc3EAfgAHAAAAAHcEAAAAAHhxAH4AWnEAfgEYeHEAfgAdcQB+ARR4cQB+AElxAH4BDHhxAH4AHXEAfgEIeHEAfgAdcQB+AQZxAH4AXXhxAH4AHXNxAH4AAnNxAH4ABwAAAAJ3BAAAAAJzcQB+AAJzcQB+AAcAAAACdwQAAAACc3EAfgACc3EAfgAHAAAAAHcEAAAAAHhxAH4AM3EAfgEgc3EAfgACc3EAfgAHAAAAAHcEAAAAAHhxAH4AOHEAfgEgeHEAfgBJcQB+AR5xAH4BBnhxAH4ASXNxAH4AAnNxAH4ABwAAAAJ3BAAAAAJxAH4BHnEAfgCFeHEAfgDQcHhxAH4AHXNxAH4AAnNxAH4ABwAAAAJ3BAAAAAJzcQB+AAJzcQB+AAcAAAACdwQAAAACc3EAfgACc3EAfgAHAAAAAHcEAAAAAHhxAH4AM3EAfgEqc3EAfgACc3EAfgAHAAAAAHcEAAAAAHhxAH4AOHEAfgEqeHEAfgBJcQB+AShxAH4AW3hxAH4ASXNxAH4AAnNxAH4ABwAAAAJ3BAAAAAJxAH4BKHEAfgCFeHEAfgDQcHhxAH4AHXEAfgBNcQB+AF14cQB+AB1zcQB+AAJzcQB+AAcAAAACdwQAAAACc3EAfgACc3EAfgAHAAAAAncEAAAAAnNxAH4AAnNxAH4ABwAAAAB3BAAAAAB4cQB+AD9xAH4BNHNxAH4AAnNxAH4ABwAAAAJ3BAAAAAJzcQB+AAJzcQB+AAcAAAAAdwQAAAAAeHEAfgBFcQB+AThzcQB+AAJzcQB+AAcAAAAAdwQAAAAAeHEAfgBFcQB+ATh4cQB+AB1xAH4BNHhxAH4ASXEAfgEycQB+AE14cQB+AElzcQB+AAJzcQB+AAcAAAACdwQAAAACcQB+ATJxAH4AhXhxAH4A0HB4cQB+AElzcQB+AAJzcQB+AAcAAAACdwQAAAACcQB+AEtxAH4AhXhxAH4A0HB4cQB+AElxAH4ALXEAfgBNeHEAfgBJcQB+ACtxAH4AhXhxAH4A0HBzcQB+AAJzcQB+AAcAAAACdwQAAAACc3EAfgACc3EAfgAHAAAAAncEAAAAAnNxAH4AAnNxAH4ABwAAAAJ3BAAAAAJzcQB+AAJzcQB+AAcAAAAAdwQAAAAAeHEAfgBacQB+AUZzcQB+AAJzcQB+AAcAAAACdwQAAAACc3EAfgACc3EAfgAHAAAAAHcEAAAAAHhxAH4AWnEAfgFKc3EAfgACc3EAfgAHAAAAAncEAAAAAnNxAH4AAnNxAH4ABwAAAAJ3BAAAAAJzcQB+AAJzcQB+AAcAAAAAdwQAAAAAeHNxAH4ADXQAA3gxNHEAfgFQc3EAfgACc3EAfgAHAAAAAHcEAAAAAHhzcQB+AA10AAN4MDlzcQB+AAJzcQB+AAcAAAACdwQAAAACc3EAfgACc3EAfgAHAAAAAHcEAAAAAHhxAH4BWHEAfgFacQB+AVZ4cQB+AK5zcQB+AAJzcQB+AAcAAAACdwQAAAACcQB+AVpzcQB+AAJzcQB+AAcAAAAAdwQAAAAAeHEAfgFYc3EAfgACc3EAfgAHAAAAAncEAAAAAnNxAH4AAnNxAH4ABwAAAAJ3BAAAAAJzcQB+AAJzcQB+AAcAAAAAdwQAAAAAeHEAfgFUcQB+AWRzcQB+AAJzcQB+AAcAAAAAdwQAAAAAeHEAfgFUcQB+AWR4cQB+AK5xAH4BYnEAfgFgeHEAfgCuc3EAfgACc3EAfgAHAAAAAncEAAAAAnNxAH4AAnNxAH4ABwAAAAB3BAAAAAB4cQB+AFpxAH4BanEAfgFieHEAfgCuc3EAfgACc3EAfgAHAAAAAncEAAAAAnNxAH4AAnNxAH4ABwAAAAB3BAAAAAB4cQB+AFpxAH4BbnEAfgFqeHEAfgAdc3EAfgACc3EAfgAHAAAAAncEAAAAAnEAfgFuc3EAfgACc3EAfgAHAAAAAncEAAAAAnNxAH4AAnNxAH4ABwAAAAB3BAAAAAB4cQB+AVhxAH4BdHNxAH4AAnNxAH4ABwAAAAJ3BAAAAAJzcQB+AAJzcQB+AAcAAAAAdwQAAAAAeHEAfgFUcQB+AXhzcQB+AAJzcQB+AAcAAAAAdwQAAAAAeHEAfgFYcQB+AXh4cQB+AK5xAH4BdHhxAH4ArnEAfgFyeHEAfgAdc3EAfgACc3EAfgAHAAAAAncEAAAAAnEAfgFyc3EAfgACc3EAfgAHAAAAAncEAAAAAnNxAH4AAnNxAH4ABwAAAAB3BAAAAAB4cQB+AVhxAH4BgHNxAH4AAnNxAH4ABwAAAAJ3BAAAAAJzcQB+AAJzcQB+AAcAAAAAdwQAAAAAeHEAfgFUcQB+AYRzcQB+AAJzcQB+AAcAAAAAdwQAAAAAeHEAfgFYc3EAfgACc3EAfgAHAAAAAncEAAAAAnNxAH4AAnNxAH4ABwAAAAB3BAAAAAB4cQB+AVhxAH4BinEAfgGIeHEAfgCuc3EAfgACc3EAfgAHAAAAAncEAAAAAnNxAH4AAnNxAH4ABwAAAAB3BAAAAAB4cQB+AVhxAH4BjnEAfgGKeHEAfgCuc3EAfgACc3EAfgAHAAAAAncEAAAAAnNxAH4AAnNxAH4ABwAAAAB3BAAAAAB4cQB+AFpxAH4BknEAfgGOeHEAfgAdcHhxAH4ArnNxAH4AAnNxAH4ABwAAAAJ3BAAAAAJzcQB+AAJzcQB+AAcAAAACdwQAAAACc3EAfgACc3EAfgAHAAAAAHcEAAAAAHhxAH4BVHEAfgGYc3EAfgACc3EAfgAHAAAAAHcEAAAAAHhxAH4BWHEAfgGYeHEAfgCucQB+AZZxAH4BhHhxAH4ArnNxAH4AAnNxAH4ABwAAAAJ3BAAAAAJzcQB+AAJzcQB+AAcAAAAAdwQAAAAAeHEAfgBacQB+AZ5xAH4BlnhxAH4AHXB4cQB+AK5xAH4BfnhxAH4AHXB4cQB+AK5zcQB+AAJzcQB+AAcAAAACdwQAAAACc3EAfgACc3EAfgAHAAAAAHcEAAAAAHhxAH4AWnEAfgGicQB+AV54cQB+AK5zcQB+AAJzcQB+AAcAAAACdwQAAAACc3EAfgACc3EAfgAHAAAAAHcEAAAAAHhxAH4AWnEAfgGmcQB+AaJ4cQB+AB1zcQB+AAJzcQB+AAcAAAACdwQAAAACcQB+AaZxAH4BdHhxAH4AHXNxAH4AAnNxAH4ABwAAAAJ3BAAAAAJxAH4BqnEAfgGAeHEAfgAdcHhxAH4ArnEAfgFOcQB+AWB4cQB+AK5xAH4BSnhxAH4ArnNxAH4AAnNxAH4ABwAAAAJ3BAAAAAJzcQB+AAJzcQB+AAcAAAACdwQAAAACc3EAfgACc3EAfgAHAAAAAHcEAAAAAHhxAH4BVHEAfgGwc3EAfgACc3EAfgAHAAAAAHcEAAAAAHhxAH4BWHEAfgGweHEAfgCucQB+Aa5xAH4BSnhxAH4AHXNxAH4AAnNxAH4ABwAAAAJ3BAAAAAJxAH4BrnEAfgF0eHEAfgAdc3EAfgACc3EAfgAHAAAAAncEAAAAAnEAfgG2cQB+AYB4cQB+AB1weHEAfgAdcQB+AURxAH4BdHhxAH4AHXEAfgFCcQB+AYB4cQB+AB1wc3EAfgACc3EAfgAHAAAAAncEAAAAAnNxAH4AAnNxAH4ABwAAAAJ3BAAAAAJzcQB+AAJzcQB+AAcAAAAAdwQAAAAAeHNxAH4ANz/gAAAAAAAAcQB+AbxzcQB+AAJzcQB+AAcAAAAAdwQAAAAAeHNxAH4AN0AAAAAAAAAAc3EAfgACc3EAfgAHAAAAAncEAAAAAnNxAH4AAnNxAH4ABwAAAAB3BAAAAAB4cQB+AcNxAH4BxHEAfgHBeHEAfgCuc3EAfgACc3EAfgAHAAAAAncEAAAAAnEAfgHEc3EAfgACc3EAfgAHAAAAAncEAAAAAnNxAH4AAnNxAH4ABwAAAAJ3BAAAAAJzcQB+AAJzcQB+AAcAAAAAdwQAAAAAeHEAfgHDcQB+AcxzcQB+AAJzcQB+AAcAAAACdwQAAAACc3EAfgACc3EAfgAHAAAAAncEAAAAAnNxAH4AAnNxAH4ABwAAAAJ3BAAAAAJzcQB+AAJzcQB+AAcAAAAAdwQAAAAAeHEAfgHDcQB+AdRzcQB+AAJzcQB+AAcAAAACdwQAAAACc3EAfgACc3EAfgAHAAAAAncEAAAAAnNxAH4AAnNxAH4ABwAAAAJ3BAAAAAJzcQB+AAJzcQB+AAcAAAACdwQAAAACc3EAfgACc3EAfgAHAAAAAHcEAAAAAHhxAH4BVHEAfgHec3EAfgACc3EAfgAHAAAAAHcEAAAAAHhxAH4BVHNxAH4AAnNxAH4ABwAAAAJ3BAAAAAJzcQB+AAJzcQB+AAcAAAACdwQAAAACc3EAfgACc3EAfgAHAAAAAHcEAAAAAHhzcQB+AA10AAN4MTZxAH4B5nNxAH4AAnNxAH4ABwAAAAB3BAAAAAB4cQB+AVRxAH4B5nhxAH4A0HEAfgHkcQB+AeJ4cQB+ANBzcQB+AAJzcQB+AAcAAAACdwQAAAACcQB+AeRzcQB+AAJzcQB+AAcAAAAAdwQAAAAAeHEAfgFUcQB+Ae54cQB+ANBzcQB+AAJzcQB+AAcAAAACdwQAAAACcQB+Ae5zcQB+AAJzcQB+AAcAAAAAdwQAAAAAeHEAfgFUcQB+AfJ4cQB+ANBzcQB+AAJzcQB+AAcAAAACdwQAAAACcQB+AfJzcQB+AAJzcQB+AAcAAAAAdwQAAAAAeHEAfgFUc3EAfgACc3EAfgAHAAAAAncEAAAAAnNxAH4AAnNxAH4ABwAAAAB3BAAAAAB4cQB+AcNxAH4B+nEAfgH4eHEAfgDQc3EAfgACc3EAfgAHAAAAAncEAAAAAnNxAH4AAnNxAH4ABwAAAAB3BAAAAAB4cQB+AcNxAH4B/nEAfgH6eHEAfgCuc3EAfgACc3EAfgAHAAAAAncEAAAAAnEAfgH+c3EAfgACc3EAfgAHAAAAAHcEAAAAAHhxAH4BVHEAfgICeHEAfgDQc3EAfgACc3EAfgAHAAAAAncEAAAAAnEAfgICc3EAfgACc3EAfgAHAAAAAHcEAAAAAHhxAH4BVHEAfgIGeHEAfgDQc3EAfgACc3EAfgAHAAAAAncEAAAAAnNxAH4AAnNxAH4ABwAAAAB3BAAAAAB4cQB+AcNxAH4CCnEAfgIGeHEAfgCuc3EAfgACc3EAfgAHAAAAAncEAAAAAnEAfgIKc3EAfgACc3EAfgAHAAAAAncEAAAAAnNxAH4AAnNxAH4ABwAAAAJ3BAAAAAJzcQB+AAJzcQB+AAcAAAACdwQAAAACc3EAfgACc3EAfgAHAAAAAncEAAAAAnNxAH4AAnNxAH4ABwAAAAB3BAAAAAB4cQB+AepxAH4CFnNxAH4AAnNxAH4ABwAAAAB3BAAAAAB4cQB+AVRzcQB+AAJzcQB+AAcAAAACdwQAAAACc3EAfgACc3EAfgAHAAAAAHcEAAAAAHhxAH4BVHEAfgIccQB+Ahp4cQB+ANBzcQB+AAJzcQB+AAcAAAACdwQAAAACcQB+AhxzcQB+AAJzcQB+AAcAAAAAdwQAAAAAeHEAfgFUcQB+AiB4cQB+ANBzcQB+AAJzcQB+AAcAAAACdwQAAAACcQB+AiBzcQB+AAJzcQB+AAcAAAACdwQAAAACc3EAfgACc3EAfgAHAAAAAHcEAAAAAHhxAH4B6nEAfgImc3EAfgACc3EAfgAHAAAAAHcEAAAAAHhxAH4BVHNxAH4AAnNxAH4ABwAAAAJ3BAAAAAJzcQB+AAJzcQB+AAcAAAACdwQAAAACc3EAfgACc3EAfgAHAAAAAHcEAAAAAHhxAH4BVHEAfgIuc3EAfgACc3EAfgAHAAAAAHcEAAAAAHhxAH4BVHEAfgIueHEAfgDQcQB+AixxAH4CKnhxAH4A0HNxAH4AAnNxAH4ABwAAAAJ3BAAAAAJzcQB+AAJzcQB+AAcAAAAAdwQAAAAAeHEAfgHDcQB+AjRxAH4CLHhxAH4ArnNxAH4AAnNxAH4ABwAAAAJ3BAAAAAJxAH4CNHNxAH4AAnNxAH4ABwAAAAB3BAAAAAB4cQB+ACdzcQB+AAJzcQB+AAcAAAACdwQAAAACcQB+AiRxAH4COnhxAH4AHXNxAH4AAnNxAH4ABwAAAAJ3BAAAAAJzcQB+AAJzcQB+AAcAAAACdwQAAAACc3EAfgACc3EAfgAHAAAAAHcEAAAAAHhxAH4Bw3EAfgJAc3EAfgACc3EAfgAHAAAAAncEAAAAAnNxAH4AAnNxAH4ABwAAAAJ3BAAAAAJzcQB+AAJzcQB+AAcAAAACdwQAAAACc3EAfgACc3EAfgAHAAAAAHcEAAAAAHhxAH4Bw3EAfgJIc3EAfgACc3EAfgAHAAAAAncEAAAAAnNxAH4AAnNxAH4ABwAAAAJ3BAAAAAJzcQB+AAJzcQB+AAcAAAACdwQAAAACc3EAfgACc3EAfgAHAAAAAncEAAAAAnNxAH4AAnNxAH4ABwAAAAB3BAAAAAB4cQB+AVRxAH4CUnNxAH4AAnNxAH4ABwAAAAB3BAAAAAB4cQB+AVRxAH4CUnhxAH4A0HEAfgJQc3EAfgACc3EAfgAHAAAAAHcEAAAAAHhxAH4BVHEAfgJQeHEAfgDQcQB+Ak5zcQB+AAJzcQB+AAcAAAAAdwQAAAAAeHEAfgFUcQB+Ak54cQB+ANBxAH4CTHNxAH4AAnNxAH4ABwAAAAB3BAAAAAB4cQB+AVRxAH4CTHhxAH4A0HEAfgJIeHEAfgCucQB+AkZzcQB+AAJzcQB+AAcAAAAAdwQAAAAAeHEAfgFUcQB+AkZ4cQB+ANBxAH4CRHNxAH4AAnNxAH4ABwAAAAB3BAAAAAB4cQB+AVRxAH4CRHhxAH4A0HEAfgJAeHEAfgCucQB+Aj5xAH4CPHhxAH4AHXNxAH4AAnNxAH4ABwAAAAJ3BAAAAAJzcQB+AAJzcQB+AAcAAAACdwQAAAACc3EAfgACc3EAfgAHAAAAAHcEAAAAAHhxAH4BwHEAfgJkc3EAfgACc3EAfgAHAAAAAHcEAAAAAHhxAH4Bw3EAfgJkeHEAfgCucQB+AmJxAH4CPnhxAH4A0HB4cQB+AB1zcQB+AAJzcQB+AAcAAAACdwQAAAACc3EAfgACc3EAfgAHAAAAAncEAAAAAnNxAH4AAnNxAH4ABwAAAAB3BAAAAAB4cQB+AcNxAH4CbHNxAH4AAnNxAH4ABwAAAAJ3BAAAAAJzcQB+AAJzcQB+AAcAAAACdwQAAAACc3EAfgACc3EAfgAHAAAAAncEAAAAAnNxAH4AAnNxAH4ABwAAAAB3BAAAAAB4cQB+AcNxAH4CdHNxAH4AAnNxAH4ABwAAAAJ3BAAAAAJzcQB+AAJzcQB+AAcAAAACdwQAAAACc3EAfgACc3EAfgAHAAAAAncEAAAAAnNxAH4AAnNxAH4ABwAAAAB3BAAAAAB4cQB+AVRxAH4CfHNxAH4AAnNxAH4ABwAAAAB3BAAAAAB4cQB+AVRxAH4CfHhxAH4A0HEAfgJ6c3EAfgACc3EAfgAHAAAAAHcEAAAAAHhxAH4BVHEAfgJ6eHEAfgDQcQB+AnhzcQB+AAJzcQB+AAcAAAAAdwQAAAAAeHEAfgFUcQB+Anh4cQB+ANBxAH4CdHhxAH4ArnEAfgJyc3EAfgACc3EAfgAHAAAAAHcEAAAAAHhxAH4BVHEAfgJyeHEAfgDQcQB+AnBzcQB+AAJzcQB+AAcAAAAAdwQAAAAAeHEAfgFUcQB+AnB4cQB+ANBxAH4CbHhxAH4ArnEAfgJqcQB+Ajh4cQB+AB1zcQB+AAJzcQB+AAcAAAACdwQAAAACc3EAfgACc3EAfgAHAAAAAncEAAAAAnNxAH4AAnNxAH4ABwAAAAB3BAAAAAB4cQB+AcBxAH4CjHNxAH4AAnNxAH4ABwAAAAB3BAAAAAB4cQB+AcNxAH4CjHhxAH4ArnEAfgKKcQB+Amp4cQB+ANBweHEAfgDQcQB+AiR4cQB+AK5xAH4CPHhxAH4A0HEAfgIUcQB+AiJ4cQB+ANBxAH4CEnEAfgImeHEAfgCucQB+AhBxAH4COnhxAH4AHXEAfgIOeHEAfgAdc3EAfgACc3EAfgAHAAAAAncEAAAAAnNxAH4AAnNxAH4ABwAAAAJ3BAAAAAJzcQB+AAJzcQB+AAcAAAAAdwQAAAAAeHEAfgHAcQB+ApRzcQB+AAJzcQB+AAcAAAAAdwQAAAAAeHEAfgHDcQB+ApR4cQB+AK5xAH4CknEAfgIOeHEAfgDQcHhxAH4A0HNxAH4AAnNxAH4ABwAAAAJ3BAAAAAJzcQB+AAJzcQB+AAcAAAAAdwQAAAAAeHEAfgHDcQB+AppxAH4B9nhxAH4ArnNxAH4AAnNxAH4ABwAAAAJ3BAAAAAJxAH4CmnEAfgIEeHEAfgDQc3EAfgACc3EAfgAHAAAAAncEAAAAAnEAfgKecQB+Agh4cQB+ANBzcQB+AAJzcQB+AAcAAAACdwQAAAACc3EAfgACc3EAfgAHAAAAAHcEAAAAAHhxAH4Bw3EAfgKicQB+AqB4cQB+AK5zcQB+AAJzcQB+AAcAAAACdwQAAAACcQB+AqJxAH4CEHhxAH4AHXNxAH4AAnNxAH4ABwAAAAJ3BAAAAAJzcQB+AAJzcQB+AAcAAAACdwQAAAACc3EAfgACc3EAfgAHAAAAAHcEAAAAAHhxAH4BwHEAfgKqc3EAfgACc3EAfgAHAAAAAHcEAAAAAHhxAH4Bw3EAfgKqeHEAfgCucQB+AqhxAH4CpnhxAH4A0HB4cQB+ANBxAH4B3HEAfgHweHEAfgDQcQB+AdpxAH4B9HhxAH4A0HEAfgHYcQB+Afh4cQB+ANBxAH4B1HhxAH4ArnEAfgHScQB+AgR4cQB+ANBxAH4B0HEAfgIIeHEAfgDQcQB+Acx4cQB+AK5xAH4BynEAfgIQeHEAfgAdc3EAfgACc3EAfgAHAAAAAncEAAAAAnNxAH4AAnNxAH4ABwAAAAJ3BAAAAAJzcQB+AAJzcQB+AAcAAAAAdwQAAAAAeHEAfgFUcQB+ArJzcQB+AAJzcQB+AAcAAAAAdwQAAAAAeHEAfgFUcQB+ArJ4cQB+ANBxAH4CsHEAfgHKeHEAfgDQcHhxAH4A0HB4cQB+AK5xAH4BunEAfgHKeHEAfgDQcHg=";
    "rO0ABXNyABFqYXZhLnV0aWwuQ29sbFNlcleOq7Y6G6gRAwABSQADdGFneHAAAAAEdwQAAAAEc3IAN2lvLmdpdGh1Yi5lcmljbWVkdmV0LmpnZWEuY29yZS5yZXByZXNlbnRhdGlvbi50cmVlLlRyZWUKs7/qnQrEZQIAA0wACGNoaWxkcmVudAAQTGphdmEvdXRpbC9MaXN0O0wAB2NvbnRlbnR0ABJMamF2YS9sYW5nL09iamVjdDtMAAZwYXJlbnR0ADlMaW8vZ2l0aHViL2VyaWNtZWR2ZXQvamdlYS9jb3JlL3JlcHJlc2VudGF0aW9uL3RyZWUvVHJlZTt4cHNyABNqYXZhLnV0aWwuQXJyYXlMaXN0eIHSHZnHYZ0DAAFJAARzaXpleHAAAAACdwQAAAACc3EAfgACc3EAfgAHAAAAAncEAAAAAnNxAH4AAnNxAH4ABwAAAAB3BAAAAAB4c3IAS2lvLmdpdGh1Yi5lcmljbWVkdmV0LmpnZWEuY29yZS5yZXByZXNlbnRhdGlvbi50cmVlLm51bWVyaWMuRWxlbWVudCRWYXJpYWJsZQAAAAAAAAAAAgABTAAEbmFtZXQAEkxqYXZhL2xhbmcvU3RyaW5nO3hwdAADeDAxcQB+AAlzcQB+AAJzcQB+AAcAAAAAdwQAAAAAeHEAfgAPc3EAfgACc3EAfgAHAAAAAncEAAAAAnNxAH4AAnNxAH4ABwAAAAJ3BAAAAAJzcQB+AAJzcQB+AAcAAAAAdwQAAAAAeHEAfgAPcQB+ABVzcQB+AAJzcQB+AAcAAAAAdwQAAAAAeHEAfgAPcQB+ABV4fnIAS2lvLmdpdGh1Yi5lcmljbWVkdmV0LmpnZWEuY29yZS5yZXByZXNlbnRhdGlvbi50cmVlLm51bWVyaWMuRWxlbWVudCRPcGVyYXRvcgAAAAAAAAAAEgAAeHIADmphdmEubGFuZy5FbnVtAAAAAAAAAAASAAB4cHQACEFERElUSU9OcQB+ABNxAH4AEXhxAH4AHXNxAH4AAnNxAH4ABwAAAAJ3BAAAAAJxAH4AE3NxAH4AAnNxAH4ABwAAAAJ3BAAAAAJzcQB+AAJzcQB+AAcAAAAAdwQAAAAAeHEAfgAPcQB+ACFzcQB+AAJzcQB+AAcAAAAAdwQAAAAAeHNxAH4ADXQAA3gwNnEAfgAheH5xAH4AG3QADVBST1RfRElWSVNJT05xAH4AH3hxAH4AHXB4cQB+AB1xAH4ABnEAfgAheHEAfgAdcHNxAH4AAnNxAH4ABwAAAAJ3BAAAAAJzcQB+AAJzcQB+AAcAAAACdwQAAAACc3EAfgACc3EAfgAHAAAAAncEAAAAAnNxAH4AAnNxAH4ABwAAAAB3BAAAAAB4c3EAfgANdAADeDEycQB+AC9zcQB+AAJzcQB+AAcAAAAAdwQAAAAAeHNyAEtpby5naXRodWIuZXJpY21lZHZldC5qZ2VhLmNvcmUucmVwcmVzZW50YXRpb24udHJlZS5udW1lcmljLkVsZW1lbnQkQ29uc3RhbnQAAAAAAAAAAAIAAUQABXZhbHVleHBABAAAAAAAAHNxAH4AAnNxAH4ABwAAAAJ3BAAAAAJzcQB+AAJzcQB+AAcAAAAAdwQAAAAAeHNxAH4ANwAAAAAAAAAAcQB+ADlxAH4ANXh+cQB+ABt0AAhQUk9UX0xPR3NxAH4AAnNxAH4ABwAAAAJ3BAAAAAJxAH4AOXNxAH4AAnNxAH4ABwAAAAJ3BAAAAAJzcQB+AAJzcQB+AAcAAAACdwQAAAACc3EAfgACc3EAfgAHAAAAAHcEAAAAAHhxAH4APXEAfgBEc3EAfgACc3EAfgAHAAAAAHcEAAAAAHhzcQB+AA10AAN4MTFzcQB+AAJzcQB+AAcAAAACdwQAAAACc3EAfgACc3EAfgAHAAAAAHcEAAAAAHhxAH4ASnEAfgBMcQB+AEh4cQB+AB1zcQB+AAJzcQB+AAcAAAACdwQAAAACcQB+AExzcQB+AAJzcQB+AAcAAAACdwQAAAACc3EAfgACc3EAfgAHAAAAAHcEAAAAAHhzcQB+AA10AAN4MTBxAH4AUnNxAH4AAnNxAH4ABwAAAAJ3BAAAAAJzcQB+AAJzcQB+AAcAAAAAdwQAAAAAeHEAfgBKcQB+AFhzcQB+AAJzcQB+AAcAAAAAdwQAAAAAeHNxAH4ANz/wAAAAAAAAcQB+AFh4cQB+AB1zcQB+AAJzcQB+AAcAAAACdwQAAAACc3EAfgACc3EAfgAHAAAAAncEAAAAAnNxAH4AAnNxAH4ABwAAAAB3BAAAAAB4cQB+AFZxAH4AYXNxAH4AAnNxAH4ABwAAAAJ3BAAAAAJzcQB+AAJzcQB+AAcAAAAAdwQAAAAAeHEAfgBKcQB+AGVzcQB+AAJzcQB+AAcAAAAAdwQAAAAAeHEAfgBecQB+AGV4cQB+AB1xAH4AYXhxAH4APnEAfgBfcQB+AFh4cQB+AD5zcQB+AAJzcQB+AAcAAAACdwQAAAACc3EAfgACc3EAfgAHAAAAAncEAAAAAnNxAH4AAnNxAH4ABwAAAAB3BAAAAAB4cQB+AD1xAH4AbXNxAH4AAnNxAH4ABwAAAAB3BAAAAAB4cQB+AEpxAH4AbXhxAH4AHXEAfgBrcQB+AF94cQB+AB1zcQB+AAJzcQB+AAcAAAACdwQAAAACc3EAfgACc3EAfgAHAAAAAncEAAAAAnNxAH4AAnNxAH4ABwAAAAB3BAAAAAB4cQB+ADNxAH4AdXNxAH4AAnNxAH4ABwAAAAB3BAAAAAB4cQB+ADhxAH4AdXhxAH4APnEAfgBzcQB+AGt4cQB+AD5zcQB+AAJzcQB+AAcAAAACdwQAAAACcQB+AHNzcQB+AAJzcQB+AAcAAAACdwQAAAACc3EAfgACc3EAfgAHAAAAAHcEAAAAAHhzcQB+AA10AAN4MDVxAH4AfXNxAH4AAnNxAH4ABwAAAAJ3BAAAAAJzcQB+AAJzcQB+AAcAAAAAdwQAAAAAeHEAfgBWcQB+AINzcQB+AAJzcQB+AAcAAAAAdwQAAAAAeHNxAH4AN0AMAAAAAAAAc3EAfgACc3EAfgAHAAAAAncEAAAAAnNxAH4AAnNxAH4ABwAAAAJ3BAAAAAJzcQB+AAJzcQB+AAcAAAACdwQAAAACc3EAfgACc3EAfgAHAAAAAHcEAAAAAHhxAH4AM3EAfgCOc3EAfgACc3EAfgAHAAAAAHcEAAAAAHhxAH4AOHEAfgCOeHEAfgA+cQB+AIxzcQB+AAJzcQB+AAcAAAACdwQAAAACc3EAfgACc3EAfgAHAAAAAncEAAAAAnNxAH4AAnNxAH4ABwAAAAB3BAAAAAB4cQB+AD1xAH4AlnNxAH4AAnNxAH4ABwAAAAB3BAAAAAB4cQB+AEpxAH4AlnhxAH4AHXEAfgCUc3EAfgACc3EAfgAHAAAAAncEAAAAAnNxAH4AAnNxAH4ABwAAAAB3BAAAAAB4cQB+AF5xAH4AnHNxAH4AAnNxAH4ABwAAAAJ3BAAAAAJzcQB+AAJzcQB+AAcAAAAAdwQAAAAAeHEAfgBKcQB+AKBzcQB+AAJzcQB+AAcAAAAAdwQAAAAAeHEAfgBecQB+AKB4cQB+AB1xAH4AnHhxAH4APnEAfgCUeHEAfgAdcQB+AIx4cQB+AD5xAH4AinEAfgCHeH5xAH4AG3QADk1VTFRJUExJQ0FUSU9Oc3EAfgACc3EAfgAHAAAAAncEAAAAAnNxAH4AAnNxAH4ABwAAAAB3BAAAAAB4cQB+AIFxAH4AqHEAfgCKeHEAfgCmc3EAfgACc3EAfgAHAAAAAncEAAAAAnNxAH4AAnNxAH4ABwAAAAJ3BAAAAAJzcQB+AAJzcQB+AAcAAAACdwQAAAACc3EAfgACc3EAfgAHAAAAAHcEAAAAAHhxAH4AM3EAfgCwc3EAfgACc3EAfgAHAAAAAHcEAAAAAHhxAH4AOHEAfgCweHEAfgA+cQB+AK5zcQB+AAJzcQB+AAcAAAACdwQAAAACc3EAfgACc3EAfgAHAAAAAncEAAAAAnNxAH4AAnNxAH4ABwAAAAB3BAAAAAB4cQB+AD1xAH4AuHNxAH4AAnNxAH4ABwAAAAB3BAAAAAB4cQB+AEpxAH4AuHhxAH4AHXEAfgC2c3EAfgACc3EAfgAHAAAAAncEAAAAAnNxAH4AAnNxAH4ABwAAAAB3BAAAAAB4cQB+AF5xAH4AvnNxAH4AAnNxAH4ABwAAAAJ3BAAAAAJzcQB+AAJzcQB+AAcAAAAAdwQAAAAAeHEAfgBKcQB+AMJzcQB+AAJzcQB+AAcAAAAAdwQAAAAAeHEAfgBecQB+AMJ4cQB+AB1xAH4AvnhxAH4APnEAfgC2eHEAfgAdcQB+AK54cQB+AD5xAH4ArHEAfgCoeH5xAH4AG3QAC1NVQlRSQUNUSU9OcHhxAH4ApnNxAH4AAnNxAH4ABwAAAAJ3BAAAAAJzcQB+AAJzcQB+AAcAAAACdwQAAAACc3EAfgACc3EAfgAHAAAAAHcEAAAAAHhxAH4AXnEAfgDMc3EAfgACc3EAfgAHAAAAAncEAAAAAnNxAH4AAnNxAH4ABwAAAAB3BAAAAAB4cQB+AEpxAH4A0HNxAH4AAnNxAH4ABwAAAAB3BAAAAAB4cQB+AF5xAH4A0HhxAH4AHXEAfgDMeHEAfgA+cQB+AMpxAH4Ag3hxAH4ApnNxAH4AAnNxAH4ABwAAAAJ3BAAAAAJzcQB+AAJzcQB+AAcAAAACdwQAAAACc3EAfgACc3EAfgAHAAAAAncEAAAAAnNxAH4AAnNxAH4ABwAAAAB3BAAAAAB4cQB+ADNxAH4A2nNxAH4AAnNxAH4ABwAAAAB3BAAAAAB4cQB+ADhxAH4A2nhxAH4APnEAfgDYc3EAfgACc3EAfgAHAAAAAncEAAAAAnNxAH4AAnNxAH4ABwAAAAJ3BAAAAAJzcQB+AAJzcQB+AAcAAAAAdwQAAAAAeHEAfgA9cQB+AOJzcQB+AAJzcQB+AAcAAAAAdwQAAAAAeHEAfgBKcQB+AOJ4cQB+AB1xAH4A4HNxAH4AAnNxAH4ABwAAAAJ3BAAAAAJzcQB+AAJzcQB+AAcAAAAAdwQAAAAAeHEAfgBWcQB+AOhzcQB+AAJzcQB+AAcAAAACdwQAAAACc3EAfgACc3EAfgAHAAAAAHcEAAAAAHhxAH4ASnEAfgDsc3EAfgACc3EAfgAHAAAAAHcEAAAAAHhxAH4AXnEAfgDseHEAfgAdcQB+AOh4cQB+AD5xAH4A4HhxAH4AHXEAfgDYeHEAfgA+cQB+ANZxAH4AynhxAH4AyHB4cQB+AKZzcQB+AAJzcQB+AAcAAAACdwQAAAACc3EAfgACc3EAfgAHAAAAAncEAAAAAnNxAH4AAnNxAH4ABwAAAAJ3BAAAAAJzcQB+AAJzcQB+AAcAAAAAdwQAAAAAeHEAfgAzcQB+APZzcQB+AAJzcQB+AAcAAAAAdwQAAAAAeHEAfgA4cQB+APZ4cQB+AD5xAH4A9HNxAH4AAnNxAH4ABwAAAAB3BAAAAAB4cQB+AIlxAH4A9HhxAH4APnEAfgDycQB+AH14cQB+AMhweHEAfgDIcHhxAH4APnNxAH4AAnNxAH4ABwAAAAJ3BAAAAAJzcQB+AAJzcQB+AAcAAAAAdwQAAAAAeHEAfgA4cQB+AP5xAH4AUnhxAH4AHXNxAH4AAnNxAH4ABwAAAAJ3BAAAAAJzcQB+AAJzcQB+AAcAAAACdwQAAAACc3EAfgACc3EAfgAHAAAAAHcEAAAAAHhxAH4AM3EAfgEEc3EAfgACc3EAfgAHAAAAAHcEAAAAAHhxAH4AOHEAfgEEeHEAfgA+cQB+AQJxAH4A/nhxAH4APnNxAH4AAnNxAH4ABwAAAAJ3BAAAAAJxAH4BAnEAfgB9eHEAfgDIcHhxAH4AHXNxAH4AAnNxAH4ABwAAAAJ3BAAAAAJzcQB+AAJzcQB+AAcAAAACdwQAAAACc3EAfgACc3EAfgAHAAAAAHcEAAAAAHhxAH4AM3EAfgEOc3EAfgACc3EAfgAHAAAAAHcEAAAAAHhxAH4AOHEAfgEOeHEAfgA+cQB+AQxxAH4AUHhxAH4APnNxAH4AAnNxAH4ABwAAAAJ3BAAAAAJxAH4BDHEAfgB9eHEAfgDIcHhxAH4AHXEAfgBCcQB+AFJ4cQB+AB1xAH4AQHhxAH4APnNxAH4AAnNxAH4ABwAAAAJ3BAAAAAJxAH4AQHEAfgB9eHEAfgDIcHhxAH4APnEAfgAtcQB+AEJ4cQB+AD5xAH4AK3EAfgB9eHEAfgDIcHNxAH4AAnNxAH4ABwAAAAJ3BAAAAAJzcQB+AAJzcQB+AAcAAAACdwQAAAACc3EAfgACc3EAfgAHAAAAAncEAAAAAnNxAH4AAnNxAH4ABwAAAAB3BAAAAAB4cQB+AF5xAH4BHHNxAH4AAnNxAH4ABwAAAAJ3BAAAAAJzcQB+AAJzcQB+AAcAAAAAdwQAAAAAeHEAfgBecQB+ASBzcQB+AAJzcQB+AAcAAAACdwQAAAACc3EAfgACc3EAfgAHAAAAAncEAAAAAnNxAH4AAnNxAH4ABwAAAAB3BAAAAAB4c3EAfgANdAADeDE0cQB+ASZzcQB+AAJzcQB+AAcAAAAAdwQAAAAAeHNxAH4ADXQAA3gwOXNxAH4AAnNxAH4ABwAAAAJ3BAAAAAJzcQB+AAJzcQB+AAcAAAAAdwQAAAAAeHEAfgEucQB+ATBxAH4BLHhxAH4ApnNxAH4AAnNxAH4ABwAAAAJ3BAAAAAJxAH4BMHNxAH4AAnNxAH4ABwAAAAB3BAAAAAB4cQB+AS5zcQB+AAJzcQB+AAcAAAACdwQAAAACc3EAfgACc3EAfgAHAAAAAncEAAAAAnNxAH4AAnNxAH4ABwAAAAB3BAAAAAB4cQB+ASpxAH4BOnNxAH4AAnNxAH4ABwAAAAB3BAAAAAB4cQB+ASpxAH4BOnhxAH4ApnEAfgE4cQB+ATZ4cQB+AKZzcQB+AAJzcQB+AAcAAAACdwQAAAACc3EAfgACc3EAfgAHAAAAAHcEAAAAAHhxAH4AXnEAfgFAcQB+ATh4cQB+AKZzcQB+AAJzcQB+AAcAAAACdwQAAAACc3EAfgACc3EAfgAHAAAAAHcEAAAAAHhxAH4AXnEAfgFEcQB+AUB4cQB+AB1zcQB+AAJzcQB+AAcAAAACdwQAAAACcQB+AURzcQB+AAJzcQB+AAcAAAACdwQAAAACc3EAfgACc3EAfgAHAAAAAHcEAAAAAHhxAH4BLnEAfgFKc3EAfgACc3EAfgAHAAAAAncEAAAAAnNxAH4AAnNxAH4ABwAAAAB3BAAAAAB4cQB+ASpxAH4BTnNxAH4AAnNxAH4ABwAAAAB3BAAAAAB4cQB+AS5xAH4BTnhxAH4ApnEAfgFKeHEAfgCmcQB+AUh4cQB+AB1zcQB+AAJzcQB+AAcAAAACdwQAAAACcQB+AUhzcQB+AAJzcQB+AAcAAAACdwQAAAACc3EAfgACc3EAfgAHAAAAAHcEAAAAAHhxAH4BLnEAfgFWc3EAfgACc3EAfgAHAAAAAncEAAAAAnNxAH4AAnNxAH4ABwAAAAB3BAAAAAB4cQB+ASpxAH4BWnNxAH4AAnNxAH4ABwAAAAB3BAAAAAB4cQB+AS5zcQB+AAJzcQB+AAcAAAACdwQAAAACc3EAfgACc3EAfgAHAAAAAHcEAAAAAHhxAH4BLnEAfgFgcQB+AV54cQB+AKZzcQB+AAJzcQB+AAcAAAACdwQAAAACc3EAfgACc3EAfgAHAAAAAHcEAAAAAHhxAH4BLnEAfgFkcQB+AWB4cQB+AKZzcQB+AAJzcQB+AAcAAAACdwQAAAACc3EAfgACc3EAfgAHAAAAAHcEAAAAAHhxAH4AXnEAfgFocQB+AWR4cQB+AB1weHEAfgCmc3EAfgACc3EAfgAHAAAAAncEAAAAAnNxAH4AAnNxAH4ABwAAAAJ3BAAAAAJzcQB+AAJzcQB+AAcAAAAAdwQAAAAAeHEAfgEqcQB+AW5zcQB+AAJzcQB+AAcAAAAAdwQAAAAAeHEAfgEucQB+AW54cQB+AKZxAH4BbHEAfgFaeHEAfgCmc3EAfgACc3EAfgAHAAAAAncEAAAAAnNxAH4AAnNxAH4ABwAAAAB3BAAAAAB4cQB+AF5xAH4BdHEAfgFseHEAfgAdcHhxAH4ApnEAfgFUeHEAfgAdcHhxAH4ApnNxAH4AAnNxAH4ABwAAAAJ3BAAAAAJzcQB+AAJzcQB+AAcAAAAAdwQAAAAAeHEAfgBecQB+AXhxAH4BNHhxAH4ApnNxAH4AAnNxAH4ABwAAAAJ3BAAAAAJzcQB+AAJzcQB+AAcAAAAAdwQAAAAAeHEAfgBecQB+AXxxAH4BeHhxAH4AHXNxAH4AAnNxAH4ABwAAAAJ3BAAAAAJxAH4BfHEAfgFKeHEAfgAdc3EAfgACc3EAfgAHAAAAAncEAAAAAnEAfgGAcQB+AVZ4cQB+AB1weHEAfgCmcQB+ASRxAH4BNnhxAH4ApnEAfgEgeHEAfgCmc3EAfgACc3EAfgAHAAAAAncEAAAAAnNxAH4AAnNxAH4ABwAAAAJ3BAAAAAJzcQB+AAJzcQB+AAcAAAAAdwQAAAAAeHEAfgEqcQB+AYZzcQB+AAJzcQB+AAcAAAAAdwQAAAAAeHEAfgEucQB+AYZ4cQB+AKZxAH4BhHEAfgEgeHEAfgAdc3EAfgACc3EAfgAHAAAAAncEAAAAAnEAfgGEcQB+AUp4cQB+AB1zcQB+AAJzcQB+AAcAAAACdwQAAAACcQB+AYxxAH4BVnhxAH4AHXB4cQB+AB1xAH4BGnEAfgFKeHEAfgAdcQB+ARhxAH4BVnhxAH4AHXBzcQB+AAJzcQB+AAcAAAACdwQAAAACc3EAfgACc3EAfgAHAAAAAncEAAAAAnNxAH4AAnNxAH4ABwAAAAB3BAAAAAB4c3EAfgA3P+AAAAAAAABxAH4BknNxAH4AAnNxAH4ABwAAAAB3BAAAAAB4c3EAfgA3QAAAAAAAAABzcQB+AAJzcQB+AAcAAAACdwQAAAACc3EAfgACc3EAfgAHAAAAAHcEAAAAAHhxAH4BmXEAfgGacQB+AZd4cQB+AKZzcQB+AAJzcQB+AAcAAAACdwQAAAACcQB+AZpzcQB+AAJzcQB+AAcAAAACdwQAAAACc3EAfgACc3EAfgAHAAAAAncEAAAAAnNxAH4AAnNxAH4ABwAAAAB3BAAAAAB4cQB+AZlxAH4BonNxAH4AAnNxAH4ABwAAAAJ3BAAAAAJzcQB+AAJzcQB+AAcAAAACdwQAAAACc3EAfgACc3EAfgAHAAAAAncEAAAAAnNxAH4AAnNxAH4ABwAAAAB3BAAAAAB4cQB+AZlxAH4BqnNxAH4AAnNxAH4ABwAAAAJ3BAAAAAJzcQB+AAJzcQB+AAcAAAACdwQAAAACc3EAfgACc3EAfgAHAAAAAncEAAAAAnNxAH4AAnNxAH4ABwAAAAJ3BAAAAAJzcQB+AAJzcQB+AAcAAAAAdwQAAAAAeHEAfgEqcQB+AbRzcQB+AAJzcQB+AAcAAAAAdwQAAAAAeHEAfgEqc3EAfgACc3EAfgAHAAAAAncEAAAAAnNxAH4AAnNxAH4ABwAAAAJ3BAAAAAJzcQB+AAJzcQB+AAcAAAAAdwQAAAAAeHNxAH4ADXQAA3gxNnEAfgG8c3EAfgACc3EAfgAHAAAAAHcEAAAAAHhxAH4BKnEAfgG8eHEAfgDIcQB+AbpxAH4BuHhxAH4AyHNxAH4AAnNxAH4ABwAAAAJ3BAAAAAJxAH4BunNxAH4AAnNxAH4ABwAAAAB3BAAAAAB4cQB+ASpxAH4BxHhxAH4AyHNxAH4AAnNxAH4ABwAAAAJ3BAAAAAJxAH4BxHNxAH4AAnNxAH4ABwAAAAB3BAAAAAB4cQB+ASpxAH4ByHhxAH4AyHNxAH4AAnNxAH4ABwAAAAJ3BAAAAAJxAH4ByHNxAH4AAnNxAH4ABwAAAAB3BAAAAAB4cQB+ASpzcQB+AAJzcQB+AAcAAAACdwQAAAACc3EAfgACc3EAfgAHAAAAAHcEAAAAAHhxAH4BmXEAfgHQcQB+Ac54cQB+AMhzcQB+AAJzcQB+AAcAAAACdwQAAAACc3EAfgACc3EAfgAHAAAAAHcEAAAAAHhxAH4BmXEAfgHUcQB+AdB4cQB+AKZzcQB+AAJzcQB+AAcAAAACdwQAAAACcQB+AdRzcQB+AAJzcQB+AAcAAAAAdwQAAAAAeHEAfgEqcQB+Adh4cQB+AMhzcQB+AAJzcQB+AAcAAAACdwQAAAACcQB+AdhzcQB+AAJzcQB+AAcAAAAAdwQAAAAAeHEAfgEqcQB+Adx4cQB+AMhzcQB+AAJzcQB+AAcAAAACdwQAAAACc3EAfgACc3EAfgAHAAAAAHcEAAAAAHhxAH4BmXEAfgHgcQB+Adx4cQB+AKZzcQB+AAJzcQB+AAcAAAACdwQAAAACcQB+AeBzcQB+AAJzcQB+AAcAAAACdwQAAAACc3EAfgACc3EAfgAHAAAAAncEAAAAAnNxAH4AAnNxAH4ABwAAAAJ3BAAAAAJzcQB+AAJzcQB+AAcAAAACdwQAAAACc3EAfgACc3EAfgAHAAAAAHcEAAAAAHhxAH4BwHEAfgHsc3EAfgACc3EAfgAHAAAAAHcEAAAAAHhxAH4BKnNxAH4AAnNxAH4ABwAAAAJ3BAAAAAJzcQB+AAJzcQB+AAcAAAAAdwQAAAAAeHEAfgEqcQB+AfJxAH4B8HhxAH4AyHNxAH4AAnNxAH4ABwAAAAJ3BAAAAAJxAH4B8nNxAH4AAnNxAH4ABwAAAAB3BAAAAAB4cQB+ASpxAH4B9nhxAH4AyHNxAH4AAnNxAH4ABwAAAAJ3BAAAAAJxAH4B9nNxAH4AAnNxAH4ABwAAAAJ3BAAAAAJzcQB+AAJzcQB+AAcAAAAAdwQAAAAAeHEAfgHAcQB+AfxzcQB+AAJzcQB+AAcAAAAAdwQAAAAAeHEAfgEqc3EAfgACc3EAfgAHAAAAAncEAAAAAnNxAH4AAnNxAH4ABwAAAAJ3BAAAAAJzcQB+AAJzcQB+AAcAAAAAdwQAAAAAeHEAfgEqcQB+AgRzcQB+AAJzcQB+AAcAAAAAdwQAAAAAeHEAfgEqcQB+AgR4cQB+AMhxAH4CAnEAfgIAeHEAfgDIc3EAfgACc3EAfgAHAAAAAncEAAAAAnNxAH4AAnNxAH4ABwAAAAB3BAAAAAB4cQB+AZlxAH4CCnEAfgICeHEAfgCmc3EAfgACc3EAfgAHAAAAAncEAAAAAnEAfgIKc3EAfgACc3EAfgAHAAAAAHcEAAAAAHhxAH4AJ3NxAH4AAnNxAH4ABwAAAAJ3BAAAAAJxAH4B+nEAfgIQeHEAfgAdc3EAfgACc3EAfgAHAAAAAncEAAAAAnNxAH4AAnNxAH4ABwAAAAJ3BAAAAAJzcQB+AAJzcQB+AAcAAAAAdwQAAAAAeHEAfgGZcQB+AhZzcQB+AAJzcQB+AAcAAAACdwQAAAACc3EAfgACc3EAfgAHAAAAAncEAAAAAnNxAH4AAnNxAH4ABwAAAAJ3BAAAAAJzcQB+AAJzcQB+AAcAAAAAdwQAAAAAeHEAfgGZcQB+Ah5zcQB+AAJzcQB+AAcAAAACdwQAAAACc3EAfgACc3EAfgAHAAAAAncEAAAAAnNxAH4AAnNxAH4ABwAAAAJ3BAAAAAJzcQB+AAJzcQB+AAcAAAACdwQAAAACc3EAfgACc3EAfgAHAAAAAHcEAAAAAHhxAH4BKnEAfgIoc3EAfgACc3EAfgAHAAAAAHcEAAAAAHhxAH4BKnEAfgIoeHEAfgDIcQB+AiZzcQB+AAJzcQB+AAcAAAAAdwQAAAAAeHEAfgEqcQB+AiZ4cQB+AMhxAH4CJHNxAH4AAnNxAH4ABwAAAAB3BAAAAAB4cQB+ASpxAH4CJHhxAH4AyHEAfgIic3EAfgACc3EAfgAHAAAAAHcEAAAAAHhxAH4BKnEAfgIieHEAfgDIcQB+Ah54cQB+AKZxAH4CHHNxAH4AAnNxAH4ABwAAAAB3BAAAAAB4cQB+ASpxAH4CHHhxAH4AyHEAfgIac3EAfgACc3EAfgAHAAAAAHcEAAAAAHhxAH4BKnEAfgIaeHEAfgDIcQB+AhZ4cQB+AKZxAH4CFHEAfgISeHEAfgAdc3EAfgACc3EAfgAHAAAAAncEAAAAAnNxAH4AAnNxAH4ABwAAAAJ3BAAAAAJzcQB+AAJzcQB+AAcAAAAAdwQAAAAAeHEAfgGWcQB+AjpzcQB+AAJzcQB+AAcAAAAAdwQAAAAAeHEAfgGZcQB+Ajp4cQB+AKZxAH4COHEAfgIUeHEAfgDIcHhxAH4AHXNxAH4AAnNxAH4ABwAAAAJ3BAAAAAJzcQB+AAJzcQB+AAcAAAACdwQAAAACc3EAfgACc3EAfgAHAAAAAHcEAAAAAHhxAH4BmXEAfgJCc3EAfgACc3EAfgAHAAAAAncEAAAAAnNxAH4AAnNxAH4ABwAAAAJ3BAAAAAJzcQB+AAJzcQB+AAcAAAACdwQAAAACc3EAfgACc3EAfgAHAAAAAHcEAAAAAHhxAH4BmXEAfgJKc3EAfgACc3EAfgAHAAAAAncEAAAAAnNxAH4AAnNxAH4ABwAAAAJ3BAAAAAJzcQB+AAJzcQB+AAcAAAACdwQAAAACc3EAfgACc3EAfgAHAAAAAHcEAAAAAHhxAH4BKnEAfgJSc3EAfgACc3EAfgAHAAAAAHcEAAAAAHhxAH4BKnEAfgJSeHEAfgDIcQB+AlBzcQB+AAJzcQB+AAcAAAAAdwQAAAAAeHEAfgEqcQB+AlB4cQB+AMhxAH4CTnNxAH4AAnNxAH4ABwAAAAB3BAAAAAB4cQB+ASpxAH4CTnhxAH4AyHEAfgJKeHEAfgCmcQB+AkhzcQB+AAJzcQB+AAcAAAAAdwQAAAAAeHEAfgEqcQB+Akh4cQB+AMhxAH4CRnNxAH4AAnNxAH4ABwAAAAB3BAAAAAB4cQB+ASpxAH4CRnhxAH4AyHEAfgJCeHEAfgCmcQB+AkBxAH4CDnhxAH4AHXNxAH4AAnNxAH4ABwAAAAJ3BAAAAAJzcQB+AAJzcQB+AAcAAAACdwQAAAACc3EAfgACc3EAfgAHAAAAAHcEAAAAAHhxAH4BlnEAfgJic3EAfgACc3EAfgAHAAAAAHcEAAAAAHhxAH4BmXEAfgJieHEAfgCmcQB+AmBxAH4CQHhxAH4AyHB4cQB+AMhxAH4B+nhxAH4ApnEAfgISeHEAfgDIcQB+AepxAH4B+HhxAH4AyHEAfgHocQB+Afx4cQB+AKZxAH4B5nEAfgIQeHEAfgAdcQB+AeR4cQB+AB1zcQB+AAJzcQB+AAcAAAACdwQAAAACc3EAfgACc3EAfgAHAAAAAncEAAAAAnNxAH4AAnNxAH4ABwAAAAB3BAAAAAB4cQB+AZZxAH4CanNxAH4AAnNxAH4ABwAAAAB3BAAAAAB4cQB+AZlxAH4CanhxAH4ApnEAfgJocQB+AeR4cQB+AMhweHEAfgDIc3EAfgACc3EAfgAHAAAAAncEAAAAAnNxAH4AAnNxAH4ABwAAAAB3BAAAAAB4cQB+AZlxAH4CcHEAfgHMeHEAfgCmc3EAfgACc3EAfgAHAAAAAncEAAAAAnEAfgJwcQB+Adp4cQB+AMhzcQB+AAJzcQB+AAcAAAACdwQAAAACcQB+AnRxAH4B3nhxAH4AyHNxAH4AAnNxAH4ABwAAAAJ3BAAAAAJzcQB+AAJzcQB+AAcAAAAAdwQAAAAAeHEAfgGZcQB+AnhxAH4CdnhxAH4ApnNxAH4AAnNxAH4ABwAAAAJ3BAAAAAJxAH4CeHEAfgHmeHEAfgAdc3EAfgACc3EAfgAHAAAAAncEAAAAAnNxAH4AAnNxAH4ABwAAAAJ3BAAAAAJzcQB+AAJzcQB+AAcAAAAAdwQAAAAAeHEAfgGWcQB+AoBzcQB+AAJzcQB+AAcAAAAAdwQAAAAAeHEAfgGZcQB+AoB4cQB+AKZxAH4CfnEAfgJ8eHEAfgDIcHhxAH4AyHEAfgGycQB+AcZ4cQB+AMhxAH4BsHEAfgHKeHEAfgDIcQB+Aa5xAH4BznhxAH4AyHEAfgGqeHEAfgCmcQB+AahxAH4B2nhxAH4AyHEAfgGmcQB+Ad54cQB+AMhxAH4BonhxAH4ApnEAfgGgcQB+AeZ4cQB+AB1zcQB+AAJzcQB+AAcAAAACdwQAAAACc3EAfgACc3EAfgAHAAAAAncEAAAAAnNxAH4AAnNxAH4ABwAAAAB3BAAAAAB4cQB+ASpxAH4CiHNxAH4AAnNxAH4ABwAAAAB3BAAAAAB4cQB+ASpxAH4CiHhxAH4AyHEAfgKGcQB+AaB4cQB+AMhweHEAfgDIcHhxAH4ApnEAfgGQcQB+AaB4cQB+AMhweA==";
    "rO0ABXNyABFqYXZhLnV0aWwuQ29sbFNlcleOq7Y6G6gRAwABSQADdGFneHAAAAAEdwQAAAAEc3IAN2lvLmdpdGh1Yi5lcmljbWVkdmV0LmpnZWEuY29yZS5yZXByZXNlbnRhdGlvbi50cmVlLlRyZWUKs7/qnQrEZQIAA0wACGNoaWxkcmVudAAQTGphdmEvdXRpbC9MaXN0O0wAB2NvbnRlbnR0ABJMamF2YS9sYW5nL09iamVjdDtMAAZwYXJlbnR0ADlMaW8vZ2l0aHViL2VyaWNtZWR2ZXQvamdlYS9jb3JlL3JlcHJlc2VudGF0aW9uL3RyZWUvVHJlZTt4cHNyABNqYXZhLnV0aWwuQXJyYXlMaXN0eIHSHZnHYZ0DAAFJAARzaXpleHAAAAACdwQAAAACc3EAfgACc3EAfgAHAAAAAncEAAAAAnNxAH4AAnNxAH4ABwAAAAB3BAAAAAB4c3IAS2lvLmdpdGh1Yi5lcmljbWVkdmV0LmpnZWEuY29yZS5yZXByZXNlbnRhdGlvbi50cmVlLm51bWVyaWMuRWxlbWVudCRWYXJpYWJsZQAAAAAAAAAAAgABTAAEbmFtZXQAEkxqYXZhL2xhbmcvU3RyaW5nO3hwdAADeDAxcQB+AAlzcQB+AAJzcQB+AAcAAAAAdwQAAAAAeHEAfgAPc3EAfgACc3EAfgAHAAAAAncEAAAAAnNxAH4AAnNxAH4ABwAAAAB3BAAAAAB4c3EAfgANdAADeDA2cQB+ABNxAH4AEXh+cgBLaW8uZ2l0aHViLmVyaWNtZWR2ZXQuamdlYS5jb3JlLnJlcHJlc2VudGF0aW9uLnRyZWUubnVtZXJpYy5FbGVtZW50JE9wZXJhdG9yAAAAAAAAAAASAAB4cgAOamF2YS5sYW5nLkVudW0AAAAAAAAAABIAAHhwdAAIQURESVRJT05zcQB+AAJzcQB+AAcAAAACdwQAAAACcQB+ABNzcQB+AAJzcQB+AAcAAAACdwQAAAACc3EAfgACc3EAfgAHAAAAAHcEAAAAAHhxAH4AD3EAfgAfc3EAfgACc3EAfgAHAAAAAHcEAAAAAHhxAH4AF3EAfgAfeH5xAH4AGXQADVBST1RfRElWSVNJT05xAH4AHXhxAH4AG3B4cQB+ABtxAH4ABnEAfgAfeHEAfgAbcHNxAH4AAnNxAH4ABwAAAAJ3BAAAAAJzcQB+AAJzcQB+AAcAAAACdwQAAAACc3EAfgACc3EAfgAHAAAAAncEAAAAAnNxAH4AAnNxAH4ABwAAAAB3BAAAAAB4c3EAfgANdAADeDEycQB+ACtzcQB+AAJzcQB+AAcAAAAAdwQAAAAAeHNyAEtpby5naXRodWIuZXJpY21lZHZldC5qZ2VhLmNvcmUucmVwcmVzZW50YXRpb24udHJlZS5udW1lcmljLkVsZW1lbnQkQ29uc3RhbnQAAAAAAAAAAAIAAUQABXZhbHVleHBABAAAAAAAAHNxAH4AAnNxAH4ABwAAAAJ3BAAAAAJzcQB+AAJzcQB+AAcAAAACdwQAAAACc3EAfgACc3EAfgAHAAAAAHcEAAAAAHhzcQB+AA10AAN4MTBxAH4AN3NxAH4AAnNxAH4ABwAAAAJ3BAAAAAJzcQB+AAJzcQB+AAcAAAAAdwQAAAAAeHNxAH4ADXQAA3gxMXEAfgA9c3EAfgACc3EAfgAHAAAAAHcEAAAAAHhxAH4AQXEAfgA9eHEAfgAbcQB+ADd4fnEAfgAZdAAIUFJPVF9MT0dxAH4ANXEAfgAxeHEAfgBFc3EAfgACc3EAfgAHAAAAAncEAAAAAnEAfgA1c3EAfgACc3EAfgAHAAAAAncEAAAAAnNxAH4AAnNxAH4ABwAAAAJ3BAAAAAJzcQB+AAJzcQB+AAcAAAAAdwQAAAAAeHNxAH4AMwAAAAAAAAAAcQB+AEtzcQB+AAJzcQB+AAcAAAAAdwQAAAAAeHEAfgBBc3EAfgACc3EAfgAHAAAAAncEAAAAAnNxAH4AAnNxAH4ABwAAAAB3BAAAAAB4c3EAfgAzP/AAAAAAAABxAH4AUnEAfgBQeHEAfgAbc3EAfgACc3EAfgAHAAAAAncEAAAAAnEAfgBSc3EAfgACc3EAfgAHAAAAAncEAAAAAnNxAH4AAnNxAH4ABwAAAAB3BAAAAAB4cQB+AFZxAH4AWXNxAH4AAnNxAH4ABwAAAAJ3BAAAAAJzcQB+AAJzcQB+AAcAAAAAdwQAAAAAeHEAfgBBcQB+AF1zcQB+AAJzcQB+AAcAAAAAdwQAAAAAeHEAfgBWcQB+AF14cQB+ABtzcQB+AAJzcQB+AAcAAAACdwQAAAACc3EAfgACc3EAfgAHAAAAAncEAAAAAnNxAH4AAnNxAH4ABwAAAAB3BAAAAAB4cQB+ADtxAH4AZXNxAH4AAnNxAH4ABwAAAAJ3BAAAAAJzcQB+AAJzcQB+AAcAAAAAdwQAAAAAeHEAfgBBcQB+AGlzcQB+AAJzcQB+AAcAAAAAdwQAAAAAeHEAfgBWcQB+AGl4cQB+ABtxAH4AZXhxAH4ARXEAfgBjcQB+AF14cQB+AEVzcQB+AAJzcQB+AAcAAAACdwQAAAACc3EAfgACc3EAfgAHAAAAAncEAAAAAnNxAH4AAnNxAH4ABwAAAAB3BAAAAAB4cQB+AE9xAH4AcXNxAH4AAnNxAH4ABwAAAAB3BAAAAAB4cQB+AEFxAH4AcXhxAH4AG3EAfgBvcQB+AGN4cQB+ABtzcQB+AAJzcQB+AAcAAAACdwQAAAACc3EAfgACc3EAfgAHAAAAAncEAAAAAnNxAH4AAnNxAH4ABwAAAAB3BAAAAAB4cQB+AC9xAH4AeXNxAH4AAnNxAH4ABwAAAAB3BAAAAAB4cQB+ADRxAH4AeXhxAH4ARXEAfgB3cQB+AG94cQB+AEVzcQB+AAJzcQB+AAcAAAACdwQAAAACcQB+AHdzcQB+AAJzcQB+AAcAAAACdwQAAAACc3EAfgACc3EAfgAHAAAAAHcEAAAAAHhzcQB+AA10AAN4MDVxAH4AgXNxAH4AAnNxAH4ABwAAAAJ3BAAAAAJzcQB+AAJzcQB+AAcAAAAAdwQAAAAAeHEAfgA7cQB+AIdzcQB+AAJzcQB+AAcAAAAAdwQAAAAAeHNxAH4AM0AMAAAAAAAAc3EAfgACc3EAfgAHAAAAAncEAAAAAnNxAH4AAnNxAH4ABwAAAAJ3BAAAAAJzcQB+AAJzcQB+AAcAAAACdwQAAAACc3EAfgACc3EAfgAHAAAAAHcEAAAAAHhxAH4AL3EAfgCSc3EAfgACc3EAfgAHAAAAAHcEAAAAAHhxAH4ANHEAfgCSeHEAfgBFcQB+AJBzcQB+AAJzcQB+AAcAAAACdwQAAAACc3EAfgACc3EAfgAHAAAAAncEAAAAAnNxAH4AAnNxAH4ABwAAAAB3BAAAAAB4cQB+AE9xAH4AmnNxAH4AAnNxAH4ABwAAAAB3BAAAAAB4cQB+AEFxAH4AmnhxAH4AG3EAfgCYc3EAfgACc3EAfgAHAAAAAncEAAAAAnNxAH4AAnNxAH4ABwAAAAB3BAAAAAB4cQB+AFZxAH4AoHNxAH4AAnNxAH4ABwAAAAJ3BAAAAAJzcQB+AAJzcQB+AAcAAAAAdwQAAAAAeHEAfgBBcQB+AKRzcQB+AAJzcQB+AAcAAAAAdwQAAAAAeHEAfgBWcQB+AKR4cQB+ABtxAH4AoHhxAH4ARXEAfgCYeHEAfgAbcQB+AJB4cQB+AEVxAH4AjnEAfgCLeH5xAH4AGXQADk1VTFRJUExJQ0FUSU9Oc3EAfgACc3EAfgAHAAAAAncEAAAAAnNxAH4AAnNxAH4ABwAAAAB3BAAAAAB4cQB+AIVxAH4ArHEAfgCOeHEAfgCqc3EAfgACc3EAfgAHAAAAAncEAAAAAnNxAH4AAnNxAH4ABwAAAAJ3BAAAAAJzcQB+AAJzcQB+AAcAAAACdwQAAAACc3EAfgACc3EAfgAHAAAAAHcEAAAAAHhxAH4AL3EAfgC0c3EAfgACc3EAfgAHAAAAAHcEAAAAAHhxAH4ANHEAfgC0eHEAfgBFcQB+ALJzcQB+AAJzcQB+AAcAAAACdwQAAAACc3EAfgACc3EAfgAHAAAAAncEAAAAAnNxAH4AAnNxAH4ABwAAAAB3BAAAAAB4cQB+AE9xAH4AvHNxAH4AAnNxAH4ABwAAAAB3BAAAAAB4cQB+AEFxAH4AvHhxAH4AG3EAfgC6c3EAfgACc3EAfgAHAAAAAncEAAAAAnNxAH4AAnNxAH4ABwAAAAB3BAAAAAB4cQB+AFZxAH4AwnNxAH4AAnNxAH4ABwAAAAJ3BAAAAAJzcQB+AAJzcQB+AAcAAAAAdwQAAAAAeHEAfgBBcQB+AMZzcQB+AAJzcQB+AAcAAAAAdwQAAAAAeHEAfgBWcQB+AMZ4cQB+ABtxAH4AwnhxAH4ARXEAfgC6eHEAfgAbcQB+ALJ4cQB+AEVxAH4AsHEAfgCseH5xAH4AGXQAC1NVQlRSQUNUSU9OcHhxAH4AqnNxAH4AAnNxAH4ABwAAAAJ3BAAAAAJzcQB+AAJzcQB+AAcAAAACdwQAAAACc3EAfgACc3EAfgAHAAAAAHcEAAAAAHhxAH4AVnEAfgDQc3EAfgACc3EAfgAHAAAAAncEAAAAAnNxAH4AAnNxAH4ABwAAAAB3BAAAAAB4cQB+AEFxAH4A1HNxAH4AAnNxAH4ABwAAAAB3BAAAAAB4cQB+AFZxAH4A1HhxAH4AG3EAfgDQeHEAfgBFcQB+AM5xAH4Ah3hxAH4AqnNxAH4AAnNxAH4ABwAAAAJ3BAAAAAJzcQB+AAJzcQB+AAcAAAACdwQAAAACc3EAfgACc3EAfgAHAAAAAncEAAAAAnNxAH4AAnNxAH4ABwAAAAB3BAAAAAB4cQB+AC9xAH4A3nNxAH4AAnNxAH4ABwAAAAB3BAAAAAB4cQB+ADRxAH4A3nhxAH4ARXEAfgDcc3EAfgACc3EAfgAHAAAAAncEAAAAAnNxAH4AAnNxAH4ABwAAAAJ3BAAAAAJzcQB+AAJzcQB+AAcAAAAAdwQAAAAAeHEAfgBPcQB+AOZzcQB+AAJzcQB+AAcAAAAAdwQAAAAAeHEAfgBBcQB+AOZ4cQB+ABtxAH4A5HNxAH4AAnNxAH4ABwAAAAJ3BAAAAAJzcQB+AAJzcQB+AAcAAAAAdwQAAAAAeHEAfgA7cQB+AOxzcQB+AAJzcQB+AAcAAAACdwQAAAACc3EAfgACc3EAfgAHAAAAAHcEAAAAAHhxAH4AQXEAfgDwc3EAfgACc3EAfgAHAAAAAHcEAAAAAHhxAH4AVnEAfgDweHEAfgAbcQB+AOx4cQB+AEVxAH4A5HhxAH4AG3EAfgDceHEAfgBFcQB+ANpxAH4AznhxAH4AzHB4cQB+AKpzcQB+AAJzcQB+AAcAAAACdwQAAAACc3EAfgACc3EAfgAHAAAAAncEAAAAAnNxAH4AAnNxAH4ABwAAAAJ3BAAAAAJzcQB+AAJzcQB+AAcAAAAAdwQAAAAAeHEAfgAvcQB+APpzcQB+AAJzcQB+AAcAAAAAdwQAAAAAeHEAfgA0cQB+APp4cQB+AEVxAH4A+HNxAH4AAnNxAH4ABwAAAAB3BAAAAAB4cQB+AI1xAH4A+HhxAH4ARXEAfgD2cQB+AIF4cQB+AMxweHEAfgDMcHhxAH4ARXNxAH4AAnNxAH4ABwAAAAJ3BAAAAAJzcQB+AAJzcQB+AAcAAAACdwQAAAACc3EAfgACc3EAfgAHAAAAAHcEAAAAAHhxAH4AT3EAfgEEc3EAfgACc3EAfgAHAAAAAncEAAAAAnNxAH4AAnNxAH4ABwAAAAJ3BAAAAAJzcQB+AAJzcQB+AAcAAAAAdwQAAAAAeHEAfgBPcQB+AQpzcQB+AAJzcQB+AAcAAAAAdwQAAAAAeHEAfgBBcQB+AQp4cQB+ABtxAH4BCHNxAH4AAnNxAH4ABwAAAAJ3BAAAAAJzcQB+AAJzcQB+AAcAAAAAdwQAAAAAeHEAfgBWcQB+ARBzcQB+AAJzcQB+AAcAAAACdwQAAAACc3EAfgACc3EAfgAHAAAAAHcEAAAAAHhxAH4AQXEAfgEUc3EAfgACc3EAfgAHAAAAAHcEAAAAAHhxAH4AVnEAfgEUeHEAfgAbcQB+ARB4cQB+AEVxAH4BCHhxAH4AG3EAfgEEeHEAfgAbcQB+AQJxAH4AWXhxAH4AG3NxAH4AAnNxAH4ABwAAAAJ3BAAAAAJzcQB+AAJzcQB+AAcAAAACdwQAAAACc3EAfgACc3EAfgAHAAAAAHcEAAAAAHhxAH4AL3EAfgEcc3EAfgACc3EAfgAHAAAAAHcEAAAAAHhxAH4ANHEAfgEceHEAfgBFcQB+ARpxAH4BAnhxAH4ARXNxAH4AAnNxAH4ABwAAAAJ3BAAAAAJxAH4BGnEAfgCBeHEAfgDMcHhxAH4AG3NxAH4AAnNxAH4ABwAAAAJ3BAAAAAJzcQB+AAJzcQB+AAcAAAACdwQAAAACc3EAfgACc3EAfgAHAAAAAHcEAAAAAHhxAH4AL3EAfgEmc3EAfgACc3EAfgAHAAAAAHcEAAAAAHhxAH4ANHEAfgEmeHEAfgBFcQB+ASRxAH4AV3hxAH4ARXNxAH4AAnNxAH4ABwAAAAJ3BAAAAAJxAH4BJHEAfgCBeHEAfgDMcHhxAH4AG3EAfgBJcQB+AFl4cQB+ABtzcQB+AAJzcQB+AAcAAAACdwQAAAACc3EAfgACc3EAfgAHAAAAAncEAAAAAnNxAH4AAnNxAH4ABwAAAAB3BAAAAAB4cQB+ADtxAH4BMHNxAH4AAnNxAH4ABwAAAAJ3BAAAAAJzcQB+AAJzcQB+AAcAAAAAdwQAAAAAeHEAfgBBcQB+ATRzcQB+AAJzcQB+AAcAAAAAdwQAAAAAeHEAfgBBcQB+ATR4cQB+ABtxAH4BMHhxAH4ARXEAfgEucQB+AEl4cQB+AEVzcQB+AAJzcQB+AAcAAAACdwQAAAACcQB+AS5xAH4AgXhxAH4AzHB4cQB+AEVzcQB+AAJzcQB+AAcAAAACdwQAAAACcQB+AEdxAH4AgXhxAH4AzHB4cQB+AEVxAH4AKXEAfgBJeHEAfgBFcQB+ACdxAH4AgXhxAH4AzHBzcQB+AAJzcQB+AAcAAAACdwQAAAACc3EAfgACc3EAfgAHAAAAAncEAAAAAnNxAH4AAnNxAH4ABwAAAAJ3BAAAAAJzcQB+AAJzcQB+AAcAAAAAdwQAAAAAeHEAfgBWcQB+AUJzcQB+AAJzcQB+AAcAAAACdwQAAAACc3EAfgACc3EAfgAHAAAAAHcEAAAAAHhxAH4AVnEAfgFGc3EAfgACc3EAfgAHAAAAAncEAAAAAnNxAH4AAnNxAH4ABwAAAAJ3BAAAAAJzcQB+AAJzcQB+AAcAAAAAdwQAAAAAeHNxAH4ADXQAA3gxNHEAfgFMc3EAfgACc3EAfgAHAAAAAHcEAAAAAHhzcQB+AA10AAN4MDlzcQB+AAJzcQB+AAcAAAACdwQAAAACc3EAfgACc3EAfgAHAAAAAHcEAAAAAHhxAH4BVHEAfgFWcQB+AVJ4cQB+AKpzcQB+AAJzcQB+AAcAAAACdwQAAAACcQB+AVZzcQB+AAJzcQB+AAcAAAAAdwQAAAAAeHEAfgFUc3EAfgACc3EAfgAHAAAAAncEAAAAAnNxAH4AAnNxAH4ABwAAAAJ3BAAAAAJzcQB+AAJzcQB+AAcAAAAAdwQAAAAAeHEAfgFQcQB+AWBzcQB+AAJzcQB+AAcAAAAAdwQAAAAAeHEAfgFQcQB+AWB4cQB+AKpxAH4BXnEAfgFceHEAfgCqc3EAfgACc3EAfgAHAAAAAncEAAAAAnNxAH4AAnNxAH4ABwAAAAB3BAAAAAB4cQB+AFZxAH4BZnEAfgFeeHEAfgCqc3EAfgACc3EAfgAHAAAAAncEAAAAAnNxAH4AAnNxAH4ABwAAAAB3BAAAAAB4cQB+AFZxAH4BanEAfgFmeHEAfgAbc3EAfgACc3EAfgAHAAAAAncEAAAAAnEAfgFqc3EAfgACc3EAfgAHAAAAAncEAAAAAnNxAH4AAnNxAH4ABwAAAAB3BAAAAAB4cQB+AVRxAH4BcHNxAH4AAnNxAH4ABwAAAAJ3BAAAAAJzcQB+AAJzcQB+AAcAAAAAdwQAAAAAeHEAfgFQcQB+AXRzcQB+AAJzcQB+AAcAAAAAdwQAAAAAeHEAfgFUcQB+AXR4cQB+AKpxAH4BcHhxAH4AqnEAfgFueHEAfgAbc3EAfgACc3EAfgAHAAAAAncEAAAAAnEAfgFuc3EAfgACc3EAfgAHAAAAAncEAAAAAnNxAH4AAnNxAH4ABwAAAAB3BAAAAAB4cQB+AVRxAH4BfHNxAH4AAnNxAH4ABwAAAAJ3BAAAAAJzcQB+AAJzcQB+AAcAAAAAdwQAAAAAeHEAfgFQcQB+AYBzcQB+AAJzcQB+AAcAAAAAdwQAAAAAeHEAfgFUc3EAfgACc3EAfgAHAAAAAncEAAAAAnNxAH4AAnNxAH4ABwAAAAB3BAAAAAB4cQB+AVRxAH4BhnEAfgGEeHEAfgCqc3EAfgACc3EAfgAHAAAAAncEAAAAAnNxAH4AAnNxAH4ABwAAAAB3BAAAAAB4cQB+AVRxAH4BinEAfgGGeHEAfgCqc3EAfgACc3EAfgAHAAAAAncEAAAAAnNxAH4AAnNxAH4ABwAAAAB3BAAAAAB4cQB+AFZxAH4BjnEAfgGKeHEAfgAbcHhxAH4AqnNxAH4AAnNxAH4ABwAAAAJ3BAAAAAJzcQB+AAJzcQB+AAcAAAACdwQAAAACc3EAfgACc3EAfgAHAAAAAHcEAAAAAHhxAH4BUHEAfgGUc3EAfgACc3EAfgAHAAAAAHcEAAAAAHhxAH4BVHEAfgGUeHEAfgCqcQB+AZJxAH4BgHhxAH4AqnNxAH4AAnNxAH4ABwAAAAJ3BAAAAAJzcQB+AAJzcQB+AAcAAAAAdwQAAAAAeHEAfgBWcQB+AZpxAH4BknhxAH4AG3B4cQB+AKpxAH4BenhxAH4AG3B4cQB+AKpzcQB+AAJzcQB+AAcAAAACdwQAAAACc3EAfgACc3EAfgAHAAAAAHcEAAAAAHhxAH4AVnEAfgGecQB+AVp4cQB+AKpzcQB+AAJzcQB+AAcAAAACdwQAAAACc3EAfgACc3EAfgAHAAAAAHcEAAAAAHhxAH4AVnEAfgGicQB+AZ54cQB+ABtzcQB+AAJzcQB+AAcAAAACdwQAAAACcQB+AaJxAH4BcHhxAH4AG3NxAH4AAnNxAH4ABwAAAAJ3BAAAAAJxAH4BpnEAfgF8eHEAfgAbcHhxAH4AqnEAfgFKcQB+AVx4cQB+AKpxAH4BRnhxAH4AqnNxAH4AAnNxAH4ABwAAAAJ3BAAAAAJzcQB+AAJzcQB+AAcAAAACdwQAAAACc3EAfgACc3EAfgAHAAAAAHcEAAAAAHhxAH4BUHEAfgGsc3EAfgACc3EAfgAHAAAAAHcEAAAAAHhxAH4BVHEAfgGseHEAfgCqcQB+AapxAH4BRnhxAH4AG3NxAH4AAnNxAH4ABwAAAAJ3BAAAAAJxAH4BqnEAfgFweHEAfgAbc3EAfgACc3EAfgAHAAAAAncEAAAAAnEAfgGycQB+AXx4cQB+ABtweHEAfgAbcQB+AUBxAH4BcHhxAH4AG3EAfgE+cQB+AXx4cQB+ABtwc3EAfgACc3EAfgAHAAAAAncEAAAAAnNxAH4AAnNxAH4ABwAAAAJ3BAAAAAJzcQB+AAJzcQB+AAcAAAAAdwQAAAAAeHNxAH4AMz/gAAAAAAAAcQB+AbhzcQB+AAJzcQB+AAcAAAAAdwQAAAAAeHNxAH4AM0AAAAAAAAAAc3EAfgACc3EAfgAHAAAAAncEAAAAAnNxAH4AAnNxAH4ABwAAAAJ3BAAAAAJzcQB+AAJzcQB+AAcAAAAAdwQAAAAAeHNxAH4ADXQAA3gxNnEAfgHCc3EAfgACc3EAfgAHAAAAAHcEAAAAAHhxAH4BUHEAfgHCeHEAfgDMcQB+AcBxAH4BvXhxAH4AqnNxAH4AAnNxAH4ABwAAAAJ3BAAAAAJxAH4BwHNxAH4AAnNxAH4ABwAAAAJ3BAAAAAJzcQB+AAJzcQB+AAcAAAACdwQAAAACc3EAfgACc3EAfgAHAAAAAHcEAAAAAHhxAH4Bv3EAfgHOc3EAfgACc3EAfgAHAAAAAncEAAAAAnNxAH4AAnNxAH4ABwAAAAJ3BAAAAAJzcQB+AAJzcQB+AAcAAAACdwQAAAACc3EAfgACc3EAfgAHAAAAAHcEAAAAAHhxAH4Bv3EAfgHWc3EAfgACc3EAfgAHAAAAAncEAAAAAnNxAH4AAnNxAH4ABwAAAAJ3BAAAAAJzcQB+AAJzcQB+AAcAAAACdwQAAAACc3EAfgACc3EAfgAHAAAAAncEAAAAAnNxAH4AAnNxAH4ABwAAAAB3BAAAAAB4cQB+AVBxAH4B4HNxAH4AAnNxAH4ABwAAAAB3BAAAAAB4cQB+AVBzcQB+AAJzcQB+AAcAAAACdwQAAAACc3EAfgACc3EAfgAHAAAAAHcEAAAAAHhxAH4AF3EAfgHmcQB+AeR4cQB+AMxzcQB+AAJzcQB+AAcAAAACdwQAAAACcQB+AeZzcQB+AAJzcQB+AAcAAAAAdwQAAAAAeHEAfgFQcQB+Aep4cQB+AMxzcQB+AAJzcQB+AAcAAAACdwQAAAACcQB+AepzcQB+AAJzcQB+AAcAAAAAdwQAAAAAeHEAfgFQcQB+Ae54cQB+AMxzcQB+AAJzcQB+AAcAAAACdwQAAAACcQB+Ae5zcQB+AAJzcQB+AAcAAAAAdwQAAAAAeHEAfgFQc3EAfgACc3EAfgAHAAAAAncEAAAAAnNxAH4AAnNxAH4ABwAAAAB3BAAAAAB4cQB+AVBxAH4B9nEAfgH0eHEAfgDMc3EAfgACc3EAfgAHAAAAAncEAAAAAnNxAH4AAnNxAH4ABwAAAAB3BAAAAAB4cQB+Ab9xAH4B+nEAfgH2eHEAfgCqc3EAfgACc3EAfgAHAAAAAncEAAAAAnEAfgH6c3EAfgACc3EAfgAHAAAAAHcEAAAAAHhxAH4BUHNxAH4AAnNxAH4ABwAAAAJ3BAAAAAJzcQB+AAJzcQB+AAcAAAACdwQAAAACc3EAfgACc3EAfgAHAAAAAHcEAAAAAHhxAH4Bv3EAfgIEc3EAfgACc3EAfgAHAAAAAHcEAAAAAHhxAH4Bv3EAfgIEeHEAfgCqcQB+AgJxAH4CAHhxAH4AzHNxAH4AAnNxAH4ABwAAAAJ3BAAAAAJxAH4CAnNxAH4AAnNxAH4ABwAAAAB3BAAAAAB4cQB+AVBxAH4CCnhxAH4AzHNxAH4AAnNxAH4ABwAAAAJ3BAAAAAJzcQB+AAJzcQB+AAcAAAAAdwQAAAAAeHEAfgG/cQB+Ag5xAH4CCnhxAH4AqnNxAH4AAnNxAH4ABwAAAAJ3BAAAAAJxAH4CDnNxAH4AAnNxAH4ABwAAAAJ3BAAAAAJzcQB+AAJzcQB+AAcAAAACdwQAAAACc3EAfgACc3EAfgAHAAAAAncEAAAAAnNxAH4AAnNxAH4ABwAAAAJ3BAAAAAJzcQB+AAJzcQB+AAcAAAAAdwQAAAAAeHEAfgHGcQB+AhpzcQB+AAJzcQB+AAcAAAAAdwQAAAAAeHEAfgFQc3EAfgACc3EAfgAHAAAAAncEAAAAAnNxAH4AAnNxAH4ABwAAAAB3BAAAAAB4cQB+AVBxAH4CIHEAfgIeeHEAfgDMc3EAfgACc3EAfgAHAAAAAncEAAAAAnEAfgIgc3EAfgACc3EAfgAHAAAAAHcEAAAAAHhxAH4BUHEAfgIkeHEAfgDMc3EAfgACc3EAfgAHAAAAAncEAAAAAnEAfgIkc3EAfgACc3EAfgAHAAAAAncEAAAAAnNxAH4AAnNxAH4ABwAAAAB3BAAAAAB4cQB+AcZxAH4CKnNxAH4AAnNxAH4ABwAAAAB3BAAAAAB4cQB+AVBxAH4CKnhxAH4AzHNxAH4AAnNxAH4ABwAAAAJ3BAAAAAJzcQB+AAJzcQB+AAcAAAAAdwQAAAAAeHEAfgFQcQB+AjBxAH4CKnhxAH4AqnNxAH4AAnNxAH4ABwAAAAJ3BAAAAAJxAH4CMHNxAH4AAnNxAH4ABwAAAAB3BAAAAAB4cQB+ABdxAH4CNHhxAH4AG3NxAH4AAnNxAH4ABwAAAAJ3BAAAAAJzcQB+AAJzcQB+AAcAAAACdwQAAAACc3EAfgACc3EAfgAHAAAAAHcEAAAAAHhxAH4Bv3EAfgI6c3EAfgACc3EAfgAHAAAAAncEAAAAAnNxAH4AAnNxAH4ABwAAAAJ3BAAAAAJzcQB+AAJzcQB+AAcAAAACdwQAAAACc3EAfgACc3EAfgAHAAAAAHcEAAAAAHhxAH4Bv3EAfgJCc3EAfgACc3EAfgAHAAAAAncEAAAAAnNxAH4AAnNxAH4ABwAAAAJ3BAAAAAJzcQB+AAJzcQB+AAcAAAACdwQAAAACc3EAfgACc3EAfgAHAAAAAncEAAAAAnNxAH4AAnNxAH4ABwAAAAB3BAAAAAB4cQB+AVBxAH4CTHNxAH4AAnNxAH4ABwAAAAB3BAAAAAB4cQB+AVBxAH4CTHhxAH4AzHEAfgJKc3EAfgACc3EAfgAHAAAAAHcEAAAAAHhxAH4BUHEAfgJKeHEAfgDMcQB+AkhzcQB+AAJzcQB+AAcAAAAAdwQAAAAAeHEAfgFQcQB+Akh4cQB+AMxxAH4CRnNxAH4AAnNxAH4ABwAAAAB3BAAAAAB4cQB+AVBxAH4CRnhxAH4AzHEAfgJCeHEAfgCqcQB+AkBzcQB+AAJzcQB+AAcAAAAAdwQAAAAAeHEAfgFQcQB+AkB4cQB+AMxxAH4CPnNxAH4AAnNxAH4ABwAAAAB3BAAAAAB4cQB+AVBxAH4CPnhxAH4AzHEAfgI6eHEAfgCqcQB+AjhxAH4CNHhxAH4AG3NxAH4AAnNxAH4ABwAAAAJ3BAAAAAJzcQB+AAJzcQB+AAcAAAACdwQAAAACc3EAfgACc3EAfgAHAAAAAHcEAAAAAHhxAH4BvHEAfgJec3EAfgACc3EAfgAHAAAAAHcEAAAAAHhxAH4Bv3EAfgJeeHEAfgCqcQB+AlxxAH4COHhxAH4AzHB4cQB+AKpzcQB+AAJzcQB+AAcAAAACdwQAAAACcQB+AihxAH4CNnhxAH4AG3NxAH4AAnNxAH4ABwAAAAJ3BAAAAAJzcQB+AAJzcQB+AAcAAAACdwQAAAACc3EAfgACc3EAfgAHAAAAAHcEAAAAAHhxAH4Bv3EAfgJoc3EAfgACc3EAfgAHAAAAAncEAAAAAnNxAH4AAnNxAH4ABwAAAAJ3BAAAAAJzcQB+AAJzcQB+AAcAAAACdwQAAAACc3EAfgACc3EAfgAHAAAAAHcEAAAAAHhxAH4Bv3EAfgJwc3EAfgACc3EAfgAHAAAAAncEAAAAAnNxAH4AAnNxAH4ABwAAAAJ3BAAAAAJzcQB+AAJzcQB+AAcAAAACdwQAAAACc3EAfgACc3EAfgAHAAAAAncEAAAAAnNxAH4AAnNxAH4ABwAAAAB3BAAAAAB4cQB+AVBxAH4CenNxAH4AAnNxAH4ABwAAAAB3BAAAAAB4cQB+AVBxAH4CenhxAH4AzHEAfgJ4c3EAfgACc3EAfgAHAAAAAHcEAAAAAHhxAH4BUHEAfgJ4eHEAfgDMcQB+AnZzcQB+AAJzcQB+AAcAAAAAdwQAAAAAeHEAfgFQcQB+AnZ4cQB+AMxxAH4CdHNxAH4AAnNxAH4ABwAAAAB3BAAAAAB4cQB+AVBxAH4CdHhxAH4AzHEAfgJweHEAfgCqcQB+Am5zcQB+AAJzcQB+AAcAAAAAdwQAAAAAeHEAfgFQcQB+Am54cQB+AMxxAH4CbHNxAH4AAnNxAH4ABwAAAAB3BAAAAAB4cQB+AVBxAH4CbHhxAH4AzHEAfgJoeHEAfgCqcQB+AmZxAH4CZHhxAH4AG3NxAH4AAnNxAH4ABwAAAAJ3BAAAAAJzcQB+AAJzcQB+AAcAAAACdwQAAAACc3EAfgACc3EAfgAHAAAAAHcEAAAAAHhxAH4BvHEAfgKMc3EAfgACc3EAfgAHAAAAAHcEAAAAAHhxAH4Bv3EAfgKMeHEAfgCqcQB+AopxAH4CZnhxAH4AzHB4cQB+AMxxAH4CGHEAfgImeHEAfgDMcQB+AhZxAH4CKnhxAH4AqnEAfgIUcQB+AjZ4cQB+ABtxAH4CEnhxAH4AG3NxAH4AAnNxAH4ABwAAAAJ3BAAAAAJzcQB+AAJzcQB+AAcAAAACdwQAAAACc3EAfgACc3EAfgAHAAAAAHcEAAAAAHhxAH4BvHEAfgKUc3EAfgACc3EAfgAHAAAAAHcEAAAAAHhxAH4Bv3EAfgKUeHEAfgCqcQB+ApJxAH4CEnhxAH4AzHB4cQB+AMxzcQB+AAJzcQB+AAcAAAACdwQAAAACcQB+Af5xAH4CDHhxAH4AzHNxAH4AAnNxAH4ABwAAAAJ3BAAAAAJzcQB+AAJzcQB+AAcAAAAAdwQAAAAAeHEAfgG/cQB+ApxxAH4CmnhxAH4AqnNxAH4AAnNxAH4ABwAAAAJ3BAAAAAJxAH4CnHEAfgIUeHEAfgAbc3EAfgACc3EAfgAHAAAAAncEAAAAAnNxAH4AAnNxAH4ABwAAAAJ3BAAAAAJzcQB+AAJzcQB+AAcAAAAAdwQAAAAAeHEAfgG8cQB+AqRzcQB+AAJzcQB+AAcAAAAAdwQAAAAAeHEAfgG/cQB+AqR4cQB+AKpxAH4ConEAfgKgeHEAfgDMcHhxAH4AzHNxAH4AAnNxAH4ABwAAAAJ3BAAAAAJzcQB+AAJzcQB+AAcAAAAAdwQAAAAAeHEAfgG/cQB+AqpxAH4B8nhxAH4AqnNxAH4AAnNxAH4ABwAAAAJ3BAAAAAJxAH4CqnEAfgIAeHEAfgDMc3EAfgACc3EAfgAHAAAAAncEAAAAAnEAfgKucQB+Agx4cQB+AMxzcQB+AAJzcQB+AAcAAAACdwQAAAACc3EAfgACc3EAfgAHAAAAAHcEAAAAAHhxAH4Bv3EAfgKycQB+ArB4cQB+AKpzcQB+AAJzcQB+AAcAAAACdwQAAAACcQB+ArJxAH4CFHhxAH4AG3NxAH4AAnNxAH4ABwAAAAJ3BAAAAAJzcQB+AAJzcQB+AAcAAAACdwQAAAACc3EAfgACc3EAfgAHAAAAAHcEAAAAAHhxAH4BvHEAfgK6c3EAfgACc3EAfgAHAAAAAHcEAAAAAHhxAH4Bv3EAfgK6eHEAfgCqcQB+ArhxAH4CtnhxAH4AzHB4cQB+AMxxAH4B3nEAfgHseHEAfgDMcQB+AdxxAH4B8HhxAH4AzHEAfgHacQB+AfR4cQB+AMxxAH4B1nhxAH4AqnEAfgHUcQB+AgB4cQB+AMxxAH4B0nEAfgIMeHEAfgDMcQB+Ac54cQB+AKpxAH4BzHEAfgIUeHEAfgAbc3EAfgACc3EAfgAHAAAAAncEAAAAAnNxAH4AAnNxAH4ABwAAAAJ3BAAAAAJzcQB+AAJzcQB+AAcAAAAAdwQAAAAAeHEAfgG8cQB+AsJzcQB+AAJzcQB+AAcAAAAAdwQAAAAAeHEAfgFQcQB+AsJ4cQB+AKpxAH4CwHEAfgHMeHEAfgDMcHhxAH4AzHB4cQB+AKpxAH4BtnEAfgHMeHEAfgDMcHg=";
    "rO0ABXNyABFqYXZhLnV0aWwuQ29sbFNlcleOq7Y6G6gRAwABSQADdGFneHAAAAAEdwQAAAAEc3IAN2lvLmdpdGh1Yi5lcmljbWVkdmV0LmpnZWEuY29yZS5yZXByZXNlbnRhdGlvbi50cmVlLlRyZWUKs7/qnQrEZQIAA0wACGNoaWxkcmVudAAQTGphdmEvdXRpbC9MaXN0O0wAB2NvbnRlbnR0ABJMamF2YS9sYW5nL09iamVjdDtMAAZwYXJlbnR0ADlMaW8vZ2l0aHViL2VyaWNtZWR2ZXQvamdlYS9jb3JlL3JlcHJlc2VudGF0aW9uL3RyZWUvVHJlZTt4cHNyABNqYXZhLnV0aWwuQXJyYXlMaXN0eIHSHZnHYZ0DAAFJAARzaXpleHAAAAACdwQAAAACc3EAfgACc3EAfgAHAAAAAncEAAAAAnNxAH4AAnNxAH4ABwAAAAB3BAAAAAB4c3IAS2lvLmdpdGh1Yi5lcmljbWVkdmV0LmpnZWEuY29yZS5yZXByZXNlbnRhdGlvbi50cmVlLm51bWVyaWMuRWxlbWVudCRWYXJpYWJsZQAAAAAAAAAAAgABTAAEbmFtZXQAEkxqYXZhL2xhbmcvU3RyaW5nO3hwdAADeDAxcQB+AAlzcQB+AAJzcQB+AAcAAAAAdwQAAAAAeHEAfgAPc3EAfgACc3EAfgAHAAAAAncEAAAAAnNxAH4AAnNxAH4ABwAAAAJ3BAAAAAJzcQB+AAJzcQB+AAcAAAAAdwQAAAAAeHEAfgAPcQB+ABVzcQB+AAJzcQB+AAcAAAAAdwQAAAAAeHNxAH4ADXQAA3gwNnEAfgAVeH5yAEtpby5naXRodWIuZXJpY21lZHZldC5qZ2VhLmNvcmUucmVwcmVzZW50YXRpb24udHJlZS5udW1lcmljLkVsZW1lbnQkT3BlcmF0b3IAAAAAAAAAABIAAHhyAA5qYXZhLmxhbmcuRW51bQAAAAAAAAAAEgAAeHB0AA1QUk9UX0RJVklTSU9OcQB+ABNxAH4AEXh+cQB+AB10AAhBRERJVElPTnNxAH4AAnNxAH4ABwAAAAJ3BAAAAAJxAH4AE3NxAH4AAnNxAH4ABwAAAAJ3BAAAAAJzcQB+AAJzcQB+AAcAAAAAdwQAAAAAeHEAfgAPcQB+ACVzcQB+AAJzcQB+AAcAAAAAdwQAAAAAeHEAfgAbcQB+ACV4cQB+AB9zcQB+AAJzcQB+AAcAAAACdwQAAAACc3EAfgACc3EAfgAHAAAAAHcEAAAAAHhxAH4AD3EAfgArcQB+ACV4cQB+ACFweHEAfgAhcHhxAH4AIXEAfgAGcQB+ACV4cQB+ACFwc3EAfgACc3EAfgAHAAAAAncEAAAAAnNxAH4AAnNxAH4ABwAAAAJ3BAAAAAJzcQB+AAJzcQB+AAcAAAACdwQAAAACc3EAfgACc3EAfgAHAAAAAHcEAAAAAHhzcQB+AA10AAN4MTJxAH4AM3NxAH4AAnNxAH4ABwAAAAB3BAAAAAB4c3IAS2lvLmdpdGh1Yi5lcmljbWVkdmV0LmpnZWEuY29yZS5yZXByZXNlbnRhdGlvbi50cmVlLm51bWVyaWMuRWxlbWVudCRDb25zdGFudAAAAAAAAAAAAgABRAAFdmFsdWV4cEAEAAAAAAAAc3EAfgACc3EAfgAHAAAAAncEAAAAAnNxAH4AAnNxAH4ABwAAAAB3BAAAAAB4c3EAfgA7AAAAAAAAAABxAH4APXEAfgA5eH5xAH4AHXQACFBST1RfTE9Hc3EAfgACc3EAfgAHAAAAAncEAAAAAnEAfgA9c3EAfgACc3EAfgAHAAAAAncEAAAAAnNxAH4AAnNxAH4ABwAAAAJ3BAAAAAJzcQB+AAJzcQB+AAcAAAAAdwQAAAAAeHEAfgBBcQB+AEhzcQB+AAJzcQB+AAcAAAAAdwQAAAAAeHNxAH4ADXQAA3gxMXNxAH4AAnNxAH4ABwAAAAJ3BAAAAAJzcQB+AAJzcQB+AAcAAAAAdwQAAAAAeHEAfgBOcQB+AFBxAH4ATHhxAH4AIXNxAH4AAnNxAH4ABwAAAAJ3BAAAAAJxAH4AUHNxAH4AAnNxAH4ABwAAAAJ3BAAAAAJzcQB+AAJzcQB+AAcAAAAAdwQAAAAAeHNxAH4ADXQAA3gxMHEAfgBWc3EAfgACc3EAfgAHAAAAAncEAAAAAnNxAH4AAnNxAH4ABwAAAAB3BAAAAAB4cQB+AE5xAH4AXHNxAH4AAnNxAH4ABwAAAAB3BAAAAAB4c3EAfgA7P/AAAAAAAABxAH4AXHhxAH4AIXNxAH4AAnNxAH4ABwAAAAJ3BAAAAAJzcQB+AAJzcQB+AAcAAAACdwQAAAACc3EAfgACc3EAfgAHAAAAAHcEAAAAAHhxAH4AWnEAfgBlc3EAfgACc3EAfgAHAAAAAncEAAAAAnNxAH4AAnNxAH4ABwAAAAB3BAAAAAB4cQB+AE5xAH4AaXNxAH4AAnNxAH4ABwAAAAB3BAAAAAB4cQB+AGJxAH4AaXhxAH4AIXEAfgBleHEAfgBCcQB+AGNxAH4AXHhxAH4AQnNxAH4AAnNxAH4ABwAAAAJ3BAAAAAJzcQB+AAJzcQB+AAcAAAACdwQAAAACc3EAfgACc3EAfgAHAAAAAHcEAAAAAHhxAH4AQXEAfgBxc3EAfgACc3EAfgAHAAAAAHcEAAAAAHhxAH4ATnEAfgBxeHEAfgAhcQB+AG9xAH4AY3hxAH4AIXNxAH4AAnNxAH4ABwAAAAJ3BAAAAAJzcQB+AAJzcQB+AAcAAAACdwQAAAACc3EAfgACc3EAfgAHAAAAAHcEAAAAAHhxAH4AN3EAfgB5c3EAfgACc3EAfgAHAAAAAHcEAAAAAHhxAH4APHEAfgB5eHEAfgBCcQB+AHdxAH4Ab3hxAH4AQnNxAH4AAnNxAH4ABwAAAAJ3BAAAAAJxAH4Ad3NxAH4AAnNxAH4ABwAAAAJ3BAAAAAJzcQB+AAJzcQB+AAcAAAAAdwQAAAAAeHNxAH4ADXQAA3gwNXEAfgCBc3EAfgACc3EAfgAHAAAAAncEAAAAAnNxAH4AAnNxAH4ABwAAAAB3BAAAAAB4cQB+AFpxAH4Ah3NxAH4AAnNxAH4ABwAAAAB3BAAAAAB4c3EAfgA7QAwAAAAAAABzcQB+AAJzcQB+AAcAAAACdwQAAAACc3EAfgACc3EAfgAHAAAAAncEAAAAAnNxAH4AAnNxAH4ABwAAAAJ3BAAAAAJzcQB+AAJzcQB+AAcAAAAAdwQAAAAAeHEAfgA3cQB+AJJzcQB+AAJzcQB+AAcAAAAAdwQAAAAAeHEAfgA8cQB+AJJ4cQB+AEJxAH4AkHNxAH4AAnNxAH4ABwAAAAJ3BAAAAAJzcQB+AAJzcQB+AAcAAAACdwQAAAACc3EAfgACc3EAfgAHAAAAAHcEAAAAAHhxAH4AQXEAfgCac3EAfgACc3EAfgAHAAAAAHcEAAAAAHhxAH4ATnEAfgCaeHEAfgAhcQB+AJhzcQB+AAJzcQB+AAcAAAACdwQAAAACc3EAfgACc3EAfgAHAAAAAHcEAAAAAHhxAH4AYnEAfgCgc3EAfgACc3EAfgAHAAAAAncEAAAAAnNxAH4AAnNxAH4ABwAAAAB3BAAAAAB4cQB+AE5xAH4ApHNxAH4AAnNxAH4ABwAAAAB3BAAAAAB4cQB+AGJxAH4ApHhxAH4AIXEAfgCgeHEAfgBCcQB+AJh4cQB+ACFxAH4AkHhxAH4AQnEAfgCOcQB+AIt4fnEAfgAddAAOTVVMVElQTElDQVRJT05zcQB+AAJzcQB+AAcAAAACdwQAAAACc3EAfgACc3EAfgAHAAAAAHcEAAAAAHhxAH4AhXEAfgCscQB+AI54cQB+AKpzcQB+AAJzcQB+AAcAAAACdwQAAAACc3EAfgACc3EAfgAHAAAAAncEAAAAAnNxAH4AAnNxAH4ABwAAAAJ3BAAAAAJzcQB+AAJzcQB+AAcAAAAAdwQAAAAAeHEAfgA3cQB+ALRzcQB+AAJzcQB+AAcAAAAAdwQAAAAAeHEAfgA8cQB+ALR4cQB+AEJxAH4AsnNxAH4AAnNxAH4ABwAAAAJ3BAAAAAJzcQB+AAJzcQB+AAcAAAACdwQAAAACc3EAfgACc3EAfgAHAAAAAHcEAAAAAHhxAH4AQXEAfgC8c3EAfgACc3EAfgAHAAAAAHcEAAAAAHhxAH4ATnEAfgC8eHEAfgAhcQB+ALpzcQB+AAJzcQB+AAcAAAACdwQAAAACc3EAfgACc3EAfgAHAAAAAHcEAAAAAHhxAH4AYnEAfgDCc3EAfgACc3EAfgAHAAAAAncEAAAAAnNxAH4AAnNxAH4ABwAAAAB3BAAAAAB4cQB+AE5xAH4AxnNxAH4AAnNxAH4ABwAAAAB3BAAAAAB4cQB+AGJxAH4AxnhxAH4AIXEAfgDCeHEAfgBCcQB+ALp4cQB+ACFxAH4AsnhxAH4AQnEAfgCwcQB+AKx4fnEAfgAddAALU1VCVFJBQ1RJT05weHEAfgCqc3EAfgACc3EAfgAHAAAAAncEAAAAAnNxAH4AAnNxAH4ABwAAAAJ3BAAAAAJzcQB+AAJzcQB+AAcAAAAAdwQAAAAAeHEAfgBicQB+ANBzcQB+AAJzcQB+AAcAAAACdwQAAAACc3EAfgACc3EAfgAHAAAAAHcEAAAAAHhxAH4ATnEAfgDUc3EAfgACc3EAfgAHAAAAAHcEAAAAAHhxAH4AYnEAfgDUeHEAfgAhcQB+ANB4cQB+AEJxAH4AznEAfgCHeHEAfgCqc3EAfgACc3EAfgAHAAAAAncEAAAAAnNxAH4AAnNxAH4ABwAAAAJ3BAAAAAJzcQB+AAJzcQB+AAcAAAACdwQAAAACc3EAfgACc3EAfgAHAAAAAHcEAAAAAHhxAH4AN3EAfgDec3EAfgACc3EAfgAHAAAAAHcEAAAAAHhxAH4APHEAfgDeeHEAfgBCcQB+ANxzcQB+AAJzcQB+AAcAAAACdwQAAAACc3EAfgACc3EAfgAHAAAAAncEAAAAAnNxAH4AAnNxAH4ABwAAAAB3BAAAAAB4cQB+AEFxAH4A5nNxAH4AAnNxAH4ABwAAAAB3BAAAAAB4cQB+AE5xAH4A5nhxAH4AIXEAfgDkc3EAfgACc3EAfgAHAAAAAncEAAAAAnNxAH4AAnNxAH4ABwAAAAB3BAAAAAB4cQB+AFpxAH4A7HNxAH4AAnNxAH4ABwAAAAJ3BAAAAAJzcQB+AAJzcQB+AAcAAAAAdwQAAAAAeHEAfgBOcQB+APBzcQB+AAJzcQB+AAcAAAAAdwQAAAAAeHEAfgBicQB+APB4cQB+ACFxAH4A7HhxAH4AQnEAfgDkeHEAfgAhcQB+ANx4cQB+AEJxAH4A2nEAfgDOeHEAfgDMcHhxAH4AqnNxAH4AAnNxAH4ABwAAAAJ3BAAAAAJzcQB+AAJzcQB+AAcAAAACdwQAAAACc3EAfgACc3EAfgAHAAAAAncEAAAAAnNxAH4AAnNxAH4ABwAAAAB3BAAAAAB4cQB+ADdxAH4A+nNxAH4AAnNxAH4ABwAAAAB3BAAAAAB4cQB+ADxxAH4A+nhxAH4AQnEAfgD4c3EAfgACc3EAfgAHAAAAAHcEAAAAAHhxAH4AjXEAfgD4eHEAfgBCcQB+APZxAH4AgXhxAH4AzHB4cQB+AMxweHEAfgBCc3EAfgACc3EAfgAHAAAAAncEAAAAAnNxAH4AAnNxAH4ABwAAAAB3BAAAAAB4cQB+ADxxAH4BAnEAfgBWeHEAfgAhc3EAfgACc3EAfgAHAAAAAncEAAAAAnNxAH4AAnNxAH4ABwAAAAJ3BAAAAAJzcQB+AAJzcQB+AAcAAAAAdwQAAAAAeHEAfgA3cQB+AQhzcQB+AAJzcQB+AAcAAAAAdwQAAAAAeHEAfgA8cQB+AQh4cQB+AEJxAH4BBnEAfgECeHEAfgBCc3EAfgACc3EAfgAHAAAAAncEAAAAAnEAfgEGcQB+AIF4cQB+AMxweHEAfgAhc3EAfgACc3EAfgAHAAAAAncEAAAAAnNxAH4AAnNxAH4ABwAAAAJ3BAAAAAJzcQB+AAJzcQB+AAcAAAAAdwQAAAAAeHEAfgA3cQB+ARJzcQB+AAJzcQB+AAcAAAAAdwQAAAAAeHEAfgA8cQB+ARJ4cQB+AEJxAH4BEHEAfgBUeHEAfgBCc3EAfgACc3EAfgAHAAAAAncEAAAAAnEAfgEQcQB+AIF4cQB+AMxweHEAfgAhcQB+AEZxAH4AVnhxAH4AIXEAfgBEeHEAfgBCc3EAfgACc3EAfgAHAAAAAncEAAAAAnEAfgBEcQB+AIF4cQB+AMxweHEAfgBCcQB+ADFxAH4ARnhxAH4AQnEAfgAvcQB+AIF4cQB+AMxwc3EAfgACc3EAfgAHAAAAAncEAAAAAnNxAH4AAnNxAH4ABwAAAAJ3BAAAAAJzcQB+AAJzcQB+AAcAAAACdwQAAAACc3EAfgACc3EAfgAHAAAAAHcEAAAAAHhxAH4AYnEAfgEgc3EAfgACc3EAfgAHAAAAAncEAAAAAnNxAH4AAnNxAH4ABwAAAAB3BAAAAAB4cQB+AGJxAH4BJHNxAH4AAnNxAH4ABwAAAAJ3BAAAAAJzcQB+AAJzcQB+AAcAAAACdwQAAAACc3EAfgACc3EAfgAHAAAAAHcEAAAAAHhzcQB+AA10AAN4MTRxAH4BKnNxAH4AAnNxAH4ABwAAAAB3BAAAAAB4c3EAfgANdAADeDA5c3EAfgACc3EAfgAHAAAAAncEAAAAAnNxAH4AAnNxAH4ABwAAAAB3BAAAAAB4cQB+ATJxAH4BNHEAfgEweHEAfgCqc3EAfgACc3EAfgAHAAAAAncEAAAAAnEAfgE0c3EAfgACc3EAfgAHAAAAAHcEAAAAAHhxAH4BMnNxAH4AAnNxAH4ABwAAAAJ3BAAAAAJzcQB+AAJzcQB+AAcAAAACdwQAAAACc3EAfgACc3EAfgAHAAAAAHcEAAAAAHhxAH4BLnEAfgE+c3EAfgACc3EAfgAHAAAAAHcEAAAAAHhxAH4BLnEAfgE+eHEAfgCqcQB+ATxxAH4BOnhxAH4AqnNxAH4AAnNxAH4ABwAAAAJ3BAAAAAJzcQB+AAJzcQB+AAcAAAAAdwQAAAAAeHEAfgBicQB+AURxAH4BPHhxAH4AqnNxAH4AAnNxAH4ABwAAAAJ3BAAAAAJzcQB+AAJzcQB+AAcAAAAAdwQAAAAAeHEAfgBicQB+AUhxAH4BRHhxAH4AIXNxAH4AAnNxAH4ABwAAAAJ3BAAAAAJxAH4BSHNxAH4AAnNxAH4ABwAAAAJ3BAAAAAJzcQB+AAJzcQB+AAcAAAAAdwQAAAAAeHEAfgEycQB+AU5zcQB+AAJzcQB+AAcAAAACdwQAAAACc3EAfgACc3EAfgAHAAAAAHcEAAAAAHhxAH4BLnEAfgFSc3EAfgACc3EAfgAHAAAAAHcEAAAAAHhxAH4BMnEAfgFSeHEAfgCqcQB+AU54cQB+AKpxAH4BTHhxAH4AIXNxAH4AAnNxAH4ABwAAAAJ3BAAAAAJxAH4BTHNxAH4AAnNxAH4ABwAAAAJ3BAAAAAJzcQB+AAJzcQB+AAcAAAAAdwQAAAAAeHEAfgEycQB+AVpzcQB+AAJzcQB+AAcAAAACdwQAAAACc3EAfgACc3EAfgAHAAAAAHcEAAAAAHhxAH4BLnEAfgFec3EAfgACc3EAfgAHAAAAAHcEAAAAAHhxAH4BMnNxAH4AAnNxAH4ABwAAAAJ3BAAAAAJzcQB+AAJzcQB+AAcAAAAAdwQAAAAAeHEAfgEycQB+AWRxAH4BYnhxAH4AqnNxAH4AAnNxAH4ABwAAAAJ3BAAAAAJzcQB+AAJzcQB+AAcAAAAAdwQAAAAAeHEAfgEycQB+AWhxAH4BZHhxAH4AqnNxAH4AAnNxAH4ABwAAAAJ3BAAAAAJzcQB+AAJzcQB+AAcAAAAAdwQAAAAAeHEAfgBicQB+AWxxAH4BaHhxAH4AIXB4cQB+AKpzcQB+AAJzcQB+AAcAAAACdwQAAAACc3EAfgACc3EAfgAHAAAAAncEAAAAAnNxAH4AAnNxAH4ABwAAAAB3BAAAAAB4cQB+AS5xAH4BcnNxAH4AAnNxAH4ABwAAAAB3BAAAAAB4cQB+ATJxAH4BcnhxAH4AqnEAfgFwcQB+AV54cQB+AKpzcQB+AAJzcQB+AAcAAAACdwQAAAACc3EAfgACc3EAfgAHAAAAAHcEAAAAAHhxAH4AYnEAfgF4cQB+AXB4cQB+ACFweHEAfgCqcQB+AVh4cQB+ACFweHEAfgCqc3EAfgACc3EAfgAHAAAAAncEAAAAAnNxAH4AAnNxAH4ABwAAAAB3BAAAAAB4cQB+AGJxAH4BfHEAfgE4eHEAfgCqc3EAfgACc3EAfgAHAAAAAncEAAAAAnNxAH4AAnNxAH4ABwAAAAB3BAAAAAB4cQB+AGJxAH4BgHEAfgF8eHEAfgAhc3EAfgACc3EAfgAHAAAAAncEAAAAAnEAfgGAcQB+AU54cQB+ACFzcQB+AAJzcQB+AAcAAAACdwQAAAACcQB+AYRxAH4BWnhxAH4AIXB4cQB+AKpxAH4BKHEAfgE6eHEAfgCqcQB+ASR4cQB+AKpzcQB+AAJzcQB+AAcAAAACdwQAAAACc3EAfgACc3EAfgAHAAAAAncEAAAAAnNxAH4AAnNxAH4ABwAAAAB3BAAAAAB4cQB+AS5xAH4BinNxAH4AAnNxAH4ABwAAAAB3BAAAAAB4cQB+ATJxAH4BinhxAH4AqnEAfgGIcQB+ASR4cQB+ACFzcQB+AAJzcQB+AAcAAAACdwQAAAACcQB+AYhxAH4BTnhxAH4AIXNxAH4AAnNxAH4ABwAAAAJ3BAAAAAJxAH4BkHEAfgFaeHEAfgAhcHhxAH4AIXEAfgEecQB+AU54cQB+ACFxAH4BHHEAfgFaeHEAfgAhcHNxAH4AAnNxAH4ABwAAAAJ3BAAAAAJzcQB+AAJzcQB+AAcAAAACdwQAAAACc3EAfgACc3EAfgAHAAAAAHcEAAAAAHhzcQB+ADs/4AAAAAAAAHEAfgGWc3EAfgACc3EAfgAHAAAAAHcEAAAAAHhzcQB+ADtAAAAAAAAAAHNxAH4AAnNxAH4ABwAAAAJ3BAAAAAJzcQB+AAJzcQB+AAcAAAAAdwQAAAAAeHEAfgGdcQB+AZ5xAH4Bm3hxAH4AqnNxAH4AAnNxAH4ABwAAAAJ3BAAAAAJxAH4BnnNxAH4AAnNxAH4ABwAAAAJ3BAAAAAJzcQB+AAJzcQB+AAcAAAACdwQAAAACc3EAfgACc3EAfgAHAAAAAHcEAAAAAHhxAH4BnXEAfgGmc3EAfgACc3EAfgAHAAAAAncEAAAAAnNxAH4AAnNxAH4ABwAAAAJ3BAAAAAJzcQB+AAJzcQB+AAcAAAACdwQAAAACc3EAfgACc3EAfgAHAAAAAHcEAAAAAHhxAH4BnXEAfgGuc3EAfgACc3EAfgAHAAAAAncEAAAAAnNxAH4AAnNxAH4ABwAAAAJ3BAAAAAJzcQB+AAJzcQB+AAcAAAACdwQAAAACc3EAfgACc3EAfgAHAAAAAncEAAAAAnNxAH4AAnNxAH4ABwAAAAB3BAAAAAB4cQB+AS5xAH4BuHNxAH4AAnNxAH4ABwAAAAB3BAAAAAB4cQB+AS5zcQB+AAJzcQB+AAcAAAACdwQAAAACc3EAfgACc3EAfgAHAAAAAncEAAAAAnNxAH4AAnNxAH4ABwAAAAB3BAAAAAB4c3EAfgANdAADeDE2cQB+AcBzcQB+AAJzcQB+AAcAAAAAdwQAAAAAeHEAfgEucQB+AcB4cQB+AMxxAH4BvnEAfgG8eHEAfgDMc3EAfgACc3EAfgAHAAAAAncEAAAAAnEAfgG+c3EAfgACc3EAfgAHAAAAAHcEAAAAAHhxAH4BLnEAfgHIeHEAfgDMc3EAfgACc3EAfgAHAAAAAncEAAAAAnEAfgHIc3EAfgACc3EAfgAHAAAAAHcEAAAAAHhxAH4BLnEAfgHMeHEAfgDMc3EAfgACc3EAfgAHAAAAAncEAAAAAnEAfgHMc3EAfgACc3EAfgAHAAAAAHcEAAAAAHhxAH4BLnNxAH4AAnNxAH4ABwAAAAJ3BAAAAAJzcQB+AAJzcQB+AAcAAAAAdwQAAAAAeHEAfgGdcQB+AdRxAH4B0nhxAH4AzHNxAH4AAnNxAH4ABwAAAAJ3BAAAAAJzcQB+AAJzcQB+AAcAAAAAdwQAAAAAeHEAfgGdcQB+AdhxAH4B1HhxAH4AqnNxAH4AAnNxAH4ABwAAAAJ3BAAAAAJxAH4B2HNxAH4AAnNxAH4ABwAAAAB3BAAAAAB4cQB+AS5xAH4B3HhxAH4AzHNxAH4AAnNxAH4ABwAAAAJ3BAAAAAJxAH4B3HNxAH4AAnNxAH4ABwAAAAB3BAAAAAB4cQB+AS5xAH4B4HhxAH4AzHNxAH4AAnNxAH4ABwAAAAJ3BAAAAAJzcQB+AAJzcQB+AAcAAAAAdwQAAAAAeHEAfgGdcQB+AeRxAH4B4HhxAH4AqnNxAH4AAnNxAH4ABwAAAAJ3BAAAAAJxAH4B5HNxAH4AAnNxAH4ABwAAAAJ3BAAAAAJzcQB+AAJzcQB+AAcAAAACdwQAAAACc3EAfgACc3EAfgAHAAAAAncEAAAAAnNxAH4AAnNxAH4ABwAAAAJ3BAAAAAJzcQB+AAJzcQB+AAcAAAAAdwQAAAAAeHEAfgHEcQB+AfBzcQB+AAJzcQB+AAcAAAAAdwQAAAAAeHEAfgEuc3EAfgACc3EAfgAHAAAAAncEAAAAAnNxAH4AAnNxAH4ABwAAAAB3BAAAAAB4cQB+AS5xAH4B9nEAfgH0eHEAfgDMc3EAfgACc3EAfgAHAAAAAncEAAAAAnEAfgH2c3EAfgACc3EAfgAHAAAAAHcEAAAAAHhxAH4BLnEAfgH6eHEAfgDMc3EAfgACc3EAfgAHAAAAAncEAAAAAnEAfgH6c3EAfgACc3EAfgAHAAAAAncEAAAAAnNxAH4AAnNxAH4ABwAAAAB3BAAAAAB4cQB+AcRxAH4CAHNxAH4AAnNxAH4ABwAAAAB3BAAAAAB4cQB+AS5zcQB+AAJzcQB+AAcAAAACdwQAAAACc3EAfgACc3EAfgAHAAAAAncEAAAAAnNxAH4AAnNxAH4ABwAAAAB3BAAAAAB4cQB+AS5xAH4CCHNxAH4AAnNxAH4ABwAAAAB3BAAAAAB4cQB+AS5xAH4CCHhxAH4AzHEAfgIGcQB+AgR4cQB+AMxzcQB+AAJzcQB+AAcAAAACdwQAAAACc3EAfgACc3EAfgAHAAAAAHcEAAAAAHhxAH4BnXEAfgIOcQB+AgZ4cQB+AKpzcQB+AAJzcQB+AAcAAAACdwQAAAACcQB+Ag5zcQB+AAJzcQB+AAcAAAAAdwQAAAAAeHEAfgAbc3EAfgACc3EAfgAHAAAAAncEAAAAAnEAfgH+cQB+AhR4cQB+ACFzcQB+AAJzcQB+AAcAAAACdwQAAAACc3EAfgACc3EAfgAHAAAAAncEAAAAAnNxAH4AAnNxAH4ABwAAAAB3BAAAAAB4cQB+AZ1xAH4CGnNxAH4AAnNxAH4ABwAAAAJ3BAAAAAJzcQB+AAJzcQB+AAcAAAACdwQAAAACc3EAfgACc3EAfgAHAAAAAncEAAAAAnNxAH4AAnNxAH4ABwAAAAB3BAAAAAB4cQB+AZ1xAH4CInNxAH4AAnNxAH4ABwAAAAJ3BAAAAAJzcQB+AAJzcQB+AAcAAAACdwQAAAACc3EAfgACc3EAfgAHAAAAAncEAAAAAnNxAH4AAnNxAH4ABwAAAAJ3BAAAAAJzcQB+AAJzcQB+AAcAAAAAdwQAAAAAeHEAfgEucQB+AixzcQB+AAJzcQB+AAcAAAAAdwQAAAAAeHEAfgEucQB+Aix4cQB+AMxxAH4CKnNxAH4AAnNxAH4ABwAAAAB3BAAAAAB4cQB+AS5xAH4CKnhxAH4AzHEAfgIoc3EAfgACc3EAfgAHAAAAAHcEAAAAAHhxAH4BLnEAfgIoeHEAfgDMcQB+AiZzcQB+AAJzcQB+AAcAAAAAdwQAAAAAeHEAfgEucQB+AiZ4cQB+AMxxAH4CInhxAH4AqnEAfgIgc3EAfgACc3EAfgAHAAAAAHcEAAAAAHhxAH4BLnEAfgIgeHEAfgDMcQB+Ah5zcQB+AAJzcQB+AAcAAAAAdwQAAAAAeHEAfgEucQB+Ah54cQB+AMxxAH4CGnhxAH4AqnEAfgIYcQB+AhZ4cQB+ACFzcQB+AAJzcQB+AAcAAAACdwQAAAACc3EAfgACc3EAfgAHAAAAAncEAAAAAnNxAH4AAnNxAH4ABwAAAAB3BAAAAAB4cQB+AZpxAH4CPnNxAH4AAnNxAH4ABwAAAAB3BAAAAAB4cQB+AZ1xAH4CPnhxAH4AqnEAfgI8cQB+Ahh4cQB+AMxweHEAfgAhc3EAfgACc3EAfgAHAAAAAncEAAAAAnNxAH4AAnNxAH4ABwAAAAJ3BAAAAAJzcQB+AAJzcQB+AAcAAAAAdwQAAAAAeHEAfgGdcQB+AkZzcQB+AAJzcQB+AAcAAAACdwQAAAACc3EAfgACc3EAfgAHAAAAAncEAAAAAnNxAH4AAnNxAH4ABwAAAAJ3BAAAAAJzcQB+AAJzcQB+AAcAAAAAdwQAAAAAeHEAfgGdcQB+Ak5zcQB+AAJzcQB+AAcAAAACdwQAAAACc3EAfgACc3EAfgAHAAAAAncEAAAAAnNxAH4AAnNxAH4ABwAAAAJ3BAAAAAJzcQB+AAJzcQB+AAcAAAAAdwQAAAAAeHEAfgEucQB+AlZzcQB+AAJzcQB+AAcAAAAAdwQAAAAAeHEAfgEucQB+AlZ4cQB+AMxxAH4CVHNxAH4AAnNxAH4ABwAAAAB3BAAAAAB4cQB+AS5xAH4CVHhxAH4AzHEAfgJSc3EAfgACc3EAfgAHAAAAAHcEAAAAAHhxAH4BLnEAfgJSeHEAfgDMcQB+Ak54cQB+AKpxAH4CTHNxAH4AAnNxAH4ABwAAAAB3BAAAAAB4cQB+AS5xAH4CTHhxAH4AzHEAfgJKc3EAfgACc3EAfgAHAAAAAHcEAAAAAHhxAH4BLnEAfgJKeHEAfgDMcQB+AkZ4cQB+AKpxAH4CRHEAfgISeHEAfgAhc3EAfgACc3EAfgAHAAAAAncEAAAAAnNxAH4AAnNxAH4ABwAAAAJ3BAAAAAJzcQB+AAJzcQB+AAcAAAAAdwQAAAAAeHEAfgGacQB+AmZzcQB+AAJzcQB+AAcAAAAAdwQAAAAAeHEAfgGdcQB+AmZ4cQB+AKpxAH4CZHEAfgJEeHEAfgDMcHhxAH4AzHEAfgH+eHEAfgCqcQB+AhZ4cQB+AMxxAH4B7nEAfgH8eHEAfgDMcQB+AexxAH4CAHhxAH4AqnEAfgHqcQB+AhR4cQB+ACFxAH4B6HhxAH4AIXNxAH4AAnNxAH4ABwAAAAJ3BAAAAAJzcQB+AAJzcQB+AAcAAAACdwQAAAACc3EAfgACc3EAfgAHAAAAAHcEAAAAAHhxAH4BmnEAfgJuc3EAfgACc3EAfgAHAAAAAHcEAAAAAHhxAH4BnXEAfgJueHEAfgCqcQB+AmxxAH4B6HhxAH4AzHB4cQB+AMxzcQB+AAJzcQB+AAcAAAACdwQAAAACc3EAfgACc3EAfgAHAAAAAHcEAAAAAHhxAH4BnXEAfgJ0cQB+AdB4cQB+AKpzcQB+AAJzcQB+AAcAAAACdwQAAAACcQB+AnRxAH4B3nhxAH4AzHNxAH4AAnNxAH4ABwAAAAJ3BAAAAAJxAH4CeHEAfgHieHEAfgDMc3EAfgACc3EAfgAHAAAAAncEAAAAAnNxAH4AAnNxAH4ABwAAAAB3BAAAAAB4cQB+AZ1xAH4CfHEAfgJ6eHEAfgCqc3EAfgACc3EAfgAHAAAAAncEAAAAAnEAfgJ8cQB+Aep4cQB+ACFzcQB+AAJzcQB+AAcAAAACdwQAAAACc3EAfgACc3EAfgAHAAAAAncEAAAAAnNxAH4AAnNxAH4ABwAAAAB3BAAAAAB4cQB+AZpxAH4ChHNxAH4AAnNxAH4ABwAAAAB3BAAAAAB4cQB+AZ1xAH4ChHhxAH4AqnEAfgKCcQB+AoB4cQB+AMxweHEAfgDMcQB+AbZxAH4BynhxAH4AzHEAfgG0cQB+Ac54cQB+AMxxAH4BsnEAfgHSeHEAfgDMcQB+Aa54cQB+AKpxAH4BrHEAfgHeeHEAfgDMcQB+AapxAH4B4nhxAH4AzHEAfgGmeHEAfgCqcQB+AaRxAH4B6nhxAH4AIXNxAH4AAnNxAH4ABwAAAAJ3BAAAAAJzcQB+AAJzcQB+AAcAAAACdwQAAAACc3EAfgACc3EAfgAHAAAAAHcEAAAAAHhxAH4BLnEAfgKMc3EAfgACc3EAfgAHAAAAAHcEAAAAAHhxAH4BLnEAfgKMeHEAfgDMcQB+AopxAH4BpHhxAH4AzHB4cQB+AMxweHEAfgCqcQB+AZRxAH4BpHhxAH4AzHB4";
