ea.runOutcome(
  index = 301;
  run = ea.run(
    problem = ea.p.mr.fromData(
      trainingDataset = ea.dataset.numerical.fromFile(
        filePath = "../phase2/data-ro-ographea-3-001.txt";
        folds = [0];
        nFolds = 40;
        xVarNamePattern = "x.*";
        yVarNamePattern = "y.*"
      )
    );
    randomGenerator = ea.rg.defaultRG(seed = 2);
    solver = ea.s.multiSRTreeGP(
      crossoverP = 0.8;
      diversity = true;
      mapper = ea.m.treeMRF(
        dataset = ea.d.num.empty(
          xVars = [
            x0;
            x1;
            x2;
            x3;
            x4;
            x5;
            x6;
            x7;
            x8;
            x9;
            x10;
            x11;
            x12;
            x13;
            x14;
            x15
          ];
          yVars = [y0; y1; y2; y3]
        );
        postOperator = tanh
      );
      maxConst = 5;
      maxTreeH = 8;
      minConst = 0;
      minNTournament = 3;
      minTreeH = 3;
      nAttemptsDiversity = 100;
      nConst = 10;
      nEval = 10000;
      nPop = 100;
      operators = [addition; subtraction; multiplication; prot_division];
      tournamentRate = 0.05
    )
  );
  serializedGenotypes = [
    "rO0ABXNyABFqYXZhLnV0aWwuQ29sbFNlcleOq7Y6G6gRAwABSQADdGFneHAAAAAEdwQAAAAEc3IAN2lvLmdpdGh1Yi5lcmljbWVkdmV0LmpnZWEuY29yZS5yZXByZXNlbnRhdGlvbi50cmVlLlRyZWUKs7/qnQrEZQIAA0wACGNoaWxkcmVudAAQTGphdmEvdXRpbC9MaXN0O0wAB2NvbnRlbnR0ABJMamF2YS9sYW5nL09iamVjdDtMAAZwYXJlbnR0ADlMaW8vZ2l0aHViL2VyaWNtZWR2ZXQvamdlYS9jb3JlL3JlcHJlc2VudGF0aW9uL3RyZWUvVHJlZTt4cHNyABNqYXZhLnV0aWwuQXJyYXlMaXN0eIHSHZnHYZ0DAAFJAARzaXpleHAAAAACdwQAAAACc3EAfgACc3EAfgAHAAAAAHcEAAAAAHhzcgBLaW8uZ2l0aHViLmVyaWNtZWR2ZXQuamdlYS5jb3JlLnJlcHJlc2VudGF0aW9uLnRyZWUubnVtZXJpYy5FbGVtZW50JFZhcmlhYmxlAAAAAAAAAAACAAFMAARuYW1ldAASTGphdmEvbGFuZy9TdHJpbmc7eHB0AAJ4MnEAfgAGc3EAfgACc3EAfgAHAAAAAHcEAAAAAHhxAH4ADXNxAH4AAnNxAH4ABwAAAAJ3BAAAAAJzcQB+AAJzcQB+AAcAAAACdwQAAAACc3EAfgACc3EAfgAHAAAAAHcEAAAAAHhxAH4ADXEAfgATc3EAfgACc3EAfgAHAAAAAHcEAAAAAHhxAH4ADXEAfgATeH5yAEtpby5naXRodWIuZXJpY21lZHZldC5qZ2VhLmNvcmUucmVwcmVzZW50YXRpb24udHJlZS5udW1lcmljLkVsZW1lbnQkT3BlcmF0b3IAAAAAAAAAABIAAHhyAA5qYXZhLmxhbmcuRW51bQAAAAAAAAAAEgAAeHB0AA5NVUxUSVBMSUNBVElPTnEAfgARcQB+AA94cQB+ABtweHEAfgAbcHNxAH4AAnNxAH4ABwAAAAJ3BAAAAAJzcQB+AAJzcQB+AAcAAAACdwQAAAACc3EAfgACc3EAfgAHAAAAAncEAAAAAnNxAH4AAnNxAH4ABwAAAAB3BAAAAAB4c3EAfgALdAACeDZxAH4AIXNxAH4AAnNxAH4ABwAAAAJ3BAAAAAJzcQB+AAJzcQB+AAcAAAAAdwQAAAAAeHEAfgAlcQB+ACdzcQB+AAJzcQB+AAcAAAACdwQAAAACc3EAfgACc3EAfgAHAAAAAHcEAAAAAHhxAH4AJXEAfgArc3EAfgACc3EAfgAHAAAAAncEAAAAAnNxAH4AAnNxAH4ABwAAAAB3BAAAAAB4cQB+ACVxAH4AL3NxAH4AAnNxAH4ABwAAAAB3BAAAAAB4cQB+ACVxAH4AL3h+cQB+ABl0AAhBRERJVElPTnEAfgAreHEAfgA1cQB+ACd4cQB+ADVzcQB+AAJzcQB+AAcAAAACdwQAAAACc3EAfgACc3EAfgAHAAAAAHcEAAAAAHhzcgBLaW8uZ2l0aHViLmVyaWNtZWR2ZXQuamdlYS5jb3JlLnJlcHJlc2VudGF0aW9uLnRyZWUubnVtZXJpYy5FbGVtZW50JENvbnN0YW50AAAAAAAAAAACAAFEAAV2YWx1ZXhwQAQAAAAAAABxAH4AN3EAfgAneHEAfgA1c3EAfgACc3EAfgAHAAAAAncEAAAAAnEAfgA3c3EAfgACc3EAfgAHAAAAAncEAAAAAnNxAH4AAnNxAH4ABwAAAAB3BAAAAAB4cQB+ADxxAH4AP3NxAH4AAnNxAH4ABwAAAAB3BAAAAAB4cQB+ADxzcQB+AAJzcQB+AAcAAAACdwQAAAACc3EAfgACc3EAfgAHAAAAAHcEAAAAAHhxAH4AJXEAfgBFcQB+AEN4fnEAfgAZdAANUFJPVF9ESVZJU0lPTnNxAH4AAnNxAH4ABwAAAAJ3BAAAAAJzcQB+AAJzcQB+AAcAAAACdwQAAAACc3EAfgACc3EAfgAHAAAAAHcEAAAAAHhxAH4AJXEAfgBNc3EAfgACc3EAfgAHAAAAAncEAAAAAnNxAH4AAnNxAH4ABwAAAAB3BAAAAAB4cQB+ACVxAH4AUXNxAH4AAnNxAH4ABwAAAAJ3BAAAAAJzcQB+AAJzcQB+AAcAAAAAdwQAAAAAeHEAfgAlcQB+AFVzcQB+AAJzcQB+AAcAAAACdwQAAAACc3EAfgACc3EAfgAHAAAAAHcEAAAAAHhxAH4AJXEAfgBZc3EAfgACc3EAfgAHAAAAAHcEAAAAAHhxAH4AJXEAfgBZeHEAfgA1cQB+AFV4cQB+ADVxAH4AUXhxAH4ANXEAfgBNeHEAfgA1cQB+AEtxAH4ARXhxAH4AG3NxAH4AAnNxAH4ABwAAAAJ3BAAAAAJxAH4AS3NxAH4AAnNxAH4ABwAAAAJ3BAAAAAJzcQB+AAJzcQB+AAcAAAAAdwQAAAAAeHEAfgA8cQB+AGFzcQB+AAJzcQB+AAcAAAAAdwQAAAAAeHEAfgA8c3EAfgACc3EAfgAHAAAAAncEAAAAAnNxAH4AAnNxAH4ABwAAAAB3BAAAAAB4cQB+ACVxAH4AZ3EAfgBleHEAfgBJc3EAfgACc3EAfgAHAAAAAncEAAAAAnNxAH4AAnNxAH4ABwAAAAJ3BAAAAAJzcQB+AAJzcQB+AAcAAAAAdwQAAAAAeHEAfgAlcQB+AG1zcQB+AAJzcQB+AAcAAAACdwQAAAACc3EAfgACc3EAfgAHAAAAAHcEAAAAAHhxAH4AJXEAfgBxc3EAfgACc3EAfgAHAAAAAncEAAAAAnNxAH4AAnNxAH4ABwAAAAB3BAAAAAB4cQB+ACVxAH4AdXNxAH4AAnNxAH4ABwAAAAJ3BAAAAAJzcQB+AAJzcQB+AAcAAAAAdwQAAAAAeHEAfgAlcQB+AHlzcQB+AAJzcQB+AAcAAAAAdwQAAAAAeHEAfgAlcQB+AHl4cQB+ADVxAH4AdXhxAH4ANXEAfgBxeHEAfgA1cQB+AG14cQB+ADVxAH4Aa3EAfgBneHEAfgAbcHhxAH4ASXEAfgBfeHEAfgAbcHhxAH4ASXNxAH4AAnNxAH4ABwAAAAJ3BAAAAAJzcQB+AAJzcQB+AAcAAAACdwQAAAACc3EAfgACc3EAfgAHAAAAAHcEAAAAAHhxAH4AJXEAfgCBc3EAfgACc3EAfgAHAAAAAncEAAAAAnNxAH4AAnNxAH4ABwAAAAB3BAAAAAB4cQB+ACVxAH4AhXNxAH4AAnNxAH4ABwAAAAJ3BAAAAAJzcQB+AAJzcQB+AAcAAAAAdwQAAAAAeHEAfgAlcQB+AIlzcQB+AAJzcQB+AAcAAAAAdwQAAAAAeHEAfgAlcQB+AIl4cQB+ADVxAH4AhXhxAH4ANXEAfgCBeHEAfgA1cQB+AH9xAH4AP3hxAH4AG3NxAH4AAnNxAH4ABwAAAAJ3BAAAAAJxAH4Af3EAfgBheHEAfgAbcHhxAH4AG3NxAH4AAnNxAH4ABwAAAAJ3BAAAAAJxAH4APXEAfgBheHEAfgAbcHhxAH4ANXEAfgAfcQB+AD94cQB+ABtxAH4AHXEAfgBheHEAfgAbcHNxAH4AAnNxAH4ABwAAAAJ3BAAAAAJzcQB+AAJzcQB+AAcAAAACdwQAAAACc3EAfgACc3EAfgAHAAAAAHcEAAAAAHhxAH4ADXEAfgCVc3EAfgACc3EAfgAHAAAAAncEAAAAAnNxAH4AAnNxAH4ABwAAAAJ3BAAAAAJzcQB+AAJzcQB+AAcAAAACdwQAAAACc3EAfgACc3EAfgAHAAAAAHcEAAAAAHhzcQB+ADs/4AAAAAAAAHEAfgCdc3EAfgACc3EAfgAHAAAAAHcEAAAAAHhxAH4ADXNxAH4AAnNxAH4ABwAAAAJ3BAAAAAJzcQB+AAJzcQB+AAcAAAAAdwQAAAAAeHEAfgANcQB+AKRxAH4Aonh+cQB+ABl0AAtTVUJUUkFDVElPTnNxAH4AAnNxAH4ABwAAAAJ3BAAAAAJxAH4ApHNxAH4AAnNxAH4ABwAAAAB3BAAAAAB4cQB+AA1xAH4AqnhxAH4AqHNxAH4AAnNxAH4ABwAAAAJ3BAAAAAJxAH4AqnNxAH4AAnNxAH4ABwAAAAB3BAAAAAB4cQB+AA1xAH4ArnhxAH4AqHNxAH4AAnNxAH4ABwAAAAJ3BAAAAAJzcQB+AAJzcQB+AAcAAAAAdwQAAAAAeHEAfgANcQB+ALJxAH4ArnhxAH4AG3NxAH4AAnNxAH4ABwAAAAJ3BAAAAAJxAH4AsnNxAH4AAnNxAH4ABwAAAAB3BAAAAAB4cQB+AA1zcQB+AAJzcQB+AAcAAAACdwQAAAACc3EAfgACc3EAfgAHAAAAAncEAAAAAnNxAH4AAnNxAH4ABwAAAAB3BAAAAAB4cQB+AA1xAH4AvHNxAH4AAnNxAH4ABwAAAAB3BAAAAAB4cQB+AA1xAH4AvHhxAH4AG3EAfgC6cQB+ALh4cQB+AKhweHEAfgCocHhxAH4AqHEAfgCbcQB+AKx4cQB+AKhxAH4AmXEAfgCweHEAfgCoc3EAfgACc3EAfgAHAAAAAncEAAAAAnNxAH4AAnNxAH4ABwAAAAJ3BAAAAAJzcQB+AAJzcQB+AAcAAAACdwQAAAACc3EAfgACc3EAfgAHAAAAAHcEAAAAAHhxAH4AoXEAfgDGc3EAfgACc3EAfgAHAAAAAHcEAAAAAHhxAH4ADXEAfgDGeHEAfgCocQB+AMRzcQB+AAJzcQB+AAcAAAAAdwQAAAAAeHEAfgANcQB+AMR4cQB+AKhxAH4AwnEAfgCZeHEAfgAbc3EAfgACc3EAfgAHAAAAAncEAAAAAnEAfgDCcQB+ALh4cQB+AKhweHEAfgAbcQB+AJNxAH4AuHhxAH4AqHBzcQB+AAJzcQB+AAcAAAACdwQAAAACc3EAfgACc3EAfgAHAAAAAHcEAAAAAHhzcQB+AAt0AAJ4M3EAfgDQc3EAfgACc3EAfgAHAAAAAHcEAAAAAHhzcQB+ADs/8AAAAAAAAHNxAH4AAnNxAH4ABwAAAAJ3BAAAAAJzcQB+AAJzcQB+AAcAAAACdwQAAAACc3EAfgACc3EAfgAHAAAAAHcEAAAAAHhxAH4A2HEAfgDbc3EAfgACc3EAfgAHAAAAAHcEAAAAAHhxAH4A2HEAfgDbeHEAfgAbcQB+ANlxAH4A1nhxAH4AG3B4cQB+ABtweA==";
    "rO0ABXNyABFqYXZhLnV0aWwuQ29sbFNlcleOq7Y6G6gRAwABSQADdGFneHAAAAAEdwQAAAAEc3IAN2lvLmdpdGh1Yi5lcmljbWVkdmV0LmpnZWEuY29yZS5yZXByZXNlbnRhdGlvbi50cmVlLlRyZWUKs7/qnQrEZQIAA0wACGNoaWxkcmVudAAQTGphdmEvdXRpbC9MaXN0O0wAB2NvbnRlbnR0ABJMamF2YS9sYW5nL09iamVjdDtMAAZwYXJlbnR0ADlMaW8vZ2l0aHViL2VyaWNtZWR2ZXQvamdlYS9jb3JlL3JlcHJlc2VudGF0aW9uL3RyZWUvVHJlZTt4cHNyABNqYXZhLnV0aWwuQXJyYXlMaXN0eIHSHZnHYZ0DAAFJAARzaXpleHAAAAACdwQAAAACc3EAfgACc3EAfgAHAAAAAHcEAAAAAHhzcgBLaW8uZ2l0aHViLmVyaWNtZWR2ZXQuamdlYS5jb3JlLnJlcHJlc2VudGF0aW9uLnRyZWUubnVtZXJpYy5FbGVtZW50JFZhcmlhYmxlAAAAAAAAAAACAAFMAARuYW1ldAASTGphdmEvbGFuZy9TdHJpbmc7eHB0AAJ4MnEAfgAGc3EAfgACc3EAfgAHAAAAAHcEAAAAAHhxAH4ADXNxAH4AAnNxAH4ABwAAAAJ3BAAAAAJzcQB+AAJzcQB+AAcAAAACdwQAAAACc3EAfgACc3EAfgAHAAAAAHcEAAAAAHhxAH4ADXEAfgATc3EAfgACc3EAfgAHAAAAAHcEAAAAAHhxAH4ADXEAfgATeH5yAEtpby5naXRodWIuZXJpY21lZHZldC5qZ2VhLmNvcmUucmVwcmVzZW50YXRpb24udHJlZS5udW1lcmljLkVsZW1lbnQkT3BlcmF0b3IAAAAAAAAAABIAAHhyAA5qYXZhLmxhbmcuRW51bQAAAAAAAAAAEgAAeHB0AA5NVUxUSVBMSUNBVElPTnEAfgARcQB+AA94cQB+ABtweHEAfgAbcHNxAH4AAnNxAH4ABwAAAAJ3BAAAAAJzcQB+AAJzcQB+AAcAAAACdwQAAAACc3EAfgACc3EAfgAHAAAAAncEAAAAAnNxAH4AAnNxAH4ABwAAAAB3BAAAAAB4c3EAfgALdAACeDZxAH4AIXNxAH4AAnNxAH4ABwAAAAJ3BAAAAAJzcQB+AAJzcQB+AAcAAAAAdwQAAAAAeHEAfgAlcQB+ACdzcQB+AAJzcQB+AAcAAAACdwQAAAACc3EAfgACc3EAfgAHAAAAAHcEAAAAAHhxAH4AJXEAfgArc3EAfgACc3EAfgAHAAAAAncEAAAAAnNxAH4AAnNxAH4ABwAAAAB3BAAAAAB4cQB+ACVxAH4AL3NxAH4AAnNxAH4ABwAAAAB3BAAAAAB4cQB+ACVxAH4AL3h+cQB+ABl0AAhBRERJVElPTnEAfgAreHEAfgA1cQB+ACd4cQB+ADVzcQB+AAJzcQB+AAcAAAACdwQAAAACc3EAfgACc3EAfgAHAAAAAHcEAAAAAHhzcgBLaW8uZ2l0aHViLmVyaWNtZWR2ZXQuamdlYS5jb3JlLnJlcHJlc2VudGF0aW9uLnRyZWUubnVtZXJpYy5FbGVtZW50JENvbnN0YW50AAAAAAAAAAACAAFEAAV2YWx1ZXhwQAQAAAAAAABxAH4AN3EAfgAneHEAfgA1c3EAfgACc3EAfgAHAAAAAncEAAAAAnEAfgA3c3EAfgACc3EAfgAHAAAAAncEAAAAAnNxAH4AAnNxAH4ABwAAAAB3BAAAAAB4cQB+ADxxAH4AP3NxAH4AAnNxAH4ABwAAAAB3BAAAAAB4cQB+ADxzcQB+AAJzcQB+AAcAAAACdwQAAAACc3EAfgACc3EAfgAHAAAAAHcEAAAAAHhxAH4AJXEAfgBFcQB+AEN4fnEAfgAZdAANUFJPVF9ESVZJU0lPTnNxAH4AAnNxAH4ABwAAAAJ3BAAAAAJzcQB+AAJzcQB+AAcAAAACdwQAAAACc3EAfgACc3EAfgAHAAAAAHcEAAAAAHhxAH4AJXEAfgBNc3EAfgACc3EAfgAHAAAAAncEAAAAAnNxAH4AAnNxAH4ABwAAAAB3BAAAAAB4cQB+ACVxAH4AUXNxAH4AAnNxAH4ABwAAAAJ3BAAAAAJzcQB+AAJzcQB+AAcAAAAAdwQAAAAAeHEAfgAlcQB+AFVzcQB+AAJzcQB+AAcAAAACdwQAAAACc3EAfgACc3EAfgAHAAAAAHcEAAAAAHhxAH4AJXEAfgBZc3EAfgACc3EAfgAHAAAAAHcEAAAAAHhxAH4AJXEAfgBZeHEAfgA1cQB+AFV4cQB+ADVxAH4AUXhxAH4ANXEAfgBNeHEAfgA1cQB+AEtxAH4ARXhxAH4AG3NxAH4AAnNxAH4ABwAAAAJ3BAAAAAJxAH4AS3NxAH4AAnNxAH4ABwAAAAJ3BAAAAAJzcQB+AAJzcQB+AAcAAAAAdwQAAAAAeHEAfgA8cQB+AGFzcQB+AAJzcQB+AAcAAAAAdwQAAAAAeHEAfgA8c3EAfgACc3EAfgAHAAAAAncEAAAAAnNxAH4AAnNxAH4ABwAAAAB3BAAAAAB4cQB+ACVxAH4AZ3EAfgBleHEAfgBJc3EAfgACc3EAfgAHAAAAAncEAAAAAnNxAH4AAnNxAH4ABwAAAAJ3BAAAAAJzcQB+AAJzcQB+AAcAAAAAdwQAAAAAeHEAfgAlcQB+AG1zcQB+AAJzcQB+AAcAAAACdwQAAAACc3EAfgACc3EAfgAHAAAAAHcEAAAAAHhxAH4AJXEAfgBxc3EAfgACc3EAfgAHAAAAAncEAAAAAnNxAH4AAnNxAH4ABwAAAAB3BAAAAAB4cQB+ACVxAH4AdXNxAH4AAnNxAH4ABwAAAAJ3BAAAAAJzcQB+AAJzcQB+AAcAAAAAdwQAAAAAeHEAfgAlcQB+AHlzcQB+AAJzcQB+AAcAAAAAdwQAAAAAeHEAfgAlcQB+AHl4cQB+ADVxAH4AdXhxAH4ANXEAfgBxeHEAfgA1cQB+AG14cQB+ADVxAH4Aa3EAfgBneHEAfgAbcHhxAH4ASXEAfgBfeHEAfgAbcHhxAH4ASXNxAH4AAnNxAH4ABwAAAAJ3BAAAAAJzcQB+AAJzcQB+AAcAAAACdwQAAAACc3EAfgACc3EAfgAHAAAAAHcEAAAAAHhxAH4AJXEAfgCBc3EAfgACc3EAfgAHAAAAAncEAAAAAnNxAH4AAnNxAH4ABwAAAAB3BAAAAAB4cQB+ACVxAH4AhXNxAH4AAnNxAH4ABwAAAAJ3BAAAAAJzcQB+AAJzcQB+AAcAAAAAdwQAAAAAeHEAfgAlcQB+AIlzcQB+AAJzcQB+AAcAAAAAdwQAAAAAeHEAfgAlcQB+AIl4cQB+ADVxAH4AhXhxAH4ANXEAfgCBeHEAfgA1cQB+AH9xAH4AP3hxAH4AG3NxAH4AAnNxAH4ABwAAAAJ3BAAAAAJxAH4Af3EAfgBheHEAfgAbcHhxAH4AG3NxAH4AAnNxAH4ABwAAAAJ3BAAAAAJxAH4APXEAfgBheHEAfgAbcHhxAH4ANXEAfgAfcQB+AD94cQB+ABtxAH4AHXEAfgBheHEAfgAbcHNxAH4AAnNxAH4ABwAAAAJ3BAAAAAJzcQB+AAJzcQB+AAcAAAACdwQAAAACc3EAfgACc3EAfgAHAAAAAHcEAAAAAHhxAH4ADXEAfgCVc3EAfgACc3EAfgAHAAAAAncEAAAAAnNxAH4AAnNxAH4ABwAAAAJ3BAAAAAJzcQB+AAJzcQB+AAcAAAACdwQAAAACc3EAfgACc3EAfgAHAAAAAHcEAAAAAHhzcQB+ADs/4AAAAAAAAHEAfgCdc3EAfgACc3EAfgAHAAAAAHcEAAAAAHhxAH4ADXNxAH4AAnNxAH4ABwAAAAJ3BAAAAAJzcQB+AAJzcQB+AAcAAAAAdwQAAAAAeHEAfgANcQB+AKRxAH4Aonh+cQB+ABl0AAtTVUJUUkFDVElPTnNxAH4AAnNxAH4ABwAAAAJ3BAAAAAJxAH4ApHNxAH4AAnNxAH4ABwAAAAB3BAAAAAB4cQB+AA1xAH4AqnhxAH4AqHNxAH4AAnNxAH4ABwAAAAJ3BAAAAAJxAH4AqnNxAH4AAnNxAH4ABwAAAAB3BAAAAAB4cQB+AA1xAH4ArnhxAH4AqHNxAH4AAnNxAH4ABwAAAAJ3BAAAAAJzcQB+AAJzcQB+AAcAAAAAdwQAAAAAeHEAfgANcQB+ALJxAH4ArnhxAH4AG3NxAH4AAnNxAH4ABwAAAAJ3BAAAAAJxAH4AsnNxAH4AAnNxAH4ABwAAAAB3BAAAAAB4cQB+AA1zcQB+AAJzcQB+AAcAAAACdwQAAAACc3EAfgACc3EAfgAHAAAAAncEAAAAAnNxAH4AAnNxAH4ABwAAAAB3BAAAAAB4cQB+AA1xAH4AvHNxAH4AAnNxAH4ABwAAAAB3BAAAAAB4cQB+AA1xAH4AvHhxAH4AG3EAfgC6cQB+ALh4cQB+AKhweHEAfgCocHhxAH4AqHEAfgCbcQB+AKx4cQB+AKhxAH4AmXEAfgCweHEAfgCoc3EAfgACc3EAfgAHAAAAAncEAAAAAnNxAH4AAnNxAH4ABwAAAAJ3BAAAAAJzcQB+AAJzcQB+AAcAAAACdwQAAAACc3EAfgACc3EAfgAHAAAAAHcEAAAAAHhxAH4AoXEAfgDGc3EAfgACc3EAfgAHAAAAAHcEAAAAAHhxAH4ADXEAfgDGeHEAfgCocQB+AMRzcQB+AAJzcQB+AAcAAAAAdwQAAAAAeHEAfgANcQB+AMR4cQB+AKhxAH4AwnEAfgCZeHEAfgAbc3EAfgACc3EAfgAHAAAAAncEAAAAAnEAfgDCcQB+ALh4cQB+AKhweHEAfgAbcQB+AJNxAH4AuHhxAH4AqHBzcQB+AAJzcQB+AAcAAAACdwQAAAACc3EAfgACc3EAfgAHAAAAAHcEAAAAAHhzcQB+ADs/8AAAAAAAAHEAfgDQc3EAfgACc3EAfgAHAAAAAncEAAAAAnNxAH4AAnNxAH4ABwAAAAB3BAAAAAB4cQB+ANRxAH4A1XNxAH4AAnNxAH4ABwAAAAJ3BAAAAAJzcQB+AAJzcQB+AAcAAAAAdwQAAAAAeHNxAH4AC3QAAngzcQB+ANlzcQB+AAJzcQB+AAcAAAAAdwQAAAAAeHEAfgDUc3EAfgACc3EAfgAHAAAAAncEAAAAAnNxAH4AAnNxAH4ABwAAAAB3BAAAAAB4cQB+ANRxAH4A4XEAfgDfeHEAfgAbc3EAfgACc3EAfgAHAAAAAncEAAAAAnNxAH4AAnNxAH4ABwAAAAB3BAAAAAB4cQB+ANRxAH4A5XEAfgDheHEAfgAbc3EAfgACc3EAfgAHAAAAAncEAAAAAnNxAH4AAnNxAH4ABwAAAAB3BAAAAAB4cQB+ANRxAH4A6XEAfgDleHEAfgAbcHhxAH4AG3EAfgDVeHEAfgAbc3EAfgACc3EAfgAHAAAAAncEAAAAAnNxAH4AAnNxAH4ABwAAAAB3BAAAAAB4cQB+AN1xAH4A7XEAfgDVeHEAfgAbcHhxAH4AG3B4";
    "rO0ABXNyABFqYXZhLnV0aWwuQ29sbFNlcleOq7Y6G6gRAwABSQADdGFneHAAAAAEdwQAAAAEc3IAN2lvLmdpdGh1Yi5lcmljbWVkdmV0LmpnZWEuY29yZS5yZXByZXNlbnRhdGlvbi50cmVlLlRyZWUKs7/qnQrEZQIAA0wACGNoaWxkcmVudAAQTGphdmEvdXRpbC9MaXN0O0wAB2NvbnRlbnR0ABJMamF2YS9sYW5nL09iamVjdDtMAAZwYXJlbnR0ADlMaW8vZ2l0aHViL2VyaWNtZWR2ZXQvamdlYS9jb3JlL3JlcHJlc2VudGF0aW9uL3RyZWUvVHJlZTt4cHNyABNqYXZhLnV0aWwuQXJyYXlMaXN0eIHSHZnHYZ0DAAFJAARzaXpleHAAAAACdwQAAAACc3EAfgACc3EAfgAHAAAAAHcEAAAAAHhzcgBLaW8uZ2l0aHViLmVyaWNtZWR2ZXQuamdlYS5jb3JlLnJlcHJlc2VudGF0aW9uLnRyZWUubnVtZXJpYy5FbGVtZW50JFZhcmlhYmxlAAAAAAAAAAACAAFMAARuYW1ldAASTGphdmEvbGFuZy9TdHJpbmc7eHB0AAJ4MnEAfgAGc3EAfgACc3EAfgAHAAAAAHcEAAAAAHhxAH4ADXNxAH4AAnNxAH4ABwAAAAJ3BAAAAAJzcQB+AAJzcQB+AAcAAAACdwQAAAACc3EAfgACc3EAfgAHAAAAAHcEAAAAAHhxAH4ADXEAfgATc3EAfgACc3EAfgAHAAAAAHcEAAAAAHhxAH4ADXEAfgATeH5yAEtpby5naXRodWIuZXJpY21lZHZldC5qZ2VhLmNvcmUucmVwcmVzZW50YXRpb24udHJlZS5udW1lcmljLkVsZW1lbnQkT3BlcmF0b3IAAAAAAAAAABIAAHhyAA5qYXZhLmxhbmcuRW51bQAAAAAAAAAAEgAAeHB0AA5NVUxUSVBMSUNBVElPTnEAfgARcQB+AA94cQB+ABtweHEAfgAbcHNxAH4AAnNxAH4ABwAAAAJ3BAAAAAJzcQB+AAJzcQB+AAcAAAACdwQAAAACc3EAfgACc3EAfgAHAAAAAHcEAAAAAHhzcQB+AAt0AAJ4NnEAfgAfc3EAfgACc3EAfgAHAAAAAncEAAAAAnNxAH4AAnNxAH4ABwAAAAB3BAAAAAB4cQB+ACNxAH4AJXNxAH4AAnNxAH4ABwAAAAJ3BAAAAAJzcQB+AAJzcQB+AAcAAAAAdwQAAAAAeHEAfgAjcQB+AClzcQB+AAJzcQB+AAcAAAACdwQAAAACc3EAfgACc3EAfgAHAAAAAHcEAAAAAHhxAH4AI3EAfgAtc3EAfgACc3EAfgAHAAAAAHcEAAAAAHhxAH4AI3EAfgAteH5xAH4AGXQACEFERElUSU9OcQB+ACl4cQB+ADNxAH4AJXhxAH4AM3NxAH4AAnNxAH4ABwAAAAJ3BAAAAAJzcQB+AAJzcQB+AAcAAAAAdwQAAAAAeHNyAEtpby5naXRodWIuZXJpY21lZHZldC5qZ2VhLmNvcmUucmVwcmVzZW50YXRpb24udHJlZS5udW1lcmljLkVsZW1lbnQkQ29uc3RhbnQAAAAAAAAAAAIAAUQABXZhbHVleHBABAAAAAAAAHEAfgA1cQB+ACV4cQB+ADNzcQB+AAJzcQB+AAcAAAACdwQAAAACcQB+ADVzcQB+AAJzcQB+AAcAAAACdwQAAAACc3EAfgACc3EAfgAHAAAAAHcEAAAAAHhxAH4AOnEAfgA9c3EAfgACc3EAfgAHAAAAAHcEAAAAAHhxAH4AOnNxAH4AAnNxAH4ABwAAAAJ3BAAAAAJzcQB+AAJzcQB+AAcAAAAAdwQAAAAAeHEAfgAjcQB+AENxAH4AQXh+cQB+ABl0AA1QUk9UX0RJVklTSU9Oc3EAfgACc3EAfgAHAAAAAncEAAAAAnNxAH4AAnNxAH4ABwAAAAJ3BAAAAAJzcQB+AAJzcQB+AAcAAAAAdwQAAAAAeHEAfgAjcQB+AEtzcQB+AAJzcQB+AAcAAAACdwQAAAACc3EAfgACc3EAfgAHAAAAAHcEAAAAAHhxAH4AI3EAfgBPc3EAfgACc3EAfgAHAAAAAncEAAAAAnNxAH4AAnNxAH4ABwAAAAB3BAAAAAB4cQB+ACNxAH4AU3NxAH4AAnNxAH4ABwAAAAJ3BAAAAAJzcQB+AAJzcQB+AAcAAAAAdwQAAAAAeHEAfgAjcQB+AFdzcQB+AAJzcQB+AAcAAAAAdwQAAAAAeHEAfgAjcQB+AFd4cQB+ADNxAH4AU3hxAH4AM3EAfgBPeHEAfgAzcQB+AEt4cQB+ADNxAH4ASXEAfgBDeHEAfgAbcHhxAH4AR3NxAH4AAnNxAH4ABwAAAAJ3BAAAAAJzcQB+AAJzcQB+AAcAAAAAdwQAAAAAeHEAfgAjcQB+AF1xAH4APXhxAH4AG3B4cQB+ABtweHEAfgAzcQB+AB1xAH4APXhxAH4AG3BzcQB+AAJzcQB+AAcAAAACdwQAAAACc3EAfgACc3EAfgAHAAAAAncEAAAAAnNxAH4AAnNxAH4ABwAAAAB3BAAAAAB4cQB+AA1xAH4AY3NxAH4AAnNxAH4ABwAAAAJ3BAAAAAJzcQB+AAJzcQB+AAcAAAACdwQAAAACc3EAfgACc3EAfgAHAAAAAncEAAAAAnNxAH4AAnNxAH4ABwAAAAB3BAAAAAB4c3EAfgA5P+AAAAAAAABxAH4Aa3NxAH4AAnNxAH4ABwAAAAB3BAAAAAB4cQB+AA1zcQB+AAJzcQB+AAcAAAACdwQAAAACc3EAfgACc3EAfgAHAAAAAHcEAAAAAHhxAH4ADXEAfgBycQB+AHB4fnEAfgAZdAALU1VCVFJBQ1RJT05zcQB+AAJzcQB+AAcAAAACdwQAAAACcQB+AHJzcQB+AAJzcQB+AAcAAAAAdwQAAAAAeHEAfgANcQB+AHh4cQB+AHZzcQB+AAJzcQB+AAcAAAACdwQAAAACcQB+AHhzcQB+AAJzcQB+AAcAAAAAdwQAAAAAeHEAfgANcQB+AHx4cQB+AHZzcQB+AAJzcQB+AAcAAAACdwQAAAACc3EAfgACc3EAfgAHAAAAAHcEAAAAAHhxAH4ADXEAfgCAcQB+AHx4cQB+ABtzcQB+AAJzcQB+AAcAAAACdwQAAAACcQB+AIBzcQB+AAJzcQB+AAcAAAAAdwQAAAAAeHEAfgANc3EAfgACc3EAfgAHAAAAAncEAAAAAnNxAH4AAnNxAH4ABwAAAAJ3BAAAAAJzcQB+AAJzcQB+AAcAAAAAdwQAAAAAeHEAfgANcQB+AIpzcQB+AAJzcQB+AAcAAAAAdwQAAAAAeHEAfgANcQB+AIp4cQB+ABtxAH4AiHEAfgCGeHEAfgB2cHhxAH4AdnB4cQB+AHZxAH4AaXEAfgB6eHEAfgB2cQB+AGdxAH4AfnhxAH4AdnNxAH4AAnNxAH4ABwAAAAJ3BAAAAAJzcQB+AAJzcQB+AAcAAAACdwQAAAACc3EAfgACc3EAfgAHAAAAAncEAAAAAnNxAH4AAnNxAH4ABwAAAAB3BAAAAAB4cQB+AG9xAH4AlHNxAH4AAnNxAH4ABwAAAAB3BAAAAAB4cQB+AA1xAH4AlHhxAH4AdnEAfgCSc3EAfgACc3EAfgAHAAAAAHcEAAAAAHhxAH4ADXEAfgCSeHEAfgB2cQB+AJBxAH4AZ3hxAH4AG3NxAH4AAnNxAH4ABwAAAAJ3BAAAAAJxAH4AkHEAfgCGeHEAfgB2cHhxAH4AG3EAfgBhcQB+AIZ4cQB+AHZwc3EAfgACc3EAfgAHAAAAAncEAAAAAnNxAH4AAnNxAH4ABwAAAAB3BAAAAAB4c3EAfgA5P/AAAAAAAABxAH4AnnNxAH4AAnNxAH4ABwAAAAB3BAAAAAB4c3EAfgALdAACeDNzcQB+AAJzcQB+AAcAAAACdwQAAAACc3EAfgACc3EAfgAHAAAAAncEAAAAAnNxAH4AAnNxAH4ABwAAAAB3BAAAAAB4cQB+AKJxAH4AqXNxAH4AAnNxAH4ABwAAAAB3BAAAAAB4cQB+AKVxAH4AqXhxAH4AG3EAfgCncQB+AKN4cQB+ABtweHEAfgAbcHg=";
    "rO0ABXNyABFqYXZhLnV0aWwuQ29sbFNlcleOq7Y6G6gRAwABSQADdGFneHAAAAAEdwQAAAAEc3IAN2lvLmdpdGh1Yi5lcmljbWVkdmV0LmpnZWEuY29yZS5yZXByZXNlbnRhdGlvbi50cmVlLlRyZWUKs7/qnQrEZQIAA0wACGNoaWxkcmVudAAQTGphdmEvdXRpbC9MaXN0O0wAB2NvbnRlbnR0ABJMamF2YS9sYW5nL09iamVjdDtMAAZwYXJlbnR0ADlMaW8vZ2l0aHViL2VyaWNtZWR2ZXQvamdlYS9jb3JlL3JlcHJlc2VudGF0aW9uL3RyZWUvVHJlZTt4cHNyABNqYXZhLnV0aWwuQXJyYXlMaXN0eIHSHZnHYZ0DAAFJAARzaXpleHAAAAACdwQAAAACc3EAfgACc3EAfgAHAAAAAHcEAAAAAHhzcgBLaW8uZ2l0aHViLmVyaWNtZWR2ZXQuamdlYS5jb3JlLnJlcHJlc2VudGF0aW9uLnRyZWUubnVtZXJpYy5FbGVtZW50JFZhcmlhYmxlAAAAAAAAAAACAAFMAARuYW1ldAASTGphdmEvbGFuZy9TdHJpbmc7eHB0AAJ4MnEAfgAGc3EAfgACc3EAfgAHAAAAAHcEAAAAAHhxAH4ADXNxAH4AAnNxAH4ABwAAAAJ3BAAAAAJzcQB+AAJzcQB+AAcAAAACdwQAAAACc3EAfgACc3EAfgAHAAAAAHcEAAAAAHhxAH4ADXEAfgATc3EAfgACc3EAfgAHAAAAAHcEAAAAAHhxAH4ADXEAfgATeH5yAEtpby5naXRodWIuZXJpY21lZHZldC5qZ2VhLmNvcmUucmVwcmVzZW50YXRpb24udHJlZS5udW1lcmljLkVsZW1lbnQkT3BlcmF0b3IAAAAAAAAAABIAAHhyAA5qYXZhLmxhbmcuRW51bQAAAAAAAAAAEgAAeHB0AA5NVUxUSVBMSUNBVElPTnEAfgARcQB+AA94cQB+ABtweHEAfgAbcHNxAH4AAnNxAH4ABwAAAAJ3BAAAAAJzcQB+AAJzcQB+AAcAAAACdwQAAAACc3EAfgACc3EAfgAHAAAAAHcEAAAAAHhzcQB+AAt0AAJ4NnEAfgAfc3EAfgACc3EAfgAHAAAAAncEAAAAAnNxAH4AAnNxAH4ABwAAAAB3BAAAAAB4cQB+ACNxAH4AJXNxAH4AAnNxAH4ABwAAAAJ3BAAAAAJzcQB+AAJzcQB+AAcAAAAAdwQAAAAAeHEAfgAjcQB+AClzcQB+AAJzcQB+AAcAAAACdwQAAAACc3EAfgACc3EAfgAHAAAAAHcEAAAAAHhxAH4AI3EAfgAtc3EAfgACc3EAfgAHAAAAAHcEAAAAAHhxAH4AI3EAfgAteH5xAH4AGXQACEFERElUSU9OcQB+ACl4cQB+ADNxAH4AJXhxAH4AM3NxAH4AAnNxAH4ABwAAAAJ3BAAAAAJzcQB+AAJzcQB+AAcAAAAAdwQAAAAAeHNyAEtpby5naXRodWIuZXJpY21lZHZldC5qZ2VhLmNvcmUucmVwcmVzZW50YXRpb24udHJlZS5udW1lcmljLkVsZW1lbnQkQ29uc3RhbnQAAAAAAAAAAAIAAUQABXZhbHVleHBABAAAAAAAAHEAfgA1cQB+ACV4cQB+ADNzcQB+AAJzcQB+AAcAAAACdwQAAAACcQB+ADVzcQB+AAJzcQB+AAcAAAACdwQAAAACc3EAfgACc3EAfgAHAAAAAHcEAAAAAHhxAH4AOnEAfgA9c3EAfgACc3EAfgAHAAAAAHcEAAAAAHhxAH4AOnNxAH4AAnNxAH4ABwAAAAJ3BAAAAAJzcQB+AAJzcQB+AAcAAAACdwQAAAACc3EAfgACc3EAfgAHAAAAAHcEAAAAAHhxAH4AI3EAfgBFc3EAfgACc3EAfgAHAAAAAncEAAAAAnNxAH4AAnNxAH4ABwAAAAB3BAAAAAB4cQB+ACNxAH4ASXNxAH4AAnNxAH4ABwAAAAJ3BAAAAAJzcQB+AAJzcQB+AAcAAAAAdwQAAAAAeHEAfgAjcQB+AE1zcQB+AAJzcQB+AAcAAAACdwQAAAACc3EAfgACc3EAfgAHAAAAAHcEAAAAAHhxAH4AI3EAfgBRc3EAfgACc3EAfgAHAAAAAHcEAAAAAHhxAH4AI3EAfgBReHEAfgAzcQB+AE14cQB+ADNxAH4ASXhxAH4AM3EAfgBFeHEAfgAzcQB+AENxAH4AQXh+cQB+ABl0AA1QUk9UX0RJVklTSU9Oc3EAfgACc3EAfgAHAAAAAncEAAAAAnNxAH4AAnNxAH4ABwAAAAJ3BAAAAAJzcQB+AAJzcQB+AAcAAAAAdwQAAAAAeHEAfgAjcQB+AFtzcQB+AAJzcQB+AAcAAAACdwQAAAACc3EAfgACc3EAfgAHAAAAAHcEAAAAAHhxAH4AI3EAfgBfc3EAfgACc3EAfgAHAAAAAncEAAAAAnNxAH4AAnNxAH4ABwAAAAB3BAAAAAB4cQB+ACNxAH4AY3NxAH4AAnNxAH4ABwAAAAJ3BAAAAAJzcQB+AAJzcQB+AAcAAAAAdwQAAAAAeHEAfgAjcQB+AGdzcQB+AAJzcQB+AAcAAAAAdwQAAAAAeHEAfgAjcQB+AGd4cQB+ADNxAH4AY3hxAH4AM3EAfgBfeHEAfgAzcQB+AFt4cQB+ADNxAH4AWXEAfgBDeHEAfgAbcHhxAH4AV3EAfgA7eHEAfgAbcHhxAH4AM3EAfgAdcQB+AD14cQB+ABtwc3EAfgACc3EAfgAHAAAAAncEAAAAAnNxAH4AAnNxAH4ABwAAAAJ3BAAAAAJzcQB+AAJzcQB+AAcAAAAAdwQAAAAAeHEAfgANcQB+AG9zcQB+AAJzcQB+AAcAAAACdwQAAAACc3EAfgACc3EAfgAHAAAAAncEAAAAAnNxAH4AAnNxAH4ABwAAAAJ3BAAAAAJzcQB+AAJzcQB+AAcAAAAAdwQAAAAAeHNxAH4AOT/gAAAAAAAAcQB+AHdzcQB+AAJzcQB+AAcAAAAAdwQAAAAAeHEAfgANc3EAfgACc3EAfgAHAAAAAncEAAAAAnNxAH4AAnNxAH4ABwAAAAB3BAAAAAB4cQB+AA1xAH4AfnEAfgB8eH5xAH4AGXQAC1NVQlRSQUNUSU9Oc3EAfgACc3EAfgAHAAAAAncEAAAAAnEAfgB+c3EAfgACc3EAfgAHAAAAAHcEAAAAAHhxAH4ADXEAfgCEeHEAfgCCc3EAfgACc3EAfgAHAAAAAncEAAAAAnEAfgCEc3EAfgACc3EAfgAHAAAAAHcEAAAAAHhxAH4ADXEAfgCIeHEAfgCCc3EAfgACc3EAfgAHAAAAAncEAAAAAnNxAH4AAnNxAH4ABwAAAAB3BAAAAAB4cQB+AA1xAH4AjHEAfgCIeHEAfgAbc3EAfgACc3EAfgAHAAAAAncEAAAAAnEAfgCMc3EAfgACc3EAfgAHAAAAAHcEAAAAAHhxAH4ADXNxAH4AAnNxAH4ABwAAAAJ3BAAAAAJzcQB+AAJzcQB+AAcAAAACdwQAAAACc3EAfgACc3EAfgAHAAAAAHcEAAAAAHhxAH4ADXEAfgCWc3EAfgACc3EAfgAHAAAAAHcEAAAAAHhxAH4ADXEAfgCWeHEAfgAbcQB+AJRxAH4AknhxAH4AgnB4cQB+AIJweHEAfgCCcQB+AHVxAH4AhnhxAH4AgnEAfgBzcQB+AIp4cQB+AIJzcQB+AAJzcQB+AAcAAAACdwQAAAACc3EAfgACc3EAfgAHAAAAAncEAAAAAnNxAH4AAnNxAH4ABwAAAAJ3BAAAAAJzcQB+AAJzcQB+AAcAAAAAdwQAAAAAeHEAfgB7cQB+AKBzcQB+AAJzcQB+AAcAAAAAdwQAAAAAeHEAfgANcQB+AKB4cQB+AIJxAH4AnnNxAH4AAnNxAH4ABwAAAAB3BAAAAAB4cQB+AA1xAH4AnnhxAH4AgnEAfgCccQB+AHN4cQB+ABtzcQB+AAJzcQB+AAcAAAACdwQAAAACcQB+AJxxAH4AknhxAH4AgnB4cQB+ABtxAH4AbXEAfgCSeHEAfgCCcHNxAH4AAnNxAH4ABwAAAAJ3BAAAAAJzcQB+AAJzcQB+AAcAAAAAdwQAAAAAeHNxAH4AOT/wAAAAAAAAcQB+AKpzcQB+AAJzcQB+AAcAAAACdwQAAAACc3EAfgACc3EAfgAHAAAAAHcEAAAAAHhxAH4ArnEAfgCvc3EAfgACc3EAfgAHAAAAAncEAAAAAnNxAH4AAnNxAH4ABwAAAAB3BAAAAAB4c3EAfgALdAACeDNxAH4As3NxAH4AAnNxAH4ABwAAAAB3BAAAAAB4cQB+AK5zcQB+AAJzcQB+AAcAAAACdwQAAAACc3EAfgACc3EAfgAHAAAAAHcEAAAAAHhxAH4ArnEAfgC7cQB+ALl4cQB+ABtzcQB+AAJzcQB+AAcAAAACdwQAAAACc3EAfgACc3EAfgAHAAAAAHcEAAAAAHhxAH4ArnEAfgC/cQB+ALt4cQB+ABtzcQB+AAJzcQB+AAcAAAACdwQAAAACc3EAfgACc3EAfgAHAAAAAHcEAAAAAHhxAH4ArnEAfgDDcQB+AL94cQB+ABtweHEAfgAbcQB+AK94cQB+ABtzcQB+AAJzcQB+AAcAAAACdwQAAAACc3EAfgACc3EAfgAHAAAAAHcEAAAAAHhxAH4At3EAfgDHcQB+AK94cQB+ABtweHEAfgAbcHg=";
    "rO0ABXNyABFqYXZhLnV0aWwuQ29sbFNlcleOq7Y6G6gRAwABSQADdGFneHAAAAAEdwQAAAAEc3IAN2lvLmdpdGh1Yi5lcmljbWVkdmV0LmpnZWEuY29yZS5yZXByZXNlbnRhdGlvbi50cmVlLlRyZWUKs7/qnQrEZQIAA0wACGNoaWxkcmVudAAQTGphdmEvdXRpbC9MaXN0O0wAB2NvbnRlbnR0ABJMamF2YS9sYW5nL09iamVjdDtMAAZwYXJlbnR0ADlMaW8vZ2l0aHViL2VyaWNtZWR2ZXQvamdlYS9jb3JlL3JlcHJlc2VudGF0aW9uL3RyZWUvVHJlZTt4cHNyABNqYXZhLnV0aWwuQXJyYXlMaXN0eIHSHZnHYZ0DAAFJAARzaXpleHAAAAACdwQAAAACc3EAfgACc3EAfgAHAAAAAHcEAAAAAHhzcgBLaW8uZ2l0aHViLmVyaWNtZWR2ZXQuamdlYS5jb3JlLnJlcHJlc2VudGF0aW9uLnRyZWUubnVtZXJpYy5FbGVtZW50JFZhcmlhYmxlAAAAAAAAAAACAAFMAARuYW1ldAASTGphdmEvbGFuZy9TdHJpbmc7eHB0AAJ4MnEAfgAGc3EAfgACc3EAfgAHAAAAAHcEAAAAAHhxAH4ADXNxAH4AAnNxAH4ABwAAAAJ3BAAAAAJzcQB+AAJzcQB+AAcAAAACdwQAAAACc3EAfgACc3EAfgAHAAAAAHcEAAAAAHhxAH4ADXEAfgATc3EAfgACc3EAfgAHAAAAAHcEAAAAAHhxAH4ADXEAfgATeH5yAEtpby5naXRodWIuZXJpY21lZHZldC5qZ2VhLmNvcmUucmVwcmVzZW50YXRpb24udHJlZS5udW1lcmljLkVsZW1lbnQkT3BlcmF0b3IAAAAAAAAAABIAAHhyAA5qYXZhLmxhbmcuRW51bQAAAAAAAAAAEgAAeHB0AA5NVUxUSVBMSUNBVElPTnEAfgARcQB+AA94cQB+ABtweHEAfgAbcHNxAH4AAnNxAH4ABwAAAAJ3BAAAAAJzcQB+AAJzcQB+AAcAAAACdwQAAAACc3EAfgACc3EAfgAHAAAAAHcEAAAAAHhzcQB+AAt0AAJ4NnEAfgAfc3EAfgACc3EAfgAHAAAAAncEAAAAAnNxAH4AAnNxAH4ABwAAAAB3BAAAAAB4cQB+ACNxAH4AJXNxAH4AAnNxAH4ABwAAAAJ3BAAAAAJzcQB+AAJzcQB+AAcAAAAAdwQAAAAAeHEAfgAjcQB+AClzcQB+AAJzcQB+AAcAAAACdwQAAAACc3EAfgACc3EAfgAHAAAAAHcEAAAAAHhxAH4AI3EAfgAtc3EAfgACc3EAfgAHAAAAAHcEAAAAAHhxAH4AI3EAfgAteH5xAH4AGXQACEFERElUSU9OcQB+ACl4cQB+ADNxAH4AJXhxAH4AM3NxAH4AAnNxAH4ABwAAAAJ3BAAAAAJzcQB+AAJzcQB+AAcAAAAAdwQAAAAAeHNyAEtpby5naXRodWIuZXJpY21lZHZldC5qZ2VhLmNvcmUucmVwcmVzZW50YXRpb24udHJlZS5udW1lcmljLkVsZW1lbnQkQ29uc3RhbnQAAAAAAAAAAAIAAUQABXZhbHVleHBABAAAAAAAAHEAfgA1cQB+ACV4cQB+ADNzcQB+AAJzcQB+AAcAAAACdwQAAAACcQB+ADVzcQB+AAJzcQB+AAcAAAACdwQAAAACc3EAfgACc3EAfgAHAAAAAHcEAAAAAHhxAH4AOnEAfgA9c3EAfgACc3EAfgAHAAAAAHcEAAAAAHhxAH4AOnNxAH4AAnNxAH4ABwAAAAJ3BAAAAAJzcQB+AAJzcQB+AAcAAAACdwQAAAACc3EAfgACc3EAfgAHAAAAAHcEAAAAAHhxAH4AI3EAfgBFc3EAfgACc3EAfgAHAAAAAncEAAAAAnNxAH4AAnNxAH4ABwAAAAB3BAAAAAB4cQB+ACNxAH4ASXNxAH4AAnNxAH4ABwAAAAJ3BAAAAAJzcQB+AAJzcQB+AAcAAAAAdwQAAAAAeHEAfgAjcQB+AE1zcQB+AAJzcQB+AAcAAAACdwQAAAACc3EAfgACc3EAfgAHAAAAAHcEAAAAAHhxAH4AI3EAfgBRc3EAfgACc3EAfgAHAAAAAHcEAAAAAHhxAH4AI3EAfgBReHEAfgAzcQB+AE14cQB+ADNxAH4ASXhxAH4AM3EAfgBFeHEAfgAzcQB+AENxAH4AQXh+cQB+ABl0AA1QUk9UX0RJVklTSU9Oc3EAfgACc3EAfgAHAAAAAncEAAAAAnNxAH4AAnNxAH4ABwAAAAJ3BAAAAAJzcQB+AAJzcQB+AAcAAAAAdwQAAAAAeHEAfgAjcQB+AFtzcQB+AAJzcQB+AAcAAAACdwQAAAACc3EAfgACc3EAfgAHAAAAAHcEAAAAAHhxAH4AI3EAfgBfc3EAfgACc3EAfgAHAAAAAncEAAAAAnNxAH4AAnNxAH4ABwAAAAB3BAAAAAB4cQB+ACNxAH4AY3NxAH4AAnNxAH4ABwAAAAJ3BAAAAAJzcQB+AAJzcQB+AAcAAAAAdwQAAAAAeHEAfgAjcQB+AGdzcQB+AAJzcQB+AAcAAAAAdwQAAAAAeHEAfgAjcQB+AGd4cQB+ADNxAH4AY3hxAH4AM3EAfgBfeHEAfgAzcQB+AFt4cQB+ADNxAH4AWXEAfgBDeHEAfgAbcHhxAH4AV3EAfgA7eHEAfgAbcHhxAH4AM3EAfgAdcQB+AD14cQB+ABtwc3EAfgACc3EAfgAHAAAAAncEAAAAAnNxAH4AAnNxAH4ABwAAAAJ3BAAAAAJzcQB+AAJzcQB+AAcAAAAAdwQAAAAAeHEAfgANcQB+AG9zcQB+AAJzcQB+AAcAAAACdwQAAAACc3EAfgACc3EAfgAHAAAAAncEAAAAAnNxAH4AAnNxAH4ABwAAAAJ3BAAAAAJzcQB+AAJzcQB+AAcAAAAAdwQAAAAAeHNxAH4AOT/gAAAAAAAAcQB+AHdzcQB+AAJzcQB+AAcAAAAAdwQAAAAAeHEAfgANc3EAfgACc3EAfgAHAAAAAncEAAAAAnNxAH4AAnNxAH4ABwAAAAB3BAAAAAB4cQB+AA1xAH4AfnEAfgB8eH5xAH4AGXQAC1NVQlRSQUNUSU9Oc3EAfgACc3EAfgAHAAAAAncEAAAAAnEAfgB+c3EAfgACc3EAfgAHAAAAAHcEAAAAAHhxAH4ADXEAfgCEeHEAfgCCc3EAfgACc3EAfgAHAAAAAncEAAAAAnEAfgCEc3EAfgACc3EAfgAHAAAAAHcEAAAAAHhxAH4ADXEAfgCIeHEAfgCCc3EAfgACc3EAfgAHAAAAAncEAAAAAnNxAH4AAnNxAH4ABwAAAAB3BAAAAAB4cQB+AA1xAH4AjHEAfgCIeHEAfgAbc3EAfgACc3EAfgAHAAAAAncEAAAAAnEAfgCMc3EAfgACc3EAfgAHAAAAAHcEAAAAAHhxAH4ADXNxAH4AAnNxAH4ABwAAAAJ3BAAAAAJzcQB+AAJzcQB+AAcAAAACdwQAAAACc3EAfgACc3EAfgAHAAAAAHcEAAAAAHhxAH4ADXEAfgCWc3EAfgACc3EAfgAHAAAAAHcEAAAAAHhxAH4ADXEAfgCWeHEAfgAbcQB+AJRxAH4AknhxAH4AgnB4cQB+AIJweHEAfgCCcQB+AHVxAH4AhnhxAH4AgnEAfgBzcQB+AIp4cQB+AIJzcQB+AAJzcQB+AAcAAAACdwQAAAACc3EAfgACc3EAfgAHAAAAAncEAAAAAnNxAH4AAnNxAH4ABwAAAAJ3BAAAAAJzcQB+AAJzcQB+AAcAAAAAdwQAAAAAeHEAfgB7cQB+AKBzcQB+AAJzcQB+AAcAAAAAdwQAAAAAeHEAfgANcQB+AKB4cQB+AIJxAH4AnnNxAH4AAnNxAH4ABwAAAAB3BAAAAAB4cQB+AA1xAH4AnnhxAH4AgnEAfgCccQB+AHN4cQB+ABtzcQB+AAJzcQB+AAcAAAACdwQAAAACcQB+AJxxAH4AknhxAH4AgnB4cQB+ABtxAH4AbXEAfgCSeHEAfgCCcHNxAH4AAnNxAH4ABwAAAAJ3BAAAAAJzcQB+AAJzcQB+AAcAAAAAdwQAAAAAeHNxAH4AOT/wAAAAAAAAcQB+AKpzcQB+AAJzcQB+AAcAAAACdwQAAAACc3EAfgACc3EAfgAHAAAAAHcEAAAAAHhxAH4ArnEAfgCvc3EAfgACc3EAfgAHAAAAAncEAAAAAnNxAH4AAnNxAH4ABwAAAAB3BAAAAAB4c3EAfgALdAACeDNxAH4As3NxAH4AAnNxAH4ABwAAAAB3BAAAAAB4cQB+AK5zcQB+AAJzcQB+AAcAAAACdwQAAAACc3EAfgACc3EAfgAHAAAAAHcEAAAAAHhxAH4ArnEAfgC7cQB+ALl4cQB+ABtzcQB+AAJzcQB+AAcAAAACdwQAAAACc3EAfgACc3EAfgAHAAAAAHcEAAAAAHhxAH4ArnEAfgC/cQB+ALt4cQB+ABtzcQB+AAJzcQB+AAcAAAACdwQAAAACc3EAfgACc3EAfgAHAAAAAHcEAAAAAHhxAH4ArnEAfgDDcQB+AL94cQB+ABtweHEAfgAbcQB+AK94cQB+ABtzcQB+AAJzcQB+AAcAAAACdwQAAAACc3EAfgACc3EAfgAHAAAAAHcEAAAAAHhxAH4At3EAfgDHcQB+AK94cQB+ABtweHEAfgAbcHg=";
    "rO0ABXNyABFqYXZhLnV0aWwuQ29sbFNlcleOq7Y6G6gRAwABSQADdGFneHAAAAAEdwQAAAAEc3IAN2lvLmdpdGh1Yi5lcmljbWVkdmV0LmpnZWEuY29yZS5yZXByZXNlbnRhdGlvbi50cmVlLlRyZWUKs7/qnQrEZQIAA0wACGNoaWxkcmVudAAQTGphdmEvdXRpbC9MaXN0O0wAB2NvbnRlbnR0ABJMamF2YS9sYW5nL09iamVjdDtMAAZwYXJlbnR0ADlMaW8vZ2l0aHViL2VyaWNtZWR2ZXQvamdlYS9jb3JlL3JlcHJlc2VudGF0aW9uL3RyZWUvVHJlZTt4cHNyABNqYXZhLnV0aWwuQXJyYXlMaXN0eIHSHZnHYZ0DAAFJAARzaXpleHAAAAACdwQAAAACc3EAfgACc3EAfgAHAAAAAHcEAAAAAHhzcgBLaW8uZ2l0aHViLmVyaWNtZWR2ZXQuamdlYS5jb3JlLnJlcHJlc2VudGF0aW9uLnRyZWUubnVtZXJpYy5FbGVtZW50JFZhcmlhYmxlAAAAAAAAAAACAAFMAARuYW1ldAASTGphdmEvbGFuZy9TdHJpbmc7eHB0AAJ4MnEAfgAGc3EAfgACc3EAfgAHAAAAAHcEAAAAAHhxAH4ADXNxAH4AAnNxAH4ABwAAAAJ3BAAAAAJzcQB+AAJzcQB+AAcAAAACdwQAAAACc3EAfgACc3EAfgAHAAAAAHcEAAAAAHhxAH4ADXEAfgATc3EAfgACc3EAfgAHAAAAAHcEAAAAAHhxAH4ADXEAfgATeH5yAEtpby5naXRodWIuZXJpY21lZHZldC5qZ2VhLmNvcmUucmVwcmVzZW50YXRpb24udHJlZS5udW1lcmljLkVsZW1lbnQkT3BlcmF0b3IAAAAAAAAAABIAAHhyAA5qYXZhLmxhbmcuRW51bQAAAAAAAAAAEgAAeHB0AA5NVUxUSVBMSUNBVElPTnEAfgARcQB+AA94cQB+ABtweHEAfgAbcHNxAH4AAnNxAH4ABwAAAAJ3BAAAAAJzcQB+AAJzcQB+AAcAAAACdwQAAAACc3EAfgACc3EAfgAHAAAAAncEAAAAAnNxAH4AAnNxAH4ABwAAAAJ3BAAAAAJzcQB+AAJzcQB+AAcAAAAAdwQAAAAAeHNxAH4AC3QAAng2cQB+ACNzcQB+AAJzcQB+AAcAAAACdwQAAAACc3EAfgACc3EAfgAHAAAAAHcEAAAAAHhxAH4AJ3EAfgApc3EAfgACc3EAfgAHAAAAAncEAAAAAnNxAH4AAnNxAH4ABwAAAAB3BAAAAAB4cQB+ACdxAH4ALXNxAH4AAnNxAH4ABwAAAAJ3BAAAAAJzcQB+AAJzcQB+AAcAAAAAdwQAAAAAeHEAfgAncQB+ADFzcQB+AAJzcQB+AAcAAAAAdwQAAAAAeHEAfgAncQB+ADF4fnEAfgAZdAAIQURESVRJT05xAH4ALXhxAH4AN3EAfgApeHEAfgA3c3EAfgACc3EAfgAHAAAAAncEAAAAAnNxAH4AAnNxAH4ABwAAAAB3BAAAAAB4c3IAS2lvLmdpdGh1Yi5lcmljbWVkdmV0LmpnZWEuY29yZS5yZXByZXNlbnRhdGlvbi50cmVlLm51bWVyaWMuRWxlbWVudCRDb25zdGFudAAAAAAAAAAAAgABRAAFdmFsdWV4cEAEAAAAAAAAcQB+ADlxAH4AKXhxAH4AN3NxAH4AAnNxAH4ABwAAAAJ3BAAAAAJxAH4AOXNxAH4AAnNxAH4ABwAAAAJ3BAAAAAJzcQB+AAJzcQB+AAcAAAAAdwQAAAAAeHEAfgA+cQB+AEFzcQB+AAJzcQB+AAcAAAAAdwQAAAAAeHEAfgA+c3EAfgACc3EAfgAHAAAAAncEAAAAAnNxAH4AAnNxAH4ABwAAAAB3BAAAAAB4cQB+ACdxAH4AR3EAfgBFeH5xAH4AGXQADVBST1RfRElWSVNJT05zcQB+AAJzcQB+AAcAAAACdwQAAAACc3EAfgACc3EAfgAHAAAAAncEAAAAAnNxAH4AAnNxAH4ABwAAAAB3BAAAAAB4cQB+ACdxAH4AT3NxAH4AAnNxAH4ABwAAAAJ3BAAAAAJzcQB+AAJzcQB+AAcAAAAAdwQAAAAAeHEAfgAncQB+AFNzcQB+AAJzcQB+AAcAAAACdwQAAAACc3EAfgACc3EAfgAHAAAAAHcEAAAAAHhxAH4AJ3EAfgBXc3EAfgACc3EAfgAHAAAAAncEAAAAAnNxAH4AAnNxAH4ABwAAAAB3BAAAAAB4cQB+ACdxAH4AW3NxAH4AAnNxAH4ABwAAAAB3BAAAAAB4cQB+ACdxAH4AW3hxAH4AN3EAfgBXeHEAfgA3cQB+AFN4cQB+ADdxAH4AT3hxAH4AN3EAfgBNcQB+AEd4cQB+ABtzcQB+AAJzcQB+AAcAAAACdwQAAAACcQB+AE1zcQB+AAJzcQB+AAcAAAACdwQAAAACc3EAfgACc3EAfgAHAAAAAHcEAAAAAHhxAH4APnEAfgBjc3EAfgACc3EAfgAHAAAAAHcEAAAAAHhxAH4APnNxAH4AAnNxAH4ABwAAAAJ3BAAAAAJzcQB+AAJzcQB+AAcAAAACdwQAAAACc3EAfgACc3EAfgAHAAAAAHcEAAAAAHhxAH4APnEAfgBrc3EAfgACc3EAfgAHAAAAAHcEAAAAAHhxAH4APnEAfgBreHEAfgBLcQB+AGlxAH4AZ3hxAH4AS3NxAH4AAnNxAH4ABwAAAAJ3BAAAAAJzcQB+AAJzcQB+AAcAAAACdwQAAAACc3EAfgACc3EAfgAHAAAAAHcEAAAAAHhxAH4AJ3EAfgBzc3EAfgACc3EAfgAHAAAAAncEAAAAAnNxAH4AAnNxAH4ABwAAAAB3BAAAAAB4cQB+ACdxAH4Ad3NxAH4AAnNxAH4ABwAAAAJ3BAAAAAJzcQB+AAJzcQB+AAcAAAAAdwQAAAAAeHEAfgAncQB+AHtzcQB+AAJzcQB+AAcAAAACdwQAAAACc3EAfgACc3EAfgAHAAAAAHcEAAAAAHhxAH4AJ3EAfgB/c3EAfgACc3EAfgAHAAAAAHcEAAAAAHhxAH4AJ3EAfgB/eHEAfgA3cQB+AHt4cQB+ADdxAH4Ad3hxAH4AN3EAfgBzeHEAfgA3cQB+AHFxAH4AaXhxAH4AG3NxAH4AAnNxAH4ABwAAAAJ3BAAAAAJxAH4AcXNxAH4AAnNxAH4ABwAAAAJ3BAAAAAJzcQB+AAJzcQB+AAcAAAAAdwQAAAAAeHEAfgA+cQB+AIdzcQB+AAJzcQB+AAcAAAAAdwQAAAAAeHEAfgA+c3EAfgACc3EAfgAHAAAAAncEAAAAAnNxAH4AAnNxAH4ABwAAAAB3BAAAAAB4cQB+ACdxAH4AjXEAfgCLeHEAfgBLc3EAfgACc3EAfgAHAAAAAncEAAAAAnNxAH4AAnNxAH4ABwAAAAJ3BAAAAAJzcQB+AAJzcQB+AAcAAAAAdwQAAAAAeHEAfgAncQB+AJNzcQB+AAJzcQB+AAcAAAACdwQAAAACc3EAfgACc3EAfgAHAAAAAHcEAAAAAHhxAH4AJ3EAfgCXc3EAfgACc3EAfgAHAAAAAncEAAAAAnNxAH4AAnNxAH4ABwAAAAB3BAAAAAB4cQB+ACdxAH4Am3NxAH4AAnNxAH4ABwAAAAJ3BAAAAAJzcQB+AAJzcQB+AAcAAAAAdwQAAAAAeHEAfgAncQB+AJ9zcQB+AAJzcQB+AAcAAAAAdwQAAAAAeHEAfgAncQB+AJ94cQB+ADdxAH4Am3hxAH4AN3EAfgCXeHEAfgA3cQB+AJN4cQB+ADdxAH4AkXEAfgCNeHEAfgAbcHhxAH4AS3NxAH4AAnNxAH4ABwAAAAJ3BAAAAAJzcQB+AAJzcQB+AAcAAAAAdwQAAAAAeHEAfgAncQB+AKVxAH4Ah3hxAH4AG3B4cQB+ABtweHEAfgBLc3EAfgACc3EAfgAHAAAAAncEAAAAAnEAfgA/cQB+AGN4cQB+ABtzcQB+AAJzcQB+AAcAAAACdwQAAAACcQB+AKlxAH4Ah3hxAH4AG3B4cQB+ABtzcQB+AAJzcQB+AAcAAAACdwQAAAACcQB+AGFxAH4Ah3hxAH4AG3B4cQB+AEtxAH4AP3hxAH4AG3EAfgCpeHEAfgA3cQB+ACFxAH4AQXhxAH4AG3EAfgAfcQB+AGN4cQB+ABtxAH4AHXEAfgCHeHEAfgAbcHNxAH4AAnNxAH4ABwAAAAJ3BAAAAAJzcQB+AAJzcQB+AAcAAAACdwQAAAACc3EAfgACc3EAfgAHAAAAAHcEAAAAAHhxAH4ADXEAfgCxc3EAfgACc3EAfgAHAAAAAncEAAAAAnNxAH4AAnNxAH4ABwAAAAJ3BAAAAAJzcQB+AAJzcQB+AAcAAAACdwQAAAACc3EAfgACc3EAfgAHAAAAAHcEAAAAAHhzcQB+AD0/4AAAAAAAAHEAfgC5c3EAfgACc3EAfgAHAAAAAHcEAAAAAHhxAH4ADXNxAH4AAnNxAH4ABwAAAAJ3BAAAAAJzcQB+AAJzcQB+AAcAAAAAdwQAAAAAeHEAfgANcQB+AMBxAH4Avnh+cQB+ABl0AAtTVUJUUkFDVElPTnNxAH4AAnNxAH4ABwAAAAJ3BAAAAAJxAH4AwHNxAH4AAnNxAH4ABwAAAAB3BAAAAAB4cQB+AA1xAH4AxnhxAH4AxHNxAH4AAnNxAH4ABwAAAAJ3BAAAAAJxAH4AxnNxAH4AAnNxAH4ABwAAAAB3BAAAAAB4cQB+AA1xAH4AynhxAH4AxHNxAH4AAnNxAH4ABwAAAAJ3BAAAAAJzcQB+AAJzcQB+AAcAAAAAdwQAAAAAeHEAfgANcQB+AM5xAH4AynhxAH4AG3NxAH4AAnNxAH4ABwAAAAJ3BAAAAAJxAH4AznNxAH4AAnNxAH4ABwAAAAB3BAAAAAB4cQB+AA1zcQB+AAJzcQB+AAcAAAACdwQAAAACc3EAfgACc3EAfgAHAAAAAncEAAAAAnNxAH4AAnNxAH4ABwAAAAB3BAAAAAB4cQB+AA1xAH4A2HNxAH4AAnNxAH4ABwAAAAB3BAAAAAB4cQB+AA1xAH4A2HhxAH4AG3EAfgDWcQB+ANR4cQB+AMRweHEAfgDEcHhxAH4AxHEAfgC3cQB+AMh4cQB+AMRxAH4AtXEAfgDMeHEAfgDEc3EAfgACc3EAfgAHAAAAAncEAAAAAnNxAH4AAnNxAH4ABwAAAAJ3BAAAAAJzcQB+AAJzcQB+AAcAAAACdwQAAAACc3EAfgACc3EAfgAHAAAAAHcEAAAAAHhxAH4AvXEAfgDic3EAfgACc3EAfgAHAAAAAHcEAAAAAHhxAH4ADXEAfgDieHEAfgDEcQB+AOBzcQB+AAJzcQB+AAcAAAAAdwQAAAAAeHEAfgANcQB+AOB4cQB+AMRxAH4A3nEAfgC1eHEAfgAbc3EAfgACc3EAfgAHAAAAAncEAAAAAnEAfgDecQB+ANR4cQB+AMRweHEAfgAbcQB+AK9xAH4A1HhxAH4AxHBzcQB+AAJzcQB+AAcAAAACdwQAAAACc3EAfgACc3EAfgAHAAAAAHcEAAAAAHhzcQB+AD0/8AAAAAAAAHEAfgDsc3EAfgACc3EAfgAHAAAAAncEAAAAAnNxAH4AAnNxAH4ABwAAAAB3BAAAAAB4cQB+APBxAH4A8XNxAH4AAnNxAH4ABwAAAAB3BAAAAAB4c3EAfgALdAACeDNxAH4A8XhxAH4AG3NxAH4AAnNxAH4ABwAAAAJ3BAAAAAJzcQB+AAJzcQB+AAcAAAAAdwQAAAAAeHEAfgD3cQB+APlxAH4A8XhxAH4AG3B4cQB+ABtweA==";
    "rO0ABXNyABFqYXZhLnV0aWwuQ29sbFNlcleOq7Y6G6gRAwABSQADdGFneHAAAAAEdwQAAAAEc3IAN2lvLmdpdGh1Yi5lcmljbWVkdmV0LmpnZWEuY29yZS5yZXByZXNlbnRhdGlvbi50cmVlLlRyZWUKs7/qnQrEZQIAA0wACGNoaWxkcmVudAAQTGphdmEvdXRpbC9MaXN0O0wAB2NvbnRlbnR0ABJMamF2YS9sYW5nL09iamVjdDtMAAZwYXJlbnR0ADlMaW8vZ2l0aHViL2VyaWNtZWR2ZXQvamdlYS9jb3JlL3JlcHJlc2VudGF0aW9uL3RyZWUvVHJlZTt4cHNyABNqYXZhLnV0aWwuQXJyYXlMaXN0eIHSHZnHYZ0DAAFJAARzaXpleHAAAAACdwQAAAACc3EAfgACc3EAfgAHAAAAAHcEAAAAAHhzcgBLaW8uZ2l0aHViLmVyaWNtZWR2ZXQuamdlYS5jb3JlLnJlcHJlc2VudGF0aW9uLnRyZWUubnVtZXJpYy5FbGVtZW50JFZhcmlhYmxlAAAAAAAAAAACAAFMAARuYW1ldAASTGphdmEvbGFuZy9TdHJpbmc7eHB0AAJ4MnEAfgAGc3EAfgACc3EAfgAHAAAAAHcEAAAAAHhxAH4ADXNxAH4AAnNxAH4ABwAAAAJ3BAAAAAJzcQB+AAJzcQB+AAcAAAACdwQAAAACc3EAfgACc3EAfgAHAAAAAHcEAAAAAHhxAH4ADXEAfgATc3EAfgACc3EAfgAHAAAAAHcEAAAAAHhxAH4ADXEAfgATeH5yAEtpby5naXRodWIuZXJpY21lZHZldC5qZ2VhLmNvcmUucmVwcmVzZW50YXRpb24udHJlZS5udW1lcmljLkVsZW1lbnQkT3BlcmF0b3IAAAAAAAAAABIAAHhyAA5qYXZhLmxhbmcuRW51bQAAAAAAAAAAEgAAeHB0AA5NVUxUSVBMSUNBVElPTnEAfgARcQB+AA94cQB+ABtweHEAfgAbcHNxAH4AAnNxAH4ABwAAAAJ3BAAAAAJzcQB+AAJzcQB+AAcAAAACdwQAAAACc3EAfgACc3EAfgAHAAAAAHcEAAAAAHhzcQB+AAt0AAJ4NnEAfgAfc3EAfgACc3EAfgAHAAAAAncEAAAAAnNxAH4AAnNxAH4ABwAAAAB3BAAAAAB4cQB+ACNxAH4AJXNxAH4AAnNxAH4ABwAAAAJ3BAAAAAJzcQB+AAJzcQB+AAcAAAAAdwQAAAAAeHEAfgAjcQB+AClzcQB+AAJzcQB+AAcAAAACdwQAAAACc3EAfgACc3EAfgAHAAAAAHcEAAAAAHhxAH4AI3EAfgAtc3EAfgACc3EAfgAHAAAAAHcEAAAAAHhxAH4AI3EAfgAteH5xAH4AGXQACEFERElUSU9OcQB+ACl4cQB+ADNxAH4AJXhxAH4AM3NxAH4AAnNxAH4ABwAAAAJ3BAAAAAJzcQB+AAJzcQB+AAcAAAAAdwQAAAAAeHNyAEtpby5naXRodWIuZXJpY21lZHZldC5qZ2VhLmNvcmUucmVwcmVzZW50YXRpb24udHJlZS5udW1lcmljLkVsZW1lbnQkQ29uc3RhbnQAAAAAAAAAAAIAAUQABXZhbHVleHBABAAAAAAAAHEAfgA1cQB+ACV4cQB+ADNzcQB+AAJzcQB+AAcAAAACdwQAAAACcQB+ADVzcQB+AAJzcQB+AAcAAAACdwQAAAACc3EAfgACc3EAfgAHAAAAAHcEAAAAAHhxAH4AOnEAfgA9c3EAfgACc3EAfgAHAAAAAHcEAAAAAHhxAH4AOnNxAH4AAnNxAH4ABwAAAAJ3BAAAAAJzcQB+AAJzcQB+AAcAAAACdwQAAAACc3EAfgACc3EAfgAHAAAAAHcEAAAAAHhxAH4AI3EAfgBFc3EAfgACc3EAfgAHAAAAAncEAAAAAnNxAH4AAnNxAH4ABwAAAAB3BAAAAAB4cQB+ACNxAH4ASXNxAH4AAnNxAH4ABwAAAAJ3BAAAAAJzcQB+AAJzcQB+AAcAAAAAdwQAAAAAeHEAfgAjcQB+AE1zcQB+AAJzcQB+AAcAAAACdwQAAAACc3EAfgACc3EAfgAHAAAAAHcEAAAAAHhxAH4AI3EAfgBRc3EAfgACc3EAfgAHAAAAAHcEAAAAAHhxAH4AI3EAfgBReHEAfgAzcQB+AE14cQB+ADNxAH4ASXhxAH4AM3EAfgBFeHEAfgAzcQB+AENxAH4AQXh+cQB+ABl0AA1QUk9UX0RJVklTSU9Oc3EAfgACc3EAfgAHAAAAAncEAAAAAnNxAH4AAnNxAH4ABwAAAAJ3BAAAAAJzcQB+AAJzcQB+AAcAAAAAdwQAAAAAeHEAfgAjcQB+AFtzcQB+AAJzcQB+AAcAAAACdwQAAAACc3EAfgACc3EAfgAHAAAAAHcEAAAAAHhxAH4AI3EAfgBfc3EAfgACc3EAfgAHAAAAAncEAAAAAnNxAH4AAnNxAH4ABwAAAAB3BAAAAAB4cQB+ACNxAH4AY3NxAH4AAnNxAH4ABwAAAAJ3BAAAAAJzcQB+AAJzcQB+AAcAAAAAdwQAAAAAeHEAfgAjcQB+AGdzcQB+AAJzcQB+AAcAAAAAdwQAAAAAeHEAfgAjcQB+AGd4cQB+ADNxAH4AY3hxAH4AM3EAfgBfeHEAfgAzcQB+AFt4cQB+ADNxAH4AWXEAfgBDeHEAfgAbcHhxAH4AV3EAfgA7eHEAfgAbcHhxAH4AM3EAfgAdcQB+AD14cQB+ABtwc3EAfgACc3EAfgAHAAAAAncEAAAAAnNxAH4AAnNxAH4ABwAAAAJ3BAAAAAJzcQB+AAJzcQB+AAcAAAAAdwQAAAAAeHEAfgANcQB+AG9zcQB+AAJzcQB+AAcAAAACdwQAAAACc3EAfgACc3EAfgAHAAAAAncEAAAAAnNxAH4AAnNxAH4ABwAAAAJ3BAAAAAJzcQB+AAJzcQB+AAcAAAAAdwQAAAAAeHNxAH4AOT/gAAAAAAAAcQB+AHdzcQB+AAJzcQB+AAcAAAAAdwQAAAAAeHEAfgANc3EAfgACc3EAfgAHAAAAAncEAAAAAnNxAH4AAnNxAH4ABwAAAAB3BAAAAAB4cQB+AA1xAH4AfnEAfgB8eH5xAH4AGXQAC1NVQlRSQUNUSU9Oc3EAfgACc3EAfgAHAAAAAncEAAAAAnEAfgB+c3EAfgACc3EAfgAHAAAAAHcEAAAAAHhxAH4ADXNxAH4AAnNxAH4ABwAAAAJ3BAAAAAJzcQB+AAJzcQB+AAcAAAAAdwQAAAAAeHEAfgANcQB+AIhxAH4AhnhxAH4AgnNxAH4AAnNxAH4ABwAAAAJ3BAAAAAJxAH4AiHNxAH4AAnNxAH4ABwAAAAB3BAAAAAB4cQB+AA1zcQB+AAJzcQB+AAcAAAACdwQAAAACc3EAfgACc3EAfgAHAAAAAncEAAAAAnNxAH4AAnNxAH4ABwAAAAJ3BAAAAAJzcQB+AAJzcQB+AAcAAAAAdwQAAAAAeHEAfgANcQB+AJRzcQB+AAJzcQB+AAcAAAAAdwQAAAAAeHEAfgANcQB+AJR4cQB+AIJxAH4AknNxAH4AAnNxAH4ABwAAAAB3BAAAAAB4cQB+AA1xAH4AknhxAH4AgnEAfgCQcQB+AI54cQB+AIJzcQB+AAJzcQB+AAcAAAACdwQAAAACc3EAfgACc3EAfgAHAAAAAHcEAAAAAHhxAH4ADXEAfgCccQB+AJB4cQB+ABtzcQB+AAJzcQB+AAcAAAACdwQAAAACcQB+AJxzcQB+AAJzcQB+AAcAAAAAdwQAAAAAeHEAfgANc3EAfgACc3EAfgAHAAAAAncEAAAAAnNxAH4AAnNxAH4ABwAAAAJ3BAAAAAJzcQB+AAJzcQB+AAcAAAAAdwQAAAAAeHEAfgANcQB+AKZzcQB+AAJzcQB+AAcAAAAAdwQAAAAAeHEAfgANcQB+AKZ4cQB+ABtxAH4ApHEAfgCieHEAfgCCcHhxAH4AgnB4cQB+AIJzcQB+AAJzcQB+AAcAAAACdwQAAAACc3EAfgACc3EAfgAHAAAAAHcEAAAAAHhxAH4ADXEAfgCscQB+AIx4cQB+ABtzcQB+AAJzcQB+AAcAAAACdwQAAAACcQB+AKxxAH4AonhxAH4AgnB4cQB+AIJzcQB+AAJzcQB+AAcAAAACdwQAAAACcQB+AIRxAH4AjnhxAH4AgnNxAH4AAnNxAH4ABwAAAAJ3BAAAAAJzcQB+AAJzcQB+AAcAAAAAdwQAAAAAeHEAfgANcQB+ALRxAH4AsnhxAH4AG3NxAH4AAnNxAH4ABwAAAAJ3BAAAAAJxAH4AtHEAfgCieHEAfgCCcHhxAH4AgnEAfgB1cQB+AIZ4cQB+AIJxAH4Ac3EAfgCOeHEAfgCCc3EAfgACc3EAfgAHAAAAAncEAAAAAnNxAH4AAnNxAH4ABwAAAAB3BAAAAAB4cQB+AHtxAH4AunEAfgBzeHEAfgAbc3EAfgACc3EAfgAHAAAAAncEAAAAAnEAfgC6cQB+AKJ4cQB+AIJweHEAfgAbcQB+AG1xAH4AonhxAH4AgnBzcQB+AAJzcQB+AAcAAAACdwQAAAACc3EAfgACc3EAfgAHAAAAAHcEAAAAAHhzcQB+AAt0AAJ4M3EAfgDAc3EAfgACc3EAfgAHAAAAAHcEAAAAAHhzcQB+ADk/8AAAAAAAAHNxAH4AAnNxAH4ABwAAAAJ3BAAAAAJzcQB+AAJzcQB+AAcAAAACdwQAAAACc3EAfgACc3EAfgAHAAAAAHcEAAAAAHhxAH4AyHEAfgDLc3EAfgACc3EAfgAHAAAAAHcEAAAAAHhxAH4AyHEAfgDLeHEAfgAbcQB+AMlxAH4AxnhxAH4AG3B4cQB+ABtweA==";
    "rO0ABXNyABFqYXZhLnV0aWwuQ29sbFNlcleOq7Y6G6gRAwABSQADdGFneHAAAAAEdwQAAAAEc3IAN2lvLmdpdGh1Yi5lcmljbWVkdmV0LmpnZWEuY29yZS5yZXByZXNlbnRhdGlvbi50cmVlLlRyZWUKs7/qnQrEZQIAA0wACGNoaWxkcmVudAAQTGphdmEvdXRpbC9MaXN0O0wAB2NvbnRlbnR0ABJMamF2YS9sYW5nL09iamVjdDtMAAZwYXJlbnR0ADlMaW8vZ2l0aHViL2VyaWNtZWR2ZXQvamdlYS9jb3JlL3JlcHJlc2VudGF0aW9uL3RyZWUvVHJlZTt4cHNyABNqYXZhLnV0aWwuQXJyYXlMaXN0eIHSHZnHYZ0DAAFJAARzaXpleHAAAAACdwQAAAACc3EAfgACc3EAfgAHAAAAAHcEAAAAAHhzcgBLaW8uZ2l0aHViLmVyaWNtZWR2ZXQuamdlYS5jb3JlLnJlcHJlc2VudGF0aW9uLnRyZWUubnVtZXJpYy5FbGVtZW50JFZhcmlhYmxlAAAAAAAAAAACAAFMAARuYW1ldAASTGphdmEvbGFuZy9TdHJpbmc7eHB0AAJ4MnEAfgAGc3EAfgACc3EAfgAHAAAAAHcEAAAAAHhxAH4ADXNxAH4AAnNxAH4ABwAAAAJ3BAAAAAJzcQB+AAJzcQB+AAcAAAACdwQAAAACc3EAfgACc3EAfgAHAAAAAHcEAAAAAHhxAH4ADXEAfgATc3EAfgACc3EAfgAHAAAAAHcEAAAAAHhxAH4ADXEAfgATeH5yAEtpby5naXRodWIuZXJpY21lZHZldC5qZ2VhLmNvcmUucmVwcmVzZW50YXRpb24udHJlZS5udW1lcmljLkVsZW1lbnQkT3BlcmF0b3IAAAAAAAAAABIAAHhyAA5qYXZhLmxhbmcuRW51bQAAAAAAAAAAEgAAeHB0AA5NVUxUSVBMSUNBVElPTnEAfgARcQB+AA94cQB+ABtweHEAfgAbcHNxAH4AAnNxAH4ABwAAAAJ3BAAAAAJzcQB+AAJzcQB+AAcAAAACdwQAAAACc3EAfgACc3EAfgAHAAAAAncEAAAAAnNxAH4AAnNxAH4ABwAAAAJ3BAAAAAJzcQB+AAJzcQB+AAcAAAAAdwQAAAAAeHNxAH4AC3QAAng2cQB+ACNzcQB+AAJzcQB+AAcAAAACdwQAAAACc3EAfgACc3EAfgAHAAAAAHcEAAAAAHhxAH4AJ3EAfgApc3EAfgACc3EAfgAHAAAAAncEAAAAAnNxAH4AAnNxAH4ABwAAAAB3BAAAAAB4cQB+ACdxAH4ALXNxAH4AAnNxAH4ABwAAAAJ3BAAAAAJzcQB+AAJzcQB+AAcAAAAAdwQAAAAAeHEAfgAncQB+ADFzcQB+AAJzcQB+AAcAAAAAdwQAAAAAeHEAfgAncQB+ADF4fnEAfgAZdAAIQURESVRJT05xAH4ALXhxAH4AN3EAfgApeHEAfgA3c3EAfgACc3EAfgAHAAAAAncEAAAAAnNxAH4AAnNxAH4ABwAAAAB3BAAAAAB4c3IAS2lvLmdpdGh1Yi5lcmljbWVkdmV0LmpnZWEuY29yZS5yZXByZXNlbnRhdGlvbi50cmVlLm51bWVyaWMuRWxlbWVudCRDb25zdGFudAAAAAAAAAAAAgABRAAFdmFsdWV4cEAEAAAAAAAAcQB+ADlxAH4AKXhxAH4AN3NxAH4AAnNxAH4ABwAAAAJ3BAAAAAJxAH4AOXNxAH4AAnNxAH4ABwAAAAJ3BAAAAAJzcQB+AAJzcQB+AAcAAAAAdwQAAAAAeHEAfgA+cQB+AEFzcQB+AAJzcQB+AAcAAAAAdwQAAAAAeHEAfgA+c3EAfgACc3EAfgAHAAAAAncEAAAAAnNxAH4AAnNxAH4ABwAAAAB3BAAAAAB4cQB+ACdxAH4AR3EAfgBFeH5xAH4AGXQADVBST1RfRElWSVNJT05zcQB+AAJzcQB+AAcAAAACdwQAAAACc3EAfgACc3EAfgAHAAAAAncEAAAAAnNxAH4AAnNxAH4ABwAAAAB3BAAAAAB4cQB+ACdxAH4AT3NxAH4AAnNxAH4ABwAAAAJ3BAAAAAJzcQB+AAJzcQB+AAcAAAAAdwQAAAAAeHEAfgAncQB+AFNzcQB+AAJzcQB+AAcAAAACdwQAAAACc3EAfgACc3EAfgAHAAAAAHcEAAAAAHhxAH4AJ3EAfgBXc3EAfgACc3EAfgAHAAAAAncEAAAAAnNxAH4AAnNxAH4ABwAAAAB3BAAAAAB4cQB+ACdxAH4AW3NxAH4AAnNxAH4ABwAAAAB3BAAAAAB4cQB+ACdxAH4AW3hxAH4AN3EAfgBXeHEAfgA3cQB+AFN4cQB+ADdxAH4AT3hxAH4AN3EAfgBNcQB+AEd4cQB+ABtzcQB+AAJzcQB+AAcAAAACdwQAAAACcQB+AE1zcQB+AAJzcQB+AAcAAAACdwQAAAACc3EAfgACc3EAfgAHAAAAAHcEAAAAAHhxAH4APnEAfgBjc3EAfgACc3EAfgAHAAAAAHcEAAAAAHhxAH4APnNxAH4AAnNxAH4ABwAAAAJ3BAAAAAJzcQB+AAJzcQB+AAcAAAACdwQAAAACc3EAfgACc3EAfgAHAAAAAHcEAAAAAHhxAH4APnEAfgBrc3EAfgACc3EAfgAHAAAAAHcEAAAAAHhxAH4APnEAfgBreHEAfgBLcQB+AGlxAH4AZ3hxAH4AS3NxAH4AAnNxAH4ABwAAAAJ3BAAAAAJzcQB+AAJzcQB+AAcAAAACdwQAAAACc3EAfgACc3EAfgAHAAAAAHcEAAAAAHhxAH4AJ3EAfgBzc3EAfgACc3EAfgAHAAAAAncEAAAAAnNxAH4AAnNxAH4ABwAAAAB3BAAAAAB4cQB+ACdxAH4Ad3NxAH4AAnNxAH4ABwAAAAJ3BAAAAAJzcQB+AAJzcQB+AAcAAAAAdwQAAAAAeHEAfgAncQB+AHtzcQB+AAJzcQB+AAcAAAACdwQAAAACc3EAfgACc3EAfgAHAAAAAHcEAAAAAHhxAH4AJ3EAfgB/c3EAfgACc3EAfgAHAAAAAHcEAAAAAHhxAH4AJ3EAfgB/eHEAfgA3cQB+AHt4cQB+ADdxAH4Ad3hxAH4AN3EAfgBzeHEAfgA3cQB+AHFxAH4AaXhxAH4AG3NxAH4AAnNxAH4ABwAAAAJ3BAAAAAJxAH4AcXNxAH4AAnNxAH4ABwAAAAJ3BAAAAAJzcQB+AAJzcQB+AAcAAAAAdwQAAAAAeHEAfgA+cQB+AIdzcQB+AAJzcQB+AAcAAAAAdwQAAAAAeHEAfgA+c3EAfgACc3EAfgAHAAAAAncEAAAAAnNxAH4AAnNxAH4ABwAAAAB3BAAAAAB4cQB+ACdxAH4AjXEAfgCLeHEAfgBLc3EAfgACc3EAfgAHAAAAAncEAAAAAnNxAH4AAnNxAH4ABwAAAAJ3BAAAAAJzcQB+AAJzcQB+AAcAAAAAdwQAAAAAeHEAfgAncQB+AJNzcQB+AAJzcQB+AAcAAAACdwQAAAACc3EAfgACc3EAfgAHAAAAAHcEAAAAAHhxAH4AJ3EAfgCXc3EAfgACc3EAfgAHAAAAAncEAAAAAnNxAH4AAnNxAH4ABwAAAAB3BAAAAAB4cQB+ACdxAH4Am3NxAH4AAnNxAH4ABwAAAAJ3BAAAAAJzcQB+AAJzcQB+AAcAAAAAdwQAAAAAeHEAfgAncQB+AJ9zcQB+AAJzcQB+AAcAAAAAdwQAAAAAeHEAfgAncQB+AJ94cQB+ADdxAH4Am3hxAH4AN3EAfgCXeHEAfgA3cQB+AJN4cQB+ADdxAH4AkXEAfgCNeHEAfgAbcHhxAH4AS3NxAH4AAnNxAH4ABwAAAAJ3BAAAAAJzcQB+AAJzcQB+AAcAAAAAdwQAAAAAeHEAfgAncQB+AKVxAH4Ah3hxAH4AG3B4cQB+ABtweHEAfgBLc3EAfgACc3EAfgAHAAAAAncEAAAAAnEAfgA/cQB+AGN4cQB+ABtzcQB+AAJzcQB+AAcAAAACdwQAAAACcQB+AKlxAH4Ah3hxAH4AG3B4cQB+ABtzcQB+AAJzcQB+AAcAAAACdwQAAAACcQB+AGFxAH4Ah3hxAH4AG3B4cQB+AEtxAH4AP3hxAH4AG3EAfgCpeHEAfgA3cQB+ACFxAH4AQXhxAH4AG3EAfgAfcQB+AGN4cQB+ABtxAH4AHXEAfgCHeHEAfgAbcHNxAH4AAnNxAH4ABwAAAAJ3BAAAAAJzcQB+AAJzcQB+AAcAAAACdwQAAAACc3EAfgACc3EAfgAHAAAAAHcEAAAAAHhxAH4ADXEAfgCxc3EAfgACc3EAfgAHAAAAAncEAAAAAnNxAH4AAnNxAH4ABwAAAAJ3BAAAAAJzcQB+AAJzcQB+AAcAAAACdwQAAAACc3EAfgACc3EAfgAHAAAAAHcEAAAAAHhzcQB+AD0/4AAAAAAAAHEAfgC5c3EAfgACc3EAfgAHAAAAAHcEAAAAAHhxAH4ADXNxAH4AAnNxAH4ABwAAAAJ3BAAAAAJzcQB+AAJzcQB+AAcAAAAAdwQAAAAAeHEAfgANcQB+AMBxAH4Avnh+cQB+ABl0AAtTVUJUUkFDVElPTnNxAH4AAnNxAH4ABwAAAAJ3BAAAAAJxAH4AwHNxAH4AAnNxAH4ABwAAAAB3BAAAAAB4cQB+AA1xAH4AxnhxAH4AxHNxAH4AAnNxAH4ABwAAAAJ3BAAAAAJxAH4AxnNxAH4AAnNxAH4ABwAAAAB3BAAAAAB4cQB+AA1xAH4AynhxAH4AxHNxAH4AAnNxAH4ABwAAAAJ3BAAAAAJzcQB+AAJzcQB+AAcAAAAAdwQAAAAAeHEAfgANcQB+AM5xAH4AynhxAH4AG3NxAH4AAnNxAH4ABwAAAAJ3BAAAAAJxAH4AznNxAH4AAnNxAH4ABwAAAAB3BAAAAAB4cQB+AA1zcQB+AAJzcQB+AAcAAAACdwQAAAACc3EAfgACc3EAfgAHAAAAAncEAAAAAnNxAH4AAnNxAH4ABwAAAAB3BAAAAAB4cQB+AA1xAH4A2HNxAH4AAnNxAH4ABwAAAAB3BAAAAAB4cQB+AA1xAH4A2HhxAH4AG3EAfgDWcQB+ANR4cQB+AMRweHEAfgDEcHhxAH4AxHEAfgC3cQB+AMh4cQB+AMRxAH4AtXEAfgDMeHEAfgDEc3EAfgACc3EAfgAHAAAAAncEAAAAAnNxAH4AAnNxAH4ABwAAAAJ3BAAAAAJzcQB+AAJzcQB+AAcAAAACdwQAAAACc3EAfgACc3EAfgAHAAAAAHcEAAAAAHhxAH4AvXEAfgDic3EAfgACc3EAfgAHAAAAAHcEAAAAAHhxAH4ADXEAfgDieHEAfgDEcQB+AOBzcQB+AAJzcQB+AAcAAAAAdwQAAAAAeHEAfgANcQB+AOB4cQB+AMRxAH4A3nEAfgC1eHEAfgAbc3EAfgACc3EAfgAHAAAAAncEAAAAAnEAfgDecQB+ANR4cQB+AMRweHEAfgAbcQB+AK9xAH4A1HhxAH4AxHBzcQB+AAJzcQB+AAcAAAACdwQAAAACc3EAfgACc3EAfgAHAAAAAHcEAAAAAHhzcQB+AD0/8AAAAAAAAHEAfgDsc3EAfgACc3EAfgAHAAAAAncEAAAAAnNxAH4AAnNxAH4ABwAAAAB3BAAAAAB4cQB+APBxAH4A8XNxAH4AAnNxAH4ABwAAAAJ3BAAAAAJzcQB+AAJzcQB+AAcAAAAAdwQAAAAAeHEAfgDwcQB+APVzcQB+AAJzcQB+AAcAAAACdwQAAAACc3EAfgACc3EAfgAHAAAAAHcEAAAAAHhzcQB+AAt0AAJ4M3EAfgD5c3EAfgACc3EAfgAHAAAAAHcEAAAAAHhxAH4A8HNxAH4AAnNxAH4ABwAAAAJ3BAAAAAJzcQB+AAJzcQB+AAcAAAAAdwQAAAAAeHEAfgDwcQB+AQFxAH4A/3hxAH4AG3NxAH4AAnNxAH4ABwAAAAJ3BAAAAAJzcQB+AAJzcQB+AAcAAAAAdwQAAAAAeHEAfgDwcQB+AQVxAH4BAXhxAH4AG3NxAH4AAnNxAH4ABwAAAAJ3BAAAAAJzcQB+AAJzcQB+AAcAAAAAdwQAAAAAeHEAfgDwcQB+AQlxAH4BBXhxAH4AG3NxAH4AAnNxAH4ABwAAAAJ3BAAAAAJzcQB+AAJzcQB+AAcAAAAAdwQAAAAAeHEAfgDwcQB+AQ1xAH4BCXhxAH4AG3B4cQB+ABtxAH4A9XhxAH4AG3EAfgDxeHEAfgAbc3EAfgACc3EAfgAHAAAAAncEAAAAAnNxAH4AAnNxAH4ABwAAAAJ3BAAAAAJzcQB+AAJzcQB+AAcAAAAAdwQAAAAAeHEAfgDwcQB+ARNzcQB+AAJzcQB+AAcAAAACdwQAAAACc3EAfgACc3EAfgAHAAAAAHcEAAAAAHhxAH4A8HEAfgEXc3EAfgACc3EAfgAHAAAAAncEAAAAAnNxAH4AAnNxAH4ABwAAAAB3BAAAAAB4cQB+AP1xAH4BG3NxAH4AAnNxAH4ABwAAAAB3BAAAAAB4cQB+APBxAH4BG3hxAH4AG3EAfgEXeHEAfgAbcQB+ARN4cQB+ABtxAH4BEXEAfgDxeHEAfgAbcHhxAH4AG3B4";
    "rO0ABXNyABFqYXZhLnV0aWwuQ29sbFNlcleOq7Y6G6gRAwABSQADdGFneHAAAAAEdwQAAAAEc3IAN2lvLmdpdGh1Yi5lcmljbWVkdmV0LmpnZWEuY29yZS5yZXByZXNlbnRhdGlvbi50cmVlLlRyZWUKs7/qnQrEZQIAA0wACGNoaWxkcmVudAAQTGphdmEvdXRpbC9MaXN0O0wAB2NvbnRlbnR0ABJMamF2YS9sYW5nL09iamVjdDtMAAZwYXJlbnR0ADlMaW8vZ2l0aHViL2VyaWNtZWR2ZXQvamdlYS9jb3JlL3JlcHJlc2VudGF0aW9uL3RyZWUvVHJlZTt4cHNyABNqYXZhLnV0aWwuQXJyYXlMaXN0eIHSHZnHYZ0DAAFJAARzaXpleHAAAAACdwQAAAACc3EAfgACc3EAfgAHAAAAAHcEAAAAAHhzcgBLaW8uZ2l0aHViLmVyaWNtZWR2ZXQuamdlYS5jb3JlLnJlcHJlc2VudGF0aW9uLnRyZWUubnVtZXJpYy5FbGVtZW50JFZhcmlhYmxlAAAAAAAAAAACAAFMAARuYW1ldAASTGphdmEvbGFuZy9TdHJpbmc7eHB0AAJ4MnEAfgAGc3EAfgACc3EAfgAHAAAAAHcEAAAAAHhxAH4ADXNxAH4AAnNxAH4ABwAAAAJ3BAAAAAJzcQB+AAJzcQB+AAcAAAACdwQAAAACc3EAfgACc3EAfgAHAAAAAHcEAAAAAHhxAH4ADXEAfgATc3EAfgACc3EAfgAHAAAAAHcEAAAAAHhxAH4ADXEAfgATeH5yAEtpby5naXRodWIuZXJpY21lZHZldC5qZ2VhLmNvcmUucmVwcmVzZW50YXRpb24udHJlZS5udW1lcmljLkVsZW1lbnQkT3BlcmF0b3IAAAAAAAAAABIAAHhyAA5qYXZhLmxhbmcuRW51bQAAAAAAAAAAEgAAeHB0AA5NVUxUSVBMSUNBVElPTnEAfgARcQB+AA94cQB+ABtweHEAfgAbcHNxAH4AAnNxAH4ABwAAAAJ3BAAAAAJzcQB+AAJzcQB+AAcAAAACdwQAAAACc3EAfgACc3EAfgAHAAAAAHcEAAAAAHhzcQB+AAt0AAJ4NnEAfgAfc3EAfgACc3EAfgAHAAAAAncEAAAAAnNxAH4AAnNxAH4ABwAAAAB3BAAAAAB4cQB+ACNxAH4AJXNxAH4AAnNxAH4ABwAAAAJ3BAAAAAJzcQB+AAJzcQB+AAcAAAAAdwQAAAAAeHEAfgAjcQB+AClzcQB+AAJzcQB+AAcAAAACdwQAAAACc3EAfgACc3EAfgAHAAAAAHcEAAAAAHhxAH4AI3EAfgAtc3EAfgACc3EAfgAHAAAAAHcEAAAAAHhxAH4AI3EAfgAteH5xAH4AGXQACEFERElUSU9OcQB+ACl4cQB+ADNxAH4AJXhxAH4AM3NxAH4AAnNxAH4ABwAAAAJ3BAAAAAJzcQB+AAJzcQB+AAcAAAAAdwQAAAAAeHNyAEtpby5naXRodWIuZXJpY21lZHZldC5qZ2VhLmNvcmUucmVwcmVzZW50YXRpb24udHJlZS5udW1lcmljLkVsZW1lbnQkQ29uc3RhbnQAAAAAAAAAAAIAAUQABXZhbHVleHBABAAAAAAAAHEAfgA1cQB+ACV4cQB+ADNzcQB+AAJzcQB+AAcAAAACdwQAAAACcQB+ADVzcQB+AAJzcQB+AAcAAAACdwQAAAACc3EAfgACc3EAfgAHAAAAAHcEAAAAAHhxAH4AOnEAfgA9c3EAfgACc3EAfgAHAAAAAHcEAAAAAHhxAH4AOnNxAH4AAnNxAH4ABwAAAAJ3BAAAAAJzcQB+AAJzcQB+AAcAAAAAdwQAAAAAeHEAfgAjcQB+AENxAH4AQXh+cQB+ABl0AA1QUk9UX0RJVklTSU9Oc3EAfgACc3EAfgAHAAAAAncEAAAAAnNxAH4AAnNxAH4ABwAAAAJ3BAAAAAJzcQB+AAJzcQB+AAcAAAAAdwQAAAAAeHEAfgAjcQB+AEtzcQB+AAJzcQB+AAcAAAACdwQAAAACc3EAfgACc3EAfgAHAAAAAHcEAAAAAHhxAH4AI3EAfgBPc3EAfgACc3EAfgAHAAAAAncEAAAAAnNxAH4AAnNxAH4ABwAAAAB3BAAAAAB4cQB+ACNxAH4AU3NxAH4AAnNxAH4ABwAAAAJ3BAAAAAJzcQB+AAJzcQB+AAcAAAAAdwQAAAAAeHEAfgAjcQB+AFdzcQB+AAJzcQB+AAcAAAAAdwQAAAAAeHEAfgAjcQB+AFd4cQB+ADNxAH4AU3hxAH4AM3EAfgBPeHEAfgAzcQB+AEt4cQB+ADNxAH4ASXEAfgBDeHEAfgAbcHhxAH4AR3NxAH4AAnNxAH4ABwAAAAJ3BAAAAAJzcQB+AAJzcQB+AAcAAAAAdwQAAAAAeHEAfgAjcQB+AF1xAH4APXhxAH4AG3B4cQB+ABtweHEAfgAzcQB+AB1xAH4APXhxAH4AG3BzcQB+AAJzcQB+AAcAAAACdwQAAAACc3EAfgACc3EAfgAHAAAAAncEAAAAAnNxAH4AAnNxAH4ABwAAAAB3BAAAAAB4cQB+AA1xAH4AY3NxAH4AAnNxAH4ABwAAAAJ3BAAAAAJzcQB+AAJzcQB+AAcAAAACdwQAAAACc3EAfgACc3EAfgAHAAAAAncEAAAAAnNxAH4AAnNxAH4ABwAAAAB3BAAAAAB4c3EAfgA5P+AAAAAAAABxAH4Aa3NxAH4AAnNxAH4ABwAAAAB3BAAAAAB4cQB+AA1zcQB+AAJzcQB+AAcAAAACdwQAAAACc3EAfgACc3EAfgAHAAAAAHcEAAAAAHhxAH4ADXEAfgBycQB+AHB4fnEAfgAZdAALU1VCVFJBQ1RJT05zcQB+AAJzcQB+AAcAAAACdwQAAAACcQB+AHJzcQB+AAJzcQB+AAcAAAAAdwQAAAAAeHEAfgANcQB+AHh4cQB+AHZzcQB+AAJzcQB+AAcAAAACdwQAAAACcQB+AHhzcQB+AAJzcQB+AAcAAAAAdwQAAAAAeHEAfgANcQB+AHx4cQB+AHZzcQB+AAJzcQB+AAcAAAACdwQAAAACc3EAfgACc3EAfgAHAAAAAHcEAAAAAHhxAH4ADXEAfgCAcQB+AHx4cQB+ABtzcQB+AAJzcQB+AAcAAAACdwQAAAACcQB+AIBzcQB+AAJzcQB+AAcAAAAAdwQAAAAAeHEAfgANc3EAfgACc3EAfgAHAAAAAncEAAAAAnNxAH4AAnNxAH4ABwAAAAJ3BAAAAAJzcQB+AAJzcQB+AAcAAAAAdwQAAAAAeHEAfgANcQB+AIpzcQB+AAJzcQB+AAcAAAAAdwQAAAAAeHEAfgANcQB+AIp4cQB+ABtxAH4AiHEAfgCGeHEAfgB2cHhxAH4AdnB4cQB+AHZxAH4AaXEAfgB6eHEAfgB2cQB+AGdxAH4AfnhxAH4AdnNxAH4AAnNxAH4ABwAAAAJ3BAAAAAJzcQB+AAJzcQB+AAcAAAACdwQAAAACc3EAfgACc3EAfgAHAAAAAncEAAAAAnNxAH4AAnNxAH4ABwAAAAB3BAAAAAB4cQB+AG9xAH4AlHNxAH4AAnNxAH4ABwAAAAB3BAAAAAB4cQB+AA1xAH4AlHhxAH4AdnEAfgCSc3EAfgACc3EAfgAHAAAAAHcEAAAAAHhxAH4ADXEAfgCSeHEAfgB2cQB+AJBxAH4AZ3hxAH4AG3NxAH4AAnNxAH4ABwAAAAJ3BAAAAAJxAH4AkHEAfgCGeHEAfgB2cHhxAH4AG3EAfgBhcQB+AIZ4cQB+AHZwc3EAfgACc3EAfgAHAAAAAncEAAAAAnNxAH4AAnNxAH4ABwAAAAB3BAAAAAB4c3EAfgA5P/AAAAAAAABxAH4AnnNxAH4AAnNxAH4ABwAAAAJ3BAAAAAJzcQB+AAJzcQB+AAcAAAAAdwQAAAAAeHEAfgCicQB+AKNzcQB+AAJzcQB+AAcAAAACdwQAAAACc3EAfgACc3EAfgAHAAAAAHcEAAAAAHhxAH4AonEAfgCnc3EAfgACc3EAfgAHAAAAAncEAAAAAnNxAH4AAnNxAH4ABwAAAAB3BAAAAAB4c3EAfgALdAACeDNxAH4Aq3NxAH4AAnNxAH4ABwAAAAB3BAAAAAB4cQB+AKJzcQB+AAJzcQB+AAcAAAACdwQAAAACc3EAfgACc3EAfgAHAAAAAHcEAAAAAHhxAH4AonEAfgCzcQB+ALF4cQB+ABtzcQB+AAJzcQB+AAcAAAACdwQAAAACc3EAfgACc3EAfgAHAAAAAHcEAAAAAHhxAH4AonEAfgC3cQB+ALN4cQB+ABtzcQB+AAJzcQB+AAcAAAACdwQAAAACc3EAfgACc3EAfgAHAAAAAHcEAAAAAHhxAH4AonEAfgC7cQB+ALd4cQB+ABtzcQB+AAJzcQB+AAcAAAACdwQAAAACc3EAfgACc3EAfgAHAAAAAHcEAAAAAHhxAH4AonEAfgC/cQB+ALt4cQB+ABtweHEAfgAbcQB+AKd4cQB+ABtxAH4Ao3hxAH4AG3NxAH4AAnNxAH4ABwAAAAJ3BAAAAAJzcQB+AAJzcQB+AAcAAAACdwQAAAACc3EAfgACc3EAfgAHAAAAAHcEAAAAAHhxAH4AonEAfgDFc3EAfgACc3EAfgAHAAAAAncEAAAAAnNxAH4AAnNxAH4ABwAAAAB3BAAAAAB4cQB+AKJxAH4AyXNxAH4AAnNxAH4ABwAAAAJ3BAAAAAJzcQB+AAJzcQB+AAcAAAAAdwQAAAAAeHEAfgCvcQB+AM1zcQB+AAJzcQB+AAcAAAAAdwQAAAAAeHEAfgCicQB+AM14cQB+ABtxAH4AyXhxAH4AG3EAfgDFeHEAfgAbcQB+AMNxAH4Ao3hxAH4AG3B4cQB+ABtweA==";
    "rO0ABXNyABFqYXZhLnV0aWwuQ29sbFNlcleOq7Y6G6gRAwABSQADdGFneHAAAAAEdwQAAAAEc3IAN2lvLmdpdGh1Yi5lcmljbWVkdmV0LmpnZWEuY29yZS5yZXByZXNlbnRhdGlvbi50cmVlLlRyZWUKs7/qnQrEZQIAA0wACGNoaWxkcmVudAAQTGphdmEvdXRpbC9MaXN0O0wAB2NvbnRlbnR0ABJMamF2YS9sYW5nL09iamVjdDtMAAZwYXJlbnR0ADlMaW8vZ2l0aHViL2VyaWNtZWR2ZXQvamdlYS9jb3JlL3JlcHJlc2VudGF0aW9uL3RyZWUvVHJlZTt4cHNyABNqYXZhLnV0aWwuQXJyYXlMaXN0eIHSHZnHYZ0DAAFJAARzaXpleHAAAAACdwQAAAACc3EAfgACc3EAfgAHAAAAAHcEAAAAAHhzcgBLaW8uZ2l0aHViLmVyaWNtZWR2ZXQuamdlYS5jb3JlLnJlcHJlc2VudGF0aW9uLnRyZWUubnVtZXJpYy5FbGVtZW50JFZhcmlhYmxlAAAAAAAAAAACAAFMAARuYW1ldAASTGphdmEvbGFuZy9TdHJpbmc7eHB0AAJ4MnEAfgAGc3EAfgACc3EAfgAHAAAAAHcEAAAAAHhxAH4ADXNxAH4AAnNxAH4ABwAAAAJ3BAAAAAJzcQB+AAJzcQB+AAcAAAACdwQAAAACc3EAfgACc3EAfgAHAAAAAHcEAAAAAHhxAH4ADXEAfgATc3EAfgACc3EAfgAHAAAAAHcEAAAAAHhxAH4ADXEAfgATeH5yAEtpby5naXRodWIuZXJpY21lZHZldC5qZ2VhLmNvcmUucmVwcmVzZW50YXRpb24udHJlZS5udW1lcmljLkVsZW1lbnQkT3BlcmF0b3IAAAAAAAAAABIAAHhyAA5qYXZhLmxhbmcuRW51bQAAAAAAAAAAEgAAeHB0AA5NVUxUSVBMSUNBVElPTnEAfgARcQB+AA94cQB+ABtweHEAfgAbcHNxAH4AAnNxAH4ABwAAAAJ3BAAAAAJzcQB+AAJzcQB+AAcAAAACdwQAAAACc3EAfgACc3EAfgAHAAAAAHcEAAAAAHhzcQB+AAt0AAJ4NnEAfgAfc3EAfgACc3EAfgAHAAAAAncEAAAAAnNxAH4AAnNxAH4ABwAAAAB3BAAAAAB4cQB+ACNxAH4AJXNxAH4AAnNxAH4ABwAAAAJ3BAAAAAJzcQB+AAJzcQB+AAcAAAAAdwQAAAAAeHEAfgAjcQB+AClzcQB+AAJzcQB+AAcAAAACdwQAAAACc3EAfgACc3EAfgAHAAAAAHcEAAAAAHhxAH4AI3EAfgAtc3EAfgACc3EAfgAHAAAAAHcEAAAAAHhxAH4AI3EAfgAteH5xAH4AGXQACEFERElUSU9OcQB+ACl4cQB+ADNxAH4AJXhxAH4AM3NxAH4AAnNxAH4ABwAAAAJ3BAAAAAJzcQB+AAJzcQB+AAcAAAAAdwQAAAAAeHNyAEtpby5naXRodWIuZXJpY21lZHZldC5qZ2VhLmNvcmUucmVwcmVzZW50YXRpb24udHJlZS5udW1lcmljLkVsZW1lbnQkQ29uc3RhbnQAAAAAAAAAAAIAAUQABXZhbHVleHBABAAAAAAAAHEAfgA1cQB+ACV4cQB+ADNzcQB+AAJzcQB+AAcAAAACdwQAAAACcQB+ADVzcQB+AAJzcQB+AAcAAAACdwQAAAACc3EAfgACc3EAfgAHAAAAAHcEAAAAAHhxAH4AOnEAfgA9c3EAfgACc3EAfgAHAAAAAHcEAAAAAHhxAH4AOnNxAH4AAnNxAH4ABwAAAAJ3BAAAAAJzcQB+AAJzcQB+AAcAAAACdwQAAAACc3EAfgACc3EAfgAHAAAAAHcEAAAAAHhxAH4AI3EAfgBFc3EAfgACc3EAfgAHAAAAAncEAAAAAnNxAH4AAnNxAH4ABwAAAAB3BAAAAAB4cQB+ACNxAH4ASXNxAH4AAnNxAH4ABwAAAAJ3BAAAAAJzcQB+AAJzcQB+AAcAAAAAdwQAAAAAeHEAfgAjcQB+AE1zcQB+AAJzcQB+AAcAAAACdwQAAAACc3EAfgACc3EAfgAHAAAAAHcEAAAAAHhxAH4AI3EAfgBRc3EAfgACc3EAfgAHAAAAAHcEAAAAAHhxAH4AI3EAfgBReHEAfgAzcQB+AE14cQB+ADNxAH4ASXhxAH4AM3EAfgBFeHEAfgAzcQB+AENxAH4AQXh+cQB+ABl0AA1QUk9UX0RJVklTSU9Oc3EAfgACc3EAfgAHAAAAAncEAAAAAnNxAH4AAnNxAH4ABwAAAAJ3BAAAAAJzcQB+AAJzcQB+AAcAAAAAdwQAAAAAeHEAfgAjcQB+AFtzcQB+AAJzcQB+AAcAAAACdwQAAAACc3EAfgACc3EAfgAHAAAAAHcEAAAAAHhxAH4AI3EAfgBfc3EAfgACc3EAfgAHAAAAAncEAAAAAnNxAH4AAnNxAH4ABwAAAAB3BAAAAAB4cQB+ACNxAH4AY3NxAH4AAnNxAH4ABwAAAAJ3BAAAAAJzcQB+AAJzcQB+AAcAAAAAdwQAAAAAeHEAfgAjcQB+AGdzcQB+AAJzcQB+AAcAAAAAdwQAAAAAeHEAfgAjcQB+AGd4cQB+ADNxAH4AY3hxAH4AM3EAfgBfeHEAfgAzcQB+AFt4cQB+ADNxAH4AWXEAfgBDeHEAfgAbcHhxAH4AV3EAfgA7eHEAfgAbcHhxAH4AM3EAfgAdcQB+AD14cQB+ABtwc3EAfgACc3EAfgAHAAAAAncEAAAAAnNxAH4AAnNxAH4ABwAAAAJ3BAAAAAJzcQB+AAJzcQB+AAcAAAAAdwQAAAAAeHEAfgANcQB+AG9zcQB+AAJzcQB+AAcAAAACdwQAAAACc3EAfgACc3EAfgAHAAAAAncEAAAAAnNxAH4AAnNxAH4ABwAAAAJ3BAAAAAJzcQB+AAJzcQB+AAcAAAAAdwQAAAAAeHNxAH4AOT/gAAAAAAAAcQB+AHdzcQB+AAJzcQB+AAcAAAAAdwQAAAAAeHEAfgANc3EAfgACc3EAfgAHAAAAAncEAAAAAnNxAH4AAnNxAH4ABwAAAAB3BAAAAAB4cQB+AA1xAH4AfnEAfgB8eH5xAH4AGXQAC1NVQlRSQUNUSU9Oc3EAfgACc3EAfgAHAAAAAncEAAAAAnEAfgB+c3EAfgACc3EAfgAHAAAAAHcEAAAAAHhxAH4ADXEAfgCEeHEAfgCCc3EAfgACc3EAfgAHAAAAAncEAAAAAnEAfgCEc3EAfgACc3EAfgAHAAAAAHcEAAAAAHhxAH4ADXEAfgCIeHEAfgCCc3EAfgACc3EAfgAHAAAAAncEAAAAAnNxAH4AAnNxAH4ABwAAAAB3BAAAAAB4cQB+AA1xAH4AjHEAfgCIeHEAfgAbc3EAfgACc3EAfgAHAAAAAncEAAAAAnEAfgCMc3EAfgACc3EAfgAHAAAAAHcEAAAAAHhxAH4ADXNxAH4AAnNxAH4ABwAAAAJ3BAAAAAJzcQB+AAJzcQB+AAcAAAACdwQAAAACc3EAfgACc3EAfgAHAAAAAHcEAAAAAHhxAH4ADXEAfgCWc3EAfgACc3EAfgAHAAAAAHcEAAAAAHhxAH4ADXEAfgCWeHEAfgAbcQB+AJRxAH4AknhxAH4AgnB4cQB+AIJweHEAfgCCcQB+AHVxAH4AhnhxAH4AgnEAfgBzcQB+AIp4cQB+AIJzcQB+AAJzcQB+AAcAAAACdwQAAAACc3EAfgACc3EAfgAHAAAAAncEAAAAAnNxAH4AAnNxAH4ABwAAAAJ3BAAAAAJzcQB+AAJzcQB+AAcAAAAAdwQAAAAAeHEAfgB7cQB+AKBzcQB+AAJzcQB+AAcAAAAAdwQAAAAAeHEAfgANcQB+AKB4cQB+AIJxAH4AnnNxAH4AAnNxAH4ABwAAAAB3BAAAAAB4cQB+AA1xAH4AnnhxAH4AgnEAfgCccQB+AHN4cQB+ABtzcQB+AAJzcQB+AAcAAAACdwQAAAACcQB+AJxxAH4AknhxAH4AgnB4cQB+ABtxAH4AbXEAfgCSeHEAfgCCcHNxAH4AAnNxAH4ABwAAAAJ3BAAAAAJzcQB+AAJzcQB+AAcAAAACdwQAAAACc3EAfgACc3EAfgAHAAAAAHcEAAAAAHhzcQB+AAt0AAJ4M3EAfgCsc3EAfgACc3EAfgAHAAAAAHcEAAAAAHhzcQB+ADk/8AAAAAAAAHNxAH4AAnNxAH4ABwAAAAJ3BAAAAAJzcQB+AAJzcQB+AAcAAAAAdwQAAAAAeHEAfgC0cQB+ALVxAH4AsnhxAH4AG3NxAH4AAnNxAH4ABwAAAAJ3BAAAAAJxAH4AtXNxAH4AAnNxAH4ABwAAAAB3BAAAAAB4cQB+ALRxAH4AuXhxAH4AG3B4cQB+ABtxAH4AqnEAfgC7eHEAfgAbcHg=";
    "rO0ABXNyABFqYXZhLnV0aWwuQ29sbFNlcleOq7Y6G6gRAwABSQADdGFneHAAAAAEdwQAAAAEc3IAN2lvLmdpdGh1Yi5lcmljbWVkdmV0LmpnZWEuY29yZS5yZXByZXNlbnRhdGlvbi50cmVlLlRyZWUKs7/qnQrEZQIAA0wACGNoaWxkcmVudAAQTGphdmEvdXRpbC9MaXN0O0wAB2NvbnRlbnR0ABJMamF2YS9sYW5nL09iamVjdDtMAAZwYXJlbnR0ADlMaW8vZ2l0aHViL2VyaWNtZWR2ZXQvamdlYS9jb3JlL3JlcHJlc2VudGF0aW9uL3RyZWUvVHJlZTt4cHNyABNqYXZhLnV0aWwuQXJyYXlMaXN0eIHSHZnHYZ0DAAFJAARzaXpleHAAAAACdwQAAAACc3EAfgACc3EAfgAHAAAAAHcEAAAAAHhzcgBLaW8uZ2l0aHViLmVyaWNtZWR2ZXQuamdlYS5jb3JlLnJlcHJlc2VudGF0aW9uLnRyZWUubnVtZXJpYy5FbGVtZW50JFZhcmlhYmxlAAAAAAAAAAACAAFMAARuYW1ldAASTGphdmEvbGFuZy9TdHJpbmc7eHB0AAJ4MnEAfgAGc3EAfgACc3EAfgAHAAAAAHcEAAAAAHhxAH4ADXNxAH4AAnNxAH4ABwAAAAJ3BAAAAAJzcQB+AAJzcQB+AAcAAAACdwQAAAACc3EAfgACc3EAfgAHAAAAAHcEAAAAAHhxAH4ADXEAfgATc3EAfgACc3EAfgAHAAAAAHcEAAAAAHhxAH4ADXEAfgATeH5yAEtpby5naXRodWIuZXJpY21lZHZldC5qZ2VhLmNvcmUucmVwcmVzZW50YXRpb24udHJlZS5udW1lcmljLkVsZW1lbnQkT3BlcmF0b3IAAAAAAAAAABIAAHhyAA5qYXZhLmxhbmcuRW51bQAAAAAAAAAAEgAAeHB0AA5NVUxUSVBMSUNBVElPTnEAfgARcQB+AA94cQB+ABtweHEAfgAbcHNxAH4AAnNxAH4ABwAAAAJ3BAAAAAJzcQB+AAJzcQB+AAcAAAACdwQAAAACc3EAfgACc3EAfgAHAAAAAHcEAAAAAHhzcQB+AAt0AAJ4NnEAfgAfc3EAfgACc3EAfgAHAAAAAncEAAAAAnNxAH4AAnNxAH4ABwAAAAB3BAAAAAB4cQB+ACNxAH4AJXNxAH4AAnNxAH4ABwAAAAJ3BAAAAAJzcQB+AAJzcQB+AAcAAAAAdwQAAAAAeHEAfgAjcQB+AClzcQB+AAJzcQB+AAcAAAACdwQAAAACc3EAfgACc3EAfgAHAAAAAHcEAAAAAHhxAH4AI3EAfgAtc3EAfgACc3EAfgAHAAAAAHcEAAAAAHhxAH4AI3EAfgAteH5xAH4AGXQACEFERElUSU9OcQB+ACl4cQB+ADNxAH4AJXhxAH4AM3NxAH4AAnNxAH4ABwAAAAJ3BAAAAAJzcQB+AAJzcQB+AAcAAAAAdwQAAAAAeHNyAEtpby5naXRodWIuZXJpY21lZHZldC5qZ2VhLmNvcmUucmVwcmVzZW50YXRpb24udHJlZS5udW1lcmljLkVsZW1lbnQkQ29uc3RhbnQAAAAAAAAAAAIAAUQABXZhbHVleHBABAAAAAAAAHEAfgA1cQB+ACV4cQB+ADNzcQB+AAJzcQB+AAcAAAACdwQAAAACcQB+ADVzcQB+AAJzcQB+AAcAAAACdwQAAAACc3EAfgACc3EAfgAHAAAAAHcEAAAAAHhxAH4AOnEAfgA9c3EAfgACc3EAfgAHAAAAAHcEAAAAAHhxAH4AOnNxAH4AAnNxAH4ABwAAAAJ3BAAAAAJzcQB+AAJzcQB+AAcAAAAAdwQAAAAAeHEAfgAjcQB+AENxAH4AQXh+cQB+ABl0AA1QUk9UX0RJVklTSU9Oc3EAfgACc3EAfgAHAAAAAncEAAAAAnNxAH4AAnNxAH4ABwAAAAJ3BAAAAAJzcQB+AAJzcQB+AAcAAAAAdwQAAAAAeHEAfgAjcQB+AEtzcQB+AAJzcQB+AAcAAAACdwQAAAACc3EAfgACc3EAfgAHAAAAAHcEAAAAAHhxAH4AI3EAfgBPc3EAfgACc3EAfgAHAAAAAncEAAAAAnNxAH4AAnNxAH4ABwAAAAB3BAAAAAB4cQB+ACNxAH4AU3NxAH4AAnNxAH4ABwAAAAJ3BAAAAAJzcQB+AAJzcQB+AAcAAAAAdwQAAAAAeHEAfgAjcQB+AFdzcQB+AAJzcQB+AAcAAAAAdwQAAAAAeHEAfgAjcQB+AFd4cQB+ADNxAH4AU3hxAH4AM3EAfgBPeHEAfgAzcQB+AEt4cQB+ADNxAH4ASXEAfgBDeHEAfgAbcHhxAH4AR3NxAH4AAnNxAH4ABwAAAAJ3BAAAAAJzcQB+AAJzcQB+AAcAAAAAdwQAAAAAeHEAfgAjcQB+AF1xAH4APXhxAH4AG3B4cQB+ABtweHEAfgAzcQB+AB1xAH4APXhxAH4AG3BzcQB+AAJzcQB+AAcAAAACdwQAAAACc3EAfgACc3EAfgAHAAAAAncEAAAAAnNxAH4AAnNxAH4ABwAAAAB3BAAAAAB4cQB+AA1xAH4AY3NxAH4AAnNxAH4ABwAAAAJ3BAAAAAJzcQB+AAJzcQB+AAcAAAACdwQAAAACc3EAfgACc3EAfgAHAAAAAncEAAAAAnNxAH4AAnNxAH4ABwAAAAB3BAAAAAB4c3EAfgA5P+AAAAAAAABxAH4Aa3NxAH4AAnNxAH4ABwAAAAB3BAAAAAB4cQB+AA1zcQB+AAJzcQB+AAcAAAACdwQAAAACc3EAfgACc3EAfgAHAAAAAHcEAAAAAHhxAH4ADXEAfgBycQB+AHB4fnEAfgAZdAALU1VCVFJBQ1RJT05zcQB+AAJzcQB+AAcAAAACdwQAAAACcQB+AHJzcQB+AAJzcQB+AAcAAAAAdwQAAAAAeHEAfgANcQB+AHh4cQB+AHZzcQB+AAJzcQB+AAcAAAACdwQAAAACcQB+AHhzcQB+AAJzcQB+AAcAAAAAdwQAAAAAeHEAfgANcQB+AHx4cQB+AHZzcQB+AAJzcQB+AAcAAAACdwQAAAACc3EAfgACc3EAfgAHAAAAAHcEAAAAAHhxAH4ADXEAfgCAcQB+AHx4cQB+ABtzcQB+AAJzcQB+AAcAAAACdwQAAAACcQB+AIBzcQB+AAJzcQB+AAcAAAAAdwQAAAAAeHEAfgANc3EAfgACc3EAfgAHAAAAAncEAAAAAnNxAH4AAnNxAH4ABwAAAAJ3BAAAAAJzcQB+AAJzcQB+AAcAAAAAdwQAAAAAeHEAfgANcQB+AIpzcQB+AAJzcQB+AAcAAAAAdwQAAAAAeHEAfgANcQB+AIp4cQB+ABtxAH4AiHEAfgCGeHEAfgB2cHhxAH4AdnB4cQB+AHZxAH4AaXEAfgB6eHEAfgB2cQB+AGdxAH4AfnhxAH4AdnNxAH4AAnNxAH4ABwAAAAJ3BAAAAAJzcQB+AAJzcQB+AAcAAAACdwQAAAACc3EAfgACc3EAfgAHAAAAAncEAAAAAnNxAH4AAnNxAH4ABwAAAAB3BAAAAAB4cQB+AG9xAH4AlHNxAH4AAnNxAH4ABwAAAAB3BAAAAAB4cQB+AA1xAH4AlHhxAH4AdnEAfgCSc3EAfgACc3EAfgAHAAAAAHcEAAAAAHhxAH4ADXEAfgCSeHEAfgB2cQB+AJBxAH4AZ3hxAH4AG3NxAH4AAnNxAH4ABwAAAAJ3BAAAAAJxAH4AkHEAfgCGeHEAfgB2cHhxAH4AG3EAfgBhcQB+AIZ4cQB+AHZwc3EAfgACc3EAfgAHAAAAAncEAAAAAnNxAH4AAnNxAH4ABwAAAAB3BAAAAAB4c3EAfgA5P/AAAAAAAABxAH4AnnNxAH4AAnNxAH4ABwAAAAJ3BAAAAAJzcQB+AAJzcQB+AAcAAAAAdwQAAAAAeHEAfgCicQB+AKNzcQB+AAJzcQB+AAcAAAAAdwQAAAAAeHNxAH4AC3QAAngzcQB+AKN4cQB+ABtzcQB+AAJzcQB+AAcAAAACdwQAAAACc3EAfgACc3EAfgAHAAAAAHcEAAAAAHhxAH4AqXEAfgCrcQB+AKN4cQB+ABtweHEAfgAbcHg=";
    "rO0ABXNyABFqYXZhLnV0aWwuQ29sbFNlcleOq7Y6G6gRAwABSQADdGFneHAAAAAEdwQAAAAEc3IAN2lvLmdpdGh1Yi5lcmljbWVkdmV0LmpnZWEuY29yZS5yZXByZXNlbnRhdGlvbi50cmVlLlRyZWUKs7/qnQrEZQIAA0wACGNoaWxkcmVudAAQTGphdmEvdXRpbC9MaXN0O0wAB2NvbnRlbnR0ABJMamF2YS9sYW5nL09iamVjdDtMAAZwYXJlbnR0ADlMaW8vZ2l0aHViL2VyaWNtZWR2ZXQvamdlYS9jb3JlL3JlcHJlc2VudGF0aW9uL3RyZWUvVHJlZTt4cHNyABNqYXZhLnV0aWwuQXJyYXlMaXN0eIHSHZnHYZ0DAAFJAARzaXpleHAAAAACdwQAAAACc3EAfgACc3EAfgAHAAAAAHcEAAAAAHhzcgBLaW8uZ2l0aHViLmVyaWNtZWR2ZXQuamdlYS5jb3JlLnJlcHJlc2VudGF0aW9uLnRyZWUubnVtZXJpYy5FbGVtZW50JFZhcmlhYmxlAAAAAAAAAAACAAFMAARuYW1ldAASTGphdmEvbGFuZy9TdHJpbmc7eHB0AAJ4MnEAfgAGc3EAfgACc3EAfgAHAAAAAHcEAAAAAHhxAH4ADXNxAH4AAnNxAH4ABwAAAAJ3BAAAAAJzcQB+AAJzcQB+AAcAAAACdwQAAAACc3EAfgACc3EAfgAHAAAAAHcEAAAAAHhxAH4ADXEAfgATc3EAfgACc3EAfgAHAAAAAHcEAAAAAHhxAH4ADXEAfgATeH5yAEtpby5naXRodWIuZXJpY21lZHZldC5qZ2VhLmNvcmUucmVwcmVzZW50YXRpb24udHJlZS5udW1lcmljLkVsZW1lbnQkT3BlcmF0b3IAAAAAAAAAABIAAHhyAA5qYXZhLmxhbmcuRW51bQAAAAAAAAAAEgAAeHB0AA5NVUxUSVBMSUNBVElPTnEAfgARcQB+AA94cQB+ABtweHEAfgAbcHNxAH4AAnNxAH4ABwAAAAJ3BAAAAAJzcQB+AAJzcQB+AAcAAAACdwQAAAACc3EAfgACc3EAfgAHAAAAAHcEAAAAAHhzcQB+AAt0AAJ4NnEAfgAfc3EAfgACc3EAfgAHAAAAAncEAAAAAnNxAH4AAnNxAH4ABwAAAAB3BAAAAAB4cQB+ACNxAH4AJXNxAH4AAnNxAH4ABwAAAAJ3BAAAAAJzcQB+AAJzcQB+AAcAAAAAdwQAAAAAeHEAfgAjcQB+AClzcQB+AAJzcQB+AAcAAAACdwQAAAACc3EAfgACc3EAfgAHAAAAAHcEAAAAAHhxAH4AI3EAfgAtc3EAfgACc3EAfgAHAAAAAHcEAAAAAHhxAH4AI3EAfgAteH5xAH4AGXQACEFERElUSU9OcQB+ACl4cQB+ADNxAH4AJXhxAH4AM3NxAH4AAnNxAH4ABwAAAAJ3BAAAAAJzcQB+AAJzcQB+AAcAAAAAdwQAAAAAeHNyAEtpby5naXRodWIuZXJpY21lZHZldC5qZ2VhLmNvcmUucmVwcmVzZW50YXRpb24udHJlZS5udW1lcmljLkVsZW1lbnQkQ29uc3RhbnQAAAAAAAAAAAIAAUQABXZhbHVleHBABAAAAAAAAHEAfgA1cQB+ACV4cQB+ADNzcQB+AAJzcQB+AAcAAAACdwQAAAACcQB+ADVzcQB+AAJzcQB+AAcAAAACdwQAAAACc3EAfgACc3EAfgAHAAAAAHcEAAAAAHhxAH4AOnEAfgA9c3EAfgACc3EAfgAHAAAAAHcEAAAAAHhxAH4AOnNxAH4AAnNxAH4ABwAAAAJ3BAAAAAJzcQB+AAJzcQB+AAcAAAACdwQAAAACc3EAfgACc3EAfgAHAAAAAHcEAAAAAHhxAH4AI3EAfgBFc3EAfgACc3EAfgAHAAAAAncEAAAAAnNxAH4AAnNxAH4ABwAAAAB3BAAAAAB4cQB+ACNxAH4ASXNxAH4AAnNxAH4ABwAAAAJ3BAAAAAJzcQB+AAJzcQB+AAcAAAAAdwQAAAAAeHEAfgAjcQB+AE1zcQB+AAJzcQB+AAcAAAACdwQAAAACc3EAfgACc3EAfgAHAAAAAHcEAAAAAHhxAH4AI3EAfgBRc3EAfgACc3EAfgAHAAAAAHcEAAAAAHhxAH4AI3EAfgBReHEAfgAzcQB+AE14cQB+ADNxAH4ASXhxAH4AM3EAfgBFeHEAfgAzcQB+AENxAH4AQXh+cQB+ABl0AA1QUk9UX0RJVklTSU9Oc3EAfgACc3EAfgAHAAAAAncEAAAAAnNxAH4AAnNxAH4ABwAAAAJ3BAAAAAJzcQB+AAJzcQB+AAcAAAAAdwQAAAAAeHEAfgAjcQB+AFtzcQB+AAJzcQB+AAcAAAACdwQAAAACc3EAfgACc3EAfgAHAAAAAHcEAAAAAHhxAH4AI3EAfgBfc3EAfgACc3EAfgAHAAAAAncEAAAAAnNxAH4AAnNxAH4ABwAAAAB3BAAAAAB4cQB+ACNxAH4AY3NxAH4AAnNxAH4ABwAAAAJ3BAAAAAJzcQB+AAJzcQB+AAcAAAAAdwQAAAAAeHEAfgAjcQB+AGdzcQB+AAJzcQB+AAcAAAAAdwQAAAAAeHEAfgAjcQB+AGd4cQB+ADNxAH4AY3hxAH4AM3EAfgBfeHEAfgAzcQB+AFt4cQB+ADNxAH4AWXEAfgBDeHEAfgAbcHhxAH4AV3EAfgA7eHEAfgAbcHhxAH4AM3EAfgAdcQB+AD14cQB+ABtwc3EAfgACc3EAfgAHAAAAAncEAAAAAnNxAH4AAnNxAH4ABwAAAAJ3BAAAAAJzcQB+AAJzcQB+AAcAAAAAdwQAAAAAeHEAfgANcQB+AG9zcQB+AAJzcQB+AAcAAAACdwQAAAACc3EAfgACc3EAfgAHAAAAAncEAAAAAnNxAH4AAnNxAH4ABwAAAAJ3BAAAAAJzcQB+AAJzcQB+AAcAAAAAdwQAAAAAeHNxAH4AOT/gAAAAAAAAcQB+AHdzcQB+AAJzcQB+AAcAAAAAdwQAAAAAeHEAfgANc3EAfgACc3EAfgAHAAAAAncEAAAAAnNxAH4AAnNxAH4ABwAAAAB3BAAAAAB4cQB+AA1xAH4AfnEAfgB8eH5xAH4AGXQAC1NVQlRSQUNUSU9Oc3EAfgACc3EAfgAHAAAAAncEAAAAAnEAfgB+c3EAfgACc3EAfgAHAAAAAHcEAAAAAHhxAH4ADXEAfgCEeHEAfgCCc3EAfgACc3EAfgAHAAAAAncEAAAAAnEAfgCEc3EAfgACc3EAfgAHAAAAAHcEAAAAAHhxAH4ADXEAfgCIeHEAfgCCc3EAfgACc3EAfgAHAAAAAncEAAAAAnNxAH4AAnNxAH4ABwAAAAB3BAAAAAB4cQB+AA1xAH4AjHEAfgCIeHEAfgAbc3EAfgACc3EAfgAHAAAAAncEAAAAAnEAfgCMc3EAfgACc3EAfgAHAAAAAHcEAAAAAHhxAH4ADXNxAH4AAnNxAH4ABwAAAAJ3BAAAAAJzcQB+AAJzcQB+AAcAAAACdwQAAAACc3EAfgACc3EAfgAHAAAAAHcEAAAAAHhxAH4ADXEAfgCWc3EAfgACc3EAfgAHAAAAAHcEAAAAAHhxAH4ADXEAfgCWeHEAfgAbcQB+AJRxAH4AknhxAH4AgnB4cQB+AIJweHEAfgCCcQB+AHVxAH4AhnhxAH4AgnEAfgBzcQB+AIp4cQB+AIJzcQB+AAJzcQB+AAcAAAACdwQAAAACc3EAfgACc3EAfgAHAAAAAncEAAAAAnNxAH4AAnNxAH4ABwAAAAJ3BAAAAAJzcQB+AAJzcQB+AAcAAAAAdwQAAAAAeHEAfgB7cQB+AKBzcQB+AAJzcQB+AAcAAAAAdwQAAAAAeHEAfgANcQB+AKB4cQB+AIJxAH4AnnNxAH4AAnNxAH4ABwAAAAB3BAAAAAB4cQB+AA1xAH4AnnhxAH4AgnEAfgCccQB+AHN4cQB+ABtzcQB+AAJzcQB+AAcAAAACdwQAAAACcQB+AJxxAH4AknhxAH4AgnB4cQB+ABtxAH4AbXEAfgCSeHEAfgCCcHNxAH4AAnNxAH4ABwAAAAJ3BAAAAAJzcQB+AAJzcQB+AAcAAAAAdwQAAAAAeHNxAH4AOT/wAAAAAAAAcQB+AKpzcQB+AAJzcQB+AAcAAAACdwQAAAACc3EAfgACc3EAfgAHAAAAAHcEAAAAAHhxAH4ArnEAfgCvc3EAfgACc3EAfgAHAAAAAncEAAAAAnNxAH4AAnNxAH4ABwAAAAB3BAAAAAB4cQB+AK5xAH4As3NxAH4AAnNxAH4ABwAAAAJ3BAAAAAJzcQB+AAJzcQB+AAcAAAAAdwQAAAAAeHNxAH4AC3QAAngzcQB+ALdzcQB+AAJzcQB+AAcAAAAAdwQAAAAAeHEAfgCuc3EAfgACc3EAfgAHAAAAAncEAAAAAnNxAH4AAnNxAH4ABwAAAAB3BAAAAAB4cQB+AK5xAH4Av3EAfgC9eHEAfgAbc3EAfgACc3EAfgAHAAAAAncEAAAAAnNxAH4AAnNxAH4ABwAAAAB3BAAAAAB4cQB+AK5xAH4Aw3EAfgC/eHEAfgAbc3EAfgACc3EAfgAHAAAAAncEAAAAAnNxAH4AAnNxAH4ABwAAAAB3BAAAAAB4cQB+AK5xAH4Ax3EAfgDDeHEAfgAbc3EAfgACc3EAfgAHAAAAAncEAAAAAnNxAH4AAnNxAH4ABwAAAAB3BAAAAAB4cQB+AK5xAH4Ay3EAfgDHeHEAfgAbcHhxAH4AG3EAfgCzeHEAfgAbcQB+AK94cQB+ABtzcQB+AAJzcQB+AAcAAAACdwQAAAACc3EAfgACc3EAfgAHAAAAAncEAAAAAnNxAH4AAnNxAH4ABwAAAAB3BAAAAAB4cQB+AK5xAH4A0XNxAH4AAnNxAH4ABwAAAAJ3BAAAAAJzcQB+AAJzcQB+AAcAAAAAdwQAAAAAeHEAfgCucQB+ANVzcQB+AAJzcQB+AAcAAAACdwQAAAACc3EAfgACc3EAfgAHAAAAAHcEAAAAAHhxAH4Au3EAfgDZc3EAfgACc3EAfgAHAAAAAHcEAAAAAHhxAH4ArnEAfgDZeHEAfgAbcQB+ANV4cQB+ABtxAH4A0XhxAH4AG3EAfgDPcQB+AK94cQB+ABtweHEAfgAbcHg=";
    "rO0ABXNyABFqYXZhLnV0aWwuQ29sbFNlcleOq7Y6G6gRAwABSQADdGFneHAAAAAEdwQAAAAEc3IAN2lvLmdpdGh1Yi5lcmljbWVkdmV0LmpnZWEuY29yZS5yZXByZXNlbnRhdGlvbi50cmVlLlRyZWUKs7/qnQrEZQIAA0wACGNoaWxkcmVudAAQTGphdmEvdXRpbC9MaXN0O0wAB2NvbnRlbnR0ABJMamF2YS9sYW5nL09iamVjdDtMAAZwYXJlbnR0ADlMaW8vZ2l0aHViL2VyaWNtZWR2ZXQvamdlYS9jb3JlL3JlcHJlc2VudGF0aW9uL3RyZWUvVHJlZTt4cHNyABNqYXZhLnV0aWwuQXJyYXlMaXN0eIHSHZnHYZ0DAAFJAARzaXpleHAAAAACdwQAAAACc3EAfgACc3EAfgAHAAAAAHcEAAAAAHhzcgBLaW8uZ2l0aHViLmVyaWNtZWR2ZXQuamdlYS5jb3JlLnJlcHJlc2VudGF0aW9uLnRyZWUubnVtZXJpYy5FbGVtZW50JFZhcmlhYmxlAAAAAAAAAAACAAFMAARuYW1ldAASTGphdmEvbGFuZy9TdHJpbmc7eHB0AAJ4MnEAfgAGc3EAfgACc3EAfgAHAAAAAHcEAAAAAHhxAH4ADXNxAH4AAnNxAH4ABwAAAAJ3BAAAAAJzcQB+AAJzcQB+AAcAAAACdwQAAAACc3EAfgACc3EAfgAHAAAAAHcEAAAAAHhxAH4ADXEAfgATc3EAfgACc3EAfgAHAAAAAHcEAAAAAHhxAH4ADXEAfgATeH5yAEtpby5naXRodWIuZXJpY21lZHZldC5qZ2VhLmNvcmUucmVwcmVzZW50YXRpb24udHJlZS5udW1lcmljLkVsZW1lbnQkT3BlcmF0b3IAAAAAAAAAABIAAHhyAA5qYXZhLmxhbmcuRW51bQAAAAAAAAAAEgAAeHB0AA5NVUxUSVBMSUNBVElPTnEAfgARcQB+AA94cQB+ABtweHEAfgAbcHNxAH4AAnNxAH4ABwAAAAJ3BAAAAAJzcQB+AAJzcQB+AAcAAAACdwQAAAACc3EAfgACc3EAfgAHAAAAAHcEAAAAAHhzcQB+AAt0AAJ4NnEAfgAfc3EAfgACc3EAfgAHAAAAAncEAAAAAnNxAH4AAnNxAH4ABwAAAAB3BAAAAAB4cQB+ACNxAH4AJXNxAH4AAnNxAH4ABwAAAAJ3BAAAAAJzcQB+AAJzcQB+AAcAAAAAdwQAAAAAeHEAfgAjcQB+AClzcQB+AAJzcQB+AAcAAAACdwQAAAACc3EAfgACc3EAfgAHAAAAAHcEAAAAAHhxAH4AI3EAfgAtc3EAfgACc3EAfgAHAAAAAHcEAAAAAHhxAH4AI3EAfgAteH5xAH4AGXQACEFERElUSU9OcQB+ACl4cQB+ADNxAH4AJXhxAH4AM3NxAH4AAnNxAH4ABwAAAAJ3BAAAAAJzcQB+AAJzcQB+AAcAAAAAdwQAAAAAeHNyAEtpby5naXRodWIuZXJpY21lZHZldC5qZ2VhLmNvcmUucmVwcmVzZW50YXRpb24udHJlZS5udW1lcmljLkVsZW1lbnQkQ29uc3RhbnQAAAAAAAAAAAIAAUQABXZhbHVleHBABAAAAAAAAHEAfgA1cQB+ACV4cQB+ADNzcQB+AAJzcQB+AAcAAAACdwQAAAACcQB+ADVzcQB+AAJzcQB+AAcAAAACdwQAAAACc3EAfgACc3EAfgAHAAAAAHcEAAAAAHhxAH4AOnEAfgA9c3EAfgACc3EAfgAHAAAAAHcEAAAAAHhxAH4AOnNxAH4AAnNxAH4ABwAAAAJ3BAAAAAJzcQB+AAJzcQB+AAcAAAACdwQAAAACc3EAfgACc3EAfgAHAAAAAHcEAAAAAHhxAH4AI3EAfgBFc3EAfgACc3EAfgAHAAAAAncEAAAAAnNxAH4AAnNxAH4ABwAAAAB3BAAAAAB4cQB+ACNxAH4ASXNxAH4AAnNxAH4ABwAAAAJ3BAAAAAJzcQB+AAJzcQB+AAcAAAAAdwQAAAAAeHEAfgAjcQB+AE1zcQB+AAJzcQB+AAcAAAACdwQAAAACc3EAfgACc3EAfgAHAAAAAHcEAAAAAHhxAH4AI3EAfgBRc3EAfgACc3EAfgAHAAAAAHcEAAAAAHhxAH4AI3EAfgBReHEAfgAzcQB+AE14cQB+ADNxAH4ASXhxAH4AM3EAfgBFeHEAfgAzcQB+AENxAH4AQXh+cQB+ABl0AA1QUk9UX0RJVklTSU9Oc3EAfgACc3EAfgAHAAAAAncEAAAAAnNxAH4AAnNxAH4ABwAAAAJ3BAAAAAJzcQB+AAJzcQB+AAcAAAAAdwQAAAAAeHEAfgAjcQB+AFtzcQB+AAJzcQB+AAcAAAACdwQAAAACc3EAfgACc3EAfgAHAAAAAHcEAAAAAHhxAH4AI3EAfgBfc3EAfgACc3EAfgAHAAAAAncEAAAAAnNxAH4AAnNxAH4ABwAAAAB3BAAAAAB4cQB+ACNxAH4AY3NxAH4AAnNxAH4ABwAAAAJ3BAAAAAJzcQB+AAJzcQB+AAcAAAAAdwQAAAAAeHEAfgAjcQB+AGdzcQB+AAJzcQB+AAcAAAAAdwQAAAAAeHEAfgAjcQB+AGd4cQB+ADNxAH4AY3hxAH4AM3EAfgBfeHEAfgAzcQB+AFt4cQB+ADNxAH4AWXEAfgBDeHEAfgAbcHhxAH4AV3EAfgA7eHEAfgAbcHhxAH4AM3EAfgAdcQB+AD14cQB+ABtwc3EAfgACc3EAfgAHAAAAAncEAAAAAnNxAH4AAnNxAH4ABwAAAAJ3BAAAAAJzcQB+AAJzcQB+AAcAAAAAdwQAAAAAeHEAfgANcQB+AG9zcQB+AAJzcQB+AAcAAAACdwQAAAACc3EAfgACc3EAfgAHAAAAAncEAAAAAnNxAH4AAnNxAH4ABwAAAAJ3BAAAAAJzcQB+AAJzcQB+AAcAAAAAdwQAAAAAeHNxAH4AOT/gAAAAAAAAcQB+AHdzcQB+AAJzcQB+AAcAAAAAdwQAAAAAeHEAfgANc3EAfgACc3EAfgAHAAAAAncEAAAAAnNxAH4AAnNxAH4ABwAAAAB3BAAAAAB4cQB+AA1xAH4AfnEAfgB8eH5xAH4AGXQAC1NVQlRSQUNUSU9Oc3EAfgACc3EAfgAHAAAAAncEAAAAAnEAfgB+c3EAfgACc3EAfgAHAAAAAHcEAAAAAHhxAH4ADXEAfgCEeHEAfgCCc3EAfgACc3EAfgAHAAAAAncEAAAAAnEAfgCEc3EAfgACc3EAfgAHAAAAAHcEAAAAAHhxAH4ADXEAfgCIeHEAfgCCc3EAfgACc3EAfgAHAAAAAncEAAAAAnNxAH4AAnNxAH4ABwAAAAB3BAAAAAB4cQB+AA1xAH4AjHEAfgCIeHEAfgAbc3EAfgACc3EAfgAHAAAAAncEAAAAAnEAfgCMc3EAfgACc3EAfgAHAAAAAHcEAAAAAHhxAH4ADXNxAH4AAnNxAH4ABwAAAAJ3BAAAAAJzcQB+AAJzcQB+AAcAAAACdwQAAAACc3EAfgACc3EAfgAHAAAAAHcEAAAAAHhxAH4ADXEAfgCWc3EAfgACc3EAfgAHAAAAAHcEAAAAAHhxAH4ADXEAfgCWeHEAfgAbcQB+AJRxAH4AknhxAH4AgnB4cQB+AIJweHEAfgCCcQB+AHVxAH4AhnhxAH4AgnEAfgBzcQB+AIp4cQB+AIJzcQB+AAJzcQB+AAcAAAACdwQAAAACc3EAfgACc3EAfgAHAAAAAncEAAAAAnNxAH4AAnNxAH4ABwAAAAJ3BAAAAAJzcQB+AAJzcQB+AAcAAAAAdwQAAAAAeHEAfgB7cQB+AKBzcQB+AAJzcQB+AAcAAAAAdwQAAAAAeHEAfgANcQB+AKB4cQB+AIJxAH4AnnNxAH4AAnNxAH4ABwAAAAB3BAAAAAB4cQB+AA1xAH4AnnhxAH4AgnEAfgCccQB+AHN4cQB+ABtzcQB+AAJzcQB+AAcAAAACdwQAAAACcQB+AJxxAH4AknhxAH4AgnB4cQB+ABtxAH4AbXEAfgCSeHEAfgCCcHNxAH4AAnNxAH4ABwAAAAJ3BAAAAAJzcQB+AAJzcQB+AAcAAAAAdwQAAAAAeHNxAH4AOT/wAAAAAAAAcQB+AKpzcQB+AAJzcQB+AAcAAAACdwQAAAACc3EAfgACc3EAfgAHAAAAAHcEAAAAAHhxAH4ArnEAfgCvc3EAfgACc3EAfgAHAAAAAncEAAAAAnNxAH4AAnNxAH4ABwAAAAB3BAAAAAB4c3EAfgALdAACeDNxAH4As3NxAH4AAnNxAH4ABwAAAAB3BAAAAAB4cQB+AK5zcQB+AAJzcQB+AAcAAAACdwQAAAACc3EAfgACc3EAfgAHAAAAAHcEAAAAAHhxAH4ArnEAfgC7cQB+ALl4cQB+ABtzcQB+AAJzcQB+AAcAAAACdwQAAAACc3EAfgACc3EAfgAHAAAAAHcEAAAAAHhxAH4ArnEAfgC/cQB+ALt4cQB+ABtzcQB+AAJzcQB+AAcAAAACdwQAAAACc3EAfgACc3EAfgAHAAAAAHcEAAAAAHhxAH4ArnEAfgDDcQB+AL94cQB+ABtweHEAfgAbcQB+AK94cQB+ABtzcQB+AAJzcQB+AAcAAAACdwQAAAACc3EAfgACc3EAfgAHAAAAAHcEAAAAAHhxAH4At3EAfgDHcQB+AK94cQB+ABtweHEAfgAbcHg=";
    "rO0ABXNyABFqYXZhLnV0aWwuQ29sbFNlcleOq7Y6G6gRAwABSQADdGFneHAAAAAEdwQAAAAEc3IAN2lvLmdpdGh1Yi5lcmljbWVkdmV0LmpnZWEuY29yZS5yZXByZXNlbnRhdGlvbi50cmVlLlRyZWUKs7/qnQrEZQIAA0wACGNoaWxkcmVudAAQTGphdmEvdXRpbC9MaXN0O0wAB2NvbnRlbnR0ABJMamF2YS9sYW5nL09iamVjdDtMAAZwYXJlbnR0ADlMaW8vZ2l0aHViL2VyaWNtZWR2ZXQvamdlYS9jb3JlL3JlcHJlc2VudGF0aW9uL3RyZWUvVHJlZTt4cHNyABNqYXZhLnV0aWwuQXJyYXlMaXN0eIHSHZnHYZ0DAAFJAARzaXpleHAAAAACdwQAAAACc3EAfgACc3EAfgAHAAAAAHcEAAAAAHhzcgBLaW8uZ2l0aHViLmVyaWNtZWR2ZXQuamdlYS5jb3JlLnJlcHJlc2VudGF0aW9uLnRyZWUubnVtZXJpYy5FbGVtZW50JFZhcmlhYmxlAAAAAAAAAAACAAFMAARuYW1ldAASTGphdmEvbGFuZy9TdHJpbmc7eHB0AAJ4MnEAfgAGc3EAfgACc3EAfgAHAAAAAHcEAAAAAHhxAH4ADXNxAH4AAnNxAH4ABwAAAAJ3BAAAAAJzcQB+AAJzcQB+AAcAAAACdwQAAAACc3EAfgACc3EAfgAHAAAAAHcEAAAAAHhxAH4ADXEAfgATc3EAfgACc3EAfgAHAAAAAHcEAAAAAHhxAH4ADXEAfgATeH5yAEtpby5naXRodWIuZXJpY21lZHZldC5qZ2VhLmNvcmUucmVwcmVzZW50YXRpb24udHJlZS5udW1lcmljLkVsZW1lbnQkT3BlcmF0b3IAAAAAAAAAABIAAHhyAA5qYXZhLmxhbmcuRW51bQAAAAAAAAAAEgAAeHB0AA5NVUxUSVBMSUNBVElPTnEAfgARcQB+AA94cQB+ABtweHEAfgAbcHNxAH4AAnNxAH4ABwAAAAJ3BAAAAAJzcQB+AAJzcQB+AAcAAAACdwQAAAACc3EAfgACc3EAfgAHAAAAAncEAAAAAnNxAH4AAnNxAH4ABwAAAAJ3BAAAAAJzcQB+AAJzcQB+AAcAAAAAdwQAAAAAeHNxAH4AC3QAAng2cQB+ACNzcQB+AAJzcQB+AAcAAAACdwQAAAACc3EAfgACc3EAfgAHAAAAAHcEAAAAAHhxAH4AJ3EAfgApc3EAfgACc3EAfgAHAAAAAncEAAAAAnNxAH4AAnNxAH4ABwAAAAB3BAAAAAB4cQB+ACdxAH4ALXNxAH4AAnNxAH4ABwAAAAJ3BAAAAAJzcQB+AAJzcQB+AAcAAAAAdwQAAAAAeHEAfgAncQB+ADFzcQB+AAJzcQB+AAcAAAAAdwQAAAAAeHEAfgAncQB+ADF4fnEAfgAZdAAIQURESVRJT05xAH4ALXhxAH4AN3EAfgApeHEAfgA3c3EAfgACc3EAfgAHAAAAAncEAAAAAnNxAH4AAnNxAH4ABwAAAAB3BAAAAAB4c3IAS2lvLmdpdGh1Yi5lcmljbWVkdmV0LmpnZWEuY29yZS5yZXByZXNlbnRhdGlvbi50cmVlLm51bWVyaWMuRWxlbWVudCRDb25zdGFudAAAAAAAAAAAAgABRAAFdmFsdWV4cEAEAAAAAAAAcQB+ADlxAH4AKXhxAH4AN3NxAH4AAnNxAH4ABwAAAAJ3BAAAAAJxAH4AOXNxAH4AAnNxAH4ABwAAAAJ3BAAAAAJzcQB+AAJzcQB+AAcAAAAAdwQAAAAAeHEAfgA+cQB+AEFzcQB+AAJzcQB+AAcAAAAAdwQAAAAAeHEAfgA+c3EAfgACc3EAfgAHAAAAAncEAAAAAnNxAH4AAnNxAH4ABwAAAAB3BAAAAAB4cQB+ACdxAH4AR3EAfgBFeH5xAH4AGXQADVBST1RfRElWSVNJT05zcQB+AAJzcQB+AAcAAAACdwQAAAACc3EAfgACc3EAfgAHAAAAAncEAAAAAnNxAH4AAnNxAH4ABwAAAAB3BAAAAAB4cQB+ACdxAH4AT3NxAH4AAnNxAH4ABwAAAAJ3BAAAAAJzcQB+AAJzcQB+AAcAAAAAdwQAAAAAeHEAfgAncQB+AFNzcQB+AAJzcQB+AAcAAAACdwQAAAACc3EAfgACc3EAfgAHAAAAAHcEAAAAAHhxAH4AJ3EAfgBXc3EAfgACc3EAfgAHAAAAAncEAAAAAnNxAH4AAnNxAH4ABwAAAAB3BAAAAAB4cQB+ACdxAH4AW3NxAH4AAnNxAH4ABwAAAAB3BAAAAAB4cQB+ACdxAH4AW3hxAH4AN3EAfgBXeHEAfgA3cQB+AFN4cQB+ADdxAH4AT3hxAH4AN3EAfgBNcQB+AEd4cQB+ABtzcQB+AAJzcQB+AAcAAAACdwQAAAACcQB+AE1zcQB+AAJzcQB+AAcAAAACdwQAAAACc3EAfgACc3EAfgAHAAAAAHcEAAAAAHhxAH4APnEAfgBjc3EAfgACc3EAfgAHAAAAAHcEAAAAAHhxAH4APnNxAH4AAnNxAH4ABwAAAAJ3BAAAAAJzcQB+AAJzcQB+AAcAAAACdwQAAAACc3EAfgACc3EAfgAHAAAAAHcEAAAAAHhxAH4APnEAfgBrc3EAfgACc3EAfgAHAAAAAHcEAAAAAHhxAH4APnEAfgBreHEAfgBLcQB+AGlxAH4AZ3hxAH4AS3NxAH4AAnNxAH4ABwAAAAJ3BAAAAAJzcQB+AAJzcQB+AAcAAAACdwQAAAACc3EAfgACc3EAfgAHAAAAAHcEAAAAAHhxAH4AJ3EAfgBzc3EAfgACc3EAfgAHAAAAAncEAAAAAnNxAH4AAnNxAH4ABwAAAAB3BAAAAAB4cQB+ACdxAH4Ad3NxAH4AAnNxAH4ABwAAAAJ3BAAAAAJzcQB+AAJzcQB+AAcAAAAAdwQAAAAAeHEAfgAncQB+AHtzcQB+AAJzcQB+AAcAAAACdwQAAAACc3EAfgACc3EAfgAHAAAAAHcEAAAAAHhxAH4AJ3EAfgB/c3EAfgACc3EAfgAHAAAAAHcEAAAAAHhxAH4AJ3EAfgB/eHEAfgA3cQB+AHt4cQB+ADdxAH4Ad3hxAH4AN3EAfgBzeHEAfgA3cQB+AHFxAH4AaXhxAH4AG3NxAH4AAnNxAH4ABwAAAAJ3BAAAAAJxAH4AcXNxAH4AAnNxAH4ABwAAAAJ3BAAAAAJzcQB+AAJzcQB+AAcAAAAAdwQAAAAAeHEAfgA+cQB+AIdzcQB+AAJzcQB+AAcAAAAAdwQAAAAAeHEAfgA+c3EAfgACc3EAfgAHAAAAAncEAAAAAnNxAH4AAnNxAH4ABwAAAAB3BAAAAAB4cQB+ACdxAH4AjXEAfgCLeHEAfgBLc3EAfgACc3EAfgAHAAAAAncEAAAAAnNxAH4AAnNxAH4ABwAAAAJ3BAAAAAJzcQB+AAJzcQB+AAcAAAAAdwQAAAAAeHEAfgAncQB+AJNzcQB+AAJzcQB+AAcAAAACdwQAAAACc3EAfgACc3EAfgAHAAAAAHcEAAAAAHhxAH4AJ3EAfgCXc3EAfgACc3EAfgAHAAAAAncEAAAAAnNxAH4AAnNxAH4ABwAAAAB3BAAAAAB4cQB+ACdxAH4Am3NxAH4AAnNxAH4ABwAAAAJ3BAAAAAJzcQB+AAJzcQB+AAcAAAAAdwQAAAAAeHEAfgAncQB+AJ9zcQB+AAJzcQB+AAcAAAAAdwQAAAAAeHEAfgAncQB+AJ94cQB+ADdxAH4Am3hxAH4AN3EAfgCXeHEAfgA3cQB+AJN4cQB+ADdxAH4AkXEAfgCNeHEAfgAbcHhxAH4AS3NxAH4AAnNxAH4ABwAAAAJ3BAAAAAJzcQB+AAJzcQB+AAcAAAAAdwQAAAAAeHEAfgAncQB+AKVxAH4Ah3hxAH4AG3B4cQB+ABtweHEAfgBLc3EAfgACc3EAfgAHAAAAAncEAAAAAnEAfgA/cQB+AGN4cQB+ABtzcQB+AAJzcQB+AAcAAAACdwQAAAACcQB+AKlxAH4Ah3hxAH4AG3B4cQB+ABtzcQB+AAJzcQB+AAcAAAACdwQAAAACcQB+AGFxAH4Ah3hxAH4AG3B4cQB+AEtxAH4AP3hxAH4AG3EAfgCpeHEAfgA3cQB+ACFxAH4AQXhxAH4AG3EAfgAfcQB+AGN4cQB+ABtxAH4AHXEAfgCHeHEAfgAbcHNxAH4AAnNxAH4ABwAAAAJ3BAAAAAJzcQB+AAJzcQB+AAcAAAACdwQAAAACc3EAfgACc3EAfgAHAAAAAHcEAAAAAHhxAH4ADXEAfgCxc3EAfgACc3EAfgAHAAAAAncEAAAAAnNxAH4AAnNxAH4ABwAAAAJ3BAAAAAJzcQB+AAJzcQB+AAcAAAACdwQAAAACc3EAfgACc3EAfgAHAAAAAHcEAAAAAHhzcQB+AD0/4AAAAAAAAHEAfgC5c3EAfgACc3EAfgAHAAAAAHcEAAAAAHhxAH4ADXNxAH4AAnNxAH4ABwAAAAJ3BAAAAAJzcQB+AAJzcQB+AAcAAAAAdwQAAAAAeHEAfgANcQB+AMBxAH4Avnh+cQB+ABl0AAtTVUJUUkFDVElPTnNxAH4AAnNxAH4ABwAAAAJ3BAAAAAJxAH4AwHNxAH4AAnNxAH4ABwAAAAB3BAAAAAB4cQB+AA1xAH4AxnhxAH4AxHNxAH4AAnNxAH4ABwAAAAJ3BAAAAAJxAH4AxnNxAH4AAnNxAH4ABwAAAAB3BAAAAAB4cQB+AA1xAH4AynhxAH4AxHNxAH4AAnNxAH4ABwAAAAJ3BAAAAAJzcQB+AAJzcQB+AAcAAAAAdwQAAAAAeHEAfgANcQB+AM5xAH4AynhxAH4AG3NxAH4AAnNxAH4ABwAAAAJ3BAAAAAJxAH4AznNxAH4AAnNxAH4ABwAAAAB3BAAAAAB4cQB+AA1zcQB+AAJzcQB+AAcAAAACdwQAAAACc3EAfgACc3EAfgAHAAAAAncEAAAAAnNxAH4AAnNxAH4ABwAAAAB3BAAAAAB4cQB+AA1xAH4A2HNxAH4AAnNxAH4ABwAAAAB3BAAAAAB4cQB+AA1xAH4A2HhxAH4AG3EAfgDWcQB+ANR4cQB+AMRweHEAfgDEcHhxAH4AxHEAfgC3cQB+AMh4cQB+AMRxAH4AtXEAfgDMeHEAfgDEc3EAfgACc3EAfgAHAAAAAncEAAAAAnNxAH4AAnNxAH4ABwAAAAJ3BAAAAAJzcQB+AAJzcQB+AAcAAAACdwQAAAACc3EAfgACc3EAfgAHAAAAAHcEAAAAAHhxAH4AvXEAfgDic3EAfgACc3EAfgAHAAAAAHcEAAAAAHhxAH4ADXEAfgDieHEAfgDEcQB+AOBzcQB+AAJzcQB+AAcAAAAAdwQAAAAAeHEAfgANcQB+AOB4cQB+AMRxAH4A3nEAfgC1eHEAfgAbc3EAfgACc3EAfgAHAAAAAncEAAAAAnEAfgDecQB+ANR4cQB+AMRweHEAfgAbcQB+AK9xAH4A1HhxAH4AxHBzcQB+AAJzcQB+AAcAAAACdwQAAAACc3EAfgACc3EAfgAHAAAAAncEAAAAAnNxAH4AAnNxAH4ABwAAAAB3BAAAAAB4c3EAfgALdAACeDNxAH4A7nNxAH4AAnNxAH4ABwAAAAB3BAAAAAB4c3EAfgA9P/AAAAAAAABzcQB+AAJzcQB+AAcAAAACdwQAAAACc3EAfgACc3EAfgAHAAAAAHcEAAAAAHhxAH4A9nEAfgD3cQB+APR4cQB+ABtzcQB+AAJzcQB+AAcAAAACdwQAAAACcQB+APdzcQB+AAJzcQB+AAcAAAAAdwQAAAAAeHEAfgD2cQB+APt4cQB+ABtweHEAfgAbcQB+AOxxAH4A/XhxAH4AG3B4";
    "rO0ABXNyABFqYXZhLnV0aWwuQ29sbFNlcleOq7Y6G6gRAwABSQADdGFneHAAAAAEdwQAAAAEc3IAN2lvLmdpdGh1Yi5lcmljbWVkdmV0LmpnZWEuY29yZS5yZXByZXNlbnRhdGlvbi50cmVlLlRyZWUKs7/qnQrEZQIAA0wACGNoaWxkcmVudAAQTGphdmEvdXRpbC9MaXN0O0wAB2NvbnRlbnR0ABJMamF2YS9sYW5nL09iamVjdDtMAAZwYXJlbnR0ADlMaW8vZ2l0aHViL2VyaWNtZWR2ZXQvamdlYS9jb3JlL3JlcHJlc2VudGF0aW9uL3RyZWUvVHJlZTt4cHNyABNqYXZhLnV0aWwuQXJyYXlMaXN0eIHSHZnHYZ0DAAFJAARzaXpleHAAAAACdwQAAAACc3EAfgACc3EAfgAHAAAAAHcEAAAAAHhzcgBLaW8uZ2l0aHViLmVyaWNtZWR2ZXQuamdlYS5jb3JlLnJlcHJlc2VudGF0aW9uLnRyZWUubnVtZXJpYy5FbGVtZW50JFZhcmlhYmxlAAAAAAAAAAACAAFMAARuYW1ldAASTGphdmEvbGFuZy9TdHJpbmc7eHB0AAJ4MnEAfgAGc3EAfgACc3EAfgAHAAAAAHcEAAAAAHhxAH4ADXNxAH4AAnNxAH4ABwAAAAJ3BAAAAAJzcQB+AAJzcQB+AAcAAAACdwQAAAACc3EAfgACc3EAfgAHAAAAAHcEAAAAAHhxAH4ADXEAfgATc3EAfgACc3EAfgAHAAAAAHcEAAAAAHhxAH4ADXEAfgATeH5yAEtpby5naXRodWIuZXJpY21lZHZldC5qZ2VhLmNvcmUucmVwcmVzZW50YXRpb24udHJlZS5udW1lcmljLkVsZW1lbnQkT3BlcmF0b3IAAAAAAAAAABIAAHhyAA5qYXZhLmxhbmcuRW51bQAAAAAAAAAAEgAAeHB0AA5NVUxUSVBMSUNBVElPTnEAfgARcQB+AA94cQB+ABtweHEAfgAbcHNxAH4AAnNxAH4ABwAAAAJ3BAAAAAJzcQB+AAJzcQB+AAcAAAACdwQAAAACc3EAfgACc3EAfgAHAAAAAncEAAAAAnNxAH4AAnNxAH4ABwAAAAJ3BAAAAAJzcQB+AAJzcQB+AAcAAAAAdwQAAAAAeHNxAH4AC3QAAng2cQB+ACNzcQB+AAJzcQB+AAcAAAACdwQAAAACc3EAfgACc3EAfgAHAAAAAHcEAAAAAHhxAH4AJ3EAfgApc3EAfgACc3EAfgAHAAAAAncEAAAAAnNxAH4AAnNxAH4ABwAAAAB3BAAAAAB4cQB+ACdxAH4ALXNxAH4AAnNxAH4ABwAAAAJ3BAAAAAJzcQB+AAJzcQB+AAcAAAAAdwQAAAAAeHEAfgAncQB+ADFzcQB+AAJzcQB+AAcAAAAAdwQAAAAAeHEAfgAncQB+ADF4fnEAfgAZdAAIQURESVRJT05xAH4ALXhxAH4AN3EAfgApeHEAfgA3c3EAfgACc3EAfgAHAAAAAncEAAAAAnNxAH4AAnNxAH4ABwAAAAB3BAAAAAB4c3IAS2lvLmdpdGh1Yi5lcmljbWVkdmV0LmpnZWEuY29yZS5yZXByZXNlbnRhdGlvbi50cmVlLm51bWVyaWMuRWxlbWVudCRDb25zdGFudAAAAAAAAAAAAgABRAAFdmFsdWV4cEAEAAAAAAAAcQB+ADlxAH4AKXhxAH4AN3NxAH4AAnNxAH4ABwAAAAJ3BAAAAAJxAH4AOXNxAH4AAnNxAH4ABwAAAAJ3BAAAAAJzcQB+AAJzcQB+AAcAAAAAdwQAAAAAeHEAfgA+cQB+AEFzcQB+AAJzcQB+AAcAAAAAdwQAAAAAeHEAfgA+c3EAfgACc3EAfgAHAAAAAncEAAAAAnNxAH4AAnNxAH4ABwAAAAB3BAAAAAB4cQB+ACdxAH4AR3EAfgBFeH5xAH4AGXQADVBST1RfRElWSVNJT05zcQB+AAJzcQB+AAcAAAACdwQAAAACc3EAfgACc3EAfgAHAAAAAncEAAAAAnNxAH4AAnNxAH4ABwAAAAB3BAAAAAB4cQB+ACdxAH4AT3NxAH4AAnNxAH4ABwAAAAJ3BAAAAAJzcQB+AAJzcQB+AAcAAAAAdwQAAAAAeHEAfgAncQB+AFNzcQB+AAJzcQB+AAcAAAACdwQAAAACc3EAfgACc3EAfgAHAAAAAHcEAAAAAHhxAH4AJ3EAfgBXc3EAfgACc3EAfgAHAAAAAncEAAAAAnNxAH4AAnNxAH4ABwAAAAB3BAAAAAB4cQB+ACdxAH4AW3NxAH4AAnNxAH4ABwAAAAB3BAAAAAB4cQB+ACdxAH4AW3hxAH4AN3EAfgBXeHEAfgA3cQB+AFN4cQB+ADdxAH4AT3hxAH4AN3EAfgBNcQB+AEd4cQB+ABtzcQB+AAJzcQB+AAcAAAACdwQAAAACcQB+AE1zcQB+AAJzcQB+AAcAAAACdwQAAAACc3EAfgACc3EAfgAHAAAAAHcEAAAAAHhxAH4APnEAfgBjc3EAfgACc3EAfgAHAAAAAHcEAAAAAHhxAH4APnNxAH4AAnNxAH4ABwAAAAJ3BAAAAAJzcQB+AAJzcQB+AAcAAAACdwQAAAACc3EAfgACc3EAfgAHAAAAAHcEAAAAAHhxAH4APnEAfgBrc3EAfgACc3EAfgAHAAAAAHcEAAAAAHhxAH4APnEAfgBreHEAfgBLcQB+AGlxAH4AZ3hxAH4AS3NxAH4AAnNxAH4ABwAAAAJ3BAAAAAJzcQB+AAJzcQB+AAcAAAACdwQAAAACc3EAfgACc3EAfgAHAAAAAHcEAAAAAHhxAH4AJ3EAfgBzc3EAfgACc3EAfgAHAAAAAncEAAAAAnNxAH4AAnNxAH4ABwAAAAB3BAAAAAB4cQB+ACdxAH4Ad3NxAH4AAnNxAH4ABwAAAAJ3BAAAAAJzcQB+AAJzcQB+AAcAAAAAdwQAAAAAeHEAfgAncQB+AHtzcQB+AAJzcQB+AAcAAAACdwQAAAACc3EAfgACc3EAfgAHAAAAAHcEAAAAAHhxAH4AJ3EAfgB/c3EAfgACc3EAfgAHAAAAAHcEAAAAAHhxAH4AJ3EAfgB/eHEAfgA3cQB+AHt4cQB+ADdxAH4Ad3hxAH4AN3EAfgBzeHEAfgA3cQB+AHFxAH4AaXhxAH4AG3NxAH4AAnNxAH4ABwAAAAJ3BAAAAAJxAH4AcXNxAH4AAnNxAH4ABwAAAAJ3BAAAAAJzcQB+AAJzcQB+AAcAAAAAdwQAAAAAeHEAfgA+cQB+AIdzcQB+AAJzcQB+AAcAAAAAdwQAAAAAeHEAfgA+c3EAfgACc3EAfgAHAAAAAncEAAAAAnNxAH4AAnNxAH4ABwAAAAB3BAAAAAB4cQB+ACdxAH4AjXEAfgCLeHEAfgBLc3EAfgACc3EAfgAHAAAAAncEAAAAAnNxAH4AAnNxAH4ABwAAAAJ3BAAAAAJzcQB+AAJzcQB+AAcAAAAAdwQAAAAAeHEAfgAncQB+AJNzcQB+AAJzcQB+AAcAAAACdwQAAAACc3EAfgACc3EAfgAHAAAAAHcEAAAAAHhxAH4AJ3EAfgCXc3EAfgACc3EAfgAHAAAAAncEAAAAAnNxAH4AAnNxAH4ABwAAAAB3BAAAAAB4cQB+ACdxAH4Am3NxAH4AAnNxAH4ABwAAAAJ3BAAAAAJzcQB+AAJzcQB+AAcAAAAAdwQAAAAAeHEAfgAncQB+AJ9zcQB+AAJzcQB+AAcAAAAAdwQAAAAAeHEAfgAncQB+AJ94cQB+ADdxAH4Am3hxAH4AN3EAfgCXeHEAfgA3cQB+AJN4cQB+ADdxAH4AkXEAfgCNeHEAfgAbcHhxAH4AS3NxAH4AAnNxAH4ABwAAAAJ3BAAAAAJzcQB+AAJzcQB+AAcAAAAAdwQAAAAAeHEAfgAncQB+AKVxAH4Ah3hxAH4AG3B4cQB+ABtweHEAfgBLc3EAfgACc3EAfgAHAAAAAncEAAAAAnEAfgA/cQB+AGN4cQB+ABtzcQB+AAJzcQB+AAcAAAACdwQAAAACcQB+AKlxAH4Ah3hxAH4AG3B4cQB+ABtzcQB+AAJzcQB+AAcAAAACdwQAAAACcQB+AGFxAH4Ah3hxAH4AG3B4cQB+AEtxAH4AP3hxAH4AG3EAfgCpeHEAfgA3cQB+ACFxAH4AQXhxAH4AG3EAfgAfcQB+AGN4cQB+ABtxAH4AHXEAfgCHeHEAfgAbcHNxAH4AAnNxAH4ABwAAAAJ3BAAAAAJzcQB+AAJzcQB+AAcAAAACdwQAAAACc3EAfgACc3EAfgAHAAAAAHcEAAAAAHhxAH4ADXEAfgCxc3EAfgACc3EAfgAHAAAAAncEAAAAAnNxAH4AAnNxAH4ABwAAAAJ3BAAAAAJzcQB+AAJzcQB+AAcAAAACdwQAAAACc3EAfgACc3EAfgAHAAAAAHcEAAAAAHhzcQB+AD0/4AAAAAAAAHEAfgC5c3EAfgACc3EAfgAHAAAAAHcEAAAAAHhxAH4ADXNxAH4AAnNxAH4ABwAAAAJ3BAAAAAJzcQB+AAJzcQB+AAcAAAAAdwQAAAAAeHEAfgANcQB+AMBxAH4Avnh+cQB+ABl0AAtTVUJUUkFDVElPTnNxAH4AAnNxAH4ABwAAAAJ3BAAAAAJxAH4AwHNxAH4AAnNxAH4ABwAAAAB3BAAAAAB4cQB+AA1xAH4AxnhxAH4AxHNxAH4AAnNxAH4ABwAAAAJ3BAAAAAJxAH4AxnNxAH4AAnNxAH4ABwAAAAB3BAAAAAB4cQB+AA1xAH4AynhxAH4AxHNxAH4AAnNxAH4ABwAAAAJ3BAAAAAJzcQB+AAJzcQB+AAcAAAAAdwQAAAAAeHEAfgANcQB+AM5xAH4AynhxAH4AG3NxAH4AAnNxAH4ABwAAAAJ3BAAAAAJxAH4AznNxAH4AAnNxAH4ABwAAAAB3BAAAAAB4cQB+AA1zcQB+AAJzcQB+AAcAAAACdwQAAAACc3EAfgACc3EAfgAHAAAAAncEAAAAAnNxAH4AAnNxAH4ABwAAAAB3BAAAAAB4cQB+AA1xAH4A2HNxAH4AAnNxAH4ABwAAAAB3BAAAAAB4cQB+AA1xAH4A2HhxAH4AG3EAfgDWcQB+ANR4cQB+AMRweHEAfgDEcHhxAH4AxHEAfgC3cQB+AMh4cQB+AMRxAH4AtXEAfgDMeHEAfgDEc3EAfgACc3EAfgAHAAAAAncEAAAAAnNxAH4AAnNxAH4ABwAAAAJ3BAAAAAJzcQB+AAJzcQB+AAcAAAACdwQAAAACc3EAfgACc3EAfgAHAAAAAHcEAAAAAHhxAH4AvXEAfgDic3EAfgACc3EAfgAHAAAAAHcEAAAAAHhxAH4ADXEAfgDieHEAfgDEcQB+AOBzcQB+AAJzcQB+AAcAAAAAdwQAAAAAeHEAfgANcQB+AOB4cQB+AMRxAH4A3nEAfgC1eHEAfgAbc3EAfgACc3EAfgAHAAAAAncEAAAAAnEAfgDecQB+ANR4cQB+AMRweHEAfgAbcQB+AK9xAH4A1HhxAH4AxHBzcQB+AAJzcQB+AAcAAAACdwQAAAACc3EAfgACc3EAfgAHAAAAAHcEAAAAAHhzcQB+AD0/8AAAAAAAAHEAfgDsc3EAfgACc3EAfgAHAAAAAncEAAAAAnNxAH4AAnNxAH4ABwAAAAB3BAAAAAB4c3EAfgALdAACeDNxAH4A8XNxAH4AAnNxAH4ABwAAAAB3BAAAAAB4cQB+APBzcQB+AAJzcQB+AAcAAAACdwQAAAACc3EAfgACc3EAfgAHAAAAAHcEAAAAAHhxAH4A8HEAfgD5cQB+APd4cQB+ABtzcQB+AAJzcQB+AAcAAAACdwQAAAACc3EAfgACc3EAfgAHAAAAAHcEAAAAAHhxAH4A8HEAfgD9cQB+APl4cQB+ABtweHEAfgAbc3EAfgACc3EAfgAHAAAAAncEAAAAAnNxAH4AAnNxAH4ABwAAAAB3BAAAAAB4cQB+APVxAH4BAXEAfgDxeHEAfgAbcHhxAH4AG3B4";
    "rO0ABXNyABFqYXZhLnV0aWwuQ29sbFNlcleOq7Y6G6gRAwABSQADdGFneHAAAAAEdwQAAAAEc3IAN2lvLmdpdGh1Yi5lcmljbWVkdmV0LmpnZWEuY29yZS5yZXByZXNlbnRhdGlvbi50cmVlLlRyZWUKs7/qnQrEZQIAA0wACGNoaWxkcmVudAAQTGphdmEvdXRpbC9MaXN0O0wAB2NvbnRlbnR0ABJMamF2YS9sYW5nL09iamVjdDtMAAZwYXJlbnR0ADlMaW8vZ2l0aHViL2VyaWNtZWR2ZXQvamdlYS9jb3JlL3JlcHJlc2VudGF0aW9uL3RyZWUvVHJlZTt4cHNyABNqYXZhLnV0aWwuQXJyYXlMaXN0eIHSHZnHYZ0DAAFJAARzaXpleHAAAAACdwQAAAACc3EAfgACc3EAfgAHAAAAAHcEAAAAAHhzcgBLaW8uZ2l0aHViLmVyaWNtZWR2ZXQuamdlYS5jb3JlLnJlcHJlc2VudGF0aW9uLnRyZWUubnVtZXJpYy5FbGVtZW50JFZhcmlhYmxlAAAAAAAAAAACAAFMAARuYW1ldAASTGphdmEvbGFuZy9TdHJpbmc7eHB0AAJ4MnEAfgAGc3EAfgACc3EAfgAHAAAAAHcEAAAAAHhxAH4ADXNxAH4AAnNxAH4ABwAAAAJ3BAAAAAJzcQB+AAJzcQB+AAcAAAACdwQAAAACc3EAfgACc3EAfgAHAAAAAHcEAAAAAHhxAH4ADXEAfgATc3EAfgACc3EAfgAHAAAAAHcEAAAAAHhxAH4ADXEAfgATeH5yAEtpby5naXRodWIuZXJpY21lZHZldC5qZ2VhLmNvcmUucmVwcmVzZW50YXRpb24udHJlZS5udW1lcmljLkVsZW1lbnQkT3BlcmF0b3IAAAAAAAAAABIAAHhyAA5qYXZhLmxhbmcuRW51bQAAAAAAAAAAEgAAeHB0AA5NVUxUSVBMSUNBVElPTnEAfgARcQB+AA94cQB+ABtweHEAfgAbcHNxAH4AAnNxAH4ABwAAAAJ3BAAAAAJzcQB+AAJzcQB+AAcAAAACdwQAAAACc3EAfgACc3EAfgAHAAAAAHcEAAAAAHhzcQB+AAt0AAJ4NnEAfgAfc3EAfgACc3EAfgAHAAAAAncEAAAAAnNxAH4AAnNxAH4ABwAAAAB3BAAAAAB4cQB+ACNxAH4AJXNxAH4AAnNxAH4ABwAAAAJ3BAAAAAJzcQB+AAJzcQB+AAcAAAAAdwQAAAAAeHEAfgAjcQB+AClzcQB+AAJzcQB+AAcAAAACdwQAAAACc3EAfgACc3EAfgAHAAAAAHcEAAAAAHhxAH4AI3EAfgAtc3EAfgACc3EAfgAHAAAAAHcEAAAAAHhxAH4AI3EAfgAteH5xAH4AGXQACEFERElUSU9OcQB+ACl4cQB+ADNxAH4AJXhxAH4AM3NxAH4AAnNxAH4ABwAAAAJ3BAAAAAJzcQB+AAJzcQB+AAcAAAAAdwQAAAAAeHNyAEtpby5naXRodWIuZXJpY21lZHZldC5qZ2VhLmNvcmUucmVwcmVzZW50YXRpb24udHJlZS5udW1lcmljLkVsZW1lbnQkQ29uc3RhbnQAAAAAAAAAAAIAAUQABXZhbHVleHBABAAAAAAAAHEAfgA1cQB+ACV4cQB+ADNzcQB+AAJzcQB+AAcAAAACdwQAAAACcQB+ADVzcQB+AAJzcQB+AAcAAAACdwQAAAACc3EAfgACc3EAfgAHAAAAAHcEAAAAAHhxAH4AOnEAfgA9c3EAfgACc3EAfgAHAAAAAHcEAAAAAHhxAH4AOnNxAH4AAnNxAH4ABwAAAAJ3BAAAAAJzcQB+AAJzcQB+AAcAAAACdwQAAAACc3EAfgACc3EAfgAHAAAAAHcEAAAAAHhxAH4AI3EAfgBFc3EAfgACc3EAfgAHAAAAAncEAAAAAnNxAH4AAnNxAH4ABwAAAAB3BAAAAAB4cQB+ACNxAH4ASXNxAH4AAnNxAH4ABwAAAAJ3BAAAAAJzcQB+AAJzcQB+AAcAAAAAdwQAAAAAeHEAfgAjcQB+AE1zcQB+AAJzcQB+AAcAAAACdwQAAAACc3EAfgACc3EAfgAHAAAAAHcEAAAAAHhxAH4AI3EAfgBRc3EAfgACc3EAfgAHAAAAAHcEAAAAAHhxAH4AI3EAfgBReHEAfgAzcQB+AE14cQB+ADNxAH4ASXhxAH4AM3EAfgBFeHEAfgAzcQB+AENxAH4AQXh+cQB+ABl0AA1QUk9UX0RJVklTSU9Oc3EAfgACc3EAfgAHAAAAAncEAAAAAnNxAH4AAnNxAH4ABwAAAAJ3BAAAAAJzcQB+AAJzcQB+AAcAAAAAdwQAAAAAeHEAfgAjcQB+AFtzcQB+AAJzcQB+AAcAAAACdwQAAAACc3EAfgACc3EAfgAHAAAAAHcEAAAAAHhxAH4AI3EAfgBfc3EAfgACc3EAfgAHAAAAAncEAAAAAnNxAH4AAnNxAH4ABwAAAAB3BAAAAAB4cQB+ACNxAH4AY3NxAH4AAnNxAH4ABwAAAAJ3BAAAAAJzcQB+AAJzcQB+AAcAAAAAdwQAAAAAeHEAfgAjcQB+AGdzcQB+AAJzcQB+AAcAAAAAdwQAAAAAeHEAfgAjcQB+AGd4cQB+ADNxAH4AY3hxAH4AM3EAfgBfeHEAfgAzcQB+AFt4cQB+ADNxAH4AWXEAfgBDeHEAfgAbcHhxAH4AV3EAfgA7eHEAfgAbcHhxAH4AM3EAfgAdcQB+AD14cQB+ABtwc3EAfgACc3EAfgAHAAAAAncEAAAAAnNxAH4AAnNxAH4ABwAAAAJ3BAAAAAJzcQB+AAJzcQB+AAcAAAAAdwQAAAAAeHEAfgANcQB+AG9zcQB+AAJzcQB+AAcAAAACdwQAAAACc3EAfgACc3EAfgAHAAAAAncEAAAAAnNxAH4AAnNxAH4ABwAAAAJ3BAAAAAJzcQB+AAJzcQB+AAcAAAAAdwQAAAAAeHNxAH4AOT/gAAAAAAAAcQB+AHdzcQB+AAJzcQB+AAcAAAAAdwQAAAAAeHEAfgANc3EAfgACc3EAfgAHAAAAAncEAAAAAnNxAH4AAnNxAH4ABwAAAAB3BAAAAAB4cQB+AA1xAH4AfnEAfgB8eH5xAH4AGXQAC1NVQlRSQUNUSU9Oc3EAfgACc3EAfgAHAAAAAncEAAAAAnEAfgB+c3EAfgACc3EAfgAHAAAAAHcEAAAAAHhxAH4ADXEAfgCEeHEAfgCCc3EAfgACc3EAfgAHAAAAAncEAAAAAnEAfgCEc3EAfgACc3EAfgAHAAAAAHcEAAAAAHhxAH4ADXEAfgCIeHEAfgCCc3EAfgACc3EAfgAHAAAAAncEAAAAAnNxAH4AAnNxAH4ABwAAAAB3BAAAAAB4cQB+AA1xAH4AjHEAfgCIeHEAfgAbc3EAfgACc3EAfgAHAAAAAncEAAAAAnEAfgCMc3EAfgACc3EAfgAHAAAAAHcEAAAAAHhxAH4ADXNxAH4AAnNxAH4ABwAAAAJ3BAAAAAJzcQB+AAJzcQB+AAcAAAACdwQAAAACc3EAfgACc3EAfgAHAAAAAHcEAAAAAHhxAH4ADXEAfgCWc3EAfgACc3EAfgAHAAAAAHcEAAAAAHhxAH4ADXEAfgCWeHEAfgAbcQB+AJRxAH4AknhxAH4AgnB4cQB+AIJweHEAfgCCcQB+AHVxAH4AhnhxAH4AgnEAfgBzcQB+AIp4cQB+AIJzcQB+AAJzcQB+AAcAAAACdwQAAAACc3EAfgACc3EAfgAHAAAAAncEAAAAAnNxAH4AAnNxAH4ABwAAAAJ3BAAAAAJzcQB+AAJzcQB+AAcAAAAAdwQAAAAAeHEAfgB7cQB+AKBzcQB+AAJzcQB+AAcAAAAAdwQAAAAAeHEAfgANcQB+AKB4cQB+AIJxAH4AnnNxAH4AAnNxAH4ABwAAAAB3BAAAAAB4cQB+AA1xAH4AnnhxAH4AgnEAfgCccQB+AHN4cQB+ABtzcQB+AAJzcQB+AAcAAAACdwQAAAACcQB+AJxxAH4AknhxAH4AgnB4cQB+ABtxAH4AbXEAfgCSeHEAfgCCcHNxAH4AAnNxAH4ABwAAAAJ3BAAAAAJzcQB+AAJzcQB+AAcAAAAAdwQAAAAAeHNxAH4AOT/wAAAAAAAAcQB+AKpzcQB+AAJzcQB+AAcAAAACdwQAAAACc3EAfgACc3EAfgAHAAAAAHcEAAAAAHhxAH4ArnEAfgCvc3EAfgACc3EAfgAHAAAAAncEAAAAAnNxAH4AAnNxAH4ABwAAAAB3BAAAAAB4c3EAfgALdAACeDNxAH4As3NxAH4AAnNxAH4ABwAAAAB3BAAAAAB4cQB+AK5zcQB+AAJzcQB+AAcAAAACdwQAAAACc3EAfgACc3EAfgAHAAAAAHcEAAAAAHhxAH4ArnEAfgC7cQB+ALl4cQB+ABtzcQB+AAJzcQB+AAcAAAACdwQAAAACc3EAfgACc3EAfgAHAAAAAHcEAAAAAHhxAH4ArnEAfgC/cQB+ALt4cQB+ABtzcQB+AAJzcQB+AAcAAAACdwQAAAACc3EAfgACc3EAfgAHAAAAAHcEAAAAAHhxAH4ArnEAfgDDcQB+AL94cQB+ABtweHEAfgAbcQB+AK94cQB+ABtzcQB+AAJzcQB+AAcAAAACdwQAAAACc3EAfgACc3EAfgAHAAAAAHcEAAAAAHhxAH4At3EAfgDHcQB+AK94cQB+ABtweHEAfgAbcHg=";
    "rO0ABXNyABFqYXZhLnV0aWwuQ29sbFNlcleOq7Y6G6gRAwABSQADdGFneHAAAAAEdwQAAAAEc3IAN2lvLmdpdGh1Yi5lcmljbWVkdmV0LmpnZWEuY29yZS5yZXByZXNlbnRhdGlvbi50cmVlLlRyZWUKs7/qnQrEZQIAA0wACGNoaWxkcmVudAAQTGphdmEvdXRpbC9MaXN0O0wAB2NvbnRlbnR0ABJMamF2YS9sYW5nL09iamVjdDtMAAZwYXJlbnR0ADlMaW8vZ2l0aHViL2VyaWNtZWR2ZXQvamdlYS9jb3JlL3JlcHJlc2VudGF0aW9uL3RyZWUvVHJlZTt4cHNyABNqYXZhLnV0aWwuQXJyYXlMaXN0eIHSHZnHYZ0DAAFJAARzaXpleHAAAAACdwQAAAACc3EAfgACc3EAfgAHAAAAAHcEAAAAAHhzcgBLaW8uZ2l0aHViLmVyaWNtZWR2ZXQuamdlYS5jb3JlLnJlcHJlc2VudGF0aW9uLnRyZWUubnVtZXJpYy5FbGVtZW50JFZhcmlhYmxlAAAAAAAAAAACAAFMAARuYW1ldAASTGphdmEvbGFuZy9TdHJpbmc7eHB0AAJ4MnEAfgAGc3EAfgACc3EAfgAHAAAAAHcEAAAAAHhxAH4ADXNxAH4AAnNxAH4ABwAAAAJ3BAAAAAJzcQB+AAJzcQB+AAcAAAACdwQAAAACc3EAfgACc3EAfgAHAAAAAHcEAAAAAHhxAH4ADXEAfgATc3EAfgACc3EAfgAHAAAAAHcEAAAAAHhxAH4ADXEAfgATeH5yAEtpby5naXRodWIuZXJpY21lZHZldC5qZ2VhLmNvcmUucmVwcmVzZW50YXRpb24udHJlZS5udW1lcmljLkVsZW1lbnQkT3BlcmF0b3IAAAAAAAAAABIAAHhyAA5qYXZhLmxhbmcuRW51bQAAAAAAAAAAEgAAeHB0AA5NVUxUSVBMSUNBVElPTnEAfgARcQB+AA94cQB+ABtweHEAfgAbcHNxAH4AAnNxAH4ABwAAAAJ3BAAAAAJzcQB+AAJzcQB+AAcAAAACdwQAAAACc3EAfgACc3EAfgAHAAAAAncEAAAAAnNxAH4AAnNxAH4ABwAAAAB3BAAAAAB4c3EAfgALdAACeDZxAH4AIXNxAH4AAnNxAH4ABwAAAAJ3BAAAAAJzcQB+AAJzcQB+AAcAAAAAdwQAAAAAeHEAfgAlcQB+ACdzcQB+AAJzcQB+AAcAAAACdwQAAAACc3EAfgACc3EAfgAHAAAAAHcEAAAAAHhxAH4AJXEAfgArc3EAfgACc3EAfgAHAAAAAncEAAAAAnNxAH4AAnNxAH4ABwAAAAB3BAAAAAB4cQB+ACVxAH4AL3NxAH4AAnNxAH4ABwAAAAB3BAAAAAB4cQB+ACVxAH4AL3h+cQB+ABl0AAhBRERJVElPTnEAfgAreHEAfgA1cQB+ACd4cQB+ADVzcQB+AAJzcQB+AAcAAAACdwQAAAACc3EAfgACc3EAfgAHAAAAAHcEAAAAAHhzcgBLaW8uZ2l0aHViLmVyaWNtZWR2ZXQuamdlYS5jb3JlLnJlcHJlc2VudGF0aW9uLnRyZWUubnVtZXJpYy5FbGVtZW50JENvbnN0YW50AAAAAAAAAAACAAFEAAV2YWx1ZXhwQAQAAAAAAABxAH4AN3EAfgAneHEAfgA1c3EAfgACc3EAfgAHAAAAAncEAAAAAnEAfgA3c3EAfgACc3EAfgAHAAAAAncEAAAAAnNxAH4AAnNxAH4ABwAAAAB3BAAAAAB4cQB+ADxxAH4AP3NxAH4AAnNxAH4ABwAAAAB3BAAAAAB4cQB+ADxzcQB+AAJzcQB+AAcAAAACdwQAAAACc3EAfgACc3EAfgAHAAAAAHcEAAAAAHhxAH4AJXEAfgBFcQB+AEN4fnEAfgAZdAANUFJPVF9ESVZJU0lPTnNxAH4AAnNxAH4ABwAAAAJ3BAAAAAJzcQB+AAJzcQB+AAcAAAACdwQAAAACc3EAfgACc3EAfgAHAAAAAHcEAAAAAHhxAH4AJXEAfgBNc3EAfgACc3EAfgAHAAAAAncEAAAAAnNxAH4AAnNxAH4ABwAAAAB3BAAAAAB4cQB+ACVxAH4AUXNxAH4AAnNxAH4ABwAAAAJ3BAAAAAJzcQB+AAJzcQB+AAcAAAAAdwQAAAAAeHEAfgAlcQB+AFVzcQB+AAJzcQB+AAcAAAACdwQAAAACc3EAfgACc3EAfgAHAAAAAHcEAAAAAHhxAH4AJXEAfgBZc3EAfgACc3EAfgAHAAAAAHcEAAAAAHhxAH4AJXEAfgBZeHEAfgA1cQB+AFV4cQB+ADVxAH4AUXhxAH4ANXEAfgBNeHEAfgA1cQB+AEtxAH4ARXhxAH4AG3NxAH4AAnNxAH4ABwAAAAJ3BAAAAAJxAH4AS3NxAH4AAnNxAH4ABwAAAAJ3BAAAAAJzcQB+AAJzcQB+AAcAAAAAdwQAAAAAeHEAfgA8cQB+AGFzcQB+AAJzcQB+AAcAAAAAdwQAAAAAeHEAfgA8c3EAfgACc3EAfgAHAAAAAncEAAAAAnNxAH4AAnNxAH4ABwAAAAB3BAAAAAB4cQB+ACVxAH4AZ3EAfgBleHEAfgBJc3EAfgACc3EAfgAHAAAAAncEAAAAAnNxAH4AAnNxAH4ABwAAAAJ3BAAAAAJzcQB+AAJzcQB+AAcAAAAAdwQAAAAAeHEAfgAlcQB+AG1zcQB+AAJzcQB+AAcAAAACdwQAAAACc3EAfgACc3EAfgAHAAAAAHcEAAAAAHhxAH4AJXEAfgBxc3EAfgACc3EAfgAHAAAAAncEAAAAAnNxAH4AAnNxAH4ABwAAAAB3BAAAAAB4cQB+ACVxAH4AdXNxAH4AAnNxAH4ABwAAAAJ3BAAAAAJzcQB+AAJzcQB+AAcAAAAAdwQAAAAAeHEAfgAlcQB+AHlzcQB+AAJzcQB+AAcAAAAAdwQAAAAAeHEAfgAlcQB+AHl4cQB+ADVxAH4AdXhxAH4ANXEAfgBxeHEAfgA1cQB+AG14cQB+ADVxAH4Aa3EAfgBneHEAfgAbcHhxAH4ASXEAfgBfeHEAfgAbcHhxAH4ASXNxAH4AAnNxAH4ABwAAAAJ3BAAAAAJzcQB+AAJzcQB+AAcAAAACdwQAAAACc3EAfgACc3EAfgAHAAAAAHcEAAAAAHhxAH4AJXEAfgCBc3EAfgACc3EAfgAHAAAAAncEAAAAAnNxAH4AAnNxAH4ABwAAAAB3BAAAAAB4cQB+ACVxAH4AhXNxAH4AAnNxAH4ABwAAAAJ3BAAAAAJzcQB+AAJzcQB+AAcAAAAAdwQAAAAAeHEAfgAlcQB+AIlzcQB+AAJzcQB+AAcAAAAAdwQAAAAAeHEAfgAlcQB+AIl4cQB+ADVxAH4AhXhxAH4ANXEAfgCBeHEAfgA1cQB+AH9xAH4AP3hxAH4AG3NxAH4AAnNxAH4ABwAAAAJ3BAAAAAJxAH4Af3EAfgBheHEAfgAbcHhxAH4AG3NxAH4AAnNxAH4ABwAAAAJ3BAAAAAJxAH4APXEAfgBheHEAfgAbcHhxAH4ANXEAfgAfcQB+AD94cQB+ABtxAH4AHXEAfgBheHEAfgAbcHNxAH4AAnNxAH4ABwAAAAJ3BAAAAAJzcQB+AAJzcQB+AAcAAAACdwQAAAACc3EAfgACc3EAfgAHAAAAAHcEAAAAAHhxAH4ADXEAfgCVc3EAfgACc3EAfgAHAAAAAncEAAAAAnNxAH4AAnNxAH4ABwAAAAJ3BAAAAAJzcQB+AAJzcQB+AAcAAAACdwQAAAACc3EAfgACc3EAfgAHAAAAAHcEAAAAAHhzcQB+ADs/4AAAAAAAAHEAfgCdc3EAfgACc3EAfgAHAAAAAHcEAAAAAHhxAH4ADXNxAH4AAnNxAH4ABwAAAAJ3BAAAAAJzcQB+AAJzcQB+AAcAAAAAdwQAAAAAeHEAfgANcQB+AKRxAH4Aonh+cQB+ABl0AAtTVUJUUkFDVElPTnNxAH4AAnNxAH4ABwAAAAJ3BAAAAAJxAH4ApHNxAH4AAnNxAH4ABwAAAAB3BAAAAAB4cQB+AA1xAH4AqnhxAH4AqHNxAH4AAnNxAH4ABwAAAAJ3BAAAAAJxAH4AqnNxAH4AAnNxAH4ABwAAAAB3BAAAAAB4cQB+AA1xAH4ArnhxAH4AqHNxAH4AAnNxAH4ABwAAAAJ3BAAAAAJzcQB+AAJzcQB+AAcAAAAAdwQAAAAAeHEAfgANcQB+ALJxAH4ArnhxAH4AG3NxAH4AAnNxAH4ABwAAAAJ3BAAAAAJxAH4AsnNxAH4AAnNxAH4ABwAAAAB3BAAAAAB4cQB+AA1zcQB+AAJzcQB+AAcAAAACdwQAAAACc3EAfgACc3EAfgAHAAAAAncEAAAAAnNxAH4AAnNxAH4ABwAAAAB3BAAAAAB4cQB+AA1xAH4AvHNxAH4AAnNxAH4ABwAAAAB3BAAAAAB4cQB+AA1xAH4AvHhxAH4AG3EAfgC6cQB+ALh4cQB+AKhweHEAfgCocHhxAH4AqHEAfgCbcQB+AKx4cQB+AKhxAH4AmXEAfgCweHEAfgCoc3EAfgACc3EAfgAHAAAAAncEAAAAAnNxAH4AAnNxAH4ABwAAAAJ3BAAAAAJzcQB+AAJzcQB+AAcAAAACdwQAAAACc3EAfgACc3EAfgAHAAAAAHcEAAAAAHhxAH4AoXEAfgDGc3EAfgACc3EAfgAHAAAAAHcEAAAAAHhxAH4ADXEAfgDGeHEAfgCocQB+AMRzcQB+AAJzcQB+AAcAAAAAdwQAAAAAeHEAfgANcQB+AMR4cQB+AKhxAH4AwnEAfgCZeHEAfgAbc3EAfgACc3EAfgAHAAAAAncEAAAAAnEAfgDCcQB+ALh4cQB+AKhweHEAfgAbcQB+AJNxAH4AuHhxAH4AqHBzcQB+AAJzcQB+AAcAAAACdwQAAAACc3EAfgACc3EAfgAHAAAAAHcEAAAAAHhzcQB+ADs/8AAAAAAAAHEAfgDQc3EAfgACc3EAfgAHAAAAAncEAAAAAnNxAH4AAnNxAH4ABwAAAAB3BAAAAAB4c3EAfgALdAACeDNxAH4A1XNxAH4AAnNxAH4ABwAAAAB3BAAAAAB4cQB+ANRzcQB+AAJzcQB+AAcAAAACdwQAAAACc3EAfgACc3EAfgAHAAAAAHcEAAAAAHhxAH4A1HEAfgDdcQB+ANt4cQB+ABtzcQB+AAJzcQB+AAcAAAACdwQAAAACc3EAfgACc3EAfgAHAAAAAHcEAAAAAHhxAH4A1HEAfgDhcQB+AN14cQB+ABtweHEAfgAbc3EAfgACc3EAfgAHAAAAAncEAAAAAnNxAH4AAnNxAH4ABwAAAAB3BAAAAAB4cQB+ANlxAH4A5XEAfgDVeHEAfgAbcHhxAH4AG3B4";
    "rO0ABXNyABFqYXZhLnV0aWwuQ29sbFNlcleOq7Y6G6gRAwABSQADdGFneHAAAAAEdwQAAAAEc3IAN2lvLmdpdGh1Yi5lcmljbWVkdmV0LmpnZWEuY29yZS5yZXByZXNlbnRhdGlvbi50cmVlLlRyZWUKs7/qnQrEZQIAA0wACGNoaWxkcmVudAAQTGphdmEvdXRpbC9MaXN0O0wAB2NvbnRlbnR0ABJMamF2YS9sYW5nL09iamVjdDtMAAZwYXJlbnR0ADlMaW8vZ2l0aHViL2VyaWNtZWR2ZXQvamdlYS9jb3JlL3JlcHJlc2VudGF0aW9uL3RyZWUvVHJlZTt4cHNyABNqYXZhLnV0aWwuQXJyYXlMaXN0eIHSHZnHYZ0DAAFJAARzaXpleHAAAAACdwQAAAACc3EAfgACc3EAfgAHAAAAAHcEAAAAAHhzcgBLaW8uZ2l0aHViLmVyaWNtZWR2ZXQuamdlYS5jb3JlLnJlcHJlc2VudGF0aW9uLnRyZWUubnVtZXJpYy5FbGVtZW50JFZhcmlhYmxlAAAAAAAAAAACAAFMAARuYW1ldAASTGphdmEvbGFuZy9TdHJpbmc7eHB0AAJ4MnEAfgAGc3EAfgACc3EAfgAHAAAAAHcEAAAAAHhxAH4ADXNxAH4AAnNxAH4ABwAAAAJ3BAAAAAJzcQB+AAJzcQB+AAcAAAACdwQAAAACc3EAfgACc3EAfgAHAAAAAHcEAAAAAHhxAH4ADXEAfgATc3EAfgACc3EAfgAHAAAAAHcEAAAAAHhxAH4ADXEAfgATeH5yAEtpby5naXRodWIuZXJpY21lZHZldC5qZ2VhLmNvcmUucmVwcmVzZW50YXRpb24udHJlZS5udW1lcmljLkVsZW1lbnQkT3BlcmF0b3IAAAAAAAAAABIAAHhyAA5qYXZhLmxhbmcuRW51bQAAAAAAAAAAEgAAeHB0AA5NVUxUSVBMSUNBVElPTnEAfgARcQB+AA94cQB+ABtweHEAfgAbcHNxAH4AAnNxAH4ABwAAAAJ3BAAAAAJzcQB+AAJzcQB+AAcAAAACdwQAAAACc3EAfgACc3EAfgAHAAAAAncEAAAAAnNxAH4AAnNxAH4ABwAAAAB3BAAAAAB4c3EAfgALdAACeDZxAH4AIXNxAH4AAnNxAH4ABwAAAAJ3BAAAAAJzcQB+AAJzcQB+AAcAAAAAdwQAAAAAeHEAfgAlcQB+ACdzcQB+AAJzcQB+AAcAAAACdwQAAAACc3EAfgACc3EAfgAHAAAAAHcEAAAAAHhxAH4AJXEAfgArc3EAfgACc3EAfgAHAAAAAncEAAAAAnNxAH4AAnNxAH4ABwAAAAB3BAAAAAB4cQB+ACVxAH4AL3NxAH4AAnNxAH4ABwAAAAB3BAAAAAB4cQB+ACVxAH4AL3h+cQB+ABl0AAhBRERJVElPTnEAfgAreHEAfgA1cQB+ACd4cQB+ADVzcQB+AAJzcQB+AAcAAAACdwQAAAACc3EAfgACc3EAfgAHAAAAAHcEAAAAAHhzcgBLaW8uZ2l0aHViLmVyaWNtZWR2ZXQuamdlYS5jb3JlLnJlcHJlc2VudGF0aW9uLnRyZWUubnVtZXJpYy5FbGVtZW50JENvbnN0YW50AAAAAAAAAAACAAFEAAV2YWx1ZXhwQAQAAAAAAABxAH4AN3EAfgAneHEAfgA1c3EAfgACc3EAfgAHAAAAAncEAAAAAnEAfgA3c3EAfgACc3EAfgAHAAAAAncEAAAAAnNxAH4AAnNxAH4ABwAAAAB3BAAAAAB4cQB+ADxxAH4AP3NxAH4AAnNxAH4ABwAAAAB3BAAAAAB4cQB+ADxzcQB+AAJzcQB+AAcAAAACdwQAAAACc3EAfgACc3EAfgAHAAAAAHcEAAAAAHhxAH4AJXEAfgBFcQB+AEN4fnEAfgAZdAANUFJPVF9ESVZJU0lPTnNxAH4AAnNxAH4ABwAAAAJ3BAAAAAJzcQB+AAJzcQB+AAcAAAACdwQAAAACc3EAfgACc3EAfgAHAAAAAHcEAAAAAHhxAH4AJXEAfgBNc3EAfgACc3EAfgAHAAAAAncEAAAAAnNxAH4AAnNxAH4ABwAAAAB3BAAAAAB4cQB+ACVxAH4AUXNxAH4AAnNxAH4ABwAAAAJ3BAAAAAJzcQB+AAJzcQB+AAcAAAAAdwQAAAAAeHEAfgAlcQB+AFVzcQB+AAJzcQB+AAcAAAACdwQAAAACc3EAfgACc3EAfgAHAAAAAHcEAAAAAHhxAH4AJXEAfgBZc3EAfgACc3EAfgAHAAAAAHcEAAAAAHhxAH4AJXEAfgBZeHEAfgA1cQB+AFV4cQB+ADVxAH4AUXhxAH4ANXEAfgBNeHEAfgA1cQB+AEtxAH4ARXhxAH4AG3NxAH4AAnNxAH4ABwAAAAJ3BAAAAAJxAH4AS3NxAH4AAnNxAH4ABwAAAAJ3BAAAAAJzcQB+AAJzcQB+AAcAAAAAdwQAAAAAeHEAfgA8cQB+AGFzcQB+AAJzcQB+AAcAAAAAdwQAAAAAeHEAfgA8c3EAfgACc3EAfgAHAAAAAncEAAAAAnNxAH4AAnNxAH4ABwAAAAB3BAAAAAB4cQB+ACVxAH4AZ3EAfgBleHEAfgBJc3EAfgACc3EAfgAHAAAAAncEAAAAAnNxAH4AAnNxAH4ABwAAAAJ3BAAAAAJzcQB+AAJzcQB+AAcAAAAAdwQAAAAAeHEAfgAlcQB+AG1zcQB+AAJzcQB+AAcAAAACdwQAAAACc3EAfgACc3EAfgAHAAAAAHcEAAAAAHhxAH4AJXEAfgBxc3EAfgACc3EAfgAHAAAAAncEAAAAAnNxAH4AAnNxAH4ABwAAAAB3BAAAAAB4cQB+ACVxAH4AdXNxAH4AAnNxAH4ABwAAAAJ3BAAAAAJzcQB+AAJzcQB+AAcAAAAAdwQAAAAAeHEAfgAlcQB+AHlzcQB+AAJzcQB+AAcAAAAAdwQAAAAAeHEAfgAlcQB+AHl4cQB+ADVxAH4AdXhxAH4ANXEAfgBxeHEAfgA1cQB+AG14cQB+ADVxAH4Aa3EAfgBneHEAfgAbcHhxAH4ASXEAfgBfeHEAfgAbcHhxAH4ASXNxAH4AAnNxAH4ABwAAAAJ3BAAAAAJzcQB+AAJzcQB+AAcAAAACdwQAAAACc3EAfgACc3EAfgAHAAAAAHcEAAAAAHhxAH4AJXEAfgCBc3EAfgACc3EAfgAHAAAAAncEAAAAAnNxAH4AAnNxAH4ABwAAAAB3BAAAAAB4cQB+ACVxAH4AhXNxAH4AAnNxAH4ABwAAAAJ3BAAAAAJzcQB+AAJzcQB+AAcAAAAAdwQAAAAAeHEAfgAlcQB+AIlzcQB+AAJzcQB+AAcAAAAAdwQAAAAAeHEAfgAlcQB+AIl4cQB+ADVxAH4AhXhxAH4ANXEAfgCBeHEAfgA1cQB+AH9xAH4AP3hxAH4AG3NxAH4AAnNxAH4ABwAAAAJ3BAAAAAJxAH4Af3EAfgBheHEAfgAbcHhxAH4AG3NxAH4AAnNxAH4ABwAAAAJ3BAAAAAJxAH4APXEAfgBheHEAfgAbcHhxAH4ANXEAfgAfcQB+AD94cQB+ABtxAH4AHXEAfgBheHEAfgAbcHNxAH4AAnNxAH4ABwAAAAJ3BAAAAAJzcQB+AAJzcQB+AAcAAAACdwQAAAACc3EAfgACc3EAfgAHAAAAAHcEAAAAAHhxAH4ADXEAfgCVc3EAfgACc3EAfgAHAAAAAncEAAAAAnNxAH4AAnNxAH4ABwAAAAJ3BAAAAAJzcQB+AAJzcQB+AAcAAAACdwQAAAACc3EAfgACc3EAfgAHAAAAAHcEAAAAAHhzcQB+ADs/4AAAAAAAAHEAfgCdc3EAfgACc3EAfgAHAAAAAHcEAAAAAHhxAH4ADXNxAH4AAnNxAH4ABwAAAAJ3BAAAAAJzcQB+AAJzcQB+AAcAAAAAdwQAAAAAeHEAfgANcQB+AKRxAH4Aonh+cQB+ABl0AAtTVUJUUkFDVElPTnNxAH4AAnNxAH4ABwAAAAJ3BAAAAAJxAH4ApHNxAH4AAnNxAH4ABwAAAAB3BAAAAAB4cQB+AA1xAH4AqnhxAH4AqHNxAH4AAnNxAH4ABwAAAAJ3BAAAAAJxAH4AqnNxAH4AAnNxAH4ABwAAAAB3BAAAAAB4cQB+AA1xAH4ArnhxAH4AqHNxAH4AAnNxAH4ABwAAAAJ3BAAAAAJzcQB+AAJzcQB+AAcAAAAAdwQAAAAAeHEAfgANcQB+ALJxAH4ArnhxAH4AG3NxAH4AAnNxAH4ABwAAAAJ3BAAAAAJxAH4AsnNxAH4AAnNxAH4ABwAAAAB3BAAAAAB4cQB+AA1zcQB+AAJzcQB+AAcAAAACdwQAAAACc3EAfgACc3EAfgAHAAAAAncEAAAAAnNxAH4AAnNxAH4ABwAAAAB3BAAAAAB4cQB+AA1xAH4AvHNxAH4AAnNxAH4ABwAAAAB3BAAAAAB4cQB+AA1xAH4AvHhxAH4AG3EAfgC6cQB+ALh4cQB+AKhweHEAfgCocHhxAH4AqHEAfgCbcQB+AKx4cQB+AKhxAH4AmXEAfgCweHEAfgCoc3EAfgACc3EAfgAHAAAAAncEAAAAAnNxAH4AAnNxAH4ABwAAAAJ3BAAAAAJzcQB+AAJzcQB+AAcAAAACdwQAAAACc3EAfgACc3EAfgAHAAAAAHcEAAAAAHhxAH4AoXEAfgDGc3EAfgACc3EAfgAHAAAAAHcEAAAAAHhxAH4ADXEAfgDGeHEAfgCocQB+AMRzcQB+AAJzcQB+AAcAAAAAdwQAAAAAeHEAfgANcQB+AMR4cQB+AKhxAH4AwnEAfgCZeHEAfgAbc3EAfgACc3EAfgAHAAAAAncEAAAAAnEAfgDCcQB+ALh4cQB+AKhweHEAfgAbcQB+AJNxAH4AuHhxAH4AqHBzcQB+AAJzcQB+AAcAAAACdwQAAAACc3EAfgACc3EAfgAHAAAAAHcEAAAAAHhzcQB+ADs/8AAAAAAAAHEAfgDQc3EAfgACc3EAfgAHAAAAAncEAAAAAnNxAH4AAnNxAH4ABwAAAAB3BAAAAAB4c3EAfgALdAACeDNxAH4A1XNxAH4AAnNxAH4ABwAAAAB3BAAAAAB4cQB+ANRzcQB+AAJzcQB+AAcAAAACdwQAAAACc3EAfgACc3EAfgAHAAAAAHcEAAAAAHhxAH4A1HEAfgDdcQB+ANt4cQB+ABtzcQB+AAJzcQB+AAcAAAACdwQAAAACc3EAfgACc3EAfgAHAAAAAHcEAAAAAHhxAH4A1HEAfgDhcQB+AN14cQB+ABtweHEAfgAbc3EAfgACc3EAfgAHAAAAAncEAAAAAnNxAH4AAnNxAH4ABwAAAAB3BAAAAAB4cQB+ANlxAH4A5XEAfgDVeHEAfgAbcHhxAH4AG3B4";
    "rO0ABXNyABFqYXZhLnV0aWwuQ29sbFNlcleOq7Y6G6gRAwABSQADdGFneHAAAAAEdwQAAAAEc3IAN2lvLmdpdGh1Yi5lcmljbWVkdmV0LmpnZWEuY29yZS5yZXByZXNlbnRhdGlvbi50cmVlLlRyZWUKs7/qnQrEZQIAA0wACGNoaWxkcmVudAAQTGphdmEvdXRpbC9MaXN0O0wAB2NvbnRlbnR0ABJMamF2YS9sYW5nL09iamVjdDtMAAZwYXJlbnR0ADlMaW8vZ2l0aHViL2VyaWNtZWR2ZXQvamdlYS9jb3JlL3JlcHJlc2VudGF0aW9uL3RyZWUvVHJlZTt4cHNyABNqYXZhLnV0aWwuQXJyYXlMaXN0eIHSHZnHYZ0DAAFJAARzaXpleHAAAAACdwQAAAACc3EAfgACc3EAfgAHAAAAAHcEAAAAAHhzcgBLaW8uZ2l0aHViLmVyaWNtZWR2ZXQuamdlYS5jb3JlLnJlcHJlc2VudGF0aW9uLnRyZWUubnVtZXJpYy5FbGVtZW50JFZhcmlhYmxlAAAAAAAAAAACAAFMAARuYW1ldAASTGphdmEvbGFuZy9TdHJpbmc7eHB0AAJ4MnEAfgAGc3EAfgACc3EAfgAHAAAAAHcEAAAAAHhxAH4ADXNxAH4AAnNxAH4ABwAAAAJ3BAAAAAJzcQB+AAJzcQB+AAcAAAACdwQAAAACc3EAfgACc3EAfgAHAAAAAHcEAAAAAHhxAH4ADXEAfgATc3EAfgACc3EAfgAHAAAAAHcEAAAAAHhxAH4ADXEAfgATeH5yAEtpby5naXRodWIuZXJpY21lZHZldC5qZ2VhLmNvcmUucmVwcmVzZW50YXRpb24udHJlZS5udW1lcmljLkVsZW1lbnQkT3BlcmF0b3IAAAAAAAAAABIAAHhyAA5qYXZhLmxhbmcuRW51bQAAAAAAAAAAEgAAeHB0AA5NVUxUSVBMSUNBVElPTnEAfgARcQB+AA94cQB+ABtweHEAfgAbcHNxAH4AAnNxAH4ABwAAAAJ3BAAAAAJzcQB+AAJzcQB+AAcAAAACdwQAAAACc3EAfgACc3EAfgAHAAAAAHcEAAAAAHhzcQB+AAt0AAJ4NnEAfgAfc3EAfgACc3EAfgAHAAAAAncEAAAAAnNxAH4AAnNxAH4ABwAAAAB3BAAAAAB4cQB+ACNxAH4AJXNxAH4AAnNxAH4ABwAAAAJ3BAAAAAJzcQB+AAJzcQB+AAcAAAAAdwQAAAAAeHEAfgAjcQB+AClzcQB+AAJzcQB+AAcAAAACdwQAAAACc3EAfgACc3EAfgAHAAAAAHcEAAAAAHhxAH4AI3EAfgAtc3EAfgACc3EAfgAHAAAAAHcEAAAAAHhxAH4AI3EAfgAteH5xAH4AGXQACEFERElUSU9OcQB+ACl4cQB+ADNxAH4AJXhxAH4AM3NxAH4AAnNxAH4ABwAAAAJ3BAAAAAJzcQB+AAJzcQB+AAcAAAAAdwQAAAAAeHNyAEtpby5naXRodWIuZXJpY21lZHZldC5qZ2VhLmNvcmUucmVwcmVzZW50YXRpb24udHJlZS5udW1lcmljLkVsZW1lbnQkQ29uc3RhbnQAAAAAAAAAAAIAAUQABXZhbHVleHBABAAAAAAAAHEAfgA1cQB+ACV4cQB+ADNzcQB+AAJzcQB+AAcAAAACdwQAAAACcQB+ADVzcQB+AAJzcQB+AAcAAAACdwQAAAACc3EAfgACc3EAfgAHAAAAAHcEAAAAAHhxAH4AOnEAfgA9c3EAfgACc3EAfgAHAAAAAHcEAAAAAHhxAH4AOnNxAH4AAnNxAH4ABwAAAAJ3BAAAAAJzcQB+AAJzcQB+AAcAAAAAdwQAAAAAeHEAfgAjcQB+AENxAH4AQXh+cQB+ABl0AA1QUk9UX0RJVklTSU9Oc3EAfgACc3EAfgAHAAAAAncEAAAAAnNxAH4AAnNxAH4ABwAAAAJ3BAAAAAJzcQB+AAJzcQB+AAcAAAAAdwQAAAAAeHEAfgAjcQB+AEtzcQB+AAJzcQB+AAcAAAACdwQAAAACc3EAfgACc3EAfgAHAAAAAHcEAAAAAHhxAH4AI3EAfgBPc3EAfgACc3EAfgAHAAAAAncEAAAAAnNxAH4AAnNxAH4ABwAAAAB3BAAAAAB4cQB+ACNxAH4AU3NxAH4AAnNxAH4ABwAAAAJ3BAAAAAJzcQB+AAJzcQB+AAcAAAAAdwQAAAAAeHEAfgAjcQB+AFdzcQB+AAJzcQB+AAcAAAAAdwQAAAAAeHEAfgAjcQB+AFd4cQB+ADNxAH4AU3hxAH4AM3EAfgBPeHEAfgAzcQB+AEt4cQB+ADNxAH4ASXEAfgBDeHEAfgAbcHhxAH4AR3NxAH4AAnNxAH4ABwAAAAJ3BAAAAAJzcQB+AAJzcQB+AAcAAAAAdwQAAAAAeHEAfgAjcQB+AF1xAH4APXhxAH4AG3B4cQB+ABtweHEAfgAzcQB+AB1xAH4APXhxAH4AG3BzcQB+AAJzcQB+AAcAAAACdwQAAAACc3EAfgACc3EAfgAHAAAAAncEAAAAAnNxAH4AAnNxAH4ABwAAAAB3BAAAAAB4cQB+AA1xAH4AY3NxAH4AAnNxAH4ABwAAAAJ3BAAAAAJzcQB+AAJzcQB+AAcAAAACdwQAAAACc3EAfgACc3EAfgAHAAAAAncEAAAAAnNxAH4AAnNxAH4ABwAAAAB3BAAAAAB4c3EAfgA5P+AAAAAAAABxAH4Aa3NxAH4AAnNxAH4ABwAAAAB3BAAAAAB4cQB+AA1zcQB+AAJzcQB+AAcAAAACdwQAAAACc3EAfgACc3EAfgAHAAAAAHcEAAAAAHhxAH4ADXEAfgBycQB+AHB4fnEAfgAZdAALU1VCVFJBQ1RJT05zcQB+AAJzcQB+AAcAAAACdwQAAAACcQB+AHJzcQB+AAJzcQB+AAcAAAAAdwQAAAAAeHEAfgANcQB+AHh4cQB+AHZzcQB+AAJzcQB+AAcAAAACdwQAAAACcQB+AHhzcQB+AAJzcQB+AAcAAAAAdwQAAAAAeHEAfgANcQB+AHx4cQB+AHZzcQB+AAJzcQB+AAcAAAACdwQAAAACc3EAfgACc3EAfgAHAAAAAHcEAAAAAHhxAH4ADXEAfgCAcQB+AHx4cQB+ABtzcQB+AAJzcQB+AAcAAAACdwQAAAACcQB+AIBzcQB+AAJzcQB+AAcAAAAAdwQAAAAAeHEAfgANc3EAfgACc3EAfgAHAAAAAncEAAAAAnNxAH4AAnNxAH4ABwAAAAJ3BAAAAAJzcQB+AAJzcQB+AAcAAAAAdwQAAAAAeHEAfgANcQB+AIpzcQB+AAJzcQB+AAcAAAAAdwQAAAAAeHEAfgANcQB+AIp4cQB+ABtxAH4AiHEAfgCGeHEAfgB2cHhxAH4AdnB4cQB+AHZxAH4AaXEAfgB6eHEAfgB2cQB+AGdxAH4AfnhxAH4AdnNxAH4AAnNxAH4ABwAAAAJ3BAAAAAJzcQB+AAJzcQB+AAcAAAACdwQAAAACc3EAfgACc3EAfgAHAAAAAncEAAAAAnNxAH4AAnNxAH4ABwAAAAB3BAAAAAB4cQB+AG9xAH4AlHNxAH4AAnNxAH4ABwAAAAB3BAAAAAB4cQB+AA1xAH4AlHhxAH4AdnEAfgCSc3EAfgACc3EAfgAHAAAAAHcEAAAAAHhxAH4ADXEAfgCSeHEAfgB2cQB+AJBxAH4AZ3hxAH4AG3NxAH4AAnNxAH4ABwAAAAJ3BAAAAAJxAH4AkHEAfgCGeHEAfgB2cHhxAH4AG3EAfgBhcQB+AIZ4cQB+AHZwc3EAfgACc3EAfgAHAAAAAHcEAAAAAHhzcQB+AAt0AAJ4M3B4";
