ea.runOutcome(
  index = 15;
  run = ea.run(
    problem = ea.p.mr.fromData(
      trainingDataset = ea.dataset.numerical.fromFile(
        filePath = "../phase2/data-ro-ga-3-002.txt";
        folds = [0];
        nFolds = 50;
        xVarNamePattern = "x.*";
        yVarNamePattern = "y.*"
      )
    );
    randomGenerator = ea.rg.defaultRG(seed = 1);
    solver = ea.s.multiSRTreeGP(
      crossoverP = 0.8;
      diversity = true;
      mapper = ea.m.treeMRF(
        dataset = ea.d.num.empty(
          xVars = [
            x01;
            x02;
            x03;
            x04;
            x05;
            x06;
            x07;
            x08;
            x09;
            x10;
            x11;
            x12;
            x13;
            x14;
            x15;
            x16
          ];
          yVars = [y1; y2; y3; y4]
        );
        postOperator = tanh
      );
      maxConst = 5;
      maxTreeH = 8;
      minConst = 0;
      minNTournament = 3;
      minTreeH = 3;
      nAttemptsDiversity = 100;
      nConst = 10;
      nEval = 10000;
      nPop = 100;
      operators = [
        addition;
        subtraction;
        multiplication;
        prot_division;
        prot_log
      ];
      tournamentRate = 0.05
    )
  );
  serializedGenotypes = [
    "rO0ABXNyABFqYXZhLnV0aWwuQ29sbFNlcleOq7Y6G6gRAwABSQADdGFneHAAAAAEdwQAAAAEc3IAN2lvLmdpdGh1Yi5lcmljbWVkdmV0LmpnZWEuY29yZS5yZXByZXNlbnRhdGlvbi50cmVlLlRyZWUKs7/qnQrEZQIAA0wACGNoaWxkcmVudAAQTGphdmEvdXRpbC9MaXN0O0wAB2NvbnRlbnR0ABJMamF2YS9sYW5nL09iamVjdDtMAAZwYXJlbnR0ADlMaW8vZ2l0aHViL2VyaWNtZWR2ZXQvamdlYS9jb3JlL3JlcHJlc2VudGF0aW9uL3RyZWUvVHJlZTt4cHNyABNqYXZhLnV0aWwuQXJyYXlMaXN0eIHSHZnHYZ0DAAFJAARzaXpleHAAAAAAdwQAAAAAeHNyAEtpby5naXRodWIuZXJpY21lZHZldC5qZ2VhLmNvcmUucmVwcmVzZW50YXRpb24udHJlZS5udW1lcmljLkVsZW1lbnQkVmFyaWFibGUAAAAAAAAAAAIAAUwABG5hbWV0ABJMamF2YS9sYW5nL1N0cmluZzt4cHQAA3gwMnBzcQB+AAJzcQB+AAcAAAAAdwQAAAAAeHNxAH4ACXQAA3gwM3BzcQB+AAJzcQB+AAcAAAACdwQAAAACc3EAfgACc3EAfgAHAAAAAncEAAAAAnNxAH4AAnNxAH4ABwAAAAJ3BAAAAAJzcQB+AAJzcQB+AAcAAAACdwQAAAACc3EAfgACc3EAfgAHAAAAAncEAAAAAnNxAH4AAnNxAH4ABwAAAAJ3BAAAAAJzcQB+AAJzcQB+AAcAAAACdwQAAAACc3EAfgACc3EAfgAHAAAAAncEAAAAAnNxAH4AAnNxAH4ABwAAAAJ3BAAAAAJzcQB+AAJzcQB+AAcAAAACdwQAAAACc3EAfgACc3EAfgAHAAAAAncEAAAAAnNxAH4AAnNxAH4ABwAAAAJ3BAAAAAJzcQB+AAJzcQB+AAcAAAACdwQAAAACc3EAfgACc3EAfgAHAAAAAncEAAAAAnNxAH4AAnNxAH4ABwAAAAJ3BAAAAAJzcQB+AAJzcQB+AAcAAAACdwQAAAACc3EAfgACc3EAfgAHAAAAAHcEAAAAAHhzcQB+AAl0AAN4MTBxAH4AL3NxAH4AAnNxAH4ABwAAAAB3BAAAAAB4c3EAfgAJdAADeDE0c3EAfgACc3EAfgAHAAAAAncEAAAAAnNxAH4AAnNxAH4ABwAAAAB3BAAAAAB4cQB+ADdxAH4AOXEAfgA1eH5yAEtpby5naXRodWIuZXJpY21lZHZldC5qZ2VhLmNvcmUucmVwcmVzZW50YXRpb24udHJlZS5udW1lcmljLkVsZW1lbnQkT3BlcmF0b3IAAAAAAAAAABIAAHhyAA5qYXZhLmxhbmcuRW51bQAAAAAAAAAAEgAAeHB0AAtTVUJUUkFDVElPTnNxAH4AAnNxAH4ABwAAAAJ3BAAAAAJxAH4AOXNxAH4AAnNxAH4ABwAAAAB3BAAAAAB4cQB+ADdzcQB+AAJzcQB+AAcAAAACdwQAAAACc3EAfgACc3EAfgAHAAAAAncEAAAAAnNxAH4AAnNxAH4ABwAAAAB3BAAAAAB4cQB+ADNxAH4AR3NxAH4AAnNxAH4ABwAAAAB3BAAAAAB4cQB+ADNxAH4AR3hxAH4AP3EAfgBFcQB+AEN4cQB+AD9zcQB+AAJzcQB+AAcAAAACdwQAAAACcQB+AEVzcQB+AAJzcQB+AAcAAAAAdwQAAAAAeHEAfgA3cQB+AE14cQB+AD9zcQB+AAJzcQB+AAcAAAACdwQAAAACcQB+AE1zcQB+AAJzcQB+AAcAAAAAdwQAAAAAeHEAfgA3cQB+AFF4cQB+AD9zcQB+AAJzcQB+AAcAAAACdwQAAAACcQB+AFFzcQB+AAJzcQB+AAcAAAAAdwQAAAAAeHEAfgA3cQB+AFV4cQB+AD9zcQB+AAJzcQB+AAcAAAACdwQAAAACcQB+AFVzcQB+AAJzcQB+AAcAAAAAdwQAAAAAeHEAfgA3cQB+AFl4cQB+AD9zcQB+AAJzcQB+AAcAAAACdwQAAAACcQB+AFlzcQB+AAJzcQB+AAcAAAAAdwQAAAAAeHEAfgA3cQB+AF14cQB+AD9zcQB+AAJzcQB+AAcAAAACdwQAAAACcQB+AF1zcQB+AAJzcQB+AAcAAAAAdwQAAAAAeHEAfgA3cQB+AGF4cQB+AD9zcQB+AAJzcQB+AAcAAAACdwQAAAACcQB+AGFzcQB+AAJzcQB+AAcAAAAAdwQAAAAAeHEAfgA3cQB+AGV4cQB+AD9zcQB+AAJzcQB+AAcAAAACdwQAAAACcQB+AGVzcQB+AAJzcQB+AAcAAAAAdwQAAAAAeHEAfgA3cQB+AGl4cQB+AD9zcQB+AAJzcQB+AAcAAAACdwQAAAACcQB+AGlzcQB+AAJzcQB+AAcAAAAAdwQAAAAAeHEAfgA3cQB+AG14cQB+AD9zcQB+AAJzcQB+AAcAAAACdwQAAAACcQB+AG1zcQB+AAJzcQB+AAcAAAAAdwQAAAAAeHEAfgA3cQB+AHF4cQB+AD9zcQB+AAJzcQB+AAcAAAACdwQAAAACcQB+AHFzcQB+AAJzcQB+AAcAAAAAdwQAAAAAeHEAfgA3cQB+AHV4cQB+AD9zcQB+AAJzcQB+AAcAAAACdwQAAAACcQB+AHVzcQB+AAJzcQB+AAcAAAAAdwQAAAAAeHEAfgA3cQB+AHl4cQB+AD9zcQB+AAJzcQB+AAcAAAACdwQAAAACcQB+AHlzcQB+AAJzcQB+AAcAAAACdwQAAAACc3EAfgACc3EAfgAHAAAAAHcEAAAAAHhxAH4AM3EAfgB/c3EAfgACc3EAfgAHAAAAAHcEAAAAAHhxAH4AN3EAfgB/eHEAfgA/cQB+AH14fnEAfgA9dAAOTVVMVElQTElDQVRJT05zcQB+AAJzcQB+AAcAAAACdwQAAAACcQB+AH1zcQB+AAJzcQB+AAcAAAAAdwQAAAAAeHNxAH4ACXQAA3gwNnEAfgCHeHEAfgA/cHhxAH4AP3NxAH4AAnNxAH4ABwAAAAJ3BAAAAAJxAH4AQXEAfgBPeHEAfgA/c3EAfgACc3EAfgAHAAAAAncEAAAAAnEAfgCNcQB+AFN4cQB+AD9zcQB+AAJzcQB+AAcAAAACdwQAAAACcQB+AI9xAH4AV3hxAH4AP3NxAH4AAnNxAH4ABwAAAAJ3BAAAAAJxAH4AkXEAfgBbeHEAfgA/c3EAfgACc3EAfgAHAAAAAncEAAAAAnEAfgCTcQB+AF94cQB+AD9zcQB+AAJzcQB+AAcAAAACdwQAAAACcQB+AJVxAH4AY3hxAH4AP3NxAH4AAnNxAH4ABwAAAAJ3BAAAAAJxAH4Al3EAfgBneHEAfgA/c3EAfgACc3EAfgAHAAAAAncEAAAAAnEAfgCZcQB+AGt4cQB+AD9zcQB+AAJzcQB+AAcAAAACdwQAAAACcQB+AJtxAH4Ab3hxAH4AP3NxAH4AAnNxAH4ABwAAAAJ3BAAAAAJxAH4AnXEAfgBzeHEAfgA/c3EAfgACc3EAfgAHAAAAAncEAAAAAnEAfgCfcQB+AHd4cQB+AD9zcQB+AAJzcQB+AAcAAAACdwQAAAACcQB+AKFxAH4Ae3hxAH4AP3NxAH4AAnNxAH4ABwAAAAJ3BAAAAAJxAH4Ao3EAfgB/eHEAfgCFc3EAfgACc3EAfgAHAAAAAncEAAAAAnEAfgClcQB+AIl4cQB+AD9weHEAfgA/cQB+AC1xAH4AQ3hxAH4AP3EAfgArcQB+AE94cQB+AD9xAH4AKXEAfgBTeHEAfgA/cQB+ACdxAH4AV3hxAH4AP3EAfgAlcQB+AFt4cQB+AD9xAH4AI3EAfgBfeHEAfgA/cQB+ACFxAH4AY3hxAH4AP3EAfgAfcQB+AGd4cQB+AD9xAH4AHXEAfgBreHEAfgA/cQB+ABtxAH4Ab3hxAH4AP3EAfgAZcQB+AHN4cQB+AD9xAH4AF3EAfgB3eHEAfgA/cQB+ABVxAH4Ae3hxAH4AP3EAfgATcQB+AH94cQB+AIVxAH4AEXEAfgCJeHEAfgA/cHNxAH4AAnNxAH4ABwAAAAJ3BAAAAAJzcQB+AAJzcQB+AAcAAAAAdwQAAAAAeHNyAEtpby5naXRodWIuZXJpY21lZHZldC5qZ2VhLmNvcmUucmVwcmVzZW50YXRpb24udHJlZS5udW1lcmljLkVsZW1lbnQkQ29uc3RhbnQAAAAAAAAAAAIAAUQABXZhbHVleHA/4AAAAAAAAHEAfgCpc3EAfgACc3EAfgAHAAAAAHcEAAAAAHhxAH4ArnNxAH4AAnNxAH4ABwAAAAJ3BAAAAAJzcQB+AAJzcQB+AAcAAAACdwQAAAACc3EAfgACc3EAfgAHAAAAAHcEAAAAAHhxAH4ArnEAfgCzc3EAfgACc3EAfgAHAAAAAHcEAAAAAHhxAH4ArnEAfgCzeH5xAH4APXQACEFERElUSU9OcQB+ALFxAH4Ar3hxAH4AuXB4cQB+ALlweA==";
    "rO0ABXNyABFqYXZhLnV0aWwuQ29sbFNlcleOq7Y6G6gRAwABSQADdGFneHAAAAAEdwQAAAAEc3IAN2lvLmdpdGh1Yi5lcmljbWVkdmV0LmpnZWEuY29yZS5yZXByZXNlbnRhdGlvbi50cmVlLlRyZWUKs7/qnQrEZQIAA0wACGNoaWxkcmVudAAQTGphdmEvdXRpbC9MaXN0O0wAB2NvbnRlbnR0ABJMamF2YS9sYW5nL09iamVjdDtMAAZwYXJlbnR0ADlMaW8vZ2l0aHViL2VyaWNtZWR2ZXQvamdlYS9jb3JlL3JlcHJlc2VudGF0aW9uL3RyZWUvVHJlZTt4cHNyABNqYXZhLnV0aWwuQXJyYXlMaXN0eIHSHZnHYZ0DAAFJAARzaXpleHAAAAAAdwQAAAAAeHNyAEtpby5naXRodWIuZXJpY21lZHZldC5qZ2VhLmNvcmUucmVwcmVzZW50YXRpb24udHJlZS5udW1lcmljLkVsZW1lbnQkVmFyaWFibGUAAAAAAAAAAAIAAUwABG5hbWV0ABJMamF2YS9sYW5nL1N0cmluZzt4cHQAA3gwMnBzcQB+AAJzcQB+AAcAAAAAdwQAAAAAeHNxAH4ACXQAA3gwM3BzcQB+AAJzcQB+AAcAAAACdwQAAAACc3EAfgACc3EAfgAHAAAAAncEAAAAAnNxAH4AAnNxAH4ABwAAAAJ3BAAAAAJzcQB+AAJzcQB+AAcAAAACdwQAAAACc3EAfgACc3EAfgAHAAAAAncEAAAAAnNxAH4AAnNxAH4ABwAAAAJ3BAAAAAJzcQB+AAJzcQB+AAcAAAACdwQAAAACc3EAfgACc3EAfgAHAAAAAncEAAAAAnNxAH4AAnNxAH4ABwAAAAJ3BAAAAAJzcQB+AAJzcQB+AAcAAAACdwQAAAACc3EAfgACc3EAfgAHAAAAAncEAAAAAnNxAH4AAnNxAH4ABwAAAAJ3BAAAAAJzcQB+AAJzcQB+AAcAAAACdwQAAAACc3EAfgACc3EAfgAHAAAAAncEAAAAAnNxAH4AAnNxAH4ABwAAAAJ3BAAAAAJzcQB+AAJzcQB+AAcAAAACdwQAAAACc3EAfgACc3EAfgAHAAAAAHcEAAAAAHhzcQB+AAl0AAN4MTBxAH4AL3NxAH4AAnNxAH4ABwAAAAB3BAAAAAB4c3EAfgAJdAADeDE0c3EAfgACc3EAfgAHAAAAAncEAAAAAnNxAH4AAnNxAH4ABwAAAAB3BAAAAAB4cQB+ADdxAH4AOXEAfgA1eH5yAEtpby5naXRodWIuZXJpY21lZHZldC5qZ2VhLmNvcmUucmVwcmVzZW50YXRpb24udHJlZS5udW1lcmljLkVsZW1lbnQkT3BlcmF0b3IAAAAAAAAAABIAAHhyAA5qYXZhLmxhbmcuRW51bQAAAAAAAAAAEgAAeHB0AAtTVUJUUkFDVElPTnNxAH4AAnNxAH4ABwAAAAJ3BAAAAAJxAH4AOXNxAH4AAnNxAH4ABwAAAAB3BAAAAAB4cQB+ADdzcQB+AAJzcQB+AAcAAAACdwQAAAACc3EAfgACc3EAfgAHAAAAAncEAAAAAnNxAH4AAnNxAH4ABwAAAAB3BAAAAAB4cQB+ADNxAH4AR3NxAH4AAnNxAH4ABwAAAAB3BAAAAAB4cQB+ADNxAH4AR3hxAH4AP3EAfgBFcQB+AEN4cQB+AD9zcQB+AAJzcQB+AAcAAAACdwQAAAACcQB+AEVzcQB+AAJzcQB+AAcAAAAAdwQAAAAAeHEAfgA3cQB+AE14cQB+AD9zcQB+AAJzcQB+AAcAAAACdwQAAAACcQB+AE1zcQB+AAJzcQB+AAcAAAAAdwQAAAAAeHEAfgA3cQB+AFF4cQB+AD9zcQB+AAJzcQB+AAcAAAACdwQAAAACcQB+AFFzcQB+AAJzcQB+AAcAAAAAdwQAAAAAeHEAfgA3cQB+AFV4cQB+AD9zcQB+AAJzcQB+AAcAAAACdwQAAAACcQB+AFVzcQB+AAJzcQB+AAcAAAAAdwQAAAAAeHEAfgA3cQB+AFl4cQB+AD9zcQB+AAJzcQB+AAcAAAACdwQAAAACcQB+AFlzcQB+AAJzcQB+AAcAAAAAdwQAAAAAeHEAfgA3cQB+AF14cQB+AD9zcQB+AAJzcQB+AAcAAAACdwQAAAACcQB+AF1zcQB+AAJzcQB+AAcAAAAAdwQAAAAAeHEAfgA3cQB+AGF4cQB+AD9zcQB+AAJzcQB+AAcAAAACdwQAAAACcQB+AGFzcQB+AAJzcQB+AAcAAAAAdwQAAAAAeHEAfgA3cQB+AGV4cQB+AD9zcQB+AAJzcQB+AAcAAAACdwQAAAACcQB+AGVzcQB+AAJzcQB+AAcAAAAAdwQAAAAAeHEAfgA3cQB+AGl4cQB+AD9zcQB+AAJzcQB+AAcAAAACdwQAAAACcQB+AGlzcQB+AAJzcQB+AAcAAAAAdwQAAAAAeHEAfgA3cQB+AG14cQB+AD9zcQB+AAJzcQB+AAcAAAACdwQAAAACcQB+AG1zcQB+AAJzcQB+AAcAAAAAdwQAAAAAeHEAfgA3cQB+AHF4cQB+AD9zcQB+AAJzcQB+AAcAAAACdwQAAAACcQB+AHFzcQB+AAJzcQB+AAcAAAAAdwQAAAAAeHEAfgA3cQB+AHV4cQB+AD9zcQB+AAJzcQB+AAcAAAACdwQAAAACcQB+AHVzcQB+AAJzcQB+AAcAAAAAdwQAAAAAeHEAfgA3cQB+AHl4cQB+AD9zcQB+AAJzcQB+AAcAAAACdwQAAAACcQB+AHlzcQB+AAJzcQB+AAcAAAACdwQAAAACc3EAfgACc3EAfgAHAAAAAHcEAAAAAHhxAH4AM3EAfgB/c3EAfgACc3EAfgAHAAAAAHcEAAAAAHhxAH4AN3EAfgB/eHEAfgA/cQB+AH14fnEAfgA9dAAOTVVMVElQTElDQVRJT05zcQB+AAJzcQB+AAcAAAACdwQAAAACcQB+AH1zcQB+AAJzcQB+AAcAAAAAdwQAAAAAeHNxAH4ACXQAA3gwNnEAfgCHeHEAfgA/cHhxAH4AP3NxAH4AAnNxAH4ABwAAAAJ3BAAAAAJxAH4AQXEAfgBPeHEAfgA/c3EAfgACc3EAfgAHAAAAAncEAAAAAnEAfgCNcQB+AFN4cQB+AD9zcQB+AAJzcQB+AAcAAAACdwQAAAACcQB+AI9xAH4AV3hxAH4AP3NxAH4AAnNxAH4ABwAAAAJ3BAAAAAJxAH4AkXEAfgBbeHEAfgA/c3EAfgACc3EAfgAHAAAAAncEAAAAAnEAfgCTcQB+AF94cQB+AD9zcQB+AAJzcQB+AAcAAAACdwQAAAACcQB+AJVxAH4AY3hxAH4AP3NxAH4AAnNxAH4ABwAAAAJ3BAAAAAJxAH4Al3EAfgBneHEAfgA/c3EAfgACc3EAfgAHAAAAAncEAAAAAnEAfgCZcQB+AGt4cQB+AD9zcQB+AAJzcQB+AAcAAAACdwQAAAACcQB+AJtxAH4Ab3hxAH4AP3NxAH4AAnNxAH4ABwAAAAJ3BAAAAAJxAH4AnXEAfgBzeHEAfgA/c3EAfgACc3EAfgAHAAAAAncEAAAAAnEAfgCfcQB+AHd4cQB+AD9zcQB+AAJzcQB+AAcAAAACdwQAAAACcQB+AKFxAH4Ae3hxAH4AP3NxAH4AAnNxAH4ABwAAAAJ3BAAAAAJxAH4Ao3EAfgB/eHEAfgCFc3EAfgACc3EAfgAHAAAAAncEAAAAAnEAfgClcQB+AIl4cQB+AD9weHEAfgA/cQB+AC1xAH4AQ3hxAH4AP3EAfgArcQB+AE94cQB+AD9xAH4AKXEAfgBTeHEAfgA/cQB+ACdxAH4AV3hxAH4AP3EAfgAlcQB+AFt4cQB+AD9xAH4AI3EAfgBfeHEAfgA/cQB+ACFxAH4AY3hxAH4AP3EAfgAfcQB+AGd4cQB+AD9xAH4AHXEAfgBreHEAfgA/cQB+ABtxAH4Ab3hxAH4AP3EAfgAZcQB+AHN4cQB+AD9xAH4AF3EAfgB3eHEAfgA/cQB+ABVxAH4Ae3hxAH4AP3EAfgATcQB+AH94cQB+AIVxAH4AEXEAfgCJeHEAfgA/cHNxAH4AAnNxAH4ABwAAAAJ3BAAAAAJzcQB+AAJzcQB+AAcAAAAAdwQAAAAAeHNyAEtpby5naXRodWIuZXJpY21lZHZldC5qZ2VhLmNvcmUucmVwcmVzZW50YXRpb24udHJlZS5udW1lcmljLkVsZW1lbnQkQ29uc3RhbnQAAAAAAAAAAAIAAUQABXZhbHVleHA/4AAAAAAAAHEAfgCpc3EAfgACc3EAfgAHAAAAAHcEAAAAAHhxAH4ArnNxAH4AAnNxAH4ABwAAAAJ3BAAAAAJzcQB+AAJzcQB+AAcAAAACdwQAAAACc3EAfgACc3EAfgAHAAAAAHcEAAAAAHhxAH4ArnEAfgCzc3EAfgACc3EAfgAHAAAAAHcEAAAAAHhxAH4ArnEAfgCzeH5xAH4APXQACEFERElUSU9OcQB+ALFxAH4Ar3hxAH4AuXB4cQB+ALlweA==";
    "rO0ABXNyABFqYXZhLnV0aWwuQ29sbFNlcleOq7Y6G6gRAwABSQADdGFneHAAAAAEdwQAAAAEc3IAN2lvLmdpdGh1Yi5lcmljbWVkdmV0LmpnZWEuY29yZS5yZXByZXNlbnRhdGlvbi50cmVlLlRyZWUKs7/qnQrEZQIAA0wACGNoaWxkcmVudAAQTGphdmEvdXRpbC9MaXN0O0wAB2NvbnRlbnR0ABJMamF2YS9sYW5nL09iamVjdDtMAAZwYXJlbnR0ADlMaW8vZ2l0aHViL2VyaWNtZWR2ZXQvamdlYS9jb3JlL3JlcHJlc2VudGF0aW9uL3RyZWUvVHJlZTt4cHNyABNqYXZhLnV0aWwuQXJyYXlMaXN0eIHSHZnHYZ0DAAFJAARzaXpleHAAAAAAdwQAAAAAeHNyAEtpby5naXRodWIuZXJpY21lZHZldC5qZ2VhLmNvcmUucmVwcmVzZW50YXRpb24udHJlZS5udW1lcmljLkVsZW1lbnQkVmFyaWFibGUAAAAAAAAAAAIAAUwABG5hbWV0ABJMamF2YS9sYW5nL1N0cmluZzt4cHQAA3gwMnBzcQB+AAJzcQB+AAcAAAAAdwQAAAAAeHNxAH4ACXQAA3gwM3BzcQB+AAJzcQB+AAcAAAACdwQAAAACc3EAfgACc3EAfgAHAAAAAncEAAAAAnNxAH4AAnNxAH4ABwAAAAJ3BAAAAAJzcQB+AAJzcQB+AAcAAAACdwQAAAACc3EAfgACc3EAfgAHAAAAAncEAAAAAnNxAH4AAnNxAH4ABwAAAAJ3BAAAAAJzcQB+AAJzcQB+AAcAAAACdwQAAAACc3EAfgACc3EAfgAHAAAAAncEAAAAAnNxAH4AAnNxAH4ABwAAAAJ3BAAAAAJzcQB+AAJzcQB+AAcAAAACdwQAAAACc3EAfgACc3EAfgAHAAAAAncEAAAAAnNxAH4AAnNxAH4ABwAAAAJ3BAAAAAJzcQB+AAJzcQB+AAcAAAACdwQAAAACc3EAfgACc3EAfgAHAAAAAncEAAAAAnNxAH4AAnNxAH4ABwAAAAJ3BAAAAAJzcQB+AAJzcQB+AAcAAAACdwQAAAACc3EAfgACc3EAfgAHAAAAAHcEAAAAAHhzcQB+AAl0AAN4MTBxAH4AL3NxAH4AAnNxAH4ABwAAAAB3BAAAAAB4c3EAfgAJdAADeDE0c3EAfgACc3EAfgAHAAAAAncEAAAAAnNxAH4AAnNxAH4ABwAAAAB3BAAAAAB4cQB+ADdxAH4AOXEAfgA1eH5yAEtpby5naXRodWIuZXJpY21lZHZldC5qZ2VhLmNvcmUucmVwcmVzZW50YXRpb24udHJlZS5udW1lcmljLkVsZW1lbnQkT3BlcmF0b3IAAAAAAAAAABIAAHhyAA5qYXZhLmxhbmcuRW51bQAAAAAAAAAAEgAAeHB0AAtTVUJUUkFDVElPTnNxAH4AAnNxAH4ABwAAAAJ3BAAAAAJxAH4AOXNxAH4AAnNxAH4ABwAAAAB3BAAAAAB4cQB+ADdzcQB+AAJzcQB+AAcAAAACdwQAAAACc3EAfgACc3EAfgAHAAAAAncEAAAAAnNxAH4AAnNxAH4ABwAAAAB3BAAAAAB4cQB+ADNxAH4AR3NxAH4AAnNxAH4ABwAAAAB3BAAAAAB4cQB+ADNxAH4AR3hxAH4AP3EAfgBFcQB+AEN4cQB+AD9zcQB+AAJzcQB+AAcAAAACdwQAAAACcQB+AEVzcQB+AAJzcQB+AAcAAAAAdwQAAAAAeHEAfgA3cQB+AE14cQB+AD9zcQB+AAJzcQB+AAcAAAACdwQAAAACcQB+AE1zcQB+AAJzcQB+AAcAAAAAdwQAAAAAeHEAfgA3cQB+AFF4cQB+AD9zcQB+AAJzcQB+AAcAAAACdwQAAAACcQB+AFFzcQB+AAJzcQB+AAcAAAAAdwQAAAAAeHEAfgA3cQB+AFV4cQB+AD9zcQB+AAJzcQB+AAcAAAACdwQAAAACcQB+AFVzcQB+AAJzcQB+AAcAAAAAdwQAAAAAeHEAfgA3cQB+AFl4cQB+AD9zcQB+AAJzcQB+AAcAAAACdwQAAAACcQB+AFlzcQB+AAJzcQB+AAcAAAAAdwQAAAAAeHEAfgA3cQB+AF14cQB+AD9zcQB+AAJzcQB+AAcAAAACdwQAAAACcQB+AF1zcQB+AAJzcQB+AAcAAAAAdwQAAAAAeHEAfgA3cQB+AGF4cQB+AD9zcQB+AAJzcQB+AAcAAAACdwQAAAACcQB+AGFzcQB+AAJzcQB+AAcAAAAAdwQAAAAAeHEAfgA3cQB+AGV4cQB+AD9zcQB+AAJzcQB+AAcAAAACdwQAAAACcQB+AGVzcQB+AAJzcQB+AAcAAAAAdwQAAAAAeHEAfgA3cQB+AGl4cQB+AD9zcQB+AAJzcQB+AAcAAAACdwQAAAACcQB+AGlzcQB+AAJzcQB+AAcAAAAAdwQAAAAAeHEAfgA3cQB+AG14cQB+AD9zcQB+AAJzcQB+AAcAAAACdwQAAAACcQB+AG1zcQB+AAJzcQB+AAcAAAAAdwQAAAAAeHEAfgA3cQB+AHF4cQB+AD9zcQB+AAJzcQB+AAcAAAACdwQAAAACcQB+AHFzcQB+AAJzcQB+AAcAAAAAdwQAAAAAeHEAfgA3cQB+AHV4cQB+AD9zcQB+AAJzcQB+AAcAAAACdwQAAAACcQB+AHVzcQB+AAJzcQB+AAcAAAAAdwQAAAAAeHEAfgA3cQB+AHl4cQB+AD9zcQB+AAJzcQB+AAcAAAACdwQAAAACcQB+AHlzcQB+AAJzcQB+AAcAAAACdwQAAAACc3EAfgACc3EAfgAHAAAAAHcEAAAAAHhxAH4AM3EAfgB/c3EAfgACc3EAfgAHAAAAAHcEAAAAAHhxAH4AN3EAfgB/eHEAfgA/cQB+AH14fnEAfgA9dAAOTVVMVElQTElDQVRJT05zcQB+AAJzcQB+AAcAAAACdwQAAAACcQB+AH1zcQB+AAJzcQB+AAcAAAAAdwQAAAAAeHNxAH4ACXQAA3gwNnEAfgCHeHEAfgA/cHhxAH4AP3NxAH4AAnNxAH4ABwAAAAJ3BAAAAAJxAH4AQXEAfgBPeHEAfgA/c3EAfgACc3EAfgAHAAAAAncEAAAAAnEAfgCNcQB+AFN4cQB+AD9zcQB+AAJzcQB+AAcAAAACdwQAAAACcQB+AI9xAH4AV3hxAH4AP3NxAH4AAnNxAH4ABwAAAAJ3BAAAAAJxAH4AkXEAfgBbeHEAfgA/c3EAfgACc3EAfgAHAAAAAncEAAAAAnEAfgCTcQB+AF94cQB+AD9zcQB+AAJzcQB+AAcAAAACdwQAAAACcQB+AJVxAH4AY3hxAH4AP3NxAH4AAnNxAH4ABwAAAAJ3BAAAAAJxAH4Al3EAfgBneHEAfgA/c3EAfgACc3EAfgAHAAAAAncEAAAAAnEAfgCZcQB+AGt4cQB+AD9zcQB+AAJzcQB+AAcAAAACdwQAAAACcQB+AJtxAH4Ab3hxAH4AP3NxAH4AAnNxAH4ABwAAAAJ3BAAAAAJxAH4AnXEAfgBzeHEAfgA/c3EAfgACc3EAfgAHAAAAAncEAAAAAnEAfgCfcQB+AHd4cQB+AD9zcQB+AAJzcQB+AAcAAAACdwQAAAACcQB+AKFxAH4Ae3hxAH4AP3NxAH4AAnNxAH4ABwAAAAJ3BAAAAAJxAH4Ao3EAfgB/eHEAfgCFc3EAfgACc3EAfgAHAAAAAncEAAAAAnEAfgClcQB+AIl4cQB+AD9weHEAfgA/cQB+AC1xAH4AQ3hxAH4AP3EAfgArcQB+AE94cQB+AD9xAH4AKXEAfgBTeHEAfgA/cQB+ACdxAH4AV3hxAH4AP3EAfgAlcQB+AFt4cQB+AD9xAH4AI3EAfgBfeHEAfgA/cQB+ACFxAH4AY3hxAH4AP3EAfgAfcQB+AGd4cQB+AD9xAH4AHXEAfgBreHEAfgA/cQB+ABtxAH4Ab3hxAH4AP3EAfgAZcQB+AHN4cQB+AD9xAH4AF3EAfgB3eHEAfgA/cQB+ABVxAH4Ae3hxAH4AP3EAfgATcQB+AH94cQB+AIVxAH4AEXEAfgCJeHEAfgA/cHNxAH4AAnNxAH4ABwAAAAJ3BAAAAAJzcQB+AAJzcQB+AAcAAAAAdwQAAAAAeHNyAEtpby5naXRodWIuZXJpY21lZHZldC5qZ2VhLmNvcmUucmVwcmVzZW50YXRpb24udHJlZS5udW1lcmljLkVsZW1lbnQkQ29uc3RhbnQAAAAAAAAAAAIAAUQABXZhbHVleHA/4AAAAAAAAHEAfgCpc3EAfgACc3EAfgAHAAAAAHcEAAAAAHhxAH4ArnNxAH4AAnNxAH4ABwAAAAJ3BAAAAAJzcQB+AAJzcQB+AAcAAAACdwQAAAACc3EAfgACc3EAfgAHAAAAAHcEAAAAAHhxAH4ArnEAfgCzc3EAfgACc3EAfgAHAAAAAHcEAAAAAHhxAH4ArnEAfgCzeH5xAH4APXQACEFERElUSU9OcQB+ALFxAH4Ar3hxAH4AuXB4cQB+ALlweA==";
    "rO0ABXNyABFqYXZhLnV0aWwuQ29sbFNlcleOq7Y6G6gRAwABSQADdGFneHAAAAAEdwQAAAAEc3IAN2lvLmdpdGh1Yi5lcmljbWVkdmV0LmpnZWEuY29yZS5yZXByZXNlbnRhdGlvbi50cmVlLlRyZWUKs7/qnQrEZQIAA0wACGNoaWxkcmVudAAQTGphdmEvdXRpbC9MaXN0O0wAB2NvbnRlbnR0ABJMamF2YS9sYW5nL09iamVjdDtMAAZwYXJlbnR0ADlMaW8vZ2l0aHViL2VyaWNtZWR2ZXQvamdlYS9jb3JlL3JlcHJlc2VudGF0aW9uL3RyZWUvVHJlZTt4cHNyABNqYXZhLnV0aWwuQXJyYXlMaXN0eIHSHZnHYZ0DAAFJAARzaXpleHAAAAAAdwQAAAAAeHNyAEtpby5naXRodWIuZXJpY21lZHZldC5qZ2VhLmNvcmUucmVwcmVzZW50YXRpb24udHJlZS5udW1lcmljLkVsZW1lbnQkVmFyaWFibGUAAAAAAAAAAAIAAUwABG5hbWV0ABJMamF2YS9sYW5nL1N0cmluZzt4cHQAA3gwMnBzcQB+AAJzcQB+AAcAAAAAdwQAAAAAeHNxAH4ACXQAA3gwM3BzcQB+AAJzcQB+AAcAAAACdwQAAAACc3EAfgACc3EAfgAHAAAAAncEAAAAAnNxAH4AAnNxAH4ABwAAAAJ3BAAAAAJzcQB+AAJzcQB+AAcAAAACdwQAAAACc3EAfgACc3EAfgAHAAAAAncEAAAAAnNxAH4AAnNxAH4ABwAAAAJ3BAAAAAJzcQB+AAJzcQB+AAcAAAACdwQAAAACc3EAfgACc3EAfgAHAAAAAncEAAAAAnNxAH4AAnNxAH4ABwAAAAJ3BAAAAAJzcQB+AAJzcQB+AAcAAAACdwQAAAACc3EAfgACc3EAfgAHAAAAAncEAAAAAnNxAH4AAnNxAH4ABwAAAAJ3BAAAAAJzcQB+AAJzcQB+AAcAAAACdwQAAAACc3EAfgACc3EAfgAHAAAAAncEAAAAAnNxAH4AAnNxAH4ABwAAAAJ3BAAAAAJzcQB+AAJzcQB+AAcAAAACdwQAAAACc3EAfgACc3EAfgAHAAAAAHcEAAAAAHhzcQB+AAl0AAN4MTBxAH4AL3NxAH4AAnNxAH4ABwAAAAB3BAAAAAB4c3EAfgAJdAADeDE0c3EAfgACc3EAfgAHAAAAAncEAAAAAnNxAH4AAnNxAH4ABwAAAAB3BAAAAAB4cQB+ADdxAH4AOXEAfgA1eH5yAEtpby5naXRodWIuZXJpY21lZHZldC5qZ2VhLmNvcmUucmVwcmVzZW50YXRpb24udHJlZS5udW1lcmljLkVsZW1lbnQkT3BlcmF0b3IAAAAAAAAAABIAAHhyAA5qYXZhLmxhbmcuRW51bQAAAAAAAAAAEgAAeHB0AAtTVUJUUkFDVElPTnNxAH4AAnNxAH4ABwAAAAJ3BAAAAAJxAH4AOXNxAH4AAnNxAH4ABwAAAAB3BAAAAAB4cQB+ADdzcQB+AAJzcQB+AAcAAAACdwQAAAACc3EAfgACc3EAfgAHAAAAAncEAAAAAnNxAH4AAnNxAH4ABwAAAAB3BAAAAAB4cQB+ADNxAH4AR3NxAH4AAnNxAH4ABwAAAAB3BAAAAAB4cQB+ADNxAH4AR3hxAH4AP3EAfgBFcQB+AEN4cQB+AD9zcQB+AAJzcQB+AAcAAAACdwQAAAACcQB+AEVzcQB+AAJzcQB+AAcAAAAAdwQAAAAAeHEAfgA3cQB+AE14cQB+AD9zcQB+AAJzcQB+AAcAAAACdwQAAAACcQB+AE1zcQB+AAJzcQB+AAcAAAAAdwQAAAAAeHEAfgA3cQB+AFF4cQB+AD9zcQB+AAJzcQB+AAcAAAACdwQAAAACcQB+AFFzcQB+AAJzcQB+AAcAAAAAdwQAAAAAeHEAfgA3cQB+AFV4cQB+AD9zcQB+AAJzcQB+AAcAAAACdwQAAAACcQB+AFVzcQB+AAJzcQB+AAcAAAAAdwQAAAAAeHEAfgA3cQB+AFl4cQB+AD9zcQB+AAJzcQB+AAcAAAACdwQAAAACcQB+AFlzcQB+AAJzcQB+AAcAAAAAdwQAAAAAeHEAfgA3cQB+AF14cQB+AD9zcQB+AAJzcQB+AAcAAAACdwQAAAACcQB+AF1zcQB+AAJzcQB+AAcAAAAAdwQAAAAAeHEAfgA3cQB+AGF4cQB+AD9zcQB+AAJzcQB+AAcAAAACdwQAAAACcQB+AGFzcQB+AAJzcQB+AAcAAAAAdwQAAAAAeHEAfgA3cQB+AGV4cQB+AD9zcQB+AAJzcQB+AAcAAAACdwQAAAACcQB+AGVzcQB+AAJzcQB+AAcAAAAAdwQAAAAAeHEAfgA3cQB+AGl4cQB+AD9zcQB+AAJzcQB+AAcAAAACdwQAAAACcQB+AGlzcQB+AAJzcQB+AAcAAAAAdwQAAAAAeHEAfgA3cQB+AG14cQB+AD9zcQB+AAJzcQB+AAcAAAACdwQAAAACcQB+AG1zcQB+AAJzcQB+AAcAAAAAdwQAAAAAeHEAfgA3cQB+AHF4cQB+AD9zcQB+AAJzcQB+AAcAAAACdwQAAAACcQB+AHFzcQB+AAJzcQB+AAcAAAAAdwQAAAAAeHEAfgA3cQB+AHV4cQB+AD9zcQB+AAJzcQB+AAcAAAACdwQAAAACcQB+AHVzcQB+AAJzcQB+AAcAAAAAdwQAAAAAeHEAfgA3cQB+AHl4cQB+AD9zcQB+AAJzcQB+AAcAAAACdwQAAAACcQB+AHlzcQB+AAJzcQB+AAcAAAACdwQAAAACc3EAfgACc3EAfgAHAAAAAHcEAAAAAHhxAH4AM3EAfgB/c3EAfgACc3EAfgAHAAAAAHcEAAAAAHhxAH4AN3EAfgB/eHEAfgA/cQB+AH14fnEAfgA9dAAOTVVMVElQTElDQVRJT05zcQB+AAJzcQB+AAcAAAACdwQAAAACcQB+AH1zcQB+AAJzcQB+AAcAAAAAdwQAAAAAeHNxAH4ACXQAA3gwNnEAfgCHeHEAfgA/cHhxAH4AP3NxAH4AAnNxAH4ABwAAAAJ3BAAAAAJxAH4AQXEAfgBPeHEAfgA/c3EAfgACc3EAfgAHAAAAAncEAAAAAnEAfgCNcQB+AFN4cQB+AD9zcQB+AAJzcQB+AAcAAAACdwQAAAACcQB+AI9xAH4AV3hxAH4AP3NxAH4AAnNxAH4ABwAAAAJ3BAAAAAJxAH4AkXEAfgBbeHEAfgA/c3EAfgACc3EAfgAHAAAAAncEAAAAAnEAfgCTcQB+AF94cQB+AD9zcQB+AAJzcQB+AAcAAAACdwQAAAACcQB+AJVxAH4AY3hxAH4AP3NxAH4AAnNxAH4ABwAAAAJ3BAAAAAJxAH4Al3EAfgBneHEAfgA/c3EAfgACc3EAfgAHAAAAAncEAAAAAnEAfgCZcQB+AGt4cQB+AD9zcQB+AAJzcQB+AAcAAAACdwQAAAACcQB+AJtxAH4Ab3hxAH4AP3NxAH4AAnNxAH4ABwAAAAJ3BAAAAAJxAH4AnXEAfgBzeHEAfgA/c3EAfgACc3EAfgAHAAAAAncEAAAAAnEAfgCfcQB+AHd4cQB+AD9zcQB+AAJzcQB+AAcAAAACdwQAAAACcQB+AKFxAH4Ae3hxAH4AP3NxAH4AAnNxAH4ABwAAAAJ3BAAAAAJxAH4Ao3EAfgB/eHEAfgCFc3EAfgACc3EAfgAHAAAAAncEAAAAAnEAfgClcQB+AIl4cQB+AD9weHEAfgA/cQB+AC1xAH4AQ3hxAH4AP3EAfgArcQB+AE94cQB+AD9xAH4AKXEAfgBTeHEAfgA/cQB+ACdxAH4AV3hxAH4AP3EAfgAlcQB+AFt4cQB+AD9xAH4AI3EAfgBfeHEAfgA/cQB+ACFxAH4AY3hxAH4AP3EAfgAfcQB+AGd4cQB+AD9xAH4AHXEAfgBreHEAfgA/cQB+ABtxAH4Ab3hxAH4AP3EAfgAZcQB+AHN4cQB+AD9xAH4AF3EAfgB3eHEAfgA/cQB+ABVxAH4Ae3hxAH4AP3EAfgATcQB+AH94cQB+AIVxAH4AEXEAfgCJeHEAfgA/cHNxAH4AAnNxAH4ABwAAAAJ3BAAAAAJzcQB+AAJzcQB+AAcAAAAAdwQAAAAAeHNyAEtpby5naXRodWIuZXJpY21lZHZldC5qZ2VhLmNvcmUucmVwcmVzZW50YXRpb24udHJlZS5udW1lcmljLkVsZW1lbnQkQ29uc3RhbnQAAAAAAAAAAAIAAUQABXZhbHVleHA/4AAAAAAAAHEAfgCpc3EAfgACc3EAfgAHAAAAAHcEAAAAAHhxAH4ArnNxAH4AAnNxAH4ABwAAAAJ3BAAAAAJzcQB+AAJzcQB+AAcAAAACdwQAAAACc3EAfgACc3EAfgAHAAAAAHcEAAAAAHhxAH4ArnEAfgCzc3EAfgACc3EAfgAHAAAAAHcEAAAAAHhxAH4ArnEAfgCzeH5xAH4APXQACEFERElUSU9OcQB+ALFxAH4Ar3hxAH4AuXB4cQB+ALlweA==";
    "rO0ABXNyABFqYXZhLnV0aWwuQ29sbFNlcleOq7Y6G6gRAwABSQADdGFneHAAAAAEdwQAAAAEc3IAN2lvLmdpdGh1Yi5lcmljbWVkdmV0LmpnZWEuY29yZS5yZXByZXNlbnRhdGlvbi50cmVlLlRyZWUKs7/qnQrEZQIAA0wACGNoaWxkcmVudAAQTGphdmEvdXRpbC9MaXN0O0wAB2NvbnRlbnR0ABJMamF2YS9sYW5nL09iamVjdDtMAAZwYXJlbnR0ADlMaW8vZ2l0aHViL2VyaWNtZWR2ZXQvamdlYS9jb3JlL3JlcHJlc2VudGF0aW9uL3RyZWUvVHJlZTt4cHNyABNqYXZhLnV0aWwuQXJyYXlMaXN0eIHSHZnHYZ0DAAFJAARzaXpleHAAAAAAdwQAAAAAeHNyAEtpby5naXRodWIuZXJpY21lZHZldC5qZ2VhLmNvcmUucmVwcmVzZW50YXRpb24udHJlZS5udW1lcmljLkVsZW1lbnQkVmFyaWFibGUAAAAAAAAAAAIAAUwABG5hbWV0ABJMamF2YS9sYW5nL1N0cmluZzt4cHQAA3gwMnBzcQB+AAJzcQB+AAcAAAAAdwQAAAAAeHNxAH4ACXQAA3gwM3BzcQB+AAJzcQB+AAcAAAACdwQAAAACc3EAfgACc3EAfgAHAAAAAncEAAAAAnNxAH4AAnNxAH4ABwAAAAJ3BAAAAAJzcQB+AAJzcQB+AAcAAAACdwQAAAACc3EAfgACc3EAfgAHAAAAAncEAAAAAnNxAH4AAnNxAH4ABwAAAAJ3BAAAAAJzcQB+AAJzcQB+AAcAAAACdwQAAAACc3EAfgACc3EAfgAHAAAAAncEAAAAAnNxAH4AAnNxAH4ABwAAAAJ3BAAAAAJzcQB+AAJzcQB+AAcAAAACdwQAAAACc3EAfgACc3EAfgAHAAAAAncEAAAAAnNxAH4AAnNxAH4ABwAAAAJ3BAAAAAJzcQB+AAJzcQB+AAcAAAACdwQAAAACc3EAfgACc3EAfgAHAAAAAncEAAAAAnNxAH4AAnNxAH4ABwAAAAJ3BAAAAAJzcQB+AAJzcQB+AAcAAAACdwQAAAACc3EAfgACc3EAfgAHAAAAAHcEAAAAAHhzcQB+AAl0AAN4MTBxAH4AL3NxAH4AAnNxAH4ABwAAAAB3BAAAAAB4c3EAfgAJdAADeDE0c3EAfgACc3EAfgAHAAAAAncEAAAAAnNxAH4AAnNxAH4ABwAAAAB3BAAAAAB4cQB+ADdxAH4AOXEAfgA1eH5yAEtpby5naXRodWIuZXJpY21lZHZldC5qZ2VhLmNvcmUucmVwcmVzZW50YXRpb24udHJlZS5udW1lcmljLkVsZW1lbnQkT3BlcmF0b3IAAAAAAAAAABIAAHhyAA5qYXZhLmxhbmcuRW51bQAAAAAAAAAAEgAAeHB0AAtTVUJUUkFDVElPTnNxAH4AAnNxAH4ABwAAAAJ3BAAAAAJxAH4AOXNxAH4AAnNxAH4ABwAAAAB3BAAAAAB4cQB+ADdzcQB+AAJzcQB+AAcAAAACdwQAAAACc3EAfgACc3EAfgAHAAAAAncEAAAAAnNxAH4AAnNxAH4ABwAAAAB3BAAAAAB4cQB+ADNxAH4AR3NxAH4AAnNxAH4ABwAAAAB3BAAAAAB4cQB+ADNxAH4AR3hxAH4AP3EAfgBFcQB+AEN4cQB+AD9zcQB+AAJzcQB+AAcAAAACdwQAAAACcQB+AEVzcQB+AAJzcQB+AAcAAAAAdwQAAAAAeHEAfgA3cQB+AE14cQB+AD9zcQB+AAJzcQB+AAcAAAACdwQAAAACcQB+AE1zcQB+AAJzcQB+AAcAAAAAdwQAAAAAeHEAfgA3cQB+AFF4cQB+AD9zcQB+AAJzcQB+AAcAAAACdwQAAAACcQB+AFFzcQB+AAJzcQB+AAcAAAAAdwQAAAAAeHEAfgA3cQB+AFV4cQB+AD9zcQB+AAJzcQB+AAcAAAACdwQAAAACcQB+AFVzcQB+AAJzcQB+AAcAAAAAdwQAAAAAeHEAfgA3cQB+AFl4cQB+AD9zcQB+AAJzcQB+AAcAAAACdwQAAAACcQB+AFlzcQB+AAJzcQB+AAcAAAAAdwQAAAAAeHEAfgA3cQB+AF14cQB+AD9zcQB+AAJzcQB+AAcAAAACdwQAAAACcQB+AF1zcQB+AAJzcQB+AAcAAAAAdwQAAAAAeHEAfgA3cQB+AGF4cQB+AD9zcQB+AAJzcQB+AAcAAAACdwQAAAACcQB+AGFzcQB+AAJzcQB+AAcAAAAAdwQAAAAAeHEAfgA3cQB+AGV4cQB+AD9zcQB+AAJzcQB+AAcAAAACdwQAAAACcQB+AGVzcQB+AAJzcQB+AAcAAAAAdwQAAAAAeHEAfgA3cQB+AGl4cQB+AD9zcQB+AAJzcQB+AAcAAAACdwQAAAACcQB+AGlzcQB+AAJzcQB+AAcAAAAAdwQAAAAAeHEAfgA3cQB+AG14cQB+AD9zcQB+AAJzcQB+AAcAAAACdwQAAAACcQB+AG1zcQB+AAJzcQB+AAcAAAAAdwQAAAAAeHEAfgA3cQB+AHF4cQB+AD9zcQB+AAJzcQB+AAcAAAACdwQAAAACcQB+AHFzcQB+AAJzcQB+AAcAAAAAdwQAAAAAeHEAfgA3cQB+AHV4cQB+AD9zcQB+AAJzcQB+AAcAAAACdwQAAAACcQB+AHVzcQB+AAJzcQB+AAcAAAAAdwQAAAAAeHEAfgA3cQB+AHl4cQB+AD9zcQB+AAJzcQB+AAcAAAACdwQAAAACcQB+AHlzcQB+AAJzcQB+AAcAAAACdwQAAAACc3EAfgACc3EAfgAHAAAAAHcEAAAAAHhxAH4AM3EAfgB/c3EAfgACc3EAfgAHAAAAAHcEAAAAAHhxAH4AN3EAfgB/eHEAfgA/cQB+AH14fnEAfgA9dAAOTVVMVElQTElDQVRJT05zcQB+AAJzcQB+AAcAAAACdwQAAAACcQB+AH1zcQB+AAJzcQB+AAcAAAAAdwQAAAAAeHNxAH4ACXQAA3gwNnEAfgCHeHEAfgA/cHhxAH4AP3NxAH4AAnNxAH4ABwAAAAJ3BAAAAAJxAH4AQXEAfgBPeHEAfgA/c3EAfgACc3EAfgAHAAAAAncEAAAAAnEAfgCNcQB+AFN4cQB+AD9zcQB+AAJzcQB+AAcAAAACdwQAAAACcQB+AI9xAH4AV3hxAH4AP3NxAH4AAnNxAH4ABwAAAAJ3BAAAAAJxAH4AkXEAfgBbeHEAfgA/c3EAfgACc3EAfgAHAAAAAncEAAAAAnEAfgCTcQB+AF94cQB+AD9zcQB+AAJzcQB+AAcAAAACdwQAAAACcQB+AJVxAH4AY3hxAH4AP3NxAH4AAnNxAH4ABwAAAAJ3BAAAAAJxAH4Al3EAfgBneHEAfgA/c3EAfgACc3EAfgAHAAAAAncEAAAAAnEAfgCZcQB+AGt4cQB+AD9zcQB+AAJzcQB+AAcAAAACdwQAAAACcQB+AJtxAH4Ab3hxAH4AP3NxAH4AAnNxAH4ABwAAAAJ3BAAAAAJxAH4AnXEAfgBzeHEAfgA/c3EAfgACc3EAfgAHAAAAAncEAAAAAnEAfgCfcQB+AHd4cQB+AD9zcQB+AAJzcQB+AAcAAAACdwQAAAACcQB+AKFxAH4Ae3hxAH4AP3NxAH4AAnNxAH4ABwAAAAJ3BAAAAAJxAH4Ao3EAfgB/eHEAfgCFc3EAfgACc3EAfgAHAAAAAncEAAAAAnEAfgClcQB+AIl4cQB+AD9weHEAfgA/cQB+AC1xAH4AQ3hxAH4AP3EAfgArcQB+AE94cQB+AD9xAH4AKXEAfgBTeHEAfgA/cQB+ACdxAH4AV3hxAH4AP3EAfgAlcQB+AFt4cQB+AD9xAH4AI3EAfgBfeHEAfgA/cQB+ACFxAH4AY3hxAH4AP3EAfgAfcQB+AGd4cQB+AD9xAH4AHXEAfgBreHEAfgA/cQB+ABtxAH4Ab3hxAH4AP3EAfgAZcQB+AHN4cQB+AD9xAH4AF3EAfgB3eHEAfgA/cQB+ABVxAH4Ae3hxAH4AP3EAfgATcQB+AH94cQB+AIVxAH4AEXEAfgCJeHEAfgA/cHNxAH4AAnNxAH4ABwAAAAJ3BAAAAAJzcQB+AAJzcQB+AAcAAAAAdwQAAAAAeHNyAEtpby5naXRodWIuZXJpY21lZHZldC5qZ2VhLmNvcmUucmVwcmVzZW50YXRpb24udHJlZS5udW1lcmljLkVsZW1lbnQkQ29uc3RhbnQAAAAAAAAAAAIAAUQABXZhbHVleHA/4AAAAAAAAHEAfgCpc3EAfgACc3EAfgAHAAAAAHcEAAAAAHhxAH4ArnNxAH4AAnNxAH4ABwAAAAJ3BAAAAAJzcQB+AAJzcQB+AAcAAAACdwQAAAACc3EAfgACc3EAfgAHAAAAAHcEAAAAAHhxAH4ArnEAfgCzc3EAfgACc3EAfgAHAAAAAHcEAAAAAHhxAH4ArnEAfgCzeH5xAH4APXQACEFERElUSU9OcQB+ALFxAH4Ar3hxAH4AuXB4cQB+ALlweA==";
    "rO0ABXNyABFqYXZhLnV0aWwuQ29sbFNlcleOq7Y6G6gRAwABSQADdGFneHAAAAAEdwQAAAAEc3IAN2lvLmdpdGh1Yi5lcmljbWVkdmV0LmpnZWEuY29yZS5yZXByZXNlbnRhdGlvbi50cmVlLlRyZWUKs7/qnQrEZQIAA0wACGNoaWxkcmVudAAQTGphdmEvdXRpbC9MaXN0O0wAB2NvbnRlbnR0ABJMamF2YS9sYW5nL09iamVjdDtMAAZwYXJlbnR0ADlMaW8vZ2l0aHViL2VyaWNtZWR2ZXQvamdlYS9jb3JlL3JlcHJlc2VudGF0aW9uL3RyZWUvVHJlZTt4cHNyABNqYXZhLnV0aWwuQXJyYXlMaXN0eIHSHZnHYZ0DAAFJAARzaXpleHAAAAAAdwQAAAAAeHNyAEtpby5naXRodWIuZXJpY21lZHZldC5qZ2VhLmNvcmUucmVwcmVzZW50YXRpb24udHJlZS5udW1lcmljLkVsZW1lbnQkVmFyaWFibGUAAAAAAAAAAAIAAUwABG5hbWV0ABJMamF2YS9sYW5nL1N0cmluZzt4cHQAA3gwMnBzcQB+AAJzcQB+AAcAAAAAdwQAAAAAeHNxAH4ACXQAA3gwM3BzcQB+AAJzcQB+AAcAAAACdwQAAAACc3EAfgACc3EAfgAHAAAAAncEAAAAAnNxAH4AAnNxAH4ABwAAAAJ3BAAAAAJzcQB+AAJzcQB+AAcAAAACdwQAAAACc3EAfgACc3EAfgAHAAAAAncEAAAAAnNxAH4AAnNxAH4ABwAAAAJ3BAAAAAJzcQB+AAJzcQB+AAcAAAACdwQAAAACc3EAfgACc3EAfgAHAAAAAncEAAAAAnNxAH4AAnNxAH4ABwAAAAJ3BAAAAAJzcQB+AAJzcQB+AAcAAAACdwQAAAACc3EAfgACc3EAfgAHAAAAAncEAAAAAnNxAH4AAnNxAH4ABwAAAAJ3BAAAAAJzcQB+AAJzcQB+AAcAAAACdwQAAAACc3EAfgACc3EAfgAHAAAAAncEAAAAAnNxAH4AAnNxAH4ABwAAAAJ3BAAAAAJzcQB+AAJzcQB+AAcAAAACdwQAAAACc3EAfgACc3EAfgAHAAAAAHcEAAAAAHhzcQB+AAl0AAN4MTBxAH4AL3NxAH4AAnNxAH4ABwAAAAB3BAAAAAB4c3EAfgAJdAADeDE0c3EAfgACc3EAfgAHAAAAAncEAAAAAnNxAH4AAnNxAH4ABwAAAAB3BAAAAAB4cQB+ADdxAH4AOXEAfgA1eH5yAEtpby5naXRodWIuZXJpY21lZHZldC5qZ2VhLmNvcmUucmVwcmVzZW50YXRpb24udHJlZS5udW1lcmljLkVsZW1lbnQkT3BlcmF0b3IAAAAAAAAAABIAAHhyAA5qYXZhLmxhbmcuRW51bQAAAAAAAAAAEgAAeHB0AAtTVUJUUkFDVElPTnNxAH4AAnNxAH4ABwAAAAJ3BAAAAAJxAH4AOXNxAH4AAnNxAH4ABwAAAAB3BAAAAAB4cQB+ADdzcQB+AAJzcQB+AAcAAAACdwQAAAACc3EAfgACc3EAfgAHAAAAAncEAAAAAnNxAH4AAnNxAH4ABwAAAAB3BAAAAAB4cQB+ADNxAH4AR3NxAH4AAnNxAH4ABwAAAAB3BAAAAAB4cQB+ADNxAH4AR3hxAH4AP3EAfgBFcQB+AEN4cQB+AD9zcQB+AAJzcQB+AAcAAAACdwQAAAACcQB+AEVzcQB+AAJzcQB+AAcAAAAAdwQAAAAAeHEAfgA3cQB+AE14cQB+AD9zcQB+AAJzcQB+AAcAAAACdwQAAAACcQB+AE1zcQB+AAJzcQB+AAcAAAAAdwQAAAAAeHEAfgA3cQB+AFF4cQB+AD9zcQB+AAJzcQB+AAcAAAACdwQAAAACcQB+AFFzcQB+AAJzcQB+AAcAAAAAdwQAAAAAeHEAfgA3cQB+AFV4cQB+AD9zcQB+AAJzcQB+AAcAAAACdwQAAAACcQB+AFVzcQB+AAJzcQB+AAcAAAAAdwQAAAAAeHEAfgA3cQB+AFl4cQB+AD9zcQB+AAJzcQB+AAcAAAACdwQAAAACcQB+AFlzcQB+AAJzcQB+AAcAAAAAdwQAAAAAeHEAfgA3cQB+AF14cQB+AD9zcQB+AAJzcQB+AAcAAAACdwQAAAACcQB+AF1zcQB+AAJzcQB+AAcAAAAAdwQAAAAAeHEAfgA3cQB+AGF4cQB+AD9zcQB+AAJzcQB+AAcAAAACdwQAAAACcQB+AGFzcQB+AAJzcQB+AAcAAAAAdwQAAAAAeHEAfgA3cQB+AGV4cQB+AD9zcQB+AAJzcQB+AAcAAAACdwQAAAACcQB+AGVzcQB+AAJzcQB+AAcAAAAAdwQAAAAAeHEAfgA3cQB+AGl4cQB+AD9zcQB+AAJzcQB+AAcAAAACdwQAAAACcQB+AGlzcQB+AAJzcQB+AAcAAAAAdwQAAAAAeHEAfgA3cQB+AG14cQB+AD9zcQB+AAJzcQB+AAcAAAACdwQAAAACcQB+AG1zcQB+AAJzcQB+AAcAAAAAdwQAAAAAeHEAfgA3cQB+AHF4cQB+AD9zcQB+AAJzcQB+AAcAAAACdwQAAAACcQB+AHFzcQB+AAJzcQB+AAcAAAAAdwQAAAAAeHEAfgA3cQB+AHV4cQB+AD9zcQB+AAJzcQB+AAcAAAACdwQAAAACcQB+AHVzcQB+AAJzcQB+AAcAAAAAdwQAAAAAeHEAfgA3cQB+AHl4cQB+AD9zcQB+AAJzcQB+AAcAAAACdwQAAAACcQB+AHlzcQB+AAJzcQB+AAcAAAACdwQAAAACc3EAfgACc3EAfgAHAAAAAHcEAAAAAHhxAH4AM3EAfgB/c3EAfgACc3EAfgAHAAAAAHcEAAAAAHhxAH4AN3EAfgB/eHEAfgA/cQB+AH14fnEAfgA9dAAOTVVMVElQTElDQVRJT05zcQB+AAJzcQB+AAcAAAACdwQAAAACcQB+AH1zcQB+AAJzcQB+AAcAAAAAdwQAAAAAeHNxAH4ACXQAA3gwNnEAfgCHeHEAfgA/cHhxAH4AP3NxAH4AAnNxAH4ABwAAAAJ3BAAAAAJxAH4AQXEAfgBPeHEAfgA/c3EAfgACc3EAfgAHAAAAAncEAAAAAnEAfgCNcQB+AFN4cQB+AD9zcQB+AAJzcQB+AAcAAAACdwQAAAACcQB+AI9xAH4AV3hxAH4AP3NxAH4AAnNxAH4ABwAAAAJ3BAAAAAJxAH4AkXEAfgBbeHEAfgA/c3EAfgACc3EAfgAHAAAAAncEAAAAAnEAfgCTcQB+AF94cQB+AD9zcQB+AAJzcQB+AAcAAAACdwQAAAACcQB+AJVxAH4AY3hxAH4AP3NxAH4AAnNxAH4ABwAAAAJ3BAAAAAJxAH4Al3EAfgBneHEAfgA/c3EAfgACc3EAfgAHAAAAAncEAAAAAnEAfgCZcQB+AGt4cQB+AD9zcQB+AAJzcQB+AAcAAAACdwQAAAACcQB+AJtxAH4Ab3hxAH4AP3NxAH4AAnNxAH4ABwAAAAJ3BAAAAAJxAH4AnXEAfgBzeHEAfgA/c3EAfgACc3EAfgAHAAAAAncEAAAAAnEAfgCfcQB+AHd4cQB+AD9zcQB+AAJzcQB+AAcAAAACdwQAAAACcQB+AKFxAH4Ae3hxAH4AP3NxAH4AAnNxAH4ABwAAAAJ3BAAAAAJxAH4Ao3EAfgB/eHEAfgCFc3EAfgACc3EAfgAHAAAAAncEAAAAAnEAfgClcQB+AIl4cQB+AD9weHEAfgA/cQB+AC1xAH4AQ3hxAH4AP3EAfgArcQB+AE94cQB+AD9xAH4AKXEAfgBTeHEAfgA/cQB+ACdxAH4AV3hxAH4AP3EAfgAlcQB+AFt4cQB+AD9xAH4AI3EAfgBfeHEAfgA/cQB+ACFxAH4AY3hxAH4AP3EAfgAfcQB+AGd4cQB+AD9xAH4AHXEAfgBreHEAfgA/cQB+ABtxAH4Ab3hxAH4AP3EAfgAZcQB+AHN4cQB+AD9xAH4AF3EAfgB3eHEAfgA/cQB+ABVxAH4Ae3hxAH4AP3EAfgATcQB+AH94cQB+AIVxAH4AEXEAfgCJeHEAfgA/cHNxAH4AAnNxAH4ABwAAAAJ3BAAAAAJzcQB+AAJzcQB+AAcAAAAAdwQAAAAAeHNyAEtpby5naXRodWIuZXJpY21lZHZldC5qZ2VhLmNvcmUucmVwcmVzZW50YXRpb24udHJlZS5udW1lcmljLkVsZW1lbnQkQ29uc3RhbnQAAAAAAAAAAAIAAUQABXZhbHVleHA/4AAAAAAAAHEAfgCpc3EAfgACc3EAfgAHAAAAAHcEAAAAAHhxAH4ArnNxAH4AAnNxAH4ABwAAAAJ3BAAAAAJzcQB+AAJzcQB+AAcAAAACdwQAAAACc3EAfgACc3EAfgAHAAAAAHcEAAAAAHhxAH4ArnEAfgCzc3EAfgACc3EAfgAHAAAAAHcEAAAAAHhxAH4ArnEAfgCzeH5xAH4APXQACEFERElUSU9OcQB+ALFxAH4Ar3hxAH4AuXB4cQB+ALlweA==";
    "rO0ABXNyABFqYXZhLnV0aWwuQ29sbFNlcleOq7Y6G6gRAwABSQADdGFneHAAAAAEdwQAAAAEc3IAN2lvLmdpdGh1Yi5lcmljbWVkdmV0LmpnZWEuY29yZS5yZXByZXNlbnRhdGlvbi50cmVlLlRyZWUKs7/qnQrEZQIAA0wACGNoaWxkcmVudAAQTGphdmEvdXRpbC9MaXN0O0wAB2NvbnRlbnR0ABJMamF2YS9sYW5nL09iamVjdDtMAAZwYXJlbnR0ADlMaW8vZ2l0aHViL2VyaWNtZWR2ZXQvamdlYS9jb3JlL3JlcHJlc2VudGF0aW9uL3RyZWUvVHJlZTt4cHNyABNqYXZhLnV0aWwuQXJyYXlMaXN0eIHSHZnHYZ0DAAFJAARzaXpleHAAAAAAdwQAAAAAeHNyAEtpby5naXRodWIuZXJpY21lZHZldC5qZ2VhLmNvcmUucmVwcmVzZW50YXRpb24udHJlZS5udW1lcmljLkVsZW1lbnQkVmFyaWFibGUAAAAAAAAAAAIAAUwABG5hbWV0ABJMamF2YS9sYW5nL1N0cmluZzt4cHQAA3gwMnBzcQB+AAJzcQB+AAcAAAAAdwQAAAAAeHNxAH4ACXQAA3gwM3BzcQB+AAJzcQB+AAcAAAACdwQAAAACc3EAfgACc3EAfgAHAAAAAncEAAAAAnNxAH4AAnNxAH4ABwAAAAJ3BAAAAAJzcQB+AAJzcQB+AAcAAAACdwQAAAACc3EAfgACc3EAfgAHAAAAAncEAAAAAnNxAH4AAnNxAH4ABwAAAAJ3BAAAAAJzcQB+AAJzcQB+AAcAAAACdwQAAAACc3EAfgACc3EAfgAHAAAAAncEAAAAAnNxAH4AAnNxAH4ABwAAAAJ3BAAAAAJzcQB+AAJzcQB+AAcAAAACdwQAAAACc3EAfgACc3EAfgAHAAAAAncEAAAAAnNxAH4AAnNxAH4ABwAAAAJ3BAAAAAJzcQB+AAJzcQB+AAcAAAACdwQAAAACc3EAfgACc3EAfgAHAAAAAncEAAAAAnNxAH4AAnNxAH4ABwAAAAJ3BAAAAAJzcQB+AAJzcQB+AAcAAAACdwQAAAACc3EAfgACc3EAfgAHAAAAAHcEAAAAAHhzcQB+AAl0AAN4MTBxAH4AL3NxAH4AAnNxAH4ABwAAAAB3BAAAAAB4c3EAfgAJdAADeDE0c3EAfgACc3EAfgAHAAAAAncEAAAAAnNxAH4AAnNxAH4ABwAAAAB3BAAAAAB4cQB+ADdxAH4AOXEAfgA1eH5yAEtpby5naXRodWIuZXJpY21lZHZldC5qZ2VhLmNvcmUucmVwcmVzZW50YXRpb24udHJlZS5udW1lcmljLkVsZW1lbnQkT3BlcmF0b3IAAAAAAAAAABIAAHhyAA5qYXZhLmxhbmcuRW51bQAAAAAAAAAAEgAAeHB0AAtTVUJUUkFDVElPTnNxAH4AAnNxAH4ABwAAAAJ3BAAAAAJxAH4AOXNxAH4AAnNxAH4ABwAAAAB3BAAAAAB4cQB+ADdzcQB+AAJzcQB+AAcAAAACdwQAAAACc3EAfgACc3EAfgAHAAAAAncEAAAAAnNxAH4AAnNxAH4ABwAAAAB3BAAAAAB4cQB+ADNxAH4AR3NxAH4AAnNxAH4ABwAAAAB3BAAAAAB4cQB+ADNxAH4AR3hxAH4AP3EAfgBFcQB+AEN4cQB+AD9zcQB+AAJzcQB+AAcAAAACdwQAAAACcQB+AEVzcQB+AAJzcQB+AAcAAAAAdwQAAAAAeHEAfgA3cQB+AE14cQB+AD9zcQB+AAJzcQB+AAcAAAACdwQAAAACcQB+AE1zcQB+AAJzcQB+AAcAAAAAdwQAAAAAeHEAfgA3cQB+AFF4cQB+AD9zcQB+AAJzcQB+AAcAAAACdwQAAAACcQB+AFFzcQB+AAJzcQB+AAcAAAAAdwQAAAAAeHEAfgA3cQB+AFV4cQB+AD9zcQB+AAJzcQB+AAcAAAACdwQAAAACcQB+AFVzcQB+AAJzcQB+AAcAAAAAdwQAAAAAeHEAfgA3cQB+AFl4cQB+AD9zcQB+AAJzcQB+AAcAAAACdwQAAAACcQB+AFlzcQB+AAJzcQB+AAcAAAAAdwQAAAAAeHEAfgA3cQB+AF14cQB+AD9zcQB+AAJzcQB+AAcAAAACdwQAAAACcQB+AF1zcQB+AAJzcQB+AAcAAAAAdwQAAAAAeHEAfgA3cQB+AGF4cQB+AD9zcQB+AAJzcQB+AAcAAAACdwQAAAACcQB+AGFzcQB+AAJzcQB+AAcAAAAAdwQAAAAAeHEAfgA3cQB+AGV4cQB+AD9zcQB+AAJzcQB+AAcAAAACdwQAAAACcQB+AGVzcQB+AAJzcQB+AAcAAAAAdwQAAAAAeHEAfgA3cQB+AGl4cQB+AD9zcQB+AAJzcQB+AAcAAAACdwQAAAACcQB+AGlzcQB+AAJzcQB+AAcAAAAAdwQAAAAAeHEAfgA3cQB+AG14cQB+AD9zcQB+AAJzcQB+AAcAAAACdwQAAAACcQB+AG1zcQB+AAJzcQB+AAcAAAAAdwQAAAAAeHEAfgA3cQB+AHF4cQB+AD9zcQB+AAJzcQB+AAcAAAACdwQAAAACcQB+AHFzcQB+AAJzcQB+AAcAAAAAdwQAAAAAeHEAfgA3cQB+AHV4cQB+AD9zcQB+AAJzcQB+AAcAAAACdwQAAAACcQB+AHVzcQB+AAJzcQB+AAcAAAAAdwQAAAAAeHEAfgA3cQB+AHl4cQB+AD9zcQB+AAJzcQB+AAcAAAACdwQAAAACcQB+AHlzcQB+AAJzcQB+AAcAAAACdwQAAAACc3EAfgACc3EAfgAHAAAAAHcEAAAAAHhxAH4AM3EAfgB/c3EAfgACc3EAfgAHAAAAAHcEAAAAAHhxAH4AN3EAfgB/eHEAfgA/cQB+AH14fnEAfgA9dAAOTVVMVElQTElDQVRJT05zcQB+AAJzcQB+AAcAAAACdwQAAAACcQB+AH1zcQB+AAJzcQB+AAcAAAAAdwQAAAAAeHNxAH4ACXQAA3gwNnEAfgCHeHEAfgA/cHhxAH4AP3NxAH4AAnNxAH4ABwAAAAJ3BAAAAAJxAH4AQXEAfgBPeHEAfgA/c3EAfgACc3EAfgAHAAAAAncEAAAAAnEAfgCNcQB+AFN4cQB+AD9zcQB+AAJzcQB+AAcAAAACdwQAAAACcQB+AI9xAH4AV3hxAH4AP3NxAH4AAnNxAH4ABwAAAAJ3BAAAAAJxAH4AkXEAfgBbeHEAfgA/c3EAfgACc3EAfgAHAAAAAncEAAAAAnEAfgCTcQB+AF94cQB+AD9zcQB+AAJzcQB+AAcAAAACdwQAAAACcQB+AJVxAH4AY3hxAH4AP3NxAH4AAnNxAH4ABwAAAAJ3BAAAAAJxAH4Al3EAfgBneHEAfgA/c3EAfgACc3EAfgAHAAAAAncEAAAAAnEAfgCZcQB+AGt4cQB+AD9zcQB+AAJzcQB+AAcAAAACdwQAAAACcQB+AJtxAH4Ab3hxAH4AP3NxAH4AAnNxAH4ABwAAAAJ3BAAAAAJxAH4AnXEAfgBzeHEAfgA/c3EAfgACc3EAfgAHAAAAAncEAAAAAnEAfgCfcQB+AHd4cQB+AD9zcQB+AAJzcQB+AAcAAAACdwQAAAACcQB+AKFxAH4Ae3hxAH4AP3NxAH4AAnNxAH4ABwAAAAJ3BAAAAAJxAH4Ao3EAfgB/eHEAfgCFc3EAfgACc3EAfgAHAAAAAncEAAAAAnEAfgClcQB+AIl4cQB+AD9weHEAfgA/cQB+AC1xAH4AQ3hxAH4AP3EAfgArcQB+AE94cQB+AD9xAH4AKXEAfgBTeHEAfgA/cQB+ACdxAH4AV3hxAH4AP3EAfgAlcQB+AFt4cQB+AD9xAH4AI3EAfgBfeHEAfgA/cQB+ACFxAH4AY3hxAH4AP3EAfgAfcQB+AGd4cQB+AD9xAH4AHXEAfgBreHEAfgA/cQB+ABtxAH4Ab3hxAH4AP3EAfgAZcQB+AHN4cQB+AD9xAH4AF3EAfgB3eHEAfgA/cQB+ABVxAH4Ae3hxAH4AP3EAfgATcQB+AH94cQB+AIVxAH4AEXEAfgCJeHEAfgA/cHNxAH4AAnNxAH4ABwAAAAJ3BAAAAAJzcQB+AAJzcQB+AAcAAAAAdwQAAAAAeHNyAEtpby5naXRodWIuZXJpY21lZHZldC5qZ2VhLmNvcmUucmVwcmVzZW50YXRpb24udHJlZS5udW1lcmljLkVsZW1lbnQkQ29uc3RhbnQAAAAAAAAAAAIAAUQABXZhbHVleHA/4AAAAAAAAHEAfgCpc3EAfgACc3EAfgAHAAAAAHcEAAAAAHhxAH4ArnNxAH4AAnNxAH4ABwAAAAJ3BAAAAAJzcQB+AAJzcQB+AAcAAAACdwQAAAACc3EAfgACc3EAfgAHAAAAAHcEAAAAAHhxAH4ArnEAfgCzc3EAfgACc3EAfgAHAAAAAHcEAAAAAHhxAH4ArnEAfgCzeH5xAH4APXQACEFERElUSU9OcQB+ALFxAH4Ar3hxAH4AuXB4cQB+ALlweA==";
    "rO0ABXNyABFqYXZhLnV0aWwuQ29sbFNlcleOq7Y6G6gRAwABSQADdGFneHAAAAAEdwQAAAAEc3IAN2lvLmdpdGh1Yi5lcmljbWVkdmV0LmpnZWEuY29yZS5yZXByZXNlbnRhdGlvbi50cmVlLlRyZWUKs7/qnQrEZQIAA0wACGNoaWxkcmVudAAQTGphdmEvdXRpbC9MaXN0O0wAB2NvbnRlbnR0ABJMamF2YS9sYW5nL09iamVjdDtMAAZwYXJlbnR0ADlMaW8vZ2l0aHViL2VyaWNtZWR2ZXQvamdlYS9jb3JlL3JlcHJlc2VudGF0aW9uL3RyZWUvVHJlZTt4cHNyABNqYXZhLnV0aWwuQXJyYXlMaXN0eIHSHZnHYZ0DAAFJAARzaXpleHAAAAAAdwQAAAAAeHNyAEtpby5naXRodWIuZXJpY21lZHZldC5qZ2VhLmNvcmUucmVwcmVzZW50YXRpb24udHJlZS5udW1lcmljLkVsZW1lbnQkVmFyaWFibGUAAAAAAAAAAAIAAUwABG5hbWV0ABJMamF2YS9sYW5nL1N0cmluZzt4cHQAA3gwMnBzcQB+AAJzcQB+AAcAAAAAdwQAAAAAeHNxAH4ACXQAA3gwM3BzcQB+AAJzcQB+AAcAAAACdwQAAAACc3EAfgACc3EAfgAHAAAAAncEAAAAAnNxAH4AAnNxAH4ABwAAAAJ3BAAAAAJzcQB+AAJzcQB+AAcAAAACdwQAAAACc3EAfgACc3EAfgAHAAAAAncEAAAAAnNxAH4AAnNxAH4ABwAAAAJ3BAAAAAJzcQB+AAJzcQB+AAcAAAACdwQAAAACc3EAfgACc3EAfgAHAAAAAncEAAAAAnNxAH4AAnNxAH4ABwAAAAJ3BAAAAAJzcQB+AAJzcQB+AAcAAAACdwQAAAACc3EAfgACc3EAfgAHAAAAAncEAAAAAnNxAH4AAnNxAH4ABwAAAAJ3BAAAAAJzcQB+AAJzcQB+AAcAAAACdwQAAAACc3EAfgACc3EAfgAHAAAAAncEAAAAAnNxAH4AAnNxAH4ABwAAAAJ3BAAAAAJzcQB+AAJzcQB+AAcAAAACdwQAAAACc3EAfgACc3EAfgAHAAAAAHcEAAAAAHhzcQB+AAl0AAN4MTBxAH4AL3NxAH4AAnNxAH4ABwAAAAB3BAAAAAB4c3EAfgAJdAADeDE0c3EAfgACc3EAfgAHAAAAAncEAAAAAnNxAH4AAnNxAH4ABwAAAAB3BAAAAAB4cQB+ADdxAH4AOXEAfgA1eH5yAEtpby5naXRodWIuZXJpY21lZHZldC5qZ2VhLmNvcmUucmVwcmVzZW50YXRpb24udHJlZS5udW1lcmljLkVsZW1lbnQkT3BlcmF0b3IAAAAAAAAAABIAAHhyAA5qYXZhLmxhbmcuRW51bQAAAAAAAAAAEgAAeHB0AAtTVUJUUkFDVElPTnNxAH4AAnNxAH4ABwAAAAJ3BAAAAAJxAH4AOXNxAH4AAnNxAH4ABwAAAAB3BAAAAAB4cQB+ADdzcQB+AAJzcQB+AAcAAAACdwQAAAACc3EAfgACc3EAfgAHAAAAAncEAAAAAnNxAH4AAnNxAH4ABwAAAAB3BAAAAAB4cQB+ADNxAH4AR3NxAH4AAnNxAH4ABwAAAAB3BAAAAAB4cQB+ADNxAH4AR3hxAH4AP3EAfgBFcQB+AEN4cQB+AD9zcQB+AAJzcQB+AAcAAAACdwQAAAACcQB+AEVzcQB+AAJzcQB+AAcAAAAAdwQAAAAAeHEAfgA3cQB+AE14cQB+AD9zcQB+AAJzcQB+AAcAAAACdwQAAAACcQB+AE1zcQB+AAJzcQB+AAcAAAAAdwQAAAAAeHEAfgA3cQB+AFF4cQB+AD9zcQB+AAJzcQB+AAcAAAACdwQAAAACcQB+AFFzcQB+AAJzcQB+AAcAAAAAdwQAAAAAeHEAfgA3cQB+AFV4cQB+AD9zcQB+AAJzcQB+AAcAAAACdwQAAAACcQB+AFVzcQB+AAJzcQB+AAcAAAAAdwQAAAAAeHEAfgA3cQB+AFl4cQB+AD9zcQB+AAJzcQB+AAcAAAACdwQAAAACcQB+AFlzcQB+AAJzcQB+AAcAAAAAdwQAAAAAeHEAfgA3cQB+AF14cQB+AD9zcQB+AAJzcQB+AAcAAAACdwQAAAACcQB+AF1zcQB+AAJzcQB+AAcAAAAAdwQAAAAAeHEAfgA3cQB+AGF4cQB+AD9zcQB+AAJzcQB+AAcAAAACdwQAAAACcQB+AGFzcQB+AAJzcQB+AAcAAAAAdwQAAAAAeHEAfgA3cQB+AGV4cQB+AD9zcQB+AAJzcQB+AAcAAAACdwQAAAACcQB+AGVzcQB+AAJzcQB+AAcAAAAAdwQAAAAAeHEAfgA3cQB+AGl4cQB+AD9zcQB+AAJzcQB+AAcAAAACdwQAAAACcQB+AGlzcQB+AAJzcQB+AAcAAAAAdwQAAAAAeHEAfgA3cQB+AG14cQB+AD9zcQB+AAJzcQB+AAcAAAACdwQAAAACcQB+AG1zcQB+AAJzcQB+AAcAAAAAdwQAAAAAeHEAfgA3cQB+AHF4cQB+AD9zcQB+AAJzcQB+AAcAAAACdwQAAAACcQB+AHFzcQB+AAJzcQB+AAcAAAAAdwQAAAAAeHEAfgA3cQB+AHV4cQB+AD9zcQB+AAJzcQB+AAcAAAACdwQAAAACcQB+AHVzcQB+AAJzcQB+AAcAAAAAdwQAAAAAeHEAfgA3cQB+AHl4cQB+AD9zcQB+AAJzcQB+AAcAAAACdwQAAAACcQB+AHlzcQB+AAJzcQB+AAcAAAACdwQAAAACc3EAfgACc3EAfgAHAAAAAHcEAAAAAHhxAH4AM3EAfgB/c3EAfgACc3EAfgAHAAAAAHcEAAAAAHhxAH4AN3EAfgB/eHEAfgA/cQB+AH14fnEAfgA9dAAOTVVMVElQTElDQVRJT05zcQB+AAJzcQB+AAcAAAACdwQAAAACcQB+AH1zcQB+AAJzcQB+AAcAAAAAdwQAAAAAeHNxAH4ACXQAA3gwNnEAfgCHeHEAfgA/cHhxAH4AP3NxAH4AAnNxAH4ABwAAAAJ3BAAAAAJxAH4AQXEAfgBPeHEAfgA/c3EAfgACc3EAfgAHAAAAAncEAAAAAnEAfgCNcQB+AFN4cQB+AD9zcQB+AAJzcQB+AAcAAAACdwQAAAACcQB+AI9xAH4AV3hxAH4AP3NxAH4AAnNxAH4ABwAAAAJ3BAAAAAJxAH4AkXEAfgBbeHEAfgA/c3EAfgACc3EAfgAHAAAAAncEAAAAAnEAfgCTcQB+AF94cQB+AD9zcQB+AAJzcQB+AAcAAAACdwQAAAACcQB+AJVxAH4AY3hxAH4AP3NxAH4AAnNxAH4ABwAAAAJ3BAAAAAJxAH4Al3EAfgBneHEAfgA/c3EAfgACc3EAfgAHAAAAAncEAAAAAnEAfgCZcQB+AGt4cQB+AD9zcQB+AAJzcQB+AAcAAAACdwQAAAACcQB+AJtxAH4Ab3hxAH4AP3NxAH4AAnNxAH4ABwAAAAJ3BAAAAAJxAH4AnXEAfgBzeHEAfgA/c3EAfgACc3EAfgAHAAAAAncEAAAAAnEAfgCfcQB+AHd4cQB+AD9zcQB+AAJzcQB+AAcAAAACdwQAAAACcQB+AKFxAH4Ae3hxAH4AP3NxAH4AAnNxAH4ABwAAAAJ3BAAAAAJxAH4Ao3EAfgB/eHEAfgCFc3EAfgACc3EAfgAHAAAAAncEAAAAAnEAfgClcQB+AIl4cQB+AD9weHEAfgA/cQB+AC1xAH4AQ3hxAH4AP3EAfgArcQB+AE94cQB+AD9xAH4AKXEAfgBTeHEAfgA/cQB+ACdxAH4AV3hxAH4AP3EAfgAlcQB+AFt4cQB+AD9xAH4AI3EAfgBfeHEAfgA/cQB+ACFxAH4AY3hxAH4AP3EAfgAfcQB+AGd4cQB+AD9xAH4AHXEAfgBreHEAfgA/cQB+ABtxAH4Ab3hxAH4AP3EAfgAZcQB+AHN4cQB+AD9xAH4AF3EAfgB3eHEAfgA/cQB+ABVxAH4Ae3hxAH4AP3EAfgATcQB+AH94cQB+AIVxAH4AEXEAfgCJeHEAfgA/cHNxAH4AAnNxAH4ABwAAAAJ3BAAAAAJzcQB+AAJzcQB+AAcAAAAAdwQAAAAAeHNyAEtpby5naXRodWIuZXJpY21lZHZldC5qZ2VhLmNvcmUucmVwcmVzZW50YXRpb24udHJlZS5udW1lcmljLkVsZW1lbnQkQ29uc3RhbnQAAAAAAAAAAAIAAUQABXZhbHVleHA/4AAAAAAAAHEAfgCpc3EAfgACc3EAfgAHAAAAAHcEAAAAAHhxAH4ArnNxAH4AAnNxAH4ABwAAAAJ3BAAAAAJzcQB+AAJzcQB+AAcAAAACdwQAAAACc3EAfgACc3EAfgAHAAAAAHcEAAAAAHhxAH4ArnEAfgCzc3EAfgACc3EAfgAHAAAAAHcEAAAAAHhxAH4ArnEAfgCzeH5xAH4APXQACEFERElUSU9OcQB+ALFxAH4Ar3hxAH4AuXB4cQB+ALlweA==";
    "rO0ABXNyABFqYXZhLnV0aWwuQ29sbFNlcleOq7Y6G6gRAwABSQADdGFneHAAAAAEdwQAAAAEc3IAN2lvLmdpdGh1Yi5lcmljbWVkdmV0LmpnZWEuY29yZS5yZXByZXNlbnRhdGlvbi50cmVlLlRyZWUKs7/qnQrEZQIAA0wACGNoaWxkcmVudAAQTGphdmEvdXRpbC9MaXN0O0wAB2NvbnRlbnR0ABJMamF2YS9sYW5nL09iamVjdDtMAAZwYXJlbnR0ADlMaW8vZ2l0aHViL2VyaWNtZWR2ZXQvamdlYS9jb3JlL3JlcHJlc2VudGF0aW9uL3RyZWUvVHJlZTt4cHNyABNqYXZhLnV0aWwuQXJyYXlMaXN0eIHSHZnHYZ0DAAFJAARzaXpleHAAAAAAdwQAAAAAeHNyAEtpby5naXRodWIuZXJpY21lZHZldC5qZ2VhLmNvcmUucmVwcmVzZW50YXRpb24udHJlZS5udW1lcmljLkVsZW1lbnQkVmFyaWFibGUAAAAAAAAAAAIAAUwABG5hbWV0ABJMamF2YS9sYW5nL1N0cmluZzt4cHQAA3gwMnBzcQB+AAJzcQB+AAcAAAAAdwQAAAAAeHNxAH4ACXQAA3gwM3BzcQB+AAJzcQB+AAcAAAACdwQAAAACc3EAfgACc3EAfgAHAAAAAncEAAAAAnNxAH4AAnNxAH4ABwAAAAJ3BAAAAAJzcQB+AAJzcQB+AAcAAAACdwQAAAACc3EAfgACc3EAfgAHAAAAAncEAAAAAnNxAH4AAnNxAH4ABwAAAAJ3BAAAAAJzcQB+AAJzcQB+AAcAAAACdwQAAAACc3EAfgACc3EAfgAHAAAAAncEAAAAAnNxAH4AAnNxAH4ABwAAAAJ3BAAAAAJzcQB+AAJzcQB+AAcAAAACdwQAAAACc3EAfgACc3EAfgAHAAAAAncEAAAAAnNxAH4AAnNxAH4ABwAAAAJ3BAAAAAJzcQB+AAJzcQB+AAcAAAACdwQAAAACc3EAfgACc3EAfgAHAAAAAncEAAAAAnNxAH4AAnNxAH4ABwAAAAJ3BAAAAAJzcQB+AAJzcQB+AAcAAAACdwQAAAACc3EAfgACc3EAfgAHAAAAAHcEAAAAAHhzcQB+AAl0AAN4MTBxAH4AL3NxAH4AAnNxAH4ABwAAAAB3BAAAAAB4c3EAfgAJdAADeDE0c3EAfgACc3EAfgAHAAAAAncEAAAAAnNxAH4AAnNxAH4ABwAAAAB3BAAAAAB4cQB+ADdxAH4AOXEAfgA1eH5yAEtpby5naXRodWIuZXJpY21lZHZldC5qZ2VhLmNvcmUucmVwcmVzZW50YXRpb24udHJlZS5udW1lcmljLkVsZW1lbnQkT3BlcmF0b3IAAAAAAAAAABIAAHhyAA5qYXZhLmxhbmcuRW51bQAAAAAAAAAAEgAAeHB0AAtTVUJUUkFDVElPTnNxAH4AAnNxAH4ABwAAAAJ3BAAAAAJxAH4AOXNxAH4AAnNxAH4ABwAAAAB3BAAAAAB4cQB+ADdzcQB+AAJzcQB+AAcAAAACdwQAAAACc3EAfgACc3EAfgAHAAAAAncEAAAAAnNxAH4AAnNxAH4ABwAAAAB3BAAAAAB4cQB+ADNxAH4AR3NxAH4AAnNxAH4ABwAAAAB3BAAAAAB4cQB+ADNxAH4AR3hxAH4AP3EAfgBFcQB+AEN4cQB+AD9zcQB+AAJzcQB+AAcAAAACdwQAAAACcQB+AEVzcQB+AAJzcQB+AAcAAAAAdwQAAAAAeHEAfgA3cQB+AE14cQB+AD9zcQB+AAJzcQB+AAcAAAACdwQAAAACcQB+AE1zcQB+AAJzcQB+AAcAAAAAdwQAAAAAeHEAfgA3cQB+AFF4cQB+AD9zcQB+AAJzcQB+AAcAAAACdwQAAAACcQB+AFFzcQB+AAJzcQB+AAcAAAAAdwQAAAAAeHEAfgA3cQB+AFV4cQB+AD9zcQB+AAJzcQB+AAcAAAACdwQAAAACcQB+AFVzcQB+AAJzcQB+AAcAAAAAdwQAAAAAeHEAfgA3cQB+AFl4cQB+AD9zcQB+AAJzcQB+AAcAAAACdwQAAAACcQB+AFlzcQB+AAJzcQB+AAcAAAAAdwQAAAAAeHEAfgA3cQB+AF14cQB+AD9zcQB+AAJzcQB+AAcAAAACdwQAAAACcQB+AF1zcQB+AAJzcQB+AAcAAAAAdwQAAAAAeHEAfgA3cQB+AGF4cQB+AD9zcQB+AAJzcQB+AAcAAAACdwQAAAACcQB+AGFzcQB+AAJzcQB+AAcAAAAAdwQAAAAAeHEAfgA3cQB+AGV4cQB+AD9zcQB+AAJzcQB+AAcAAAACdwQAAAACcQB+AGVzcQB+AAJzcQB+AAcAAAAAdwQAAAAAeHEAfgA3cQB+AGl4cQB+AD9zcQB+AAJzcQB+AAcAAAACdwQAAAACcQB+AGlzcQB+AAJzcQB+AAcAAAAAdwQAAAAAeHEAfgA3cQB+AG14cQB+AD9zcQB+AAJzcQB+AAcAAAACdwQAAAACcQB+AG1zcQB+AAJzcQB+AAcAAAAAdwQAAAAAeHEAfgA3cQB+AHF4cQB+AD9zcQB+AAJzcQB+AAcAAAACdwQAAAACcQB+AHFzcQB+AAJzcQB+AAcAAAAAdwQAAAAAeHEAfgA3cQB+AHV4cQB+AD9zcQB+AAJzcQB+AAcAAAACdwQAAAACcQB+AHVzcQB+AAJzcQB+AAcAAAAAdwQAAAAAeHEAfgA3cQB+AHl4cQB+AD9zcQB+AAJzcQB+AAcAAAACdwQAAAACcQB+AHlzcQB+AAJzcQB+AAcAAAACdwQAAAACc3EAfgACc3EAfgAHAAAAAHcEAAAAAHhxAH4AM3EAfgB/c3EAfgACc3EAfgAHAAAAAHcEAAAAAHhxAH4AN3EAfgB/eHEAfgA/cQB+AH14fnEAfgA9dAAOTVVMVElQTElDQVRJT05zcQB+AAJzcQB+AAcAAAACdwQAAAACcQB+AH1zcQB+AAJzcQB+AAcAAAAAdwQAAAAAeHNxAH4ACXQAA3gwNnEAfgCHeHEAfgA/cHhxAH4AP3NxAH4AAnNxAH4ABwAAAAJ3BAAAAAJxAH4AQXEAfgBPeHEAfgA/c3EAfgACc3EAfgAHAAAAAncEAAAAAnEAfgCNcQB+AFN4cQB+AD9zcQB+AAJzcQB+AAcAAAACdwQAAAACcQB+AI9xAH4AV3hxAH4AP3NxAH4AAnNxAH4ABwAAAAJ3BAAAAAJxAH4AkXEAfgBbeHEAfgA/c3EAfgACc3EAfgAHAAAAAncEAAAAAnEAfgCTcQB+AF94cQB+AD9zcQB+AAJzcQB+AAcAAAACdwQAAAACcQB+AJVxAH4AY3hxAH4AP3NxAH4AAnNxAH4ABwAAAAJ3BAAAAAJxAH4Al3EAfgBneHEAfgA/c3EAfgACc3EAfgAHAAAAAncEAAAAAnEAfgCZcQB+AGt4cQB+AD9zcQB+AAJzcQB+AAcAAAACdwQAAAACcQB+AJtxAH4Ab3hxAH4AP3NxAH4AAnNxAH4ABwAAAAJ3BAAAAAJxAH4AnXEAfgBzeHEAfgA/c3EAfgACc3EAfgAHAAAAAncEAAAAAnEAfgCfcQB+AHd4cQB+AD9zcQB+AAJzcQB+AAcAAAACdwQAAAACcQB+AKFxAH4Ae3hxAH4AP3NxAH4AAnNxAH4ABwAAAAJ3BAAAAAJxAH4Ao3EAfgB/eHEAfgCFc3EAfgACc3EAfgAHAAAAAncEAAAAAnEAfgClcQB+AIl4cQB+AD9weHEAfgA/cQB+AC1xAH4AQ3hxAH4AP3EAfgArcQB+AE94cQB+AD9xAH4AKXEAfgBTeHEAfgA/cQB+ACdxAH4AV3hxAH4AP3EAfgAlcQB+AFt4cQB+AD9xAH4AI3EAfgBfeHEAfgA/cQB+ACFxAH4AY3hxAH4AP3EAfgAfcQB+AGd4cQB+AD9xAH4AHXEAfgBreHEAfgA/cQB+ABtxAH4Ab3hxAH4AP3EAfgAZcQB+AHN4cQB+AD9xAH4AF3EAfgB3eHEAfgA/cQB+ABVxAH4Ae3hxAH4AP3EAfgATcQB+AH94cQB+AIVxAH4AEXEAfgCJeHEAfgA/cHNxAH4AAnNxAH4ABwAAAAJ3BAAAAAJzcQB+AAJzcQB+AAcAAAAAdwQAAAAAeHNyAEtpby5naXRodWIuZXJpY21lZHZldC5qZ2VhLmNvcmUucmVwcmVzZW50YXRpb24udHJlZS5udW1lcmljLkVsZW1lbnQkQ29uc3RhbnQAAAAAAAAAAAIAAUQABXZhbHVleHA/4AAAAAAAAHEAfgCpc3EAfgACc3EAfgAHAAAAAHcEAAAAAHhxAH4ArnNxAH4AAnNxAH4ABwAAAAJ3BAAAAAJzcQB+AAJzcQB+AAcAAAACdwQAAAACc3EAfgACc3EAfgAHAAAAAHcEAAAAAHhxAH4ArnEAfgCzc3EAfgACc3EAfgAHAAAAAHcEAAAAAHhxAH4ArnEAfgCzeH5xAH4APXQACEFERElUSU9OcQB+ALFxAH4Ar3hxAH4AuXB4cQB+ALlweA==";
    "rO0ABXNyABFqYXZhLnV0aWwuQ29sbFNlcleOq7Y6G6gRAwABSQADdGFneHAAAAAEdwQAAAAEc3IAN2lvLmdpdGh1Yi5lcmljbWVkdmV0LmpnZWEuY29yZS5yZXByZXNlbnRhdGlvbi50cmVlLlRyZWUKs7/qnQrEZQIAA0wACGNoaWxkcmVudAAQTGphdmEvdXRpbC9MaXN0O0wAB2NvbnRlbnR0ABJMamF2YS9sYW5nL09iamVjdDtMAAZwYXJlbnR0ADlMaW8vZ2l0aHViL2VyaWNtZWR2ZXQvamdlYS9jb3JlL3JlcHJlc2VudGF0aW9uL3RyZWUvVHJlZTt4cHNyABNqYXZhLnV0aWwuQXJyYXlMaXN0eIHSHZnHYZ0DAAFJAARzaXpleHAAAAAAdwQAAAAAeHNyAEtpby5naXRodWIuZXJpY21lZHZldC5qZ2VhLmNvcmUucmVwcmVzZW50YXRpb24udHJlZS5udW1lcmljLkVsZW1lbnQkVmFyaWFibGUAAAAAAAAAAAIAAUwABG5hbWV0ABJMamF2YS9sYW5nL1N0cmluZzt4cHQAA3gwMnBzcQB+AAJzcQB+AAcAAAAAdwQAAAAAeHNxAH4ACXQAA3gwM3BzcQB+AAJzcQB+AAcAAAACdwQAAAACc3EAfgACc3EAfgAHAAAAAncEAAAAAnNxAH4AAnNxAH4ABwAAAAJ3BAAAAAJzcQB+AAJzcQB+AAcAAAACdwQAAAACc3EAfgACc3EAfgAHAAAAAncEAAAAAnNxAH4AAnNxAH4ABwAAAAJ3BAAAAAJzcQB+AAJzcQB+AAcAAAACdwQAAAACc3EAfgACc3EAfgAHAAAAAncEAAAAAnNxAH4AAnNxAH4ABwAAAAJ3BAAAAAJzcQB+AAJzcQB+AAcAAAACdwQAAAACc3EAfgACc3EAfgAHAAAAAncEAAAAAnNxAH4AAnNxAH4ABwAAAAJ3BAAAAAJzcQB+AAJzcQB+AAcAAAACdwQAAAACc3EAfgACc3EAfgAHAAAAAncEAAAAAnNxAH4AAnNxAH4ABwAAAAJ3BAAAAAJzcQB+AAJzcQB+AAcAAAACdwQAAAACc3EAfgACc3EAfgAHAAAAAHcEAAAAAHhzcQB+AAl0AAN4MTBxAH4AL3NxAH4AAnNxAH4ABwAAAAB3BAAAAAB4c3EAfgAJdAADeDE0c3EAfgACc3EAfgAHAAAAAncEAAAAAnNxAH4AAnNxAH4ABwAAAAB3BAAAAAB4cQB+ADdxAH4AOXEAfgA1eH5yAEtpby5naXRodWIuZXJpY21lZHZldC5qZ2VhLmNvcmUucmVwcmVzZW50YXRpb24udHJlZS5udW1lcmljLkVsZW1lbnQkT3BlcmF0b3IAAAAAAAAAABIAAHhyAA5qYXZhLmxhbmcuRW51bQAAAAAAAAAAEgAAeHB0AAtTVUJUUkFDVElPTnNxAH4AAnNxAH4ABwAAAAJ3BAAAAAJxAH4AOXNxAH4AAnNxAH4ABwAAAAB3BAAAAAB4cQB+ADdzcQB+AAJzcQB+AAcAAAACdwQAAAACc3EAfgACc3EAfgAHAAAAAncEAAAAAnNxAH4AAnNxAH4ABwAAAAB3BAAAAAB4cQB+ADNxAH4AR3NxAH4AAnNxAH4ABwAAAAB3BAAAAAB4cQB+ADNxAH4AR3hxAH4AP3EAfgBFcQB+AEN4cQB+AD9zcQB+AAJzcQB+AAcAAAACdwQAAAACcQB+AEVzcQB+AAJzcQB+AAcAAAAAdwQAAAAAeHEAfgA3cQB+AE14cQB+AD9zcQB+AAJzcQB+AAcAAAACdwQAAAACcQB+AE1zcQB+AAJzcQB+AAcAAAAAdwQAAAAAeHEAfgA3cQB+AFF4cQB+AD9zcQB+AAJzcQB+AAcAAAACdwQAAAACcQB+AFFzcQB+AAJzcQB+AAcAAAAAdwQAAAAAeHEAfgA3cQB+AFV4cQB+AD9zcQB+AAJzcQB+AAcAAAACdwQAAAACcQB+AFVzcQB+AAJzcQB+AAcAAAAAdwQAAAAAeHEAfgA3cQB+AFl4cQB+AD9zcQB+AAJzcQB+AAcAAAACdwQAAAACcQB+AFlzcQB+AAJzcQB+AAcAAAAAdwQAAAAAeHEAfgA3cQB+AF14cQB+AD9zcQB+AAJzcQB+AAcAAAACdwQAAAACcQB+AF1zcQB+AAJzcQB+AAcAAAAAdwQAAAAAeHEAfgA3cQB+AGF4cQB+AD9zcQB+AAJzcQB+AAcAAAACdwQAAAACcQB+AGFzcQB+AAJzcQB+AAcAAAAAdwQAAAAAeHEAfgA3cQB+AGV4cQB+AD9zcQB+AAJzcQB+AAcAAAACdwQAAAACcQB+AGVzcQB+AAJzcQB+AAcAAAAAdwQAAAAAeHEAfgA3cQB+AGl4cQB+AD9zcQB+AAJzcQB+AAcAAAACdwQAAAACcQB+AGlzcQB+AAJzcQB+AAcAAAAAdwQAAAAAeHEAfgA3cQB+AG14cQB+AD9zcQB+AAJzcQB+AAcAAAACdwQAAAACcQB+AG1zcQB+AAJzcQB+AAcAAAAAdwQAAAAAeHEAfgA3cQB+AHF4cQB+AD9zcQB+AAJzcQB+AAcAAAACdwQAAAACcQB+AHFzcQB+AAJzcQB+AAcAAAAAdwQAAAAAeHEAfgA3cQB+AHV4cQB+AD9zcQB+AAJzcQB+AAcAAAACdwQAAAACcQB+AHVzcQB+AAJzcQB+AAcAAAAAdwQAAAAAeHEAfgA3cQB+AHl4cQB+AD9zcQB+AAJzcQB+AAcAAAACdwQAAAACcQB+AHlzcQB+AAJzcQB+AAcAAAACdwQAAAACc3EAfgACc3EAfgAHAAAAAHcEAAAAAHhxAH4AM3EAfgB/c3EAfgACc3EAfgAHAAAAAHcEAAAAAHhxAH4AN3EAfgB/eHEAfgA/cQB+AH14fnEAfgA9dAAOTVVMVElQTElDQVRJT05zcQB+AAJzcQB+AAcAAAACdwQAAAACcQB+AH1zcQB+AAJzcQB+AAcAAAAAdwQAAAAAeHNxAH4ACXQAA3gwNnEAfgCHeHEAfgA/cHhxAH4AP3NxAH4AAnNxAH4ABwAAAAJ3BAAAAAJxAH4AQXEAfgBPeHEAfgA/c3EAfgACc3EAfgAHAAAAAncEAAAAAnEAfgCNcQB+AFN4cQB+AD9zcQB+AAJzcQB+AAcAAAACdwQAAAACcQB+AI9xAH4AV3hxAH4AP3NxAH4AAnNxAH4ABwAAAAJ3BAAAAAJxAH4AkXEAfgBbeHEAfgA/c3EAfgACc3EAfgAHAAAAAncEAAAAAnEAfgCTcQB+AF94cQB+AD9zcQB+AAJzcQB+AAcAAAACdwQAAAACcQB+AJVxAH4AY3hxAH4AP3NxAH4AAnNxAH4ABwAAAAJ3BAAAAAJxAH4Al3EAfgBneHEAfgA/c3EAfgACc3EAfgAHAAAAAncEAAAAAnEAfgCZcQB+AGt4cQB+AD9zcQB+AAJzcQB+AAcAAAACdwQAAAACcQB+AJtxAH4Ab3hxAH4AP3NxAH4AAnNxAH4ABwAAAAJ3BAAAAAJxAH4AnXEAfgBzeHEAfgA/c3EAfgACc3EAfgAHAAAAAncEAAAAAnEAfgCfcQB+AHd4cQB+AD9zcQB+AAJzcQB+AAcAAAACdwQAAAACcQB+AKFxAH4Ae3hxAH4AP3NxAH4AAnNxAH4ABwAAAAJ3BAAAAAJxAH4Ao3EAfgB/eHEAfgCFc3EAfgACc3EAfgAHAAAAAncEAAAAAnEAfgClcQB+AIl4cQB+AD9weHEAfgA/cQB+AC1xAH4AQ3hxAH4AP3EAfgArcQB+AE94cQB+AD9xAH4AKXEAfgBTeHEAfgA/cQB+ACdxAH4AV3hxAH4AP3EAfgAlcQB+AFt4cQB+AD9xAH4AI3EAfgBfeHEAfgA/cQB+ACFxAH4AY3hxAH4AP3EAfgAfcQB+AGd4cQB+AD9xAH4AHXEAfgBreHEAfgA/cQB+ABtxAH4Ab3hxAH4AP3EAfgAZcQB+AHN4cQB+AD9xAH4AF3EAfgB3eHEAfgA/cQB+ABVxAH4Ae3hxAH4AP3EAfgATcQB+AH94cQB+AIVxAH4AEXEAfgCJeHEAfgA/cHNxAH4AAnNxAH4ABwAAAAJ3BAAAAAJzcQB+AAJzcQB+AAcAAAAAdwQAAAAAeHNyAEtpby5naXRodWIuZXJpY21lZHZldC5qZ2VhLmNvcmUucmVwcmVzZW50YXRpb24udHJlZS5udW1lcmljLkVsZW1lbnQkQ29uc3RhbnQAAAAAAAAAAAIAAUQABXZhbHVleHA/4AAAAAAAAHEAfgCpc3EAfgACc3EAfgAHAAAAAHcEAAAAAHhxAH4ArnNxAH4AAnNxAH4ABwAAAAJ3BAAAAAJzcQB+AAJzcQB+AAcAAAACdwQAAAACc3EAfgACc3EAfgAHAAAAAHcEAAAAAHhxAH4ArnEAfgCzc3EAfgACc3EAfgAHAAAAAHcEAAAAAHhxAH4ArnEAfgCzeH5xAH4APXQACEFERElUSU9OcQB+ALFxAH4Ar3hxAH4AuXB4cQB+ALlweA==";
    "rO0ABXNyABFqYXZhLnV0aWwuQ29sbFNlcleOq7Y6G6gRAwABSQADdGFneHAAAAAEdwQAAAAEc3IAN2lvLmdpdGh1Yi5lcmljbWVkdmV0LmpnZWEuY29yZS5yZXByZXNlbnRhdGlvbi50cmVlLlRyZWUKs7/qnQrEZQIAA0wACGNoaWxkcmVudAAQTGphdmEvdXRpbC9MaXN0O0wAB2NvbnRlbnR0ABJMamF2YS9sYW5nL09iamVjdDtMAAZwYXJlbnR0ADlMaW8vZ2l0aHViL2VyaWNtZWR2ZXQvamdlYS9jb3JlL3JlcHJlc2VudGF0aW9uL3RyZWUvVHJlZTt4cHNyABNqYXZhLnV0aWwuQXJyYXlMaXN0eIHSHZnHYZ0DAAFJAARzaXpleHAAAAAAdwQAAAAAeHNyAEtpby5naXRodWIuZXJpY21lZHZldC5qZ2VhLmNvcmUucmVwcmVzZW50YXRpb24udHJlZS5udW1lcmljLkVsZW1lbnQkVmFyaWFibGUAAAAAAAAAAAIAAUwABG5hbWV0ABJMamF2YS9sYW5nL1N0cmluZzt4cHQAA3gwMnBzcQB+AAJzcQB+AAcAAAAAdwQAAAAAeHNxAH4ACXQAA3gwM3BzcQB+AAJzcQB+AAcAAAACdwQAAAACc3EAfgACc3EAfgAHAAAAAncEAAAAAnNxAH4AAnNxAH4ABwAAAAJ3BAAAAAJzcQB+AAJzcQB+AAcAAAACdwQAAAACc3EAfgACc3EAfgAHAAAAAncEAAAAAnNxAH4AAnNxAH4ABwAAAAJ3BAAAAAJzcQB+AAJzcQB+AAcAAAACdwQAAAACc3EAfgACc3EAfgAHAAAAAncEAAAAAnNxAH4AAnNxAH4ABwAAAAJ3BAAAAAJzcQB+AAJzcQB+AAcAAAACdwQAAAACc3EAfgACc3EAfgAHAAAAAncEAAAAAnNxAH4AAnNxAH4ABwAAAAJ3BAAAAAJzcQB+AAJzcQB+AAcAAAACdwQAAAACc3EAfgACc3EAfgAHAAAAAncEAAAAAnNxAH4AAnNxAH4ABwAAAAJ3BAAAAAJzcQB+AAJzcQB+AAcAAAACdwQAAAACc3EAfgACc3EAfgAHAAAAAHcEAAAAAHhzcQB+AAl0AAN4MTBxAH4AL3NxAH4AAnNxAH4ABwAAAAB3BAAAAAB4c3EAfgAJdAADeDE0c3EAfgACc3EAfgAHAAAAAncEAAAAAnNxAH4AAnNxAH4ABwAAAAB3BAAAAAB4cQB+ADdxAH4AOXEAfgA1eH5yAEtpby5naXRodWIuZXJpY21lZHZldC5qZ2VhLmNvcmUucmVwcmVzZW50YXRpb24udHJlZS5udW1lcmljLkVsZW1lbnQkT3BlcmF0b3IAAAAAAAAAABIAAHhyAA5qYXZhLmxhbmcuRW51bQAAAAAAAAAAEgAAeHB0AAtTVUJUUkFDVElPTnNxAH4AAnNxAH4ABwAAAAJ3BAAAAAJxAH4AOXNxAH4AAnNxAH4ABwAAAAB3BAAAAAB4cQB+ADdzcQB+AAJzcQB+AAcAAAACdwQAAAACc3EAfgACc3EAfgAHAAAAAncEAAAAAnNxAH4AAnNxAH4ABwAAAAB3BAAAAAB4cQB+ADNxAH4AR3NxAH4AAnNxAH4ABwAAAAB3BAAAAAB4cQB+ADNxAH4AR3hxAH4AP3EAfgBFcQB+AEN4cQB+AD9zcQB+AAJzcQB+AAcAAAACdwQAAAACcQB+AEVzcQB+AAJzcQB+AAcAAAAAdwQAAAAAeHEAfgA3cQB+AE14cQB+AD9zcQB+AAJzcQB+AAcAAAACdwQAAAACcQB+AE1zcQB+AAJzcQB+AAcAAAAAdwQAAAAAeHEAfgA3cQB+AFF4cQB+AD9zcQB+AAJzcQB+AAcAAAACdwQAAAACcQB+AFFzcQB+AAJzcQB+AAcAAAAAdwQAAAAAeHEAfgA3cQB+AFV4cQB+AD9zcQB+AAJzcQB+AAcAAAACdwQAAAACcQB+AFVzcQB+AAJzcQB+AAcAAAAAdwQAAAAAeHEAfgA3cQB+AFl4cQB+AD9zcQB+AAJzcQB+AAcAAAACdwQAAAACcQB+AFlzcQB+AAJzcQB+AAcAAAAAdwQAAAAAeHEAfgA3cQB+AF14cQB+AD9zcQB+AAJzcQB+AAcAAAACdwQAAAACcQB+AF1zcQB+AAJzcQB+AAcAAAAAdwQAAAAAeHEAfgA3cQB+AGF4cQB+AD9zcQB+AAJzcQB+AAcAAAACdwQAAAACcQB+AGFzcQB+AAJzcQB+AAcAAAAAdwQAAAAAeHEAfgA3cQB+AGV4cQB+AD9zcQB+AAJzcQB+AAcAAAACdwQAAAACcQB+AGVzcQB+AAJzcQB+AAcAAAAAdwQAAAAAeHEAfgA3cQB+AGl4cQB+AD9zcQB+AAJzcQB+AAcAAAACdwQAAAACcQB+AGlzcQB+AAJzcQB+AAcAAAAAdwQAAAAAeHEAfgA3cQB+AG14cQB+AD9zcQB+AAJzcQB+AAcAAAACdwQAAAACcQB+AG1zcQB+AAJzcQB+AAcAAAAAdwQAAAAAeHEAfgA3cQB+AHF4cQB+AD9zcQB+AAJzcQB+AAcAAAACdwQAAAACcQB+AHFzcQB+AAJzcQB+AAcAAAAAdwQAAAAAeHEAfgA3cQB+AHV4cQB+AD9zcQB+AAJzcQB+AAcAAAACdwQAAAACcQB+AHVzcQB+AAJzcQB+AAcAAAAAdwQAAAAAeHEAfgA3cQB+AHl4cQB+AD9zcQB+AAJzcQB+AAcAAAACdwQAAAACcQB+AHlzcQB+AAJzcQB+AAcAAAACdwQAAAACc3EAfgACc3EAfgAHAAAAAHcEAAAAAHhxAH4AM3EAfgB/c3EAfgACc3EAfgAHAAAAAHcEAAAAAHhxAH4AN3EAfgB/eHEAfgA/cQB+AH14fnEAfgA9dAAOTVVMVElQTElDQVRJT05zcQB+AAJzcQB+AAcAAAACdwQAAAACcQB+AH1zcQB+AAJzcQB+AAcAAAAAdwQAAAAAeHNxAH4ACXQAA3gwNnEAfgCHeHEAfgA/cHhxAH4AP3NxAH4AAnNxAH4ABwAAAAJ3BAAAAAJxAH4AQXEAfgBPeHEAfgA/c3EAfgACc3EAfgAHAAAAAncEAAAAAnEAfgCNcQB+AFN4cQB+AD9zcQB+AAJzcQB+AAcAAAACdwQAAAACcQB+AI9xAH4AV3hxAH4AP3NxAH4AAnNxAH4ABwAAAAJ3BAAAAAJxAH4AkXEAfgBbeHEAfgA/c3EAfgACc3EAfgAHAAAAAncEAAAAAnEAfgCTcQB+AF94cQB+AD9zcQB+AAJzcQB+AAcAAAACdwQAAAACcQB+AJVxAH4AY3hxAH4AP3NxAH4AAnNxAH4ABwAAAAJ3BAAAAAJxAH4Al3EAfgBneHEAfgA/c3EAfgACc3EAfgAHAAAAAncEAAAAAnEAfgCZcQB+AGt4cQB+AD9zcQB+AAJzcQB+AAcAAAACdwQAAAACcQB+AJtxAH4Ab3hxAH4AP3NxAH4AAnNxAH4ABwAAAAJ3BAAAAAJxAH4AnXEAfgBzeHEAfgA/c3EAfgACc3EAfgAHAAAAAncEAAAAAnEAfgCfcQB+AHd4cQB+AD9zcQB+AAJzcQB+AAcAAAACdwQAAAACcQB+AKFxAH4Ae3hxAH4AP3NxAH4AAnNxAH4ABwAAAAJ3BAAAAAJxAH4Ao3EAfgB/eHEAfgCFc3EAfgACc3EAfgAHAAAAAncEAAAAAnEAfgClcQB+AIl4cQB+AD9weHEAfgA/cQB+AC1xAH4AQ3hxAH4AP3EAfgArcQB+AE94cQB+AD9xAH4AKXEAfgBTeHEAfgA/cQB+ACdxAH4AV3hxAH4AP3EAfgAlcQB+AFt4cQB+AD9xAH4AI3EAfgBfeHEAfgA/cQB+ACFxAH4AY3hxAH4AP3EAfgAfcQB+AGd4cQB+AD9xAH4AHXEAfgBreHEAfgA/cQB+ABtxAH4Ab3hxAH4AP3EAfgAZcQB+AHN4cQB+AD9xAH4AF3EAfgB3eHEAfgA/cQB+ABVxAH4Ae3hxAH4AP3EAfgATcQB+AH94cQB+AIVxAH4AEXEAfgCJeHEAfgA/cHNxAH4AAnNxAH4ABwAAAAB3BAAAAAB4c3IAS2lvLmdpdGh1Yi5lcmljbWVkdmV0LmpnZWEuY29yZS5yZXByZXNlbnRhdGlvbi50cmVlLm51bWVyaWMuRWxlbWVudCRDb25zdGFudAAAAAAAAAAAAgABRAAFdmFsdWV4cD/wAAAAAAAAcHg=";
    "rO0ABXNyABFqYXZhLnV0aWwuQ29sbFNlcleOq7Y6G6gRAwABSQADdGFneHAAAAAEdwQAAAAEc3IAN2lvLmdpdGh1Yi5lcmljbWVkdmV0LmpnZWEuY29yZS5yZXByZXNlbnRhdGlvbi50cmVlLlRyZWUKs7/qnQrEZQIAA0wACGNoaWxkcmVudAAQTGphdmEvdXRpbC9MaXN0O0wAB2NvbnRlbnR0ABJMamF2YS9sYW5nL09iamVjdDtMAAZwYXJlbnR0ADlMaW8vZ2l0aHViL2VyaWNtZWR2ZXQvamdlYS9jb3JlL3JlcHJlc2VudGF0aW9uL3RyZWUvVHJlZTt4cHNyABNqYXZhLnV0aWwuQXJyYXlMaXN0eIHSHZnHYZ0DAAFJAARzaXpleHAAAAAAdwQAAAAAeHNyAEtpby5naXRodWIuZXJpY21lZHZldC5qZ2VhLmNvcmUucmVwcmVzZW50YXRpb24udHJlZS5udW1lcmljLkVsZW1lbnQkVmFyaWFibGUAAAAAAAAAAAIAAUwABG5hbWV0ABJMamF2YS9sYW5nL1N0cmluZzt4cHQAA3gwMnBzcQB+AAJzcQB+AAcAAAAAdwQAAAAAeHNxAH4ACXQAA3gwM3BzcQB+AAJzcQB+AAcAAAACdwQAAAACc3EAfgACc3EAfgAHAAAAAncEAAAAAnNxAH4AAnNxAH4ABwAAAAJ3BAAAAAJzcQB+AAJzcQB+AAcAAAACdwQAAAACc3EAfgACc3EAfgAHAAAAAncEAAAAAnNxAH4AAnNxAH4ABwAAAAJ3BAAAAAJzcQB+AAJzcQB+AAcAAAACdwQAAAACc3EAfgACc3EAfgAHAAAAAncEAAAAAnNxAH4AAnNxAH4ABwAAAAJ3BAAAAAJzcQB+AAJzcQB+AAcAAAACdwQAAAACc3EAfgACc3EAfgAHAAAAAncEAAAAAnNxAH4AAnNxAH4ABwAAAAJ3BAAAAAJzcQB+AAJzcQB+AAcAAAACdwQAAAACc3EAfgACc3EAfgAHAAAAAncEAAAAAnNxAH4AAnNxAH4ABwAAAAJ3BAAAAAJzcQB+AAJzcQB+AAcAAAACdwQAAAACc3EAfgACc3EAfgAHAAAAAHcEAAAAAHhzcQB+AAl0AAN4MTBxAH4AL3NxAH4AAnNxAH4ABwAAAAB3BAAAAAB4c3EAfgAJdAADeDE0c3EAfgACc3EAfgAHAAAAAncEAAAAAnNxAH4AAnNxAH4ABwAAAAB3BAAAAAB4cQB+ADdxAH4AOXEAfgA1eH5yAEtpby5naXRodWIuZXJpY21lZHZldC5qZ2VhLmNvcmUucmVwcmVzZW50YXRpb24udHJlZS5udW1lcmljLkVsZW1lbnQkT3BlcmF0b3IAAAAAAAAAABIAAHhyAA5qYXZhLmxhbmcuRW51bQAAAAAAAAAAEgAAeHB0AAtTVUJUUkFDVElPTnNxAH4AAnNxAH4ABwAAAAJ3BAAAAAJxAH4AOXNxAH4AAnNxAH4ABwAAAAB3BAAAAAB4cQB+ADdzcQB+AAJzcQB+AAcAAAACdwQAAAACc3EAfgACc3EAfgAHAAAAAncEAAAAAnNxAH4AAnNxAH4ABwAAAAB3BAAAAAB4cQB+ADNxAH4AR3NxAH4AAnNxAH4ABwAAAAB3BAAAAAB4cQB+ADNxAH4AR3hxAH4AP3EAfgBFcQB+AEN4cQB+AD9zcQB+AAJzcQB+AAcAAAACdwQAAAACcQB+AEVzcQB+AAJzcQB+AAcAAAAAdwQAAAAAeHEAfgA3cQB+AE14cQB+AD9zcQB+AAJzcQB+AAcAAAACdwQAAAACcQB+AE1zcQB+AAJzcQB+AAcAAAAAdwQAAAAAeHEAfgA3cQB+AFF4cQB+AD9zcQB+AAJzcQB+AAcAAAACdwQAAAACcQB+AFFzcQB+AAJzcQB+AAcAAAAAdwQAAAAAeHEAfgA3cQB+AFV4cQB+AD9zcQB+AAJzcQB+AAcAAAACdwQAAAACcQB+AFVzcQB+AAJzcQB+AAcAAAAAdwQAAAAAeHEAfgA3cQB+AFl4cQB+AD9zcQB+AAJzcQB+AAcAAAACdwQAAAACcQB+AFlzcQB+AAJzcQB+AAcAAAAAdwQAAAAAeHEAfgA3cQB+AF14cQB+AD9zcQB+AAJzcQB+AAcAAAACdwQAAAACcQB+AF1zcQB+AAJzcQB+AAcAAAAAdwQAAAAAeHEAfgA3cQB+AGF4cQB+AD9zcQB+AAJzcQB+AAcAAAACdwQAAAACcQB+AGFzcQB+AAJzcQB+AAcAAAAAdwQAAAAAeHEAfgA3cQB+AGV4cQB+AD9zcQB+AAJzcQB+AAcAAAACdwQAAAACcQB+AGVzcQB+AAJzcQB+AAcAAAAAdwQAAAAAeHEAfgA3cQB+AGl4cQB+AD9zcQB+AAJzcQB+AAcAAAACdwQAAAACcQB+AGlzcQB+AAJzcQB+AAcAAAAAdwQAAAAAeHEAfgA3cQB+AG14cQB+AD9zcQB+AAJzcQB+AAcAAAACdwQAAAACcQB+AG1zcQB+AAJzcQB+AAcAAAAAdwQAAAAAeHEAfgA3cQB+AHF4cQB+AD9zcQB+AAJzcQB+AAcAAAACdwQAAAACcQB+AHFzcQB+AAJzcQB+AAcAAAAAdwQAAAAAeHEAfgA3cQB+AHV4cQB+AD9zcQB+AAJzcQB+AAcAAAACdwQAAAACcQB+AHVzcQB+AAJzcQB+AAcAAAAAdwQAAAAAeHEAfgA3cQB+AHl4cQB+AD9zcQB+AAJzcQB+AAcAAAACdwQAAAACcQB+AHlzcQB+AAJzcQB+AAcAAAACdwQAAAACc3EAfgACc3EAfgAHAAAAAHcEAAAAAHhxAH4AM3EAfgB/c3EAfgACc3EAfgAHAAAAAHcEAAAAAHhxAH4AN3EAfgB/eHEAfgA/cQB+AH14fnEAfgA9dAAOTVVMVElQTElDQVRJT05zcQB+AAJzcQB+AAcAAAACdwQAAAACcQB+AH1zcQB+AAJzcQB+AAcAAAAAdwQAAAAAeHNxAH4ACXQAA3gwNnEAfgCHeHEAfgA/cHhxAH4AP3NxAH4AAnNxAH4ABwAAAAJ3BAAAAAJxAH4AQXEAfgBPeHEAfgA/c3EAfgACc3EAfgAHAAAAAncEAAAAAnEAfgCNcQB+AFN4cQB+AD9zcQB+AAJzcQB+AAcAAAACdwQAAAACcQB+AI9xAH4AV3hxAH4AP3NxAH4AAnNxAH4ABwAAAAJ3BAAAAAJxAH4AkXEAfgBbeHEAfgA/c3EAfgACc3EAfgAHAAAAAncEAAAAAnEAfgCTcQB+AF94cQB+AD9zcQB+AAJzcQB+AAcAAAACdwQAAAACcQB+AJVxAH4AY3hxAH4AP3NxAH4AAnNxAH4ABwAAAAJ3BAAAAAJxAH4Al3EAfgBneHEAfgA/c3EAfgACc3EAfgAHAAAAAncEAAAAAnEAfgCZcQB+AGt4cQB+AD9zcQB+AAJzcQB+AAcAAAACdwQAAAACcQB+AJtxAH4Ab3hxAH4AP3NxAH4AAnNxAH4ABwAAAAJ3BAAAAAJxAH4AnXEAfgBzeHEAfgA/c3EAfgACc3EAfgAHAAAAAncEAAAAAnEAfgCfcQB+AHd4cQB+AD9zcQB+AAJzcQB+AAcAAAACdwQAAAACcQB+AKFxAH4Ae3hxAH4AP3NxAH4AAnNxAH4ABwAAAAJ3BAAAAAJxAH4Ao3EAfgB/eHEAfgCFc3EAfgACc3EAfgAHAAAAAncEAAAAAnEAfgClcQB+AIl4cQB+AD9weHEAfgA/cQB+AC1xAH4AQ3hxAH4AP3EAfgArcQB+AE94cQB+AD9xAH4AKXEAfgBTeHEAfgA/cQB+ACdxAH4AV3hxAH4AP3EAfgAlcQB+AFt4cQB+AD9xAH4AI3EAfgBfeHEAfgA/cQB+ACFxAH4AY3hxAH4AP3EAfgAfcQB+AGd4cQB+AD9xAH4AHXEAfgBreHEAfgA/cQB+ABtxAH4Ab3hxAH4AP3EAfgAZcQB+AHN4cQB+AD9xAH4AF3EAfgB3eHEAfgA/cQB+ABVxAH4Ae3hxAH4AP3EAfgATcQB+AH94cQB+AIVxAH4AEXEAfgCJeHEAfgA/cHNxAH4AAnNxAH4ABwAAAAJ3BAAAAAJzcQB+AAJzcQB+AAcAAAAAdwQAAAAAeHNyAEtpby5naXRodWIuZXJpY21lZHZldC5qZ2VhLmNvcmUucmVwcmVzZW50YXRpb24udHJlZS5udW1lcmljLkVsZW1lbnQkQ29uc3RhbnQAAAAAAAAAAAIAAUQABXZhbHVleHA/4AAAAAAAAHEAfgCpc3EAfgACc3EAfgAHAAAAAHcEAAAAAHhxAH4ArnNxAH4AAnNxAH4ABwAAAAJ3BAAAAAJzcQB+AAJzcQB+AAcAAAACdwQAAAACc3EAfgACc3EAfgAHAAAAAHcEAAAAAHhxAH4ArnEAfgCzc3EAfgACc3EAfgAHAAAAAHcEAAAAAHhxAH4ArnEAfgCzeH5xAH4APXQACEFERElUSU9OcQB+ALFxAH4Ar3hxAH4AuXB4cQB+ALlweA==";
    "rO0ABXNyABFqYXZhLnV0aWwuQ29sbFNlcleOq7Y6G6gRAwABSQADdGFneHAAAAAEdwQAAAAEc3IAN2lvLmdpdGh1Yi5lcmljbWVkdmV0LmpnZWEuY29yZS5yZXByZXNlbnRhdGlvbi50cmVlLlRyZWUKs7/qnQrEZQIAA0wACGNoaWxkcmVudAAQTGphdmEvdXRpbC9MaXN0O0wAB2NvbnRlbnR0ABJMamF2YS9sYW5nL09iamVjdDtMAAZwYXJlbnR0ADlMaW8vZ2l0aHViL2VyaWNtZWR2ZXQvamdlYS9jb3JlL3JlcHJlc2VudGF0aW9uL3RyZWUvVHJlZTt4cHNyABNqYXZhLnV0aWwuQXJyYXlMaXN0eIHSHZnHYZ0DAAFJAARzaXpleHAAAAAAdwQAAAAAeHNyAEtpby5naXRodWIuZXJpY21lZHZldC5qZ2VhLmNvcmUucmVwcmVzZW50YXRpb24udHJlZS5udW1lcmljLkVsZW1lbnQkVmFyaWFibGUAAAAAAAAAAAIAAUwABG5hbWV0ABJMamF2YS9sYW5nL1N0cmluZzt4cHQAA3gwMnBzcQB+AAJzcQB+AAcAAAAAdwQAAAAAeHNxAH4ACXQAA3gwM3BzcQB+AAJzcQB+AAcAAAACdwQAAAACc3EAfgACc3EAfgAHAAAAAncEAAAAAnNxAH4AAnNxAH4ABwAAAAJ3BAAAAAJzcQB+AAJzcQB+AAcAAAACdwQAAAACc3EAfgACc3EAfgAHAAAAAncEAAAAAnNxAH4AAnNxAH4ABwAAAAJ3BAAAAAJzcQB+AAJzcQB+AAcAAAACdwQAAAACc3EAfgACc3EAfgAHAAAAAncEAAAAAnNxAH4AAnNxAH4ABwAAAAJ3BAAAAAJzcQB+AAJzcQB+AAcAAAACdwQAAAACc3EAfgACc3EAfgAHAAAAAncEAAAAAnNxAH4AAnNxAH4ABwAAAAJ3BAAAAAJzcQB+AAJzcQB+AAcAAAACdwQAAAACc3EAfgACc3EAfgAHAAAAAncEAAAAAnNxAH4AAnNxAH4ABwAAAAJ3BAAAAAJzcQB+AAJzcQB+AAcAAAACdwQAAAACc3EAfgACc3EAfgAHAAAAAHcEAAAAAHhzcQB+AAl0AAN4MTBxAH4AL3NxAH4AAnNxAH4ABwAAAAB3BAAAAAB4c3EAfgAJdAADeDE0c3EAfgACc3EAfgAHAAAAAncEAAAAAnNxAH4AAnNxAH4ABwAAAAB3BAAAAAB4cQB+ADdxAH4AOXEAfgA1eH5yAEtpby5naXRodWIuZXJpY21lZHZldC5qZ2VhLmNvcmUucmVwcmVzZW50YXRpb24udHJlZS5udW1lcmljLkVsZW1lbnQkT3BlcmF0b3IAAAAAAAAAABIAAHhyAA5qYXZhLmxhbmcuRW51bQAAAAAAAAAAEgAAeHB0AAtTVUJUUkFDVElPTnNxAH4AAnNxAH4ABwAAAAJ3BAAAAAJxAH4AOXNxAH4AAnNxAH4ABwAAAAB3BAAAAAB4cQB+ADdzcQB+AAJzcQB+AAcAAAACdwQAAAACc3EAfgACc3EAfgAHAAAAAncEAAAAAnNxAH4AAnNxAH4ABwAAAAB3BAAAAAB4cQB+ADNxAH4AR3NxAH4AAnNxAH4ABwAAAAB3BAAAAAB4cQB+ADNxAH4AR3hxAH4AP3EAfgBFcQB+AEN4cQB+AD9zcQB+AAJzcQB+AAcAAAACdwQAAAACcQB+AEVzcQB+AAJzcQB+AAcAAAAAdwQAAAAAeHEAfgA3cQB+AE14cQB+AD9zcQB+AAJzcQB+AAcAAAACdwQAAAACcQB+AE1zcQB+AAJzcQB+AAcAAAAAdwQAAAAAeHEAfgA3cQB+AFF4cQB+AD9zcQB+AAJzcQB+AAcAAAACdwQAAAACcQB+AFFzcQB+AAJzcQB+AAcAAAAAdwQAAAAAeHEAfgA3cQB+AFV4cQB+AD9zcQB+AAJzcQB+AAcAAAACdwQAAAACcQB+AFVzcQB+AAJzcQB+AAcAAAAAdwQAAAAAeHEAfgA3cQB+AFl4cQB+AD9zcQB+AAJzcQB+AAcAAAACdwQAAAACcQB+AFlzcQB+AAJzcQB+AAcAAAAAdwQAAAAAeHEAfgA3cQB+AF14cQB+AD9zcQB+AAJzcQB+AAcAAAACdwQAAAACcQB+AF1zcQB+AAJzcQB+AAcAAAAAdwQAAAAAeHEAfgA3cQB+AGF4cQB+AD9zcQB+AAJzcQB+AAcAAAACdwQAAAACcQB+AGFzcQB+AAJzcQB+AAcAAAAAdwQAAAAAeHEAfgA3cQB+AGV4cQB+AD9zcQB+AAJzcQB+AAcAAAACdwQAAAACcQB+AGVzcQB+AAJzcQB+AAcAAAAAdwQAAAAAeHEAfgA3cQB+AGl4cQB+AD9zcQB+AAJzcQB+AAcAAAACdwQAAAACcQB+AGlzcQB+AAJzcQB+AAcAAAAAdwQAAAAAeHEAfgA3cQB+AG14cQB+AD9zcQB+AAJzcQB+AAcAAAACdwQAAAACcQB+AG1zcQB+AAJzcQB+AAcAAAAAdwQAAAAAeHEAfgA3cQB+AHF4cQB+AD9zcQB+AAJzcQB+AAcAAAACdwQAAAACcQB+AHFzcQB+AAJzcQB+AAcAAAAAdwQAAAAAeHEAfgA3cQB+AHV4cQB+AD9zcQB+AAJzcQB+AAcAAAACdwQAAAACcQB+AHVzcQB+AAJzcQB+AAcAAAAAdwQAAAAAeHEAfgA3cQB+AHl4cQB+AD9zcQB+AAJzcQB+AAcAAAACdwQAAAACcQB+AHlzcQB+AAJzcQB+AAcAAAACdwQAAAACc3EAfgACc3EAfgAHAAAAAHcEAAAAAHhxAH4AM3EAfgB/c3EAfgACc3EAfgAHAAAAAHcEAAAAAHhxAH4AN3EAfgB/eHEAfgA/cQB+AH14fnEAfgA9dAAOTVVMVElQTElDQVRJT05zcQB+AAJzcQB+AAcAAAACdwQAAAACcQB+AH1zcQB+AAJzcQB+AAcAAAAAdwQAAAAAeHNxAH4ACXQAA3gwNnEAfgCHeHEAfgA/cHhxAH4AP3NxAH4AAnNxAH4ABwAAAAJ3BAAAAAJxAH4AQXEAfgBPeHEAfgA/c3EAfgACc3EAfgAHAAAAAncEAAAAAnEAfgCNcQB+AFN4cQB+AD9zcQB+AAJzcQB+AAcAAAACdwQAAAACcQB+AI9xAH4AV3hxAH4AP3NxAH4AAnNxAH4ABwAAAAJ3BAAAAAJxAH4AkXEAfgBbeHEAfgA/c3EAfgACc3EAfgAHAAAAAncEAAAAAnEAfgCTcQB+AF94cQB+AD9zcQB+AAJzcQB+AAcAAAACdwQAAAACcQB+AJVxAH4AY3hxAH4AP3NxAH4AAnNxAH4ABwAAAAJ3BAAAAAJxAH4Al3EAfgBneHEAfgA/c3EAfgACc3EAfgAHAAAAAncEAAAAAnEAfgCZcQB+AGt4cQB+AD9zcQB+AAJzcQB+AAcAAAACdwQAAAACcQB+AJtxAH4Ab3hxAH4AP3NxAH4AAnNxAH4ABwAAAAJ3BAAAAAJxAH4AnXEAfgBzeHEAfgA/c3EAfgACc3EAfgAHAAAAAncEAAAAAnEAfgCfcQB+AHd4cQB+AD9zcQB+AAJzcQB+AAcAAAACdwQAAAACcQB+AKFxAH4Ae3hxAH4AP3NxAH4AAnNxAH4ABwAAAAJ3BAAAAAJxAH4Ao3EAfgB/eHEAfgCFc3EAfgACc3EAfgAHAAAAAncEAAAAAnEAfgClcQB+AIl4cQB+AD9weHEAfgA/cQB+AC1xAH4AQ3hxAH4AP3EAfgArcQB+AE94cQB+AD9xAH4AKXEAfgBTeHEAfgA/cQB+ACdxAH4AV3hxAH4AP3EAfgAlcQB+AFt4cQB+AD9xAH4AI3EAfgBfeHEAfgA/cQB+ACFxAH4AY3hxAH4AP3EAfgAfcQB+AGd4cQB+AD9xAH4AHXEAfgBreHEAfgA/cQB+ABtxAH4Ab3hxAH4AP3EAfgAZcQB+AHN4cQB+AD9xAH4AF3EAfgB3eHEAfgA/cQB+ABVxAH4Ae3hxAH4AP3EAfgATcQB+AH94cQB+AIVxAH4AEXEAfgCJeHEAfgA/cHNxAH4AAnNxAH4ABwAAAAJ3BAAAAAJzcQB+AAJzcQB+AAcAAAAAdwQAAAAAeHNyAEtpby5naXRodWIuZXJpY21lZHZldC5qZ2VhLmNvcmUucmVwcmVzZW50YXRpb24udHJlZS5udW1lcmljLkVsZW1lbnQkQ29uc3RhbnQAAAAAAAAAAAIAAUQABXZhbHVleHA/4AAAAAAAAHEAfgCpc3EAfgACc3EAfgAHAAAAAHcEAAAAAHhxAH4ArnNxAH4AAnNxAH4ABwAAAAJ3BAAAAAJzcQB+AAJzcQB+AAcAAAACdwQAAAACc3EAfgACc3EAfgAHAAAAAHcEAAAAAHhxAH4ArnEAfgCzc3EAfgACc3EAfgAHAAAAAHcEAAAAAHhxAH4ArnEAfgCzeH5xAH4APXQACEFERElUSU9OcQB+ALFxAH4Ar3hxAH4AuXB4cQB+ALlweA==";
    "rO0ABXNyABFqYXZhLnV0aWwuQ29sbFNlcleOq7Y6G6gRAwABSQADdGFneHAAAAAEdwQAAAAEc3IAN2lvLmdpdGh1Yi5lcmljbWVkdmV0LmpnZWEuY29yZS5yZXByZXNlbnRhdGlvbi50cmVlLlRyZWUKs7/qnQrEZQIAA0wACGNoaWxkcmVudAAQTGphdmEvdXRpbC9MaXN0O0wAB2NvbnRlbnR0ABJMamF2YS9sYW5nL09iamVjdDtMAAZwYXJlbnR0ADlMaW8vZ2l0aHViL2VyaWNtZWR2ZXQvamdlYS9jb3JlL3JlcHJlc2VudGF0aW9uL3RyZWUvVHJlZTt4cHNyABNqYXZhLnV0aWwuQXJyYXlMaXN0eIHSHZnHYZ0DAAFJAARzaXpleHAAAAAAdwQAAAAAeHNyAEtpby5naXRodWIuZXJpY21lZHZldC5qZ2VhLmNvcmUucmVwcmVzZW50YXRpb24udHJlZS5udW1lcmljLkVsZW1lbnQkVmFyaWFibGUAAAAAAAAAAAIAAUwABG5hbWV0ABJMamF2YS9sYW5nL1N0cmluZzt4cHQAA3gwMnBzcQB+AAJzcQB+AAcAAAAAdwQAAAAAeHNxAH4ACXQAA3gwM3BzcQB+AAJzcQB+AAcAAAACdwQAAAACc3EAfgACc3EAfgAHAAAAAncEAAAAAnNxAH4AAnNxAH4ABwAAAAJ3BAAAAAJzcQB+AAJzcQB+AAcAAAACdwQAAAACc3EAfgACc3EAfgAHAAAAAncEAAAAAnNxAH4AAnNxAH4ABwAAAAJ3BAAAAAJzcQB+AAJzcQB+AAcAAAACdwQAAAACc3EAfgACc3EAfgAHAAAAAncEAAAAAnNxAH4AAnNxAH4ABwAAAAJ3BAAAAAJzcQB+AAJzcQB+AAcAAAACdwQAAAACc3EAfgACc3EAfgAHAAAAAncEAAAAAnNxAH4AAnNxAH4ABwAAAAJ3BAAAAAJzcQB+AAJzcQB+AAcAAAACdwQAAAACc3EAfgACc3EAfgAHAAAAAncEAAAAAnNxAH4AAnNxAH4ABwAAAAJ3BAAAAAJzcQB+AAJzcQB+AAcAAAACdwQAAAACc3EAfgACc3EAfgAHAAAAAHcEAAAAAHhzcQB+AAl0AAN4MTBxAH4AL3NxAH4AAnNxAH4ABwAAAAB3BAAAAAB4c3EAfgAJdAADeDE0c3EAfgACc3EAfgAHAAAAAncEAAAAAnNxAH4AAnNxAH4ABwAAAAB3BAAAAAB4cQB+ADdxAH4AOXEAfgA1eH5yAEtpby5naXRodWIuZXJpY21lZHZldC5qZ2VhLmNvcmUucmVwcmVzZW50YXRpb24udHJlZS5udW1lcmljLkVsZW1lbnQkT3BlcmF0b3IAAAAAAAAAABIAAHhyAA5qYXZhLmxhbmcuRW51bQAAAAAAAAAAEgAAeHB0AAtTVUJUUkFDVElPTnNxAH4AAnNxAH4ABwAAAAJ3BAAAAAJxAH4AOXNxAH4AAnNxAH4ABwAAAAB3BAAAAAB4cQB+ADdzcQB+AAJzcQB+AAcAAAACdwQAAAACc3EAfgACc3EAfgAHAAAAAncEAAAAAnNxAH4AAnNxAH4ABwAAAAB3BAAAAAB4cQB+ADNxAH4AR3NxAH4AAnNxAH4ABwAAAAB3BAAAAAB4cQB+ADNxAH4AR3hxAH4AP3EAfgBFcQB+AEN4cQB+AD9zcQB+AAJzcQB+AAcAAAACdwQAAAACcQB+AEVzcQB+AAJzcQB+AAcAAAAAdwQAAAAAeHEAfgA3cQB+AE14cQB+AD9zcQB+AAJzcQB+AAcAAAACdwQAAAACcQB+AE1zcQB+AAJzcQB+AAcAAAAAdwQAAAAAeHEAfgA3cQB+AFF4cQB+AD9zcQB+AAJzcQB+AAcAAAACdwQAAAACcQB+AFFzcQB+AAJzcQB+AAcAAAAAdwQAAAAAeHEAfgA3cQB+AFV4cQB+AD9zcQB+AAJzcQB+AAcAAAACdwQAAAACcQB+AFVzcQB+AAJzcQB+AAcAAAAAdwQAAAAAeHEAfgA3cQB+AFl4cQB+AD9zcQB+AAJzcQB+AAcAAAACdwQAAAACcQB+AFlzcQB+AAJzcQB+AAcAAAAAdwQAAAAAeHEAfgA3cQB+AF14cQB+AD9zcQB+AAJzcQB+AAcAAAACdwQAAAACcQB+AF1zcQB+AAJzcQB+AAcAAAAAdwQAAAAAeHEAfgA3cQB+AGF4cQB+AD9zcQB+AAJzcQB+AAcAAAACdwQAAAACcQB+AGFzcQB+AAJzcQB+AAcAAAAAdwQAAAAAeHEAfgA3cQB+AGV4cQB+AD9zcQB+AAJzcQB+AAcAAAACdwQAAAACcQB+AGVzcQB+AAJzcQB+AAcAAAAAdwQAAAAAeHEAfgA3cQB+AGl4cQB+AD9zcQB+AAJzcQB+AAcAAAACdwQAAAACcQB+AGlzcQB+AAJzcQB+AAcAAAAAdwQAAAAAeHEAfgA3cQB+AG14cQB+AD9zcQB+AAJzcQB+AAcAAAACdwQAAAACcQB+AG1zcQB+AAJzcQB+AAcAAAAAdwQAAAAAeHEAfgA3cQB+AHF4cQB+AD9zcQB+AAJzcQB+AAcAAAACdwQAAAACcQB+AHFzcQB+AAJzcQB+AAcAAAAAdwQAAAAAeHEAfgA3cQB+AHV4cQB+AD9zcQB+AAJzcQB+AAcAAAACdwQAAAACcQB+AHVzcQB+AAJzcQB+AAcAAAAAdwQAAAAAeHEAfgA3cQB+AHl4cQB+AD9zcQB+AAJzcQB+AAcAAAACdwQAAAACcQB+AHlzcQB+AAJzcQB+AAcAAAACdwQAAAACc3EAfgACc3EAfgAHAAAAAHcEAAAAAHhxAH4AM3EAfgB/c3EAfgACc3EAfgAHAAAAAHcEAAAAAHhxAH4AN3EAfgB/eHEAfgA/cQB+AH14fnEAfgA9dAAOTVVMVElQTElDQVRJT05zcQB+AAJzcQB+AAcAAAACdwQAAAACcQB+AH1zcQB+AAJzcQB+AAcAAAAAdwQAAAAAeHNxAH4ACXQAA3gwNnEAfgCHeHEAfgA/cHhxAH4AP3NxAH4AAnNxAH4ABwAAAAJ3BAAAAAJxAH4AQXEAfgBPeHEAfgA/c3EAfgACc3EAfgAHAAAAAncEAAAAAnEAfgCNcQB+AFN4cQB+AD9zcQB+AAJzcQB+AAcAAAACdwQAAAACcQB+AI9xAH4AV3hxAH4AP3NxAH4AAnNxAH4ABwAAAAJ3BAAAAAJxAH4AkXEAfgBbeHEAfgA/c3EAfgACc3EAfgAHAAAAAncEAAAAAnEAfgCTcQB+AF94cQB+AD9zcQB+AAJzcQB+AAcAAAACdwQAAAACcQB+AJVxAH4AY3hxAH4AP3NxAH4AAnNxAH4ABwAAAAJ3BAAAAAJxAH4Al3EAfgBneHEAfgA/c3EAfgACc3EAfgAHAAAAAncEAAAAAnEAfgCZcQB+AGt4cQB+AD9zcQB+AAJzcQB+AAcAAAACdwQAAAACcQB+AJtxAH4Ab3hxAH4AP3NxAH4AAnNxAH4ABwAAAAJ3BAAAAAJxAH4AnXEAfgBzeHEAfgA/c3EAfgACc3EAfgAHAAAAAncEAAAAAnEAfgCfcQB+AHd4cQB+AD9zcQB+AAJzcQB+AAcAAAACdwQAAAACcQB+AKFxAH4Ae3hxAH4AP3NxAH4AAnNxAH4ABwAAAAJ3BAAAAAJxAH4Ao3EAfgB/eHEAfgCFc3EAfgACc3EAfgAHAAAAAncEAAAAAnEAfgClcQB+AIl4cQB+AD9weHEAfgA/cQB+AC1xAH4AQ3hxAH4AP3EAfgArcQB+AE94cQB+AD9xAH4AKXEAfgBTeHEAfgA/cQB+ACdxAH4AV3hxAH4AP3EAfgAlcQB+AFt4cQB+AD9xAH4AI3EAfgBfeHEAfgA/cQB+ACFxAH4AY3hxAH4AP3EAfgAfcQB+AGd4cQB+AD9xAH4AHXEAfgBreHEAfgA/cQB+ABtxAH4Ab3hxAH4AP3EAfgAZcQB+AHN4cQB+AD9xAH4AF3EAfgB3eHEAfgA/cQB+ABVxAH4Ae3hxAH4AP3EAfgATcQB+AH94cQB+AIVxAH4AEXEAfgCJeHEAfgA/cHNxAH4AAnNxAH4ABwAAAAJ3BAAAAAJzcQB+AAJzcQB+AAcAAAAAdwQAAAAAeHNyAEtpby5naXRodWIuZXJpY21lZHZldC5qZ2VhLmNvcmUucmVwcmVzZW50YXRpb24udHJlZS5udW1lcmljLkVsZW1lbnQkQ29uc3RhbnQAAAAAAAAAAAIAAUQABXZhbHVleHA/4AAAAAAAAHEAfgCpc3EAfgACc3EAfgAHAAAAAHcEAAAAAHhxAH4ArnNxAH4AAnNxAH4ABwAAAAJ3BAAAAAJzcQB+AAJzcQB+AAcAAAACdwQAAAACc3EAfgACc3EAfgAHAAAAAHcEAAAAAHhxAH4ArnEAfgCzc3EAfgACc3EAfgAHAAAAAHcEAAAAAHhxAH4ArnEAfgCzeH5xAH4APXQACEFERElUSU9OcQB+ALFxAH4Ar3hxAH4AuXB4cQB+ALlweA==";
    "rO0ABXNyABFqYXZhLnV0aWwuQ29sbFNlcleOq7Y6G6gRAwABSQADdGFneHAAAAAEdwQAAAAEc3IAN2lvLmdpdGh1Yi5lcmljbWVkdmV0LmpnZWEuY29yZS5yZXByZXNlbnRhdGlvbi50cmVlLlRyZWUKs7/qnQrEZQIAA0wACGNoaWxkcmVudAAQTGphdmEvdXRpbC9MaXN0O0wAB2NvbnRlbnR0ABJMamF2YS9sYW5nL09iamVjdDtMAAZwYXJlbnR0ADlMaW8vZ2l0aHViL2VyaWNtZWR2ZXQvamdlYS9jb3JlL3JlcHJlc2VudGF0aW9uL3RyZWUvVHJlZTt4cHNyABNqYXZhLnV0aWwuQXJyYXlMaXN0eIHSHZnHYZ0DAAFJAARzaXpleHAAAAAAdwQAAAAAeHNyAEtpby5naXRodWIuZXJpY21lZHZldC5qZ2VhLmNvcmUucmVwcmVzZW50YXRpb24udHJlZS5udW1lcmljLkVsZW1lbnQkVmFyaWFibGUAAAAAAAAAAAIAAUwABG5hbWV0ABJMamF2YS9sYW5nL1N0cmluZzt4cHQAA3gwMnBzcQB+AAJzcQB+AAcAAAAAdwQAAAAAeHNxAH4ACXQAA3gwM3BzcQB+AAJzcQB+AAcAAAACdwQAAAACc3EAfgACc3EAfgAHAAAAAncEAAAAAnNxAH4AAnNxAH4ABwAAAAJ3BAAAAAJzcQB+AAJzcQB+AAcAAAACdwQAAAACc3EAfgACc3EAfgAHAAAAAncEAAAAAnNxAH4AAnNxAH4ABwAAAAJ3BAAAAAJzcQB+AAJzcQB+AAcAAAACdwQAAAACc3EAfgACc3EAfgAHAAAAAncEAAAAAnNxAH4AAnNxAH4ABwAAAAJ3BAAAAAJzcQB+AAJzcQB+AAcAAAACdwQAAAACc3EAfgACc3EAfgAHAAAAAncEAAAAAnNxAH4AAnNxAH4ABwAAAAJ3BAAAAAJzcQB+AAJzcQB+AAcAAAACdwQAAAACc3EAfgACc3EAfgAHAAAAAncEAAAAAnNxAH4AAnNxAH4ABwAAAAJ3BAAAAAJzcQB+AAJzcQB+AAcAAAACdwQAAAACc3EAfgACc3EAfgAHAAAAAHcEAAAAAHhzcQB+AAl0AAN4MTBxAH4AL3NxAH4AAnNxAH4ABwAAAAB3BAAAAAB4c3EAfgAJdAADeDE0c3EAfgACc3EAfgAHAAAAAncEAAAAAnNxAH4AAnNxAH4ABwAAAAB3BAAAAAB4cQB+ADdxAH4AOXEAfgA1eH5yAEtpby5naXRodWIuZXJpY21lZHZldC5qZ2VhLmNvcmUucmVwcmVzZW50YXRpb24udHJlZS5udW1lcmljLkVsZW1lbnQkT3BlcmF0b3IAAAAAAAAAABIAAHhyAA5qYXZhLmxhbmcuRW51bQAAAAAAAAAAEgAAeHB0AAtTVUJUUkFDVElPTnNxAH4AAnNxAH4ABwAAAAJ3BAAAAAJxAH4AOXNxAH4AAnNxAH4ABwAAAAB3BAAAAAB4cQB+ADdzcQB+AAJzcQB+AAcAAAACdwQAAAACc3EAfgACc3EAfgAHAAAAAncEAAAAAnNxAH4AAnNxAH4ABwAAAAB3BAAAAAB4cQB+ADNxAH4AR3NxAH4AAnNxAH4ABwAAAAB3BAAAAAB4cQB+ADNxAH4AR3hxAH4AP3EAfgBFcQB+AEN4cQB+AD9zcQB+AAJzcQB+AAcAAAACdwQAAAACcQB+AEVzcQB+AAJzcQB+AAcAAAAAdwQAAAAAeHEAfgA3cQB+AE14cQB+AD9zcQB+AAJzcQB+AAcAAAACdwQAAAACcQB+AE1zcQB+AAJzcQB+AAcAAAAAdwQAAAAAeHEAfgA3cQB+AFF4cQB+AD9zcQB+AAJzcQB+AAcAAAACdwQAAAACcQB+AFFzcQB+AAJzcQB+AAcAAAAAdwQAAAAAeHEAfgA3cQB+AFV4cQB+AD9zcQB+AAJzcQB+AAcAAAACdwQAAAACcQB+AFVzcQB+AAJzcQB+AAcAAAAAdwQAAAAAeHEAfgA3cQB+AFl4cQB+AD9zcQB+AAJzcQB+AAcAAAACdwQAAAACcQB+AFlzcQB+AAJzcQB+AAcAAAAAdwQAAAAAeHEAfgA3cQB+AF14cQB+AD9zcQB+AAJzcQB+AAcAAAACdwQAAAACcQB+AF1zcQB+AAJzcQB+AAcAAAAAdwQAAAAAeHEAfgA3cQB+AGF4cQB+AD9zcQB+AAJzcQB+AAcAAAACdwQAAAACcQB+AGFzcQB+AAJzcQB+AAcAAAAAdwQAAAAAeHEAfgA3cQB+AGV4cQB+AD9zcQB+AAJzcQB+AAcAAAACdwQAAAACcQB+AGVzcQB+AAJzcQB+AAcAAAAAdwQAAAAAeHEAfgA3cQB+AGl4cQB+AD9zcQB+AAJzcQB+AAcAAAACdwQAAAACcQB+AGlzcQB+AAJzcQB+AAcAAAAAdwQAAAAAeHEAfgA3cQB+AG14cQB+AD9zcQB+AAJzcQB+AAcAAAACdwQAAAACcQB+AG1zcQB+AAJzcQB+AAcAAAAAdwQAAAAAeHEAfgA3cQB+AHF4cQB+AD9zcQB+AAJzcQB+AAcAAAACdwQAAAACcQB+AHFzcQB+AAJzcQB+AAcAAAAAdwQAAAAAeHEAfgA3cQB+AHV4cQB+AD9zcQB+AAJzcQB+AAcAAAACdwQAAAACcQB+AHVzcQB+AAJzcQB+AAcAAAAAdwQAAAAAeHEAfgA3cQB+AHl4cQB+AD9zcQB+AAJzcQB+AAcAAAACdwQAAAACcQB+AHlzcQB+AAJzcQB+AAcAAAACdwQAAAACc3EAfgACc3EAfgAHAAAAAHcEAAAAAHhxAH4AM3EAfgB/c3EAfgACc3EAfgAHAAAAAHcEAAAAAHhxAH4AN3EAfgB/eHEAfgA/cQB+AH14fnEAfgA9dAAOTVVMVElQTElDQVRJT05zcQB+AAJzcQB+AAcAAAACdwQAAAACcQB+AH1zcQB+AAJzcQB+AAcAAAAAdwQAAAAAeHNxAH4ACXQAA3gwNnEAfgCHeHEAfgA/cHhxAH4AP3NxAH4AAnNxAH4ABwAAAAJ3BAAAAAJxAH4AQXEAfgBPeHEAfgA/c3EAfgACc3EAfgAHAAAAAncEAAAAAnEAfgCNcQB+AFN4cQB+AD9zcQB+AAJzcQB+AAcAAAACdwQAAAACcQB+AI9xAH4AV3hxAH4AP3NxAH4AAnNxAH4ABwAAAAJ3BAAAAAJxAH4AkXEAfgBbeHEAfgA/c3EAfgACc3EAfgAHAAAAAncEAAAAAnEAfgCTcQB+AF94cQB+AD9zcQB+AAJzcQB+AAcAAAACdwQAAAACcQB+AJVxAH4AY3hxAH4AP3NxAH4AAnNxAH4ABwAAAAJ3BAAAAAJxAH4Al3EAfgBneHEAfgA/c3EAfgACc3EAfgAHAAAAAncEAAAAAnEAfgCZcQB+AGt4cQB+AD9zcQB+AAJzcQB+AAcAAAACdwQAAAACcQB+AJtxAH4Ab3hxAH4AP3NxAH4AAnNxAH4ABwAAAAJ3BAAAAAJxAH4AnXEAfgBzeHEAfgA/c3EAfgACc3EAfgAHAAAAAncEAAAAAnEAfgCfcQB+AHd4cQB+AD9zcQB+AAJzcQB+AAcAAAACdwQAAAACcQB+AKFxAH4Ae3hxAH4AP3NxAH4AAnNxAH4ABwAAAAJ3BAAAAAJxAH4Ao3EAfgB/eHEAfgCFc3EAfgACc3EAfgAHAAAAAncEAAAAAnEAfgClcQB+AIl4cQB+AD9weHEAfgA/cQB+AC1xAH4AQ3hxAH4AP3EAfgArcQB+AE94cQB+AD9xAH4AKXEAfgBTeHEAfgA/cQB+ACdxAH4AV3hxAH4AP3EAfgAlcQB+AFt4cQB+AD9xAH4AI3EAfgBfeHEAfgA/cQB+ACFxAH4AY3hxAH4AP3EAfgAfcQB+AGd4cQB+AD9xAH4AHXEAfgBreHEAfgA/cQB+ABtxAH4Ab3hxAH4AP3EAfgAZcQB+AHN4cQB+AD9xAH4AF3EAfgB3eHEAfgA/cQB+ABVxAH4Ae3hxAH4AP3EAfgATcQB+AH94cQB+AIVxAH4AEXEAfgCJeHEAfgA/cHNxAH4AAnNxAH4ABwAAAAB3BAAAAAB4c3IAS2lvLmdpdGh1Yi5lcmljbWVkdmV0LmpnZWEuY29yZS5yZXByZXNlbnRhdGlvbi50cmVlLm51bWVyaWMuRWxlbWVudCRDb25zdGFudAAAAAAAAAAAAgABRAAFdmFsdWV4cD/wAAAAAAAAcHg=";
    "rO0ABXNyABFqYXZhLnV0aWwuQ29sbFNlcleOq7Y6G6gRAwABSQADdGFneHAAAAAEdwQAAAAEc3IAN2lvLmdpdGh1Yi5lcmljbWVkdmV0LmpnZWEuY29yZS5yZXByZXNlbnRhdGlvbi50cmVlLlRyZWUKs7/qnQrEZQIAA0wACGNoaWxkcmVudAAQTGphdmEvdXRpbC9MaXN0O0wAB2NvbnRlbnR0ABJMamF2YS9sYW5nL09iamVjdDtMAAZwYXJlbnR0ADlMaW8vZ2l0aHViL2VyaWNtZWR2ZXQvamdlYS9jb3JlL3JlcHJlc2VudGF0aW9uL3RyZWUvVHJlZTt4cHNyABNqYXZhLnV0aWwuQXJyYXlMaXN0eIHSHZnHYZ0DAAFJAARzaXpleHAAAAAAdwQAAAAAeHNyAEtpby5naXRodWIuZXJpY21lZHZldC5qZ2VhLmNvcmUucmVwcmVzZW50YXRpb24udHJlZS5udW1lcmljLkVsZW1lbnQkVmFyaWFibGUAAAAAAAAAAAIAAUwABG5hbWV0ABJMamF2YS9sYW5nL1N0cmluZzt4cHQAA3gwMnBzcQB+AAJzcQB+AAcAAAAAdwQAAAAAeHNxAH4ACXQAA3gwM3BzcQB+AAJzcQB+AAcAAAACdwQAAAACc3EAfgACc3EAfgAHAAAAAncEAAAAAnNxAH4AAnNxAH4ABwAAAAJ3BAAAAAJzcQB+AAJzcQB+AAcAAAACdwQAAAACc3EAfgACc3EAfgAHAAAAAncEAAAAAnNxAH4AAnNxAH4ABwAAAAJ3BAAAAAJzcQB+AAJzcQB+AAcAAAACdwQAAAACc3EAfgACc3EAfgAHAAAAAncEAAAAAnNxAH4AAnNxAH4ABwAAAAJ3BAAAAAJzcQB+AAJzcQB+AAcAAAACdwQAAAACc3EAfgACc3EAfgAHAAAAAncEAAAAAnNxAH4AAnNxAH4ABwAAAAJ3BAAAAAJzcQB+AAJzcQB+AAcAAAACdwQAAAACc3EAfgACc3EAfgAHAAAAAncEAAAAAnNxAH4AAnNxAH4ABwAAAAJ3BAAAAAJzcQB+AAJzcQB+AAcAAAACdwQAAAACc3EAfgACc3EAfgAHAAAAAHcEAAAAAHhzcQB+AAl0AAN4MTBxAH4AL3NxAH4AAnNxAH4ABwAAAAB3BAAAAAB4c3EAfgAJdAADeDE0c3EAfgACc3EAfgAHAAAAAncEAAAAAnNxAH4AAnNxAH4ABwAAAAB3BAAAAAB4cQB+ADdxAH4AOXEAfgA1eH5yAEtpby5naXRodWIuZXJpY21lZHZldC5qZ2VhLmNvcmUucmVwcmVzZW50YXRpb24udHJlZS5udW1lcmljLkVsZW1lbnQkT3BlcmF0b3IAAAAAAAAAABIAAHhyAA5qYXZhLmxhbmcuRW51bQAAAAAAAAAAEgAAeHB0AAtTVUJUUkFDVElPTnNxAH4AAnNxAH4ABwAAAAJ3BAAAAAJxAH4AOXNxAH4AAnNxAH4ABwAAAAB3BAAAAAB4cQB+ADdzcQB+AAJzcQB+AAcAAAACdwQAAAACc3EAfgACc3EAfgAHAAAAAncEAAAAAnNxAH4AAnNxAH4ABwAAAAB3BAAAAAB4cQB+ADNxAH4AR3NxAH4AAnNxAH4ABwAAAAB3BAAAAAB4cQB+ADNxAH4AR3hxAH4AP3EAfgBFcQB+AEN4cQB+AD9zcQB+AAJzcQB+AAcAAAACdwQAAAACcQB+AEVzcQB+AAJzcQB+AAcAAAAAdwQAAAAAeHEAfgA3cQB+AE14cQB+AD9zcQB+AAJzcQB+AAcAAAACdwQAAAACcQB+AE1zcQB+AAJzcQB+AAcAAAAAdwQAAAAAeHEAfgA3cQB+AFF4cQB+AD9zcQB+AAJzcQB+AAcAAAACdwQAAAACcQB+AFFzcQB+AAJzcQB+AAcAAAAAdwQAAAAAeHEAfgA3cQB+AFV4cQB+AD9zcQB+AAJzcQB+AAcAAAACdwQAAAACcQB+AFVzcQB+AAJzcQB+AAcAAAAAdwQAAAAAeHEAfgA3cQB+AFl4cQB+AD9zcQB+AAJzcQB+AAcAAAACdwQAAAACcQB+AFlzcQB+AAJzcQB+AAcAAAAAdwQAAAAAeHEAfgA3cQB+AF14cQB+AD9zcQB+AAJzcQB+AAcAAAACdwQAAAACcQB+AF1zcQB+AAJzcQB+AAcAAAAAdwQAAAAAeHEAfgA3cQB+AGF4cQB+AD9zcQB+AAJzcQB+AAcAAAACdwQAAAACcQB+AGFzcQB+AAJzcQB+AAcAAAAAdwQAAAAAeHEAfgA3cQB+AGV4cQB+AD9zcQB+AAJzcQB+AAcAAAACdwQAAAACcQB+AGVzcQB+AAJzcQB+AAcAAAAAdwQAAAAAeHEAfgA3cQB+AGl4cQB+AD9zcQB+AAJzcQB+AAcAAAACdwQAAAACcQB+AGlzcQB+AAJzcQB+AAcAAAAAdwQAAAAAeHEAfgA3cQB+AG14cQB+AD9zcQB+AAJzcQB+AAcAAAACdwQAAAACcQB+AG1zcQB+AAJzcQB+AAcAAAAAdwQAAAAAeHEAfgA3cQB+AHF4cQB+AD9zcQB+AAJzcQB+AAcAAAACdwQAAAACcQB+AHFzcQB+AAJzcQB+AAcAAAAAdwQAAAAAeHEAfgA3cQB+AHV4cQB+AD9zcQB+AAJzcQB+AAcAAAACdwQAAAACcQB+AHVzcQB+AAJzcQB+AAcAAAAAdwQAAAAAeHEAfgA3cQB+AHl4cQB+AD9zcQB+AAJzcQB+AAcAAAACdwQAAAACcQB+AHlzcQB+AAJzcQB+AAcAAAACdwQAAAACc3EAfgACc3EAfgAHAAAAAHcEAAAAAHhxAH4AM3EAfgB/c3EAfgACc3EAfgAHAAAAAHcEAAAAAHhxAH4AN3EAfgB/eHEAfgA/cQB+AH14fnEAfgA9dAAOTVVMVElQTElDQVRJT05zcQB+AAJzcQB+AAcAAAACdwQAAAACcQB+AH1zcQB+AAJzcQB+AAcAAAAAdwQAAAAAeHNxAH4ACXQAA3gwNnEAfgCHeHEAfgA/cHhxAH4AP3NxAH4AAnNxAH4ABwAAAAJ3BAAAAAJxAH4AQXEAfgBPeHEAfgA/c3EAfgACc3EAfgAHAAAAAncEAAAAAnEAfgCNcQB+AFN4cQB+AD9zcQB+AAJzcQB+AAcAAAACdwQAAAACcQB+AI9xAH4AV3hxAH4AP3NxAH4AAnNxAH4ABwAAAAJ3BAAAAAJxAH4AkXEAfgBbeHEAfgA/c3EAfgACc3EAfgAHAAAAAncEAAAAAnEAfgCTcQB+AF94cQB+AD9zcQB+AAJzcQB+AAcAAAACdwQAAAACcQB+AJVxAH4AY3hxAH4AP3NxAH4AAnNxAH4ABwAAAAJ3BAAAAAJxAH4Al3EAfgBneHEAfgA/c3EAfgACc3EAfgAHAAAAAncEAAAAAnEAfgCZcQB+AGt4cQB+AD9zcQB+AAJzcQB+AAcAAAACdwQAAAACcQB+AJtxAH4Ab3hxAH4AP3NxAH4AAnNxAH4ABwAAAAJ3BAAAAAJxAH4AnXEAfgBzeHEAfgA/c3EAfgACc3EAfgAHAAAAAncEAAAAAnEAfgCfcQB+AHd4cQB+AD9zcQB+AAJzcQB+AAcAAAACdwQAAAACcQB+AKFxAH4Ae3hxAH4AP3NxAH4AAnNxAH4ABwAAAAJ3BAAAAAJxAH4Ao3EAfgB/eHEAfgCFc3EAfgACc3EAfgAHAAAAAncEAAAAAnEAfgClcQB+AIl4cQB+AD9weHEAfgA/cQB+AC1xAH4AQ3hxAH4AP3EAfgArcQB+AE94cQB+AD9xAH4AKXEAfgBTeHEAfgA/cQB+ACdxAH4AV3hxAH4AP3EAfgAlcQB+AFt4cQB+AD9xAH4AI3EAfgBfeHEAfgA/cQB+ACFxAH4AY3hxAH4AP3EAfgAfcQB+AGd4cQB+AD9xAH4AHXEAfgBreHEAfgA/cQB+ABtxAH4Ab3hxAH4AP3EAfgAZcQB+AHN4cQB+AD9xAH4AF3EAfgB3eHEAfgA/cQB+ABVxAH4Ae3hxAH4AP3EAfgATcQB+AH94cQB+AIVxAH4AEXEAfgCJeHEAfgA/cHNxAH4AAnNxAH4ABwAAAAJ3BAAAAAJzcQB+AAJzcQB+AAcAAAAAdwQAAAAAeHNyAEtpby5naXRodWIuZXJpY21lZHZldC5qZ2VhLmNvcmUucmVwcmVzZW50YXRpb24udHJlZS5udW1lcmljLkVsZW1lbnQkQ29uc3RhbnQAAAAAAAAAAAIAAUQABXZhbHVleHA/4AAAAAAAAHEAfgCpc3EAfgACc3EAfgAHAAAAAHcEAAAAAHhxAH4ArnNxAH4AAnNxAH4ABwAAAAJ3BAAAAAJzcQB+AAJzcQB+AAcAAAACdwQAAAACc3EAfgACc3EAfgAHAAAAAHcEAAAAAHhxAH4ArnEAfgCzc3EAfgACc3EAfgAHAAAAAHcEAAAAAHhxAH4ArnEAfgCzeH5xAH4APXQACEFERElUSU9OcQB+ALFxAH4Ar3hxAH4AuXB4cQB+ALlweA==";
    "rO0ABXNyABFqYXZhLnV0aWwuQ29sbFNlcleOq7Y6G6gRAwABSQADdGFneHAAAAAEdwQAAAAEc3IAN2lvLmdpdGh1Yi5lcmljbWVkdmV0LmpnZWEuY29yZS5yZXByZXNlbnRhdGlvbi50cmVlLlRyZWUKs7/qnQrEZQIAA0wACGNoaWxkcmVudAAQTGphdmEvdXRpbC9MaXN0O0wAB2NvbnRlbnR0ABJMamF2YS9sYW5nL09iamVjdDtMAAZwYXJlbnR0ADlMaW8vZ2l0aHViL2VyaWNtZWR2ZXQvamdlYS9jb3JlL3JlcHJlc2VudGF0aW9uL3RyZWUvVHJlZTt4cHNyABNqYXZhLnV0aWwuQXJyYXlMaXN0eIHSHZnHYZ0DAAFJAARzaXpleHAAAAAAdwQAAAAAeHNyAEtpby5naXRodWIuZXJpY21lZHZldC5qZ2VhLmNvcmUucmVwcmVzZW50YXRpb24udHJlZS5udW1lcmljLkVsZW1lbnQkVmFyaWFibGUAAAAAAAAAAAIAAUwABG5hbWV0ABJMamF2YS9sYW5nL1N0cmluZzt4cHQAA3gwMnBzcQB+AAJzcQB+AAcAAAAAdwQAAAAAeHNxAH4ACXQAA3gwM3BzcQB+AAJzcQB+AAcAAAACdwQAAAACc3EAfgACc3EAfgAHAAAAAncEAAAAAnNxAH4AAnNxAH4ABwAAAAJ3BAAAAAJzcQB+AAJzcQB+AAcAAAACdwQAAAACc3EAfgACc3EAfgAHAAAAAncEAAAAAnNxAH4AAnNxAH4ABwAAAAJ3BAAAAAJzcQB+AAJzcQB+AAcAAAACdwQAAAACc3EAfgACc3EAfgAHAAAAAncEAAAAAnNxAH4AAnNxAH4ABwAAAAJ3BAAAAAJzcQB+AAJzcQB+AAcAAAACdwQAAAACc3EAfgACc3EAfgAHAAAAAncEAAAAAnNxAH4AAnNxAH4ABwAAAAJ3BAAAAAJzcQB+AAJzcQB+AAcAAAACdwQAAAACc3EAfgACc3EAfgAHAAAAAncEAAAAAnNxAH4AAnNxAH4ABwAAAAJ3BAAAAAJzcQB+AAJzcQB+AAcAAAACdwQAAAACc3EAfgACc3EAfgAHAAAAAHcEAAAAAHhzcQB+AAl0AAN4MTBxAH4AL3NxAH4AAnNxAH4ABwAAAAB3BAAAAAB4c3EAfgAJdAADeDE0c3EAfgACc3EAfgAHAAAAAncEAAAAAnNxAH4AAnNxAH4ABwAAAAB3BAAAAAB4cQB+ADdxAH4AOXEAfgA1eH5yAEtpby5naXRodWIuZXJpY21lZHZldC5qZ2VhLmNvcmUucmVwcmVzZW50YXRpb24udHJlZS5udW1lcmljLkVsZW1lbnQkT3BlcmF0b3IAAAAAAAAAABIAAHhyAA5qYXZhLmxhbmcuRW51bQAAAAAAAAAAEgAAeHB0AAtTVUJUUkFDVElPTnNxAH4AAnNxAH4ABwAAAAJ3BAAAAAJxAH4AOXNxAH4AAnNxAH4ABwAAAAB3BAAAAAB4cQB+ADdzcQB+AAJzcQB+AAcAAAACdwQAAAACc3EAfgACc3EAfgAHAAAAAncEAAAAAnNxAH4AAnNxAH4ABwAAAAB3BAAAAAB4cQB+ADNxAH4AR3NxAH4AAnNxAH4ABwAAAAB3BAAAAAB4cQB+ADNxAH4AR3hxAH4AP3EAfgBFcQB+AEN4cQB+AD9zcQB+AAJzcQB+AAcAAAACdwQAAAACcQB+AEVzcQB+AAJzcQB+AAcAAAAAdwQAAAAAeHEAfgA3cQB+AE14cQB+AD9zcQB+AAJzcQB+AAcAAAACdwQAAAACcQB+AE1zcQB+AAJzcQB+AAcAAAAAdwQAAAAAeHEAfgA3cQB+AFF4cQB+AD9zcQB+AAJzcQB+AAcAAAACdwQAAAACcQB+AFFzcQB+AAJzcQB+AAcAAAAAdwQAAAAAeHEAfgA3cQB+AFV4cQB+AD9zcQB+AAJzcQB+AAcAAAACdwQAAAACcQB+AFVzcQB+AAJzcQB+AAcAAAAAdwQAAAAAeHEAfgA3cQB+AFl4cQB+AD9zcQB+AAJzcQB+AAcAAAACdwQAAAACcQB+AFlzcQB+AAJzcQB+AAcAAAAAdwQAAAAAeHEAfgA3cQB+AF14cQB+AD9zcQB+AAJzcQB+AAcAAAACdwQAAAACcQB+AF1zcQB+AAJzcQB+AAcAAAAAdwQAAAAAeHEAfgA3cQB+AGF4cQB+AD9zcQB+AAJzcQB+AAcAAAACdwQAAAACcQB+AGFzcQB+AAJzcQB+AAcAAAAAdwQAAAAAeHEAfgA3cQB+AGV4cQB+AD9zcQB+AAJzcQB+AAcAAAACdwQAAAACcQB+AGVzcQB+AAJzcQB+AAcAAAAAdwQAAAAAeHEAfgA3cQB+AGl4cQB+AD9zcQB+AAJzcQB+AAcAAAACdwQAAAACcQB+AGlzcQB+AAJzcQB+AAcAAAAAdwQAAAAAeHEAfgA3cQB+AG14cQB+AD9zcQB+AAJzcQB+AAcAAAACdwQAAAACcQB+AG1zcQB+AAJzcQB+AAcAAAAAdwQAAAAAeHEAfgA3cQB+AHF4cQB+AD9zcQB+AAJzcQB+AAcAAAACdwQAAAACcQB+AHFzcQB+AAJzcQB+AAcAAAAAdwQAAAAAeHEAfgA3cQB+AHV4cQB+AD9zcQB+AAJzcQB+AAcAAAACdwQAAAACcQB+AHVzcQB+AAJzcQB+AAcAAAAAdwQAAAAAeHEAfgA3cQB+AHl4cQB+AD9zcQB+AAJzcQB+AAcAAAACdwQAAAACcQB+AHlzcQB+AAJzcQB+AAcAAAACdwQAAAACc3EAfgACc3EAfgAHAAAAAHcEAAAAAHhxAH4AM3EAfgB/c3EAfgACc3EAfgAHAAAAAHcEAAAAAHhxAH4AN3EAfgB/eHEAfgA/cQB+AH14fnEAfgA9dAAOTVVMVElQTElDQVRJT05zcQB+AAJzcQB+AAcAAAACdwQAAAACcQB+AH1zcQB+AAJzcQB+AAcAAAAAdwQAAAAAeHNxAH4ACXQAA3gwNnEAfgCHeHEAfgA/cHhxAH4AP3NxAH4AAnNxAH4ABwAAAAJ3BAAAAAJxAH4AQXEAfgBPeHEAfgA/c3EAfgACc3EAfgAHAAAAAncEAAAAAnEAfgCNcQB+AFN4cQB+AD9zcQB+AAJzcQB+AAcAAAACdwQAAAACcQB+AI9xAH4AV3hxAH4AP3NxAH4AAnNxAH4ABwAAAAJ3BAAAAAJxAH4AkXEAfgBbeHEAfgA/c3EAfgACc3EAfgAHAAAAAncEAAAAAnEAfgCTcQB+AF94cQB+AD9zcQB+AAJzcQB+AAcAAAACdwQAAAACcQB+AJVxAH4AY3hxAH4AP3NxAH4AAnNxAH4ABwAAAAJ3BAAAAAJxAH4Al3EAfgBneHEAfgA/c3EAfgACc3EAfgAHAAAAAncEAAAAAnEAfgCZcQB+AGt4cQB+AD9zcQB+AAJzcQB+AAcAAAACdwQAAAACcQB+AJtxAH4Ab3hxAH4AP3NxAH4AAnNxAH4ABwAAAAJ3BAAAAAJxAH4AnXEAfgBzeHEAfgA/c3EAfgACc3EAfgAHAAAAAncEAAAAAnEAfgCfcQB+AHd4cQB+AD9zcQB+AAJzcQB+AAcAAAACdwQAAAACcQB+AKFxAH4Ae3hxAH4AP3NxAH4AAnNxAH4ABwAAAAJ3BAAAAAJxAH4Ao3EAfgB/eHEAfgCFc3EAfgACc3EAfgAHAAAAAncEAAAAAnEAfgClcQB+AIl4cQB+AD9weHEAfgA/cQB+AC1xAH4AQ3hxAH4AP3EAfgArcQB+AE94cQB+AD9xAH4AKXEAfgBTeHEAfgA/cQB+ACdxAH4AV3hxAH4AP3EAfgAlcQB+AFt4cQB+AD9xAH4AI3EAfgBfeHEAfgA/cQB+ACFxAH4AY3hxAH4AP3EAfgAfcQB+AGd4cQB+AD9xAH4AHXEAfgBreHEAfgA/cQB+ABtxAH4Ab3hxAH4AP3EAfgAZcQB+AHN4cQB+AD9xAH4AF3EAfgB3eHEAfgA/cQB+ABVxAH4Ae3hxAH4AP3EAfgATcQB+AH94cQB+AIVxAH4AEXEAfgCJeHEAfgA/cHNxAH4AAnNxAH4ABwAAAAJ3BAAAAAJzcQB+AAJzcQB+AAcAAAAAdwQAAAAAeHNyAEtpby5naXRodWIuZXJpY21lZHZldC5qZ2VhLmNvcmUucmVwcmVzZW50YXRpb24udHJlZS5udW1lcmljLkVsZW1lbnQkQ29uc3RhbnQAAAAAAAAAAAIAAUQABXZhbHVleHA/4AAAAAAAAHEAfgCpc3EAfgACc3EAfgAHAAAAAHcEAAAAAHhxAH4ArnNxAH4AAnNxAH4ABwAAAAJ3BAAAAAJzcQB+AAJzcQB+AAcAAAACdwQAAAACc3EAfgACc3EAfgAHAAAAAHcEAAAAAHhxAH4ArnEAfgCzc3EAfgACc3EAfgAHAAAAAHcEAAAAAHhxAH4ArnEAfgCzeH5xAH4APXQACEFERElUSU9OcQB+ALFxAH4Ar3hxAH4AuXB4cQB+ALlweA==";
    "rO0ABXNyABFqYXZhLnV0aWwuQ29sbFNlcleOq7Y6G6gRAwABSQADdGFneHAAAAAEdwQAAAAEc3IAN2lvLmdpdGh1Yi5lcmljbWVkdmV0LmpnZWEuY29yZS5yZXByZXNlbnRhdGlvbi50cmVlLlRyZWUKs7/qnQrEZQIAA0wACGNoaWxkcmVudAAQTGphdmEvdXRpbC9MaXN0O0wAB2NvbnRlbnR0ABJMamF2YS9sYW5nL09iamVjdDtMAAZwYXJlbnR0ADlMaW8vZ2l0aHViL2VyaWNtZWR2ZXQvamdlYS9jb3JlL3JlcHJlc2VudGF0aW9uL3RyZWUvVHJlZTt4cHNyABNqYXZhLnV0aWwuQXJyYXlMaXN0eIHSHZnHYZ0DAAFJAARzaXpleHAAAAAAdwQAAAAAeHNyAEtpby5naXRodWIuZXJpY21lZHZldC5qZ2VhLmNvcmUucmVwcmVzZW50YXRpb24udHJlZS5udW1lcmljLkVsZW1lbnQkVmFyaWFibGUAAAAAAAAAAAIAAUwABG5hbWV0ABJMamF2YS9sYW5nL1N0cmluZzt4cHQAA3gwMnBzcQB+AAJzcQB+AAcAAAAAdwQAAAAAeHNxAH4ACXQAA3gwM3BzcQB+AAJzcQB+AAcAAAACdwQAAAACc3EAfgACc3EAfgAHAAAAAncEAAAAAnNxAH4AAnNxAH4ABwAAAAJ3BAAAAAJzcQB+AAJzcQB+AAcAAAACdwQAAAACc3EAfgACc3EAfgAHAAAAAncEAAAAAnNxAH4AAnNxAH4ABwAAAAJ3BAAAAAJzcQB+AAJzcQB+AAcAAAACdwQAAAACc3EAfgACc3EAfgAHAAAAAncEAAAAAnNxAH4AAnNxAH4ABwAAAAJ3BAAAAAJzcQB+AAJzcQB+AAcAAAACdwQAAAACc3EAfgACc3EAfgAHAAAAAncEAAAAAnNxAH4AAnNxAH4ABwAAAAJ3BAAAAAJzcQB+AAJzcQB+AAcAAAACdwQAAAACc3EAfgACc3EAfgAHAAAAAncEAAAAAnNxAH4AAnNxAH4ABwAAAAJ3BAAAAAJzcQB+AAJzcQB+AAcAAAACdwQAAAACc3EAfgACc3EAfgAHAAAAAHcEAAAAAHhzcQB+AAl0AAN4MTBxAH4AL3NxAH4AAnNxAH4ABwAAAAB3BAAAAAB4c3EAfgAJdAADeDE0c3EAfgACc3EAfgAHAAAAAncEAAAAAnNxAH4AAnNxAH4ABwAAAAB3BAAAAAB4cQB+ADdxAH4AOXEAfgA1eH5yAEtpby5naXRodWIuZXJpY21lZHZldC5qZ2VhLmNvcmUucmVwcmVzZW50YXRpb24udHJlZS5udW1lcmljLkVsZW1lbnQkT3BlcmF0b3IAAAAAAAAAABIAAHhyAA5qYXZhLmxhbmcuRW51bQAAAAAAAAAAEgAAeHB0AAtTVUJUUkFDVElPTnNxAH4AAnNxAH4ABwAAAAJ3BAAAAAJxAH4AOXNxAH4AAnNxAH4ABwAAAAB3BAAAAAB4cQB+ADdzcQB+AAJzcQB+AAcAAAACdwQAAAACc3EAfgACc3EAfgAHAAAAAncEAAAAAnNxAH4AAnNxAH4ABwAAAAB3BAAAAAB4cQB+ADNxAH4AR3NxAH4AAnNxAH4ABwAAAAB3BAAAAAB4cQB+ADNxAH4AR3hxAH4AP3EAfgBFcQB+AEN4cQB+AD9zcQB+AAJzcQB+AAcAAAACdwQAAAACcQB+AEVzcQB+AAJzcQB+AAcAAAAAdwQAAAAAeHEAfgA3cQB+AE14cQB+AD9zcQB+AAJzcQB+AAcAAAACdwQAAAACcQB+AE1zcQB+AAJzcQB+AAcAAAAAdwQAAAAAeHEAfgA3cQB+AFF4cQB+AD9zcQB+AAJzcQB+AAcAAAACdwQAAAACcQB+AFFzcQB+AAJzcQB+AAcAAAAAdwQAAAAAeHEAfgA3cQB+AFV4cQB+AD9zcQB+AAJzcQB+AAcAAAACdwQAAAACcQB+AFVzcQB+AAJzcQB+AAcAAAAAdwQAAAAAeHEAfgA3cQB+AFl4cQB+AD9zcQB+AAJzcQB+AAcAAAACdwQAAAACcQB+AFlzcQB+AAJzcQB+AAcAAAAAdwQAAAAAeHEAfgA3cQB+AF14cQB+AD9zcQB+AAJzcQB+AAcAAAACdwQAAAACcQB+AF1zcQB+AAJzcQB+AAcAAAAAdwQAAAAAeHEAfgA3cQB+AGF4cQB+AD9zcQB+AAJzcQB+AAcAAAACdwQAAAACcQB+AGFzcQB+AAJzcQB+AAcAAAAAdwQAAAAAeHEAfgA3cQB+AGV4cQB+AD9zcQB+AAJzcQB+AAcAAAACdwQAAAACcQB+AGVzcQB+AAJzcQB+AAcAAAAAdwQAAAAAeHEAfgA3cQB+AGl4cQB+AD9zcQB+AAJzcQB+AAcAAAACdwQAAAACcQB+AGlzcQB+AAJzcQB+AAcAAAAAdwQAAAAAeHEAfgA3cQB+AG14cQB+AD9zcQB+AAJzcQB+AAcAAAACdwQAAAACcQB+AG1zcQB+AAJzcQB+AAcAAAAAdwQAAAAAeHEAfgA3cQB+AHF4cQB+AD9zcQB+AAJzcQB+AAcAAAACdwQAAAACcQB+AHFzcQB+AAJzcQB+AAcAAAAAdwQAAAAAeHEAfgA3cQB+AHV4cQB+AD9zcQB+AAJzcQB+AAcAAAACdwQAAAACcQB+AHVzcQB+AAJzcQB+AAcAAAAAdwQAAAAAeHEAfgA3cQB+AHl4cQB+AD9zcQB+AAJzcQB+AAcAAAACdwQAAAACcQB+AHlzcQB+AAJzcQB+AAcAAAACdwQAAAACc3EAfgACc3EAfgAHAAAAAHcEAAAAAHhxAH4AM3EAfgB/c3EAfgACc3EAfgAHAAAAAHcEAAAAAHhxAH4AN3EAfgB/eHEAfgA/cQB+AH14fnEAfgA9dAAOTVVMVElQTElDQVRJT05zcQB+AAJzcQB+AAcAAAACdwQAAAACcQB+AH1zcQB+AAJzcQB+AAcAAAAAdwQAAAAAeHNxAH4ACXQAA3gwNnEAfgCHeHEAfgA/cHhxAH4AP3NxAH4AAnNxAH4ABwAAAAJ3BAAAAAJxAH4AQXEAfgBPeHEAfgA/c3EAfgACc3EAfgAHAAAAAncEAAAAAnEAfgCNcQB+AFN4cQB+AD9zcQB+AAJzcQB+AAcAAAACdwQAAAACcQB+AI9xAH4AV3hxAH4AP3NxAH4AAnNxAH4ABwAAAAJ3BAAAAAJxAH4AkXEAfgBbeHEAfgA/c3EAfgACc3EAfgAHAAAAAncEAAAAAnEAfgCTcQB+AF94cQB+AD9zcQB+AAJzcQB+AAcAAAACdwQAAAACcQB+AJVxAH4AY3hxAH4AP3NxAH4AAnNxAH4ABwAAAAJ3BAAAAAJxAH4Al3EAfgBneHEAfgA/c3EAfgACc3EAfgAHAAAAAncEAAAAAnEAfgCZcQB+AGt4cQB+AD9zcQB+AAJzcQB+AAcAAAACdwQAAAACcQB+AJtxAH4Ab3hxAH4AP3NxAH4AAnNxAH4ABwAAAAJ3BAAAAAJxAH4AnXEAfgBzeHEAfgA/c3EAfgACc3EAfgAHAAAAAncEAAAAAnEAfgCfcQB+AHd4cQB+AD9zcQB+AAJzcQB+AAcAAAACdwQAAAACcQB+AKFxAH4Ae3hxAH4AP3NxAH4AAnNxAH4ABwAAAAJ3BAAAAAJxAH4Ao3EAfgB/eHEAfgCFc3EAfgACc3EAfgAHAAAAAncEAAAAAnEAfgClcQB+AIl4cQB+AD9weHEAfgA/cQB+AC1xAH4AQ3hxAH4AP3EAfgArcQB+AE94cQB+AD9xAH4AKXEAfgBTeHEAfgA/cQB+ACdxAH4AV3hxAH4AP3EAfgAlcQB+AFt4cQB+AD9xAH4AI3EAfgBfeHEAfgA/cQB+ACFxAH4AY3hxAH4AP3EAfgAfcQB+AGd4cQB+AD9xAH4AHXEAfgBreHEAfgA/cQB+ABtxAH4Ab3hxAH4AP3EAfgAZcQB+AHN4cQB+AD9xAH4AF3EAfgB3eHEAfgA/cQB+ABVxAH4Ae3hxAH4AP3EAfgATcQB+AH94cQB+AIVxAH4AEXEAfgCJeHEAfgA/cHNxAH4AAnNxAH4ABwAAAAJ3BAAAAAJzcQB+AAJzcQB+AAcAAAAAdwQAAAAAeHNyAEtpby5naXRodWIuZXJpY21lZHZldC5qZ2VhLmNvcmUucmVwcmVzZW50YXRpb24udHJlZS5udW1lcmljLkVsZW1lbnQkQ29uc3RhbnQAAAAAAAAAAAIAAUQABXZhbHVleHA/4AAAAAAAAHEAfgCpc3EAfgACc3EAfgAHAAAAAHcEAAAAAHhxAH4ArnNxAH4AAnNxAH4ABwAAAAJ3BAAAAAJzcQB+AAJzcQB+AAcAAAACdwQAAAACc3EAfgACc3EAfgAHAAAAAHcEAAAAAHhxAH4ArnEAfgCzc3EAfgACc3EAfgAHAAAAAHcEAAAAAHhxAH4ArnEAfgCzeH5xAH4APXQACEFERElUSU9OcQB+ALFxAH4Ar3hxAH4AuXB4cQB+ALlweA==";
    "rO0ABXNyABFqYXZhLnV0aWwuQ29sbFNlcleOq7Y6G6gRAwABSQADdGFneHAAAAAEdwQAAAAEc3IAN2lvLmdpdGh1Yi5lcmljbWVkdmV0LmpnZWEuY29yZS5yZXByZXNlbnRhdGlvbi50cmVlLlRyZWUKs7/qnQrEZQIAA0wACGNoaWxkcmVudAAQTGphdmEvdXRpbC9MaXN0O0wAB2NvbnRlbnR0ABJMamF2YS9sYW5nL09iamVjdDtMAAZwYXJlbnR0ADlMaW8vZ2l0aHViL2VyaWNtZWR2ZXQvamdlYS9jb3JlL3JlcHJlc2VudGF0aW9uL3RyZWUvVHJlZTt4cHNyABNqYXZhLnV0aWwuQXJyYXlMaXN0eIHSHZnHYZ0DAAFJAARzaXpleHAAAAAAdwQAAAAAeHNyAEtpby5naXRodWIuZXJpY21lZHZldC5qZ2VhLmNvcmUucmVwcmVzZW50YXRpb24udHJlZS5udW1lcmljLkVsZW1lbnQkVmFyaWFibGUAAAAAAAAAAAIAAUwABG5hbWV0ABJMamF2YS9sYW5nL1N0cmluZzt4cHQAA3gwMnBzcQB+AAJzcQB+AAcAAAAAdwQAAAAAeHNxAH4ACXQAA3gwM3BzcQB+AAJzcQB+AAcAAAACdwQAAAACc3EAfgACc3EAfgAHAAAAAncEAAAAAnNxAH4AAnNxAH4ABwAAAAJ3BAAAAAJzcQB+AAJzcQB+AAcAAAACdwQAAAACc3EAfgACc3EAfgAHAAAAAncEAAAAAnNxAH4AAnNxAH4ABwAAAAJ3BAAAAAJzcQB+AAJzcQB+AAcAAAACdwQAAAACc3EAfgACc3EAfgAHAAAAAncEAAAAAnNxAH4AAnNxAH4ABwAAAAJ3BAAAAAJzcQB+AAJzcQB+AAcAAAACdwQAAAACc3EAfgACc3EAfgAHAAAAAncEAAAAAnNxAH4AAnNxAH4ABwAAAAJ3BAAAAAJzcQB+AAJzcQB+AAcAAAACdwQAAAACc3EAfgACc3EAfgAHAAAAAncEAAAAAnNxAH4AAnNxAH4ABwAAAAJ3BAAAAAJzcQB+AAJzcQB+AAcAAAACdwQAAAACc3EAfgACc3EAfgAHAAAAAHcEAAAAAHhzcQB+AAl0AAN4MTBxAH4AL3NxAH4AAnNxAH4ABwAAAAB3BAAAAAB4c3EAfgAJdAADeDE0c3EAfgACc3EAfgAHAAAAAncEAAAAAnNxAH4AAnNxAH4ABwAAAAB3BAAAAAB4cQB+ADdxAH4AOXEAfgA1eH5yAEtpby5naXRodWIuZXJpY21lZHZldC5qZ2VhLmNvcmUucmVwcmVzZW50YXRpb24udHJlZS5udW1lcmljLkVsZW1lbnQkT3BlcmF0b3IAAAAAAAAAABIAAHhyAA5qYXZhLmxhbmcuRW51bQAAAAAAAAAAEgAAeHB0AAtTVUJUUkFDVElPTnNxAH4AAnNxAH4ABwAAAAJ3BAAAAAJxAH4AOXNxAH4AAnNxAH4ABwAAAAB3BAAAAAB4cQB+ADdzcQB+AAJzcQB+AAcAAAACdwQAAAACc3EAfgACc3EAfgAHAAAAAncEAAAAAnNxAH4AAnNxAH4ABwAAAAB3BAAAAAB4cQB+ADNxAH4AR3NxAH4AAnNxAH4ABwAAAAB3BAAAAAB4cQB+ADNxAH4AR3hxAH4AP3EAfgBFcQB+AEN4cQB+AD9zcQB+AAJzcQB+AAcAAAACdwQAAAACcQB+AEVzcQB+AAJzcQB+AAcAAAAAdwQAAAAAeHEAfgA3cQB+AE14cQB+AD9zcQB+AAJzcQB+AAcAAAACdwQAAAACcQB+AE1zcQB+AAJzcQB+AAcAAAAAdwQAAAAAeHEAfgA3cQB+AFF4cQB+AD9zcQB+AAJzcQB+AAcAAAACdwQAAAACcQB+AFFzcQB+AAJzcQB+AAcAAAAAdwQAAAAAeHEAfgA3cQB+AFV4cQB+AD9zcQB+AAJzcQB+AAcAAAACdwQAAAACcQB+AFVzcQB+AAJzcQB+AAcAAAAAdwQAAAAAeHEAfgA3cQB+AFl4cQB+AD9zcQB+AAJzcQB+AAcAAAACdwQAAAACcQB+AFlzcQB+AAJzcQB+AAcAAAAAdwQAAAAAeHEAfgA3cQB+AF14cQB+AD9zcQB+AAJzcQB+AAcAAAACdwQAAAACcQB+AF1zcQB+AAJzcQB+AAcAAAAAdwQAAAAAeHEAfgA3cQB+AGF4cQB+AD9zcQB+AAJzcQB+AAcAAAACdwQAAAACcQB+AGFzcQB+AAJzcQB+AAcAAAAAdwQAAAAAeHEAfgA3cQB+AGV4cQB+AD9zcQB+AAJzcQB+AAcAAAACdwQAAAACcQB+AGVzcQB+AAJzcQB+AAcAAAAAdwQAAAAAeHEAfgA3cQB+AGl4cQB+AD9zcQB+AAJzcQB+AAcAAAACdwQAAAACcQB+AGlzcQB+AAJzcQB+AAcAAAAAdwQAAAAAeHEAfgA3cQB+AG14cQB+AD9zcQB+AAJzcQB+AAcAAAACdwQAAAACcQB+AG1zcQB+AAJzcQB+AAcAAAAAdwQAAAAAeHEAfgA3cQB+AHF4cQB+AD9zcQB+AAJzcQB+AAcAAAACdwQAAAACcQB+AHFzcQB+AAJzcQB+AAcAAAAAdwQAAAAAeHEAfgA3cQB+AHV4cQB+AD9zcQB+AAJzcQB+AAcAAAACdwQAAAACcQB+AHVzcQB+AAJzcQB+AAcAAAAAdwQAAAAAeHEAfgA3cQB+AHl4cQB+AD9zcQB+AAJzcQB+AAcAAAACdwQAAAACcQB+AHlzcQB+AAJzcQB+AAcAAAACdwQAAAACc3EAfgACc3EAfgAHAAAAAHcEAAAAAHhxAH4AM3EAfgB/c3EAfgACc3EAfgAHAAAAAHcEAAAAAHhxAH4AN3EAfgB/eHEAfgA/cQB+AH14fnEAfgA9dAAOTVVMVElQTElDQVRJT05zcQB+AAJzcQB+AAcAAAACdwQAAAACcQB+AH1zcQB+AAJzcQB+AAcAAAAAdwQAAAAAeHNxAH4ACXQAA3gwNnEAfgCHeHEAfgA/cHhxAH4AP3NxAH4AAnNxAH4ABwAAAAJ3BAAAAAJxAH4AQXEAfgBPeHEAfgA/c3EAfgACc3EAfgAHAAAAAncEAAAAAnEAfgCNcQB+AFN4cQB+AD9zcQB+AAJzcQB+AAcAAAACdwQAAAACcQB+AI9xAH4AV3hxAH4AP3NxAH4AAnNxAH4ABwAAAAJ3BAAAAAJxAH4AkXEAfgBbeHEAfgA/c3EAfgACc3EAfgAHAAAAAncEAAAAAnEAfgCTcQB+AF94cQB+AD9zcQB+AAJzcQB+AAcAAAACdwQAAAACcQB+AJVxAH4AY3hxAH4AP3NxAH4AAnNxAH4ABwAAAAJ3BAAAAAJxAH4Al3EAfgBneHEAfgA/c3EAfgACc3EAfgAHAAAAAncEAAAAAnEAfgCZcQB+AGt4cQB+AD9zcQB+AAJzcQB+AAcAAAACdwQAAAACcQB+AJtxAH4Ab3hxAH4AP3NxAH4AAnNxAH4ABwAAAAJ3BAAAAAJxAH4AnXEAfgBzeHEAfgA/c3EAfgACc3EAfgAHAAAAAncEAAAAAnEAfgCfcQB+AHd4cQB+AD9zcQB+AAJzcQB+AAcAAAACdwQAAAACcQB+AKFxAH4Ae3hxAH4AP3NxAH4AAnNxAH4ABwAAAAJ3BAAAAAJxAH4Ao3EAfgB/eHEAfgCFc3EAfgACc3EAfgAHAAAAAncEAAAAAnEAfgClcQB+AIl4cQB+AD9weHEAfgA/cQB+AC1xAH4AQ3hxAH4AP3EAfgArcQB+AE94cQB+AD9xAH4AKXEAfgBTeHEAfgA/cQB+ACdxAH4AV3hxAH4AP3EAfgAlcQB+AFt4cQB+AD9xAH4AI3EAfgBfeHEAfgA/cQB+ACFxAH4AY3hxAH4AP3EAfgAfcQB+AGd4cQB+AD9xAH4AHXEAfgBreHEAfgA/cQB+ABtxAH4Ab3hxAH4AP3EAfgAZcQB+AHN4cQB+AD9xAH4AF3EAfgB3eHEAfgA/cQB+ABVxAH4Ae3hxAH4AP3EAfgATcQB+AH94cQB+AIVxAH4AEXEAfgCJeHEAfgA/cHNxAH4AAnNxAH4ABwAAAAJ3BAAAAAJzcQB+AAJzcQB+AAcAAAAAdwQAAAAAeHNyAEtpby5naXRodWIuZXJpY21lZHZldC5qZ2VhLmNvcmUucmVwcmVzZW50YXRpb24udHJlZS5udW1lcmljLkVsZW1lbnQkQ29uc3RhbnQAAAAAAAAAAAIAAUQABXZhbHVleHA/4AAAAAAAAHEAfgCpc3EAfgACc3EAfgAHAAAAAHcEAAAAAHhxAH4ArnNxAH4AAnNxAH4ABwAAAAJ3BAAAAAJzcQB+AAJzcQB+AAcAAAACdwQAAAACc3EAfgACc3EAfgAHAAAAAHcEAAAAAHhxAH4ArnEAfgCzc3EAfgACc3EAfgAHAAAAAHcEAAAAAHhxAH4ArnEAfgCzeH5xAH4APXQACEFERElUSU9OcQB+ALFxAH4Ar3hxAH4AuXB4cQB+ALlweA==";
    "rO0ABXNyABFqYXZhLnV0aWwuQ29sbFNlcleOq7Y6G6gRAwABSQADdGFneHAAAAAEdwQAAAAEc3IAN2lvLmdpdGh1Yi5lcmljbWVkdmV0LmpnZWEuY29yZS5yZXByZXNlbnRhdGlvbi50cmVlLlRyZWUKs7/qnQrEZQIAA0wACGNoaWxkcmVudAAQTGphdmEvdXRpbC9MaXN0O0wAB2NvbnRlbnR0ABJMamF2YS9sYW5nL09iamVjdDtMAAZwYXJlbnR0ADlMaW8vZ2l0aHViL2VyaWNtZWR2ZXQvamdlYS9jb3JlL3JlcHJlc2VudGF0aW9uL3RyZWUvVHJlZTt4cHNyABNqYXZhLnV0aWwuQXJyYXlMaXN0eIHSHZnHYZ0DAAFJAARzaXpleHAAAAAAdwQAAAAAeHNyAEtpby5naXRodWIuZXJpY21lZHZldC5qZ2VhLmNvcmUucmVwcmVzZW50YXRpb24udHJlZS5udW1lcmljLkVsZW1lbnQkVmFyaWFibGUAAAAAAAAAAAIAAUwABG5hbWV0ABJMamF2YS9sYW5nL1N0cmluZzt4cHQAA3gwMnBzcQB+AAJzcQB+AAcAAAAAdwQAAAAAeHNxAH4ACXQAA3gwM3BzcQB+AAJzcQB+AAcAAAACdwQAAAACc3EAfgACc3EAfgAHAAAAAncEAAAAAnNxAH4AAnNxAH4ABwAAAAJ3BAAAAAJzcQB+AAJzcQB+AAcAAAACdwQAAAACc3EAfgACc3EAfgAHAAAAAncEAAAAAnNxAH4AAnNxAH4ABwAAAAJ3BAAAAAJzcQB+AAJzcQB+AAcAAAACdwQAAAACc3EAfgACc3EAfgAHAAAAAncEAAAAAnNxAH4AAnNxAH4ABwAAAAJ3BAAAAAJzcQB+AAJzcQB+AAcAAAACdwQAAAACc3EAfgACc3EAfgAHAAAAAncEAAAAAnNxAH4AAnNxAH4ABwAAAAJ3BAAAAAJzcQB+AAJzcQB+AAcAAAACdwQAAAACc3EAfgACc3EAfgAHAAAAAncEAAAAAnNxAH4AAnNxAH4ABwAAAAJ3BAAAAAJzcQB+AAJzcQB+AAcAAAACdwQAAAACc3EAfgACc3EAfgAHAAAAAHcEAAAAAHhzcQB+AAl0AAN4MTBxAH4AL3NxAH4AAnNxAH4ABwAAAAB3BAAAAAB4c3EAfgAJdAADeDE0c3EAfgACc3EAfgAHAAAAAncEAAAAAnNxAH4AAnNxAH4ABwAAAAB3BAAAAAB4cQB+ADdxAH4AOXEAfgA1eH5yAEtpby5naXRodWIuZXJpY21lZHZldC5qZ2VhLmNvcmUucmVwcmVzZW50YXRpb24udHJlZS5udW1lcmljLkVsZW1lbnQkT3BlcmF0b3IAAAAAAAAAABIAAHhyAA5qYXZhLmxhbmcuRW51bQAAAAAAAAAAEgAAeHB0AAtTVUJUUkFDVElPTnNxAH4AAnNxAH4ABwAAAAJ3BAAAAAJxAH4AOXNxAH4AAnNxAH4ABwAAAAB3BAAAAAB4cQB+ADdzcQB+AAJzcQB+AAcAAAACdwQAAAACc3EAfgACc3EAfgAHAAAAAncEAAAAAnNxAH4AAnNxAH4ABwAAAAB3BAAAAAB4cQB+ADNxAH4AR3NxAH4AAnNxAH4ABwAAAAB3BAAAAAB4cQB+ADNxAH4AR3hxAH4AP3EAfgBFcQB+AEN4cQB+AD9zcQB+AAJzcQB+AAcAAAACdwQAAAACcQB+AEVzcQB+AAJzcQB+AAcAAAAAdwQAAAAAeHEAfgA3cQB+AE14cQB+AD9zcQB+AAJzcQB+AAcAAAACdwQAAAACcQB+AE1zcQB+AAJzcQB+AAcAAAAAdwQAAAAAeHEAfgA3cQB+AFF4cQB+AD9zcQB+AAJzcQB+AAcAAAACdwQAAAACcQB+AFFzcQB+AAJzcQB+AAcAAAAAdwQAAAAAeHEAfgA3cQB+AFV4cQB+AD9zcQB+AAJzcQB+AAcAAAACdwQAAAACcQB+AFVzcQB+AAJzcQB+AAcAAAAAdwQAAAAAeHEAfgA3cQB+AFl4cQB+AD9zcQB+AAJzcQB+AAcAAAACdwQAAAACcQB+AFlzcQB+AAJzcQB+AAcAAAAAdwQAAAAAeHEAfgA3cQB+AF14cQB+AD9zcQB+AAJzcQB+AAcAAAACdwQAAAACcQB+AF1zcQB+AAJzcQB+AAcAAAAAdwQAAAAAeHEAfgA3cQB+AGF4cQB+AD9zcQB+AAJzcQB+AAcAAAACdwQAAAACcQB+AGFzcQB+AAJzcQB+AAcAAAAAdwQAAAAAeHEAfgA3cQB+AGV4cQB+AD9zcQB+AAJzcQB+AAcAAAACdwQAAAACcQB+AGVzcQB+AAJzcQB+AAcAAAAAdwQAAAAAeHEAfgA3cQB+AGl4cQB+AD9zcQB+AAJzcQB+AAcAAAACdwQAAAACcQB+AGlzcQB+AAJzcQB+AAcAAAAAdwQAAAAAeHEAfgA3cQB+AG14cQB+AD9zcQB+AAJzcQB+AAcAAAACdwQAAAACcQB+AG1zcQB+AAJzcQB+AAcAAAAAdwQAAAAAeHEAfgA3cQB+AHF4cQB+AD9zcQB+AAJzcQB+AAcAAAACdwQAAAACcQB+AHFzcQB+AAJzcQB+AAcAAAAAdwQAAAAAeHEAfgA3cQB+AHV4cQB+AD9zcQB+AAJzcQB+AAcAAAACdwQAAAACcQB+AHVzcQB+AAJzcQB+AAcAAAAAdwQAAAAAeHEAfgA3cQB+AHl4cQB+AD9zcQB+AAJzcQB+AAcAAAACdwQAAAACcQB+AHlzcQB+AAJzcQB+AAcAAAACdwQAAAACc3EAfgACc3EAfgAHAAAAAHcEAAAAAHhxAH4AM3EAfgB/c3EAfgACc3EAfgAHAAAAAHcEAAAAAHhxAH4AN3EAfgB/eHEAfgA/cQB+AH14fnEAfgA9dAAOTVVMVElQTElDQVRJT05zcQB+AAJzcQB+AAcAAAACdwQAAAACcQB+AH1zcQB+AAJzcQB+AAcAAAAAdwQAAAAAeHNxAH4ACXQAA3gwNnEAfgCHeHEAfgA/cHhxAH4AP3NxAH4AAnNxAH4ABwAAAAJ3BAAAAAJxAH4AQXEAfgBPeHEAfgA/c3EAfgACc3EAfgAHAAAAAncEAAAAAnEAfgCNcQB+AFN4cQB+AD9zcQB+AAJzcQB+AAcAAAACdwQAAAACcQB+AI9xAH4AV3hxAH4AP3NxAH4AAnNxAH4ABwAAAAJ3BAAAAAJxAH4AkXEAfgBbeHEAfgA/c3EAfgACc3EAfgAHAAAAAncEAAAAAnEAfgCTcQB+AF94cQB+AD9zcQB+AAJzcQB+AAcAAAACdwQAAAACcQB+AJVxAH4AY3hxAH4AP3NxAH4AAnNxAH4ABwAAAAJ3BAAAAAJxAH4Al3EAfgBneHEAfgA/c3EAfgACc3EAfgAHAAAAAncEAAAAAnEAfgCZcQB+AGt4cQB+AD9zcQB+AAJzcQB+AAcAAAACdwQAAAACcQB+AJtxAH4Ab3hxAH4AP3NxAH4AAnNxAH4ABwAAAAJ3BAAAAAJxAH4AnXEAfgBzeHEAfgA/c3EAfgACc3EAfgAHAAAAAncEAAAAAnEAfgCfcQB+AHd4cQB+AD9zcQB+AAJzcQB+AAcAAAACdwQAAAACcQB+AKFxAH4Ae3hxAH4AP3NxAH4AAnNxAH4ABwAAAAJ3BAAAAAJxAH4Ao3EAfgB/eHEAfgCFc3EAfgACc3EAfgAHAAAAAncEAAAAAnEAfgClcQB+AIl4cQB+AD9weHEAfgA/cQB+AC1xAH4AQ3hxAH4AP3EAfgArcQB+AE94cQB+AD9xAH4AKXEAfgBTeHEAfgA/cQB+ACdxAH4AV3hxAH4AP3EAfgAlcQB+AFt4cQB+AD9xAH4AI3EAfgBfeHEAfgA/cQB+ACFxAH4AY3hxAH4AP3EAfgAfcQB+AGd4cQB+AD9xAH4AHXEAfgBreHEAfgA/cQB+ABtxAH4Ab3hxAH4AP3EAfgAZcQB+AHN4cQB+AD9xAH4AF3EAfgB3eHEAfgA/cQB+ABVxAH4Ae3hxAH4AP3EAfgATcQB+AH94cQB+AIVxAH4AEXEAfgCJeHEAfgA/cHNxAH4AAnNxAH4ABwAAAAJ3BAAAAAJzcQB+AAJzcQB+AAcAAAAAdwQAAAAAeHNyAEtpby5naXRodWIuZXJpY21lZHZldC5qZ2VhLmNvcmUucmVwcmVzZW50YXRpb24udHJlZS5udW1lcmljLkVsZW1lbnQkQ29uc3RhbnQAAAAAAAAAAAIAAUQABXZhbHVleHA/4AAAAAAAAHEAfgCpc3EAfgACc3EAfgAHAAAAAHcEAAAAAHhxAH4ArnNxAH4AAnNxAH4ABwAAAAJ3BAAAAAJzcQB+AAJzcQB+AAcAAAACdwQAAAACc3EAfgACc3EAfgAHAAAAAHcEAAAAAHhxAH4ArnEAfgCzc3EAfgACc3EAfgAHAAAAAHcEAAAAAHhxAH4ArnEAfgCzeH5xAH4APXQACEFERElUSU9OcQB+ALFxAH4Ar3hxAH4AuXB4cQB+ALlweA==";
    "rO0ABXNyABFqYXZhLnV0aWwuQ29sbFNlcleOq7Y6G6gRAwABSQADdGFneHAAAAAEdwQAAAAEc3IAN2lvLmdpdGh1Yi5lcmljbWVkdmV0LmpnZWEuY29yZS5yZXByZXNlbnRhdGlvbi50cmVlLlRyZWUKs7/qnQrEZQIAA0wACGNoaWxkcmVudAAQTGphdmEvdXRpbC9MaXN0O0wAB2NvbnRlbnR0ABJMamF2YS9sYW5nL09iamVjdDtMAAZwYXJlbnR0ADlMaW8vZ2l0aHViL2VyaWNtZWR2ZXQvamdlYS9jb3JlL3JlcHJlc2VudGF0aW9uL3RyZWUvVHJlZTt4cHNyABNqYXZhLnV0aWwuQXJyYXlMaXN0eIHSHZnHYZ0DAAFJAARzaXpleHAAAAAAdwQAAAAAeHNyAEtpby5naXRodWIuZXJpY21lZHZldC5qZ2VhLmNvcmUucmVwcmVzZW50YXRpb24udHJlZS5udW1lcmljLkVsZW1lbnQkVmFyaWFibGUAAAAAAAAAAAIAAUwABG5hbWV0ABJMamF2YS9sYW5nL1N0cmluZzt4cHQAA3gwMnBzcQB+AAJzcQB+AAcAAAAAdwQAAAAAeHNxAH4ACXQAA3gwM3BzcQB+AAJzcQB+AAcAAAACdwQAAAACc3EAfgACc3EAfgAHAAAAAncEAAAAAnNxAH4AAnNxAH4ABwAAAAJ3BAAAAAJzcQB+AAJzcQB+AAcAAAACdwQAAAACc3EAfgACc3EAfgAHAAAAAncEAAAAAnNxAH4AAnNxAH4ABwAAAAJ3BAAAAAJzcQB+AAJzcQB+AAcAAAACdwQAAAACc3EAfgACc3EAfgAHAAAAAncEAAAAAnNxAH4AAnNxAH4ABwAAAAJ3BAAAAAJzcQB+AAJzcQB+AAcAAAACdwQAAAACc3EAfgACc3EAfgAHAAAAAncEAAAAAnNxAH4AAnNxAH4ABwAAAAJ3BAAAAAJzcQB+AAJzcQB+AAcAAAACdwQAAAACc3EAfgACc3EAfgAHAAAAAncEAAAAAnNxAH4AAnNxAH4ABwAAAAJ3BAAAAAJzcQB+AAJzcQB+AAcAAAACdwQAAAACc3EAfgACc3EAfgAHAAAAAHcEAAAAAHhzcQB+AAl0AAN4MTBxAH4AL3NxAH4AAnNxAH4ABwAAAAB3BAAAAAB4c3EAfgAJdAADeDE0c3EAfgACc3EAfgAHAAAAAncEAAAAAnNxAH4AAnNxAH4ABwAAAAB3BAAAAAB4cQB+ADdxAH4AOXEAfgA1eH5yAEtpby5naXRodWIuZXJpY21lZHZldC5qZ2VhLmNvcmUucmVwcmVzZW50YXRpb24udHJlZS5udW1lcmljLkVsZW1lbnQkT3BlcmF0b3IAAAAAAAAAABIAAHhyAA5qYXZhLmxhbmcuRW51bQAAAAAAAAAAEgAAeHB0AAtTVUJUUkFDVElPTnNxAH4AAnNxAH4ABwAAAAJ3BAAAAAJxAH4AOXNxAH4AAnNxAH4ABwAAAAB3BAAAAAB4cQB+ADdzcQB+AAJzcQB+AAcAAAACdwQAAAACc3EAfgACc3EAfgAHAAAAAncEAAAAAnNxAH4AAnNxAH4ABwAAAAB3BAAAAAB4cQB+ADNxAH4AR3NxAH4AAnNxAH4ABwAAAAB3BAAAAAB4cQB+ADNxAH4AR3hxAH4AP3EAfgBFcQB+AEN4cQB+AD9zcQB+AAJzcQB+AAcAAAACdwQAAAACcQB+AEVzcQB+AAJzcQB+AAcAAAAAdwQAAAAAeHEAfgA3cQB+AE14cQB+AD9zcQB+AAJzcQB+AAcAAAACdwQAAAACcQB+AE1zcQB+AAJzcQB+AAcAAAAAdwQAAAAAeHEAfgA3cQB+AFF4cQB+AD9zcQB+AAJzcQB+AAcAAAACdwQAAAACcQB+AFFzcQB+AAJzcQB+AAcAAAAAdwQAAAAAeHEAfgA3cQB+AFV4cQB+AD9zcQB+AAJzcQB+AAcAAAACdwQAAAACcQB+AFVzcQB+AAJzcQB+AAcAAAAAdwQAAAAAeHEAfgA3cQB+AFl4cQB+AD9zcQB+AAJzcQB+AAcAAAACdwQAAAACcQB+AFlzcQB+AAJzcQB+AAcAAAAAdwQAAAAAeHEAfgA3cQB+AF14cQB+AD9zcQB+AAJzcQB+AAcAAAACdwQAAAACcQB+AF1zcQB+AAJzcQB+AAcAAAAAdwQAAAAAeHEAfgA3cQB+AGF4cQB+AD9zcQB+AAJzcQB+AAcAAAACdwQAAAACcQB+AGFzcQB+AAJzcQB+AAcAAAAAdwQAAAAAeHEAfgA3cQB+AGV4cQB+AD9zcQB+AAJzcQB+AAcAAAACdwQAAAACcQB+AGVzcQB+AAJzcQB+AAcAAAAAdwQAAAAAeHEAfgA3cQB+AGl4cQB+AD9zcQB+AAJzcQB+AAcAAAACdwQAAAACcQB+AGlzcQB+AAJzcQB+AAcAAAAAdwQAAAAAeHEAfgA3cQB+AG14cQB+AD9zcQB+AAJzcQB+AAcAAAACdwQAAAACcQB+AG1zcQB+AAJzcQB+AAcAAAAAdwQAAAAAeHEAfgA3cQB+AHF4cQB+AD9zcQB+AAJzcQB+AAcAAAACdwQAAAACcQB+AHFzcQB+AAJzcQB+AAcAAAAAdwQAAAAAeHEAfgA3cQB+AHV4cQB+AD9zcQB+AAJzcQB+AAcAAAACdwQAAAACcQB+AHVzcQB+AAJzcQB+AAcAAAAAdwQAAAAAeHEAfgA3cQB+AHl4cQB+AD9zcQB+AAJzcQB+AAcAAAACdwQAAAACcQB+AHlzcQB+AAJzcQB+AAcAAAACdwQAAAACc3EAfgACc3EAfgAHAAAAAHcEAAAAAHhxAH4AM3EAfgB/c3EAfgACc3EAfgAHAAAAAHcEAAAAAHhxAH4AN3EAfgB/eHEAfgA/cQB+AH14fnEAfgA9dAAOTVVMVElQTElDQVRJT05zcQB+AAJzcQB+AAcAAAACdwQAAAACcQB+AH1zcQB+AAJzcQB+AAcAAAAAdwQAAAAAeHNxAH4ACXQAA3gwNnEAfgCHeHEAfgA/cHhxAH4AP3NxAH4AAnNxAH4ABwAAAAJ3BAAAAAJxAH4AQXEAfgBPeHEAfgA/c3EAfgACc3EAfgAHAAAAAncEAAAAAnEAfgCNcQB+AFN4cQB+AD9zcQB+AAJzcQB+AAcAAAACdwQAAAACcQB+AI9xAH4AV3hxAH4AP3NxAH4AAnNxAH4ABwAAAAJ3BAAAAAJxAH4AkXEAfgBbeHEAfgA/c3EAfgACc3EAfgAHAAAAAncEAAAAAnEAfgCTcQB+AF94cQB+AD9zcQB+AAJzcQB+AAcAAAACdwQAAAACcQB+AJVxAH4AY3hxAH4AP3NxAH4AAnNxAH4ABwAAAAJ3BAAAAAJxAH4Al3EAfgBneHEAfgA/c3EAfgACc3EAfgAHAAAAAncEAAAAAnEAfgCZcQB+AGt4cQB+AD9zcQB+AAJzcQB+AAcAAAACdwQAAAACcQB+AJtxAH4Ab3hxAH4AP3NxAH4AAnNxAH4ABwAAAAJ3BAAAAAJxAH4AnXEAfgBzeHEAfgA/c3EAfgACc3EAfgAHAAAAAncEAAAAAnEAfgCfcQB+AHd4cQB+AD9zcQB+AAJzcQB+AAcAAAACdwQAAAACcQB+AKFxAH4Ae3hxAH4AP3NxAH4AAnNxAH4ABwAAAAJ3BAAAAAJxAH4Ao3EAfgB/eHEAfgCFc3EAfgACc3EAfgAHAAAAAncEAAAAAnEAfgClcQB+AIl4cQB+AD9weHEAfgA/cQB+AC1xAH4AQ3hxAH4AP3EAfgArcQB+AE94cQB+AD9xAH4AKXEAfgBTeHEAfgA/cQB+ACdxAH4AV3hxAH4AP3EAfgAlcQB+AFt4cQB+AD9xAH4AI3EAfgBfeHEAfgA/cQB+ACFxAH4AY3hxAH4AP3EAfgAfcQB+AGd4cQB+AD9xAH4AHXEAfgBreHEAfgA/cQB+ABtxAH4Ab3hxAH4AP3EAfgAZcQB+AHN4cQB+AD9xAH4AF3EAfgB3eHEAfgA/cQB+ABVxAH4Ae3hxAH4AP3EAfgATcQB+AH94cQB+AIVxAH4AEXEAfgCJeHEAfgA/cHNxAH4AAnNxAH4ABwAAAAJ3BAAAAAJzcQB+AAJzcQB+AAcAAAAAdwQAAAAAeHNyAEtpby5naXRodWIuZXJpY21lZHZldC5qZ2VhLmNvcmUucmVwcmVzZW50YXRpb24udHJlZS5udW1lcmljLkVsZW1lbnQkQ29uc3RhbnQAAAAAAAAAAAIAAUQABXZhbHVleHA/4AAAAAAAAHEAfgCpc3EAfgACc3EAfgAHAAAAAHcEAAAAAHhxAH4ArnNxAH4AAnNxAH4ABwAAAAJ3BAAAAAJzcQB+AAJzcQB+AAcAAAACdwQAAAACc3EAfgACc3EAfgAHAAAAAHcEAAAAAHhxAH4ArnEAfgCzc3EAfgACc3EAfgAHAAAAAHcEAAAAAHhxAH4ArnEAfgCzeH5xAH4APXQACEFERElUSU9OcQB+ALFxAH4Ar3hxAH4AuXB4cQB+ALlweA==";
