ea.runOutcome(
  index = 371;
  run = ea.run(
    problem = ea.p.mr.fromData(
      trainingDataset = ea.dataset.numerical.fromFile(
        filePath = "../phase2/data-ro-ographea-3-005.txt";
        folds = [0];
        nFolds = 50;
        xVarNamePattern = "x.*";
        yVarNamePattern = "y.*"
      )
    );
    randomGenerator = ea.rg.defaultRG(seed = 2);
    solver = ea.s.oGraphea(
      arcAdditionRate = 3;
      arcRemovalRate = 0.1;
      mapper = ea.m.oGraphMRF(
        dataset = ea.d.num.empty(
          xVars = [
            x01;
            x02;
            x03;
            x04;
            x05;
            x06;
            x07;
            x08;
            x09;
            x10;
            x11;
            x12;
            x13;
            x14;
            x15;
            x16
          ];
          yVars = [y1; y2; y3; y4]
        );
        postOperator = tanh
      );
      maxConst = 5;
      minConst = 0;
      nConst = 10;
      nEval = 10000;
      nPop = 100;
      nodeAdditionRate = 1;
      operators = [
        addition;
        subtraction;
        multiplication;
        prot_division;
        prot_log
      ];
      rankBase = 0.75
    )
  );
  serializedGenotypes = [
    "rO0ABXNyAENpby5naXRodWIuZXJpY21lZHZldC5qZ2VhLmNvcmUucmVwcmVzZW50YXRpb24uZ3JhcGguTGlua2VkSGFzaEdyYXBo8kE6+k8gs3gCAAJMAARhcmNzdAAPTGphdmEvdXRpbC9NYXA7TAAFbm9kZXN0AA9MamF2YS91dGlsL1NldDt4cHNyABdqYXZhLnV0aWwuTGlua2VkSGFzaE1hcDTATlwQbMD7AgABWgALYWNjZXNzT3JkZXJ4cgARamF2YS51dGlsLkhhc2hNYXAFB9rBwxZg0QMAAkYACmxvYWRGYWN0b3JJAAl0aHJlc2hvbGR4cD9AAAAAAAAwdwgAAABAAAAAKnNyAD1pby5naXRodWIuZXJpY21lZHZldC5qZ2VhLmNvcmUucmVwcmVzZW50YXRpb24uZ3JhcGguR3JhcGgkQXJjdMoFPXw1b5ECAAJMAAZzb3VyY2V0ABJMamF2YS9sYW5nL09iamVjdDtMAAZ0YXJnZXRxAH4ACHhwc3IAQWlvLmdpdGh1Yi5lcmljbWVkdmV0LmpnZWEuY29yZS5yZXByZXNlbnRhdGlvbi5ncmFwaC5udW1lcmljLklucHV0kenlcnOuaK4CAAFMAARuYW1ldAASTGphdmEvbGFuZy9TdHJpbmc7eHIAOGlvLmdpdGh1Yi5lcmljbWVkdmV0LmpnZWEuY29yZS5yZXByZXNlbnRhdGlvbi5ncmFwaC5Ob2RlrogRKSuEZ5sCAAFJAAVpbmRleHhwAAAABnQAA3gwN3NyAEJpby5naXRodWIuZXJpY21lZHZldC5qZ2VhLmNvcmUucmVwcmVzZW50YXRpb24uZ3JhcGgubnVtZXJpYy5PdXRwdXSrYi642b9HcgIAAUwABG5hbWVxAH4AC3hxAH4ADAAAAAB0AAJ5MXNyAGRpby5naXRodWIuZXJpY21lZHZldC5qZ2VhLmNvcmUucmVwcmVzZW50YXRpb24uZ3JhcGgubnVtZXJpYy5vcGVyYXRvcmdyYXBoLk9wZXJhdG9yR3JhcGgkTm9uVmFsdWVkQXJj8SY5W2gCXpACAAB4cHNxAH4AB3NxAH4ACgAAAAJ0AAN4MDNzcQB+AA8AAAACdAACeTNxAH4AE3NxAH4AB3EAfgANc3IAVmlvLmdpdGh1Yi5lcmljbWVkdmV0LmpnZWEuY29yZS5yZXByZXNlbnRhdGlvbi5ncmFwaC5udW1lcmljLm9wZXJhdG9yZ3JhcGguT3BlcmF0b3JOb2Rl9BLOPf4p+ywCAAFMAAhvcGVyYXRvcnQAWExpby9naXRodWIvZXJpY21lZHZldC9qZ2VhL2NvcmUvcmVwcmVzZW50YXRpb24vZ3JhcGgvbnVtZXJpYy9vcGVyYXRvcmdyYXBoL0Jhc2VPcGVyYXRvcjt4cQB+AAwAAAETfnIAVmlvLmdpdGh1Yi5lcmljbWVkdmV0LmpnZWEuY29yZS5yZXByZXNlbnRhdGlvbi5ncmFwaC5udW1lcmljLm9wZXJhdG9yZ3JhcGguQmFzZU9wZXJhdG9yAAAAAAAAAAASAAB4cgAOamF2YS5sYW5nLkVudW0AAAAAAAAAABIAAHhwdAANUFJPVF9ESVZJU0lPTnEAfgATc3EAfgAHcQB+ABxzcQB+ABoAAACpfnEAfgAddAAIUFJPVF9MT0dxAH4AE3NxAH4AB3EAfgAic3EAfgAaAAABJ35xAH4AHXQADk1VTFRJUExJQ0FUSU9OcQB+ABNzcQB+AAdzcQB+AAoAAAAAdAADeDAxc3EAfgAaAAABTnEAfgAncQB+ABNzcQB+AAdzcQB+ABoAAAFmfnEAfgAddAALU1VCVFJBQ1RJT05zcQB+ABoAAAIKfnEAfgAddAAIQURESVRJT05xAH4AE3NxAH4AB3NxAH4AGgAAAuJxAH4AMnNxAH4AGgAAADNxAH4AJ3EAfgATc3EAfgAHcQB+ACZzcQB+ABoAAAMpcQB+AB9xAH4AE3NxAH4AB3EAfgA4cQB+ACxxAH4AE3NxAH4AB3EAfgAmc3EAfgAaAAADuXEAfgAvcQB+ABNzcQB+AAdxAH4AO3EAfgAucQB+ABNzcQB+AAdxAH4ALHNxAH4AGgAABGtxAH4AH3EAfgATc3EAfgAHcQB+AD5xAH4ANXEAfgATc3EAfgAHc3EAfgAaAAAA/HEAfgAyc3EAfgAaAAAE1XEAfgAfcQB+ABNzcQB+AAdxAH4AQnNxAH4ADwAAAAN0AAJ5NHEAfgATc3EAfgAHc3EAfgAKAAAAAXQAA3gwMnNxAH4AGgAABPNxAH4AMnEAfgATc3EAfgAHcQB+AA1xAH4ANnEAfgATc3EAfgAHc3EAfgAaAAAFk3EAfgAycQB+ADFxAH4AE3NxAH4AB3NxAH4ACgAAAAp0AAN4MTFxAH4AQXEAfgATc3EAfgAHc3EAfgAaAAAFzHEAfgAycQB+AEFxAH4AE3NxAH4AB3EAfgBJc3EAfgAaAAAG1XEAfgAycQB+ABNzcQB+AAdxAH4AU3EAfgBMcQB+ABNzcQB+AAdxAH4ALnNxAH4AGgAABwZxAH4AJ3EAfgATc3EAfgAHc3IARGlvLmdpdGh1Yi5lcmljbWVkdmV0LmpnZWEuY29yZS5yZXByZXNlbnRhdGlvbi5ncmFwaC5udW1lcmljLkNvbnN0YW50TGSPkxwUCVACAAFEAAV2YWx1ZXhxAH4ADAAAAAE/4AAAAAAAAHEAfgBWcQB+ABNzcQB+AAdxAH4ASXNxAH4AGgAAB3VxAH4AL3EAfgATc3EAfgAHcQB+AFtxAH4AOHEAfgATc3EAfgAHcQB+ACpzcQB+ABoAAAeicQB+AB9xAH4AE3NxAH4AB3EAfgBecQB+AEFxAH4AE3NxAH4AB3NxAH4ACgAAAA50AAN4MTVzcQB+AA8AAAABdAACeTJxAH4AE3NxAH4AB3NxAH4ACgAAAAN0AAN4MDRzcQB+ABoAAAfccQB+AB9xAH4AE3NxAH4AB3EAfgBocQB+AFFxAH4AE3NxAH4AB3NxAH4AWAAAAAM/+AAAAAAAAHEAfgAccQB+ABNzcQB+AAdzcQB+AFgAAAAAAAAAAAAAAABzcQB+ABoAAAhscQB+ACdxAH4AE3NxAH4AB3EAfgBucQB+ACZxAH4AE3NxAH4AB3EAfgBWc3EAfgAaAAAInXEAfgAjcQB+ABNzcQB+AAdxAH4AcXEAfgBMcQB+ABNzcQB+AAdxAH4AMXNxAH4AGgAACMpxAH4AMnEAfgATc3EAfgAHcQB+AHRxAH4AQXEAfgATc3EAfgAHcQB+AG1zcQB+ABoAAAkacQB+ACNxAH4AE3NxAH4AB3EAfgB3cQB+AD5xAH4AE3NxAH4AB3EAfgBmcQB+AFFxAH4AE3gAc3IAF2phdmEudXRpbC5MaW5rZWRIYXNoU2V02GzXWpXdKh4CAAB4cgARamF2YS51dGlsLkhhc2hTZXS6RIWVlri3NAMAAHhwdwwAAACAP0AAAAAAADdxAH4AKnEAfgBHcQB+ABVxAH4AZnNxAH4ACgAAAAR0AAN4MDVzcQB+AAoAAAAFdAADeDA2cQB+AA1zcQB+AAoAAAAHdAADeDA4c3EAfgAKAAAACHQAA3gwOXNxAH4ACgAAAAl0AAN4MTBxAH4ATnNxAH4ACgAAAAt0AAN4MTJzcQB+AAoAAAAMdAADeDEzc3EAfgAKAAAADXQAA3gxNHEAfgBhc3EAfgAKAAAAD3QAA3gxNnEAfgAQcQB+AGNxAH4AF3EAfgBEcQB+AG1xAH4AWXNxAH4AWAAAAAI/8AAAAAAAAHEAfgBrc3EAfgBYAAAABEAAAAAAAAAAc3EAfgBYAAAABUAEAAAAAAAAc3EAfgBYAAAABkAIAAAAAAAAc3EAfgBYAAAAB0AMAAAAAAAAc3EAfgBYAAAACEAQAAAAAAAAc3EAfgBYAAAACUASAAAAAAAAcQB+ADZxAH4AInEAfgBBcQB+ABxxAH4AJnEAfgAscQB+AC5xAH4AMXEAfgA1cQB+ADhxAH4AO3EAfgA+cQB+AEJxAH4ASXEAfgBMcQB+AFFxAH4AU3EAfgBWcQB+AFtxAH4AXnEAfgBocQB+AG5xAH4AcXEAfgB0cQB+AHd4";
    "rO0ABXNyAENpby5naXRodWIuZXJpY21lZHZldC5qZ2VhLmNvcmUucmVwcmVzZW50YXRpb24uZ3JhcGguTGlua2VkSGFzaEdyYXBo8kE6+k8gs3gCAAJMAARhcmNzdAAPTGphdmEvdXRpbC9NYXA7TAAFbm9kZXN0AA9MamF2YS91dGlsL1NldDt4cHNyABdqYXZhLnV0aWwuTGlua2VkSGFzaE1hcDTATlwQbMD7AgABWgALYWNjZXNzT3JkZXJ4cgARamF2YS51dGlsLkhhc2hNYXAFB9rBwxZg0QMAAkYACmxvYWRGYWN0b3JJAAl0aHJlc2hvbGR4cD9AAAAAAAAwdwgAAABAAAAAKnNyAD1pby5naXRodWIuZXJpY21lZHZldC5qZ2VhLmNvcmUucmVwcmVzZW50YXRpb24uZ3JhcGguR3JhcGgkQXJjdMoFPXw1b5ECAAJMAAZzb3VyY2V0ABJMamF2YS9sYW5nL09iamVjdDtMAAZ0YXJnZXRxAH4ACHhwc3IAQWlvLmdpdGh1Yi5lcmljbWVkdmV0LmpnZWEuY29yZS5yZXByZXNlbnRhdGlvbi5ncmFwaC5udW1lcmljLklucHV0kenlcnOuaK4CAAFMAARuYW1ldAASTGphdmEvbGFuZy9TdHJpbmc7eHIAOGlvLmdpdGh1Yi5lcmljbWVkdmV0LmpnZWEuY29yZS5yZXByZXNlbnRhdGlvbi5ncmFwaC5Ob2RlrogRKSuEZ5sCAAFJAAVpbmRleHhwAAAABnQAA3gwN3NyAEJpby5naXRodWIuZXJpY21lZHZldC5qZ2VhLmNvcmUucmVwcmVzZW50YXRpb24uZ3JhcGgubnVtZXJpYy5PdXRwdXSrYi642b9HcgIAAUwABG5hbWVxAH4AC3hxAH4ADAAAAAB0AAJ5MXNyAGRpby5naXRodWIuZXJpY21lZHZldC5qZ2VhLmNvcmUucmVwcmVzZW50YXRpb24uZ3JhcGgubnVtZXJpYy5vcGVyYXRvcmdyYXBoLk9wZXJhdG9yR3JhcGgkTm9uVmFsdWVkQXJj8SY5W2gCXpACAAB4cHNxAH4AB3NxAH4ACgAAAAJ0AAN4MDNzcQB+AA8AAAACdAACeTNxAH4AE3NxAH4AB3EAfgANc3IAVmlvLmdpdGh1Yi5lcmljbWVkdmV0LmpnZWEuY29yZS5yZXByZXNlbnRhdGlvbi5ncmFwaC5udW1lcmljLm9wZXJhdG9yZ3JhcGguT3BlcmF0b3JOb2Rl9BLOPf4p+ywCAAFMAAhvcGVyYXRvcnQAWExpby9naXRodWIvZXJpY21lZHZldC9qZ2VhL2NvcmUvcmVwcmVzZW50YXRpb24vZ3JhcGgvbnVtZXJpYy9vcGVyYXRvcmdyYXBoL0Jhc2VPcGVyYXRvcjt4cQB+AAwAAAETfnIAVmlvLmdpdGh1Yi5lcmljbWVkdmV0LmpnZWEuY29yZS5yZXByZXNlbnRhdGlvbi5ncmFwaC5udW1lcmljLm9wZXJhdG9yZ3JhcGguQmFzZU9wZXJhdG9yAAAAAAAAAAASAAB4cgAOamF2YS5sYW5nLkVudW0AAAAAAAAAABIAAHhwdAANUFJPVF9ESVZJU0lPTnEAfgATc3EAfgAHcQB+ABxzcQB+ABoAAACpfnEAfgAddAAIUFJPVF9MT0dxAH4AE3NxAH4AB3EAfgAic3EAfgAaAAABJ35xAH4AHXQADk1VTFRJUExJQ0FUSU9OcQB+ABNzcQB+AAdzcQB+AAoAAAAAdAADeDAxc3EAfgAaAAABTnEAfgAncQB+ABNzcQB+AAdzcQB+ABoAAAFmfnEAfgAddAALU1VCVFJBQ1RJT05zcQB+ABoAAAIKfnEAfgAddAAIQURESVRJT05xAH4AE3NxAH4AB3NxAH4AGgAAAuJxAH4AMnNxAH4AGgAAADNxAH4AJ3EAfgATc3EAfgAHcQB+ACZzcQB+ABoAAAMpcQB+AB9xAH4AE3NxAH4AB3EAfgA4cQB+ACxxAH4AE3NxAH4AB3EAfgAmc3EAfgAaAAADuXEAfgAvcQB+ABNzcQB+AAdxAH4AO3EAfgAucQB+ABNzcQB+AAdxAH4ALHNxAH4AGgAABGtxAH4AH3EAfgATc3EAfgAHcQB+AD5xAH4ANXEAfgATc3EAfgAHc3EAfgAaAAAA/HEAfgAyc3EAfgAaAAAE1XEAfgAfcQB+ABNzcQB+AAdxAH4AQnNxAH4ADwAAAAN0AAJ5NHEAfgATc3EAfgAHc3EAfgAKAAAAAXQAA3gwMnNxAH4AGgAABPNxAH4AMnEAfgATc3EAfgAHcQB+AA1xAH4ANnEAfgATc3EAfgAHc3EAfgAaAAAFk3EAfgAycQB+ADFxAH4AE3NxAH4AB3NxAH4ACgAAAAp0AAN4MTFxAH4AQXEAfgATc3EAfgAHc3EAfgAaAAAFzHEAfgAycQB+AEFxAH4AE3NxAH4AB3EAfgBJc3EAfgAaAAAG1XEAfgAycQB+ABNzcQB+AAdxAH4AU3EAfgBMcQB+ABNzcQB+AAdxAH4ALnNxAH4AGgAABwZxAH4AJ3EAfgATc3EAfgAHc3IARGlvLmdpdGh1Yi5lcmljbWVkdmV0LmpnZWEuY29yZS5yZXByZXNlbnRhdGlvbi5ncmFwaC5udW1lcmljLkNvbnN0YW50TGSPkxwUCVACAAFEAAV2YWx1ZXhxAH4ADAAAAAE/4AAAAAAAAHEAfgBWcQB+ABNzcQB+AAdxAH4ASXNxAH4AGgAAB3VxAH4AL3EAfgATc3EAfgAHcQB+AFtxAH4AOHEAfgATc3EAfgAHcQB+ACpzcQB+ABoAAAeicQB+AB9xAH4AE3NxAH4AB3EAfgBecQB+AEFxAH4AE3NxAH4AB3NxAH4ACgAAAA50AAN4MTVzcQB+AA8AAAABdAACeTJxAH4AE3NxAH4AB3NxAH4ACgAAAAN0AAN4MDRzcQB+ABoAAAfccQB+AB9xAH4AE3NxAH4AB3EAfgBocQB+AFFxAH4AE3NxAH4AB3NxAH4AWAAAAAM/+AAAAAAAAHEAfgAccQB+ABNzcQB+AAdzcQB+AFgAAAAAAAAAAAAAAABzcQB+ABoAAAhscQB+ACdxAH4AE3NxAH4AB3EAfgBucQB+ACZxAH4AE3NxAH4AB3EAfgBWc3EAfgAaAAAInXEAfgAjcQB+ABNzcQB+AAdxAH4AcXEAfgBMcQB+ABNzcQB+AAdxAH4AMXNxAH4AGgAACMpxAH4AMnEAfgATc3EAfgAHcQB+AHRxAH4AQXEAfgATc3EAfgAHcQB+AG1zcQB+ABoAAAkacQB+ACNxAH4AE3NxAH4AB3EAfgB3cQB+AD5xAH4AE3NxAH4AB3EAfgBmcQB+AFFxAH4AE3gAc3IAF2phdmEudXRpbC5MaW5rZWRIYXNoU2V02GzXWpXdKh4CAAB4cgARamF2YS51dGlsLkhhc2hTZXS6RIWVlri3NAMAAHhwdwwAAACAP0AAAAAAADdxAH4AKnEAfgBHcQB+ABVxAH4AZnNxAH4ACgAAAAR0AAN4MDVzcQB+AAoAAAAFdAADeDA2cQB+AA1zcQB+AAoAAAAHdAADeDA4c3EAfgAKAAAACHQAA3gwOXNxAH4ACgAAAAl0AAN4MTBxAH4ATnNxAH4ACgAAAAt0AAN4MTJzcQB+AAoAAAAMdAADeDEzc3EAfgAKAAAADXQAA3gxNHEAfgBhc3EAfgAKAAAAD3QAA3gxNnEAfgAQcQB+AGNxAH4AF3EAfgBEcQB+AG1xAH4AWXNxAH4AWAAAAAI/8AAAAAAAAHEAfgBrc3EAfgBYAAAABEAAAAAAAAAAc3EAfgBYAAAABUAEAAAAAAAAc3EAfgBYAAAABkAIAAAAAAAAc3EAfgBYAAAAB0AMAAAAAAAAc3EAfgBYAAAACEAQAAAAAAAAc3EAfgBYAAAACUASAAAAAAAAcQB+ADZxAH4AInEAfgBBcQB+ABxxAH4AJnEAfgAscQB+AC5xAH4AMXEAfgA1cQB+ADhxAH4AO3EAfgA+cQB+AEJxAH4ASXEAfgBMcQB+AFFxAH4AU3EAfgBWcQB+AFtxAH4AXnEAfgBocQB+AG5xAH4AcXEAfgB0cQB+AHd4";
    "rO0ABXNyAENpby5naXRodWIuZXJpY21lZHZldC5qZ2VhLmNvcmUucmVwcmVzZW50YXRpb24uZ3JhcGguTGlua2VkSGFzaEdyYXBo8kE6+k8gs3gCAAJMAARhcmNzdAAPTGphdmEvdXRpbC9NYXA7TAAFbm9kZXN0AA9MamF2YS91dGlsL1NldDt4cHNyABdqYXZhLnV0aWwuTGlua2VkSGFzaE1hcDTATlwQbMD7AgABWgALYWNjZXNzT3JkZXJ4cgARamF2YS51dGlsLkhhc2hNYXAFB9rBwxZg0QMAAkYACmxvYWRGYWN0b3JJAAl0aHJlc2hvbGR4cD9AAAAAAAAwdwgAAABAAAAAK3NyAD1pby5naXRodWIuZXJpY21lZHZldC5qZ2VhLmNvcmUucmVwcmVzZW50YXRpb24uZ3JhcGguR3JhcGgkQXJjdMoFPXw1b5ECAAJMAAZzb3VyY2V0ABJMamF2YS9sYW5nL09iamVjdDtMAAZ0YXJnZXRxAH4ACHhwc3IAQWlvLmdpdGh1Yi5lcmljbWVkdmV0LmpnZWEuY29yZS5yZXByZXNlbnRhdGlvbi5ncmFwaC5udW1lcmljLklucHV0kenlcnOuaK4CAAFMAARuYW1ldAASTGphdmEvbGFuZy9TdHJpbmc7eHIAOGlvLmdpdGh1Yi5lcmljbWVkdmV0LmpnZWEuY29yZS5yZXByZXNlbnRhdGlvbi5ncmFwaC5Ob2RlrogRKSuEZ5sCAAFJAAVpbmRleHhwAAAABnQAA3gwN3NyAEJpby5naXRodWIuZXJpY21lZHZldC5qZ2VhLmNvcmUucmVwcmVzZW50YXRpb24uZ3JhcGgubnVtZXJpYy5PdXRwdXSrYi642b9HcgIAAUwABG5hbWVxAH4AC3hxAH4ADAAAAAB0AAJ5MXNyAGRpby5naXRodWIuZXJpY21lZHZldC5qZ2VhLmNvcmUucmVwcmVzZW50YXRpb24uZ3JhcGgubnVtZXJpYy5vcGVyYXRvcmdyYXBoLk9wZXJhdG9yR3JhcGgkTm9uVmFsdWVkQXJj8SY5W2gCXpACAAB4cHNxAH4AB3NxAH4ACgAAAAJ0AAN4MDNzcQB+AA8AAAACdAACeTNxAH4AE3NxAH4AB3EAfgANc3IAVmlvLmdpdGh1Yi5lcmljbWVkdmV0LmpnZWEuY29yZS5yZXByZXNlbnRhdGlvbi5ncmFwaC5udW1lcmljLm9wZXJhdG9yZ3JhcGguT3BlcmF0b3JOb2Rl9BLOPf4p+ywCAAFMAAhvcGVyYXRvcnQAWExpby9naXRodWIvZXJpY21lZHZldC9qZ2VhL2NvcmUvcmVwcmVzZW50YXRpb24vZ3JhcGgvbnVtZXJpYy9vcGVyYXRvcmdyYXBoL0Jhc2VPcGVyYXRvcjt4cQB+AAwAAAETfnIAVmlvLmdpdGh1Yi5lcmljbWVkdmV0LmpnZWEuY29yZS5yZXByZXNlbnRhdGlvbi5ncmFwaC5udW1lcmljLm9wZXJhdG9yZ3JhcGguQmFzZU9wZXJhdG9yAAAAAAAAAAASAAB4cgAOamF2YS5sYW5nLkVudW0AAAAAAAAAABIAAHhwdAANUFJPVF9ESVZJU0lPTnEAfgATc3EAfgAHcQB+ABxzcQB+ABoAAACpfnEAfgAddAAIUFJPVF9MT0dxAH4AE3NxAH4AB3EAfgAic3EAfgAaAAABJ35xAH4AHXQADk1VTFRJUExJQ0FUSU9OcQB+ABNzcQB+AAdzcQB+AAoAAAAAdAADeDAxc3EAfgAaAAABTnEAfgAncQB+ABNzcQB+AAdzcQB+ABoAAAFmfnEAfgAddAALU1VCVFJBQ1RJT05zcQB+ABoAAAIKfnEAfgAddAAIQURESVRJT05xAH4AE3NxAH4AB3NxAH4AGgAAAuJxAH4AMnNxAH4AGgAAADNxAH4AJ3EAfgATc3EAfgAHcQB+ACZzcQB+ABoAAAMpcQB+AB9xAH4AE3NxAH4AB3EAfgA4cQB+ACxxAH4AE3NxAH4AB3NxAH4AGgAAA7lxAH4AL3EAfgAucQB+ABNzcQB+AAdxAH4ALHNxAH4AGgAABGtxAH4AH3EAfgATc3EAfgAHcQB+AD1xAH4ANXEAfgATc3EAfgAHc3EAfgAaAAAA/HEAfgAyc3EAfgAaAAAE1XEAfgAfcQB+ABNzcQB+AAdxAH4AQXNxAH4ADwAAAAN0AAJ5NHEAfgATc3EAfgAHc3EAfgAKAAAAAXQAA3gwMnNxAH4AGgAABPNxAH4AMnEAfgATc3EAfgAHcQB+AA1xAH4ANnEAfgATc3EAfgAHc3EAfgAaAAAFk3EAfgAycQB+ADFxAH4AE3NxAH4AB3NxAH4ACgAAAAp0AAN4MTFxAH4AQHEAfgATc3EAfgAHc3EAfgAaAAAFzHEAfgAycQB+AEBxAH4AE3NxAH4AB3EAfgBIc3EAfgAaAAAG1XEAfgAycQB+ABNzcQB+AAdxAH4AUnEAfgBLcQB+ABNzcQB+AAdxAH4ALnNxAH4AGgAABwZxAH4AJ3EAfgATc3EAfgAHc3IARGlvLmdpdGh1Yi5lcmljbWVkdmV0LmpnZWEuY29yZS5yZXByZXNlbnRhdGlvbi5ncmFwaC5udW1lcmljLkNvbnN0YW50TGSPkxwUCVACAAFEAAV2YWx1ZXhxAH4ADAAAAAE/4AAAAAAAAHEAfgBVcQB+ABNzcQB+AAdxAH4ASHNxAH4AGgAAB3VxAH4AL3EAfgATc3EAfgAHcQB+AFpxAH4AOHEAfgATc3EAfgAHcQB+ACpzcQB+ABoAAAeicQB+AB9xAH4AE3NxAH4AB3EAfgBdcQB+AEBxAH4AE3NxAH4AB3NxAH4ACgAAAA50AAN4MTVzcQB+AA8AAAABdAACeTJxAH4AE3NxAH4AB3NxAH4ACgAAAAN0AAN4MDRzcQB+ABoAAAfccQB+AB9xAH4AE3NxAH4AB3EAfgBncQB+AFBxAH4AE3NxAH4AB3NxAH4AVwAAAAM/+AAAAAAAAHEAfgAccQB+ABNzcQB+AAdzcQB+AFcAAAAAAAAAAAAAAABzcQB+ABoAAAhscQB+ACdxAH4AE3NxAH4AB3EAfgBtcQB+ACZxAH4AE3NxAH4AB3EAfgBVc3EAfgAaAAAInXEAfgAjcQB+ABNzcQB+AAdxAH4AcHEAfgBLcQB+ABNzcQB+AAdxAH4AMXNxAH4AGgAACMpxAH4AMnEAfgATc3EAfgAHcQB+AHNxAH4AQHEAfgATc3EAfgAHcQB+AGxzcQB+ABoAAAkacQB+ACNxAH4AE3NxAH4AB3EAfgB2cQB+AD1xAH4AE3NxAH4AB3EAfgBlcQB+AFBxAH4AE3NxAH4AB3EAfgAmc3EAfgAaAAAJVnEAfgAvcQB+ABNzcQB+AAdxAH4AenEAfgA7cQB+ABN4AHNyABdqYXZhLnV0aWwuTGlua2VkSGFzaFNldNhs11qV3SoeAgAAeHIAEWphdmEudXRpbC5IYXNoU2V0ukSFlZa4tzQDAAB4cHcMAAAAgD9AAAAAAAA4cQB+ACpxAH4ARnEAfgAVcQB+AGVzcQB+AAoAAAAEdAADeDA1c3EAfgAKAAAABXQAA3gwNnEAfgANc3EAfgAKAAAAB3QAA3gwOHNxAH4ACgAAAAh0AAN4MDlzcQB+AAoAAAAJdAADeDEwcQB+AE1zcQB+AAoAAAALdAADeDEyc3EAfgAKAAAADHQAA3gxM3NxAH4ACgAAAA10AAN4MTRxAH4AYHNxAH4ACgAAAA90AAN4MTZxAH4AEHEAfgBicQB+ABdxAH4AQ3EAfgBscQB+AFhzcQB+AFcAAAACP/AAAAAAAABxAH4AanNxAH4AVwAAAARAAAAAAAAAAHNxAH4AVwAAAAVABAAAAAAAAHNxAH4AVwAAAAZACAAAAAAAAHNxAH4AVwAAAAdADAAAAAAAAHNxAH4AVwAAAAhAEAAAAAAAAHNxAH4AVwAAAAlAEgAAAAAAAHEAfgA2cQB+ACJxAH4AQHEAfgAccQB+ACZxAH4ALHEAfgAucQB+ADFxAH4ANXEAfgA4cQB+ADtxAH4APXEAfgBBcQB+AEhxAH4AS3EAfgBQcQB+AFJxAH4AVXEAfgBacQB+AF1xAH4AZ3EAfgBtcQB+AHBxAH4Ac3EAfgB2cQB+AHp4";
    "rO0ABXNyAENpby5naXRodWIuZXJpY21lZHZldC5qZ2VhLmNvcmUucmVwcmVzZW50YXRpb24uZ3JhcGguTGlua2VkSGFzaEdyYXBo8kE6+k8gs3gCAAJMAARhcmNzdAAPTGphdmEvdXRpbC9NYXA7TAAFbm9kZXN0AA9MamF2YS91dGlsL1NldDt4cHNyABdqYXZhLnV0aWwuTGlua2VkSGFzaE1hcDTATlwQbMD7AgABWgALYWNjZXNzT3JkZXJ4cgARamF2YS51dGlsLkhhc2hNYXAFB9rBwxZg0QMAAkYACmxvYWRGYWN0b3JJAAl0aHJlc2hvbGR4cD9AAAAAAAAwdwgAAABAAAAAKnNyAD1pby5naXRodWIuZXJpY21lZHZldC5qZ2VhLmNvcmUucmVwcmVzZW50YXRpb24uZ3JhcGguR3JhcGgkQXJjdMoFPXw1b5ECAAJMAAZzb3VyY2V0ABJMamF2YS9sYW5nL09iamVjdDtMAAZ0YXJnZXRxAH4ACHhwc3IAQWlvLmdpdGh1Yi5lcmljbWVkdmV0LmpnZWEuY29yZS5yZXByZXNlbnRhdGlvbi5ncmFwaC5udW1lcmljLklucHV0kenlcnOuaK4CAAFMAARuYW1ldAASTGphdmEvbGFuZy9TdHJpbmc7eHIAOGlvLmdpdGh1Yi5lcmljbWVkdmV0LmpnZWEuY29yZS5yZXByZXNlbnRhdGlvbi5ncmFwaC5Ob2RlrogRKSuEZ5sCAAFJAAVpbmRleHhwAAAABnQAA3gwN3NyAEJpby5naXRodWIuZXJpY21lZHZldC5qZ2VhLmNvcmUucmVwcmVzZW50YXRpb24uZ3JhcGgubnVtZXJpYy5PdXRwdXSrYi642b9HcgIAAUwABG5hbWVxAH4AC3hxAH4ADAAAAAB0AAJ5MXNyAGRpby5naXRodWIuZXJpY21lZHZldC5qZ2VhLmNvcmUucmVwcmVzZW50YXRpb24uZ3JhcGgubnVtZXJpYy5vcGVyYXRvcmdyYXBoLk9wZXJhdG9yR3JhcGgkTm9uVmFsdWVkQXJj8SY5W2gCXpACAAB4cHNxAH4AB3NxAH4ACgAAAAJ0AAN4MDNzcQB+AA8AAAACdAACeTNxAH4AE3NxAH4AB3EAfgANc3IAVmlvLmdpdGh1Yi5lcmljbWVkdmV0LmpnZWEuY29yZS5yZXByZXNlbnRhdGlvbi5ncmFwaC5udW1lcmljLm9wZXJhdG9yZ3JhcGguT3BlcmF0b3JOb2Rl9BLOPf4p+ywCAAFMAAhvcGVyYXRvcnQAWExpby9naXRodWIvZXJpY21lZHZldC9qZ2VhL2NvcmUvcmVwcmVzZW50YXRpb24vZ3JhcGgvbnVtZXJpYy9vcGVyYXRvcmdyYXBoL0Jhc2VPcGVyYXRvcjt4cQB+AAwAAAETfnIAVmlvLmdpdGh1Yi5lcmljbWVkdmV0LmpnZWEuY29yZS5yZXByZXNlbnRhdGlvbi5ncmFwaC5udW1lcmljLm9wZXJhdG9yZ3JhcGguQmFzZU9wZXJhdG9yAAAAAAAAAAASAAB4cgAOamF2YS5sYW5nLkVudW0AAAAAAAAAABIAAHhwdAANUFJPVF9ESVZJU0lPTnEAfgATc3EAfgAHcQB+ABxzcQB+ABoAAACpfnEAfgAddAAIUFJPVF9MT0dxAH4AE3NxAH4AB3EAfgAic3EAfgAaAAABJ35xAH4AHXQADk1VTFRJUExJQ0FUSU9OcQB+ABNzcQB+AAdzcQB+AAoAAAAAdAADeDAxc3EAfgAaAAABTnEAfgAncQB+ABNzcQB+AAdzcQB+ABoAAAFmfnEAfgAddAALU1VCVFJBQ1RJT05zcQB+ABoAAAIKfnEAfgAddAAIQURESVRJT05xAH4AE3NxAH4AB3NxAH4AGgAAAuJxAH4AMnNxAH4AGgAAADNxAH4AJ3EAfgATc3EAfgAHcQB+ACZzcQB+ABoAAAMpcQB+AB9xAH4AE3NxAH4AB3EAfgA4cQB+ACxxAH4AE3NxAH4AB3EAfgAmc3EAfgAaAAADuXEAfgAvcQB+ABNzcQB+AAdxAH4AO3EAfgAucQB+ABNzcQB+AAdxAH4ALHNxAH4AGgAABGtxAH4AH3EAfgATc3EAfgAHcQB+AD5xAH4ANXEAfgATc3EAfgAHc3EAfgAaAAAA/HEAfgAyc3EAfgAaAAAE1XEAfgAfcQB+ABNzcQB+AAdxAH4AQnNxAH4ADwAAAAN0AAJ5NHEAfgATc3EAfgAHc3EAfgAKAAAAAXQAA3gwMnNxAH4AGgAABPNxAH4AMnEAfgATc3EAfgAHcQB+AA1xAH4ANnEAfgATc3EAfgAHc3EAfgAaAAAFk3EAfgAycQB+ADFxAH4AE3NxAH4AB3NxAH4ACgAAAAp0AAN4MTFxAH4AQXEAfgATc3EAfgAHc3EAfgAaAAAFzHEAfgAycQB+AEFxAH4AE3NxAH4AB3EAfgBJc3EAfgAaAAAG1XEAfgAycQB+ABNzcQB+AAdxAH4AU3EAfgBMcQB+ABNzcQB+AAdxAH4ALnNxAH4AGgAABwZxAH4AJ3EAfgATc3EAfgAHc3IARGlvLmdpdGh1Yi5lcmljbWVkdmV0LmpnZWEuY29yZS5yZXByZXNlbnRhdGlvbi5ncmFwaC5udW1lcmljLkNvbnN0YW50TGSPkxwUCVACAAFEAAV2YWx1ZXhxAH4ADAAAAAE/4AAAAAAAAHEAfgBWcQB+ABNzcQB+AAdxAH4ASXNxAH4AGgAAB3VxAH4AL3EAfgATc3EAfgAHcQB+AFtxAH4AOHEAfgATc3EAfgAHcQB+ACpzcQB+ABoAAAeicQB+AB9xAH4AE3NxAH4AB3EAfgBecQB+AEFxAH4AE3NxAH4AB3NxAH4ACgAAAA50AAN4MTVzcQB+AA8AAAABdAACeTJxAH4AE3NxAH4AB3NxAH4ACgAAAAN0AAN4MDRzcQB+ABoAAAfccQB+AB9xAH4AE3NxAH4AB3EAfgBocQB+AFFxAH4AE3NxAH4AB3NxAH4AWAAAAAM/+AAAAAAAAHEAfgAccQB+ABNzcQB+AAdzcQB+AFgAAAAAAAAAAAAAAABzcQB+ABoAAAhscQB+ACdxAH4AE3NxAH4AB3EAfgBucQB+ACZxAH4AE3NxAH4AB3EAfgBWc3EAfgAaAAAInXEAfgAjcQB+ABNzcQB+AAdxAH4AcXEAfgBMcQB+ABNzcQB+AAdxAH4AMXNxAH4AGgAACMpxAH4AMnEAfgATc3EAfgAHcQB+AHRxAH4AQXEAfgATc3EAfgAHcQB+AG1zcQB+ABoAAAkacQB+ACNxAH4AE3NxAH4AB3EAfgB3cQB+AD5xAH4AE3NxAH4AB3EAfgBmcQB+AFFxAH4AE3gAc3IAF2phdmEudXRpbC5MaW5rZWRIYXNoU2V02GzXWpXdKh4CAAB4cgARamF2YS51dGlsLkhhc2hTZXS6RIWVlri3NAMAAHhwdwwAAACAP0AAAAAAADdxAH4AKnEAfgBHcQB+ABVxAH4AZnNxAH4ACgAAAAR0AAN4MDVzcQB+AAoAAAAFdAADeDA2cQB+AA1zcQB+AAoAAAAHdAADeDA4c3EAfgAKAAAACHQAA3gwOXNxAH4ACgAAAAl0AAN4MTBxAH4ATnNxAH4ACgAAAAt0AAN4MTJzcQB+AAoAAAAMdAADeDEzc3EAfgAKAAAADXQAA3gxNHEAfgBhc3EAfgAKAAAAD3QAA3gxNnEAfgAQcQB+AGNxAH4AF3EAfgBEcQB+AG1xAH4AWXNxAH4AWAAAAAI/8AAAAAAAAHEAfgBrc3EAfgBYAAAABEAAAAAAAAAAc3EAfgBYAAAABUAEAAAAAAAAc3EAfgBYAAAABkAIAAAAAAAAc3EAfgBYAAAAB0AMAAAAAAAAc3EAfgBYAAAACEAQAAAAAAAAc3EAfgBYAAAACUASAAAAAAAAcQB+ADZxAH4AInEAfgBBcQB+ABxxAH4AJnEAfgAscQB+AC5xAH4AMXEAfgA1cQB+ADhxAH4AO3EAfgA+cQB+AEJxAH4ASXEAfgBMcQB+AFFxAH4AU3EAfgBWcQB+AFtxAH4AXnEAfgBocQB+AG5xAH4AcXEAfgB0cQB+AHd4";
    "rO0ABXNyAENpby5naXRodWIuZXJpY21lZHZldC5qZ2VhLmNvcmUucmVwcmVzZW50YXRpb24uZ3JhcGguTGlua2VkSGFzaEdyYXBo8kE6+k8gs3gCAAJMAARhcmNzdAAPTGphdmEvdXRpbC9NYXA7TAAFbm9kZXN0AA9MamF2YS91dGlsL1NldDt4cHNyABdqYXZhLnV0aWwuTGlua2VkSGFzaE1hcDTATlwQbMD7AgABWgALYWNjZXNzT3JkZXJ4cgARamF2YS51dGlsLkhhc2hNYXAFB9rBwxZg0QMAAkYACmxvYWRGYWN0b3JJAAl0aHJlc2hvbGR4cD9AAAAAAAAwdwgAAABAAAAAKnNyAD1pby5naXRodWIuZXJpY21lZHZldC5qZ2VhLmNvcmUucmVwcmVzZW50YXRpb24uZ3JhcGguR3JhcGgkQXJjdMoFPXw1b5ECAAJMAAZzb3VyY2V0ABJMamF2YS9sYW5nL09iamVjdDtMAAZ0YXJnZXRxAH4ACHhwc3IAQWlvLmdpdGh1Yi5lcmljbWVkdmV0LmpnZWEuY29yZS5yZXByZXNlbnRhdGlvbi5ncmFwaC5udW1lcmljLklucHV0kenlcnOuaK4CAAFMAARuYW1ldAASTGphdmEvbGFuZy9TdHJpbmc7eHIAOGlvLmdpdGh1Yi5lcmljbWVkdmV0LmpnZWEuY29yZS5yZXByZXNlbnRhdGlvbi5ncmFwaC5Ob2RlrogRKSuEZ5sCAAFJAAVpbmRleHhwAAAABnQAA3gwN3NyAEJpby5naXRodWIuZXJpY21lZHZldC5qZ2VhLmNvcmUucmVwcmVzZW50YXRpb24uZ3JhcGgubnVtZXJpYy5PdXRwdXSrYi642b9HcgIAAUwABG5hbWVxAH4AC3hxAH4ADAAAAAB0AAJ5MXNyAGRpby5naXRodWIuZXJpY21lZHZldC5qZ2VhLmNvcmUucmVwcmVzZW50YXRpb24uZ3JhcGgubnVtZXJpYy5vcGVyYXRvcmdyYXBoLk9wZXJhdG9yR3JhcGgkTm9uVmFsdWVkQXJj8SY5W2gCXpACAAB4cHNxAH4AB3NxAH4ACgAAAAJ0AAN4MDNzcQB+AA8AAAACdAACeTNxAH4AE3NxAH4AB3EAfgANc3IAVmlvLmdpdGh1Yi5lcmljbWVkdmV0LmpnZWEuY29yZS5yZXByZXNlbnRhdGlvbi5ncmFwaC5udW1lcmljLm9wZXJhdG9yZ3JhcGguT3BlcmF0b3JOb2Rl9BLOPf4p+ywCAAFMAAhvcGVyYXRvcnQAWExpby9naXRodWIvZXJpY21lZHZldC9qZ2VhL2NvcmUvcmVwcmVzZW50YXRpb24vZ3JhcGgvbnVtZXJpYy9vcGVyYXRvcmdyYXBoL0Jhc2VPcGVyYXRvcjt4cQB+AAwAAAETfnIAVmlvLmdpdGh1Yi5lcmljbWVkdmV0LmpnZWEuY29yZS5yZXByZXNlbnRhdGlvbi5ncmFwaC5udW1lcmljLm9wZXJhdG9yZ3JhcGguQmFzZU9wZXJhdG9yAAAAAAAAAAASAAB4cgAOamF2YS5sYW5nLkVudW0AAAAAAAAAABIAAHhwdAANUFJPVF9ESVZJU0lPTnEAfgATc3EAfgAHcQB+ABxzcQB+ABoAAACpfnEAfgAddAAIUFJPVF9MT0dxAH4AE3NxAH4AB3EAfgAic3EAfgAaAAABJ35xAH4AHXQADk1VTFRJUExJQ0FUSU9OcQB+ABNzcQB+AAdzcQB+AAoAAAAAdAADeDAxc3EAfgAaAAABTnEAfgAncQB+ABNzcQB+AAdzcQB+ABoAAAFmfnEAfgAddAALU1VCVFJBQ1RJT05zcQB+ABoAAAIKfnEAfgAddAAIQURESVRJT05xAH4AE3NxAH4AB3NxAH4AGgAAAuJxAH4AMnNxAH4AGgAAADNxAH4AJ3EAfgATc3EAfgAHcQB+ACZzcQB+ABoAAAMpcQB+AB9xAH4AE3NxAH4AB3EAfgA4cQB+ACxxAH4AE3NxAH4AB3EAfgAmc3EAfgAaAAADuXEAfgAvcQB+ABNzcQB+AAdxAH4AO3EAfgAucQB+ABNzcQB+AAdxAH4ALHNxAH4AGgAABGtxAH4AH3EAfgATc3EAfgAHcQB+AD5xAH4ANXEAfgATc3EAfgAHc3EAfgAaAAAA/HEAfgAyc3EAfgAaAAAE1XEAfgAfcQB+ABNzcQB+AAdxAH4AQnNxAH4ADwAAAAN0AAJ5NHEAfgATc3EAfgAHc3EAfgAKAAAAAXQAA3gwMnNxAH4AGgAABPNxAH4AMnEAfgATc3EAfgAHcQB+AA1xAH4ANnEAfgATc3EAfgAHc3EAfgAaAAAFk3EAfgAycQB+ADFxAH4AE3NxAH4AB3NxAH4ACgAAAAp0AAN4MTFxAH4AQXEAfgATc3EAfgAHc3EAfgAaAAAFzHEAfgAycQB+AEFxAH4AE3NxAH4AB3EAfgBJc3EAfgAaAAAG1XEAfgAycQB+ABNzcQB+AAdxAH4AU3EAfgBMcQB+ABNzcQB+AAdxAH4ALnNxAH4AGgAABwZxAH4AJ3EAfgATc3EAfgAHc3IARGlvLmdpdGh1Yi5lcmljbWVkdmV0LmpnZWEuY29yZS5yZXByZXNlbnRhdGlvbi5ncmFwaC5udW1lcmljLkNvbnN0YW50TGSPkxwUCVACAAFEAAV2YWx1ZXhxAH4ADAAAAAE/4AAAAAAAAHEAfgBWcQB+ABNzcQB+AAdxAH4ASXNxAH4AGgAAB3VxAH4AL3EAfgATc3EAfgAHcQB+AFtxAH4AOHEAfgATc3EAfgAHcQB+ACpzcQB+ABoAAAeicQB+AB9xAH4AE3NxAH4AB3EAfgBecQB+AEFxAH4AE3NxAH4AB3NxAH4ACgAAAA50AAN4MTVzcQB+AA8AAAABdAACeTJxAH4AE3NxAH4AB3NxAH4ACgAAAAN0AAN4MDRzcQB+ABoAAAfccQB+AB9xAH4AE3NxAH4AB3EAfgBocQB+AFFxAH4AE3NxAH4AB3NxAH4AWAAAAAM/+AAAAAAAAHEAfgAccQB+ABNzcQB+AAdzcQB+AFgAAAAAAAAAAAAAAABzcQB+ABoAAAhscQB+ACdxAH4AE3NxAH4AB3EAfgBucQB+ACZxAH4AE3NxAH4AB3EAfgBWc3EAfgAaAAAInXEAfgAjcQB+ABNzcQB+AAdxAH4AcXEAfgBMcQB+ABNzcQB+AAdxAH4AMXNxAH4AGgAACMpxAH4AMnEAfgATc3EAfgAHcQB+AHRxAH4AQXEAfgATc3EAfgAHcQB+AG1zcQB+ABoAAAkacQB+ACNxAH4AE3NxAH4AB3EAfgB3cQB+AD5xAH4AE3NxAH4AB3EAfgBmcQB+AFFxAH4AE3gAc3IAF2phdmEudXRpbC5MaW5rZWRIYXNoU2V02GzXWpXdKh4CAAB4cgARamF2YS51dGlsLkhhc2hTZXS6RIWVlri3NAMAAHhwdwwAAACAP0AAAAAAADdxAH4AKnEAfgBHcQB+ABVxAH4AZnNxAH4ACgAAAAR0AAN4MDVzcQB+AAoAAAAFdAADeDA2cQB+AA1zcQB+AAoAAAAHdAADeDA4c3EAfgAKAAAACHQAA3gwOXNxAH4ACgAAAAl0AAN4MTBxAH4ATnNxAH4ACgAAAAt0AAN4MTJzcQB+AAoAAAAMdAADeDEzc3EAfgAKAAAADXQAA3gxNHEAfgBhc3EAfgAKAAAAD3QAA3gxNnEAfgAQcQB+AGNxAH4AF3EAfgBEcQB+AG1xAH4AWXNxAH4AWAAAAAI/8AAAAAAAAHEAfgBrc3EAfgBYAAAABEAAAAAAAAAAc3EAfgBYAAAABUAEAAAAAAAAc3EAfgBYAAAABkAIAAAAAAAAc3EAfgBYAAAAB0AMAAAAAAAAc3EAfgBYAAAACEAQAAAAAAAAc3EAfgBYAAAACUASAAAAAAAAcQB+ADZxAH4AInEAfgBBcQB+ABxxAH4AJnEAfgAscQB+AC5xAH4AMXEAfgA1cQB+ADhxAH4AO3EAfgA+cQB+AEJxAH4ASXEAfgBMcQB+AFFxAH4AU3EAfgBWcQB+AFtxAH4AXnEAfgBocQB+AG5xAH4AcXEAfgB0cQB+AHd4";
    "rO0ABXNyAENpby5naXRodWIuZXJpY21lZHZldC5qZ2VhLmNvcmUucmVwcmVzZW50YXRpb24uZ3JhcGguTGlua2VkSGFzaEdyYXBo8kE6+k8gs3gCAAJMAARhcmNzdAAPTGphdmEvdXRpbC9NYXA7TAAFbm9kZXN0AA9MamF2YS91dGlsL1NldDt4cHNyABdqYXZhLnV0aWwuTGlua2VkSGFzaE1hcDTATlwQbMD7AgABWgALYWNjZXNzT3JkZXJ4cgARamF2YS51dGlsLkhhc2hNYXAFB9rBwxZg0QMAAkYACmxvYWRGYWN0b3JJAAl0aHJlc2hvbGR4cD9AAAAAAAAwdwgAAABAAAAAKnNyAD1pby5naXRodWIuZXJpY21lZHZldC5qZ2VhLmNvcmUucmVwcmVzZW50YXRpb24uZ3JhcGguR3JhcGgkQXJjdMoFPXw1b5ECAAJMAAZzb3VyY2V0ABJMamF2YS9sYW5nL09iamVjdDtMAAZ0YXJnZXRxAH4ACHhwc3IAQWlvLmdpdGh1Yi5lcmljbWVkdmV0LmpnZWEuY29yZS5yZXByZXNlbnRhdGlvbi5ncmFwaC5udW1lcmljLklucHV0kenlcnOuaK4CAAFMAARuYW1ldAASTGphdmEvbGFuZy9TdHJpbmc7eHIAOGlvLmdpdGh1Yi5lcmljbWVkdmV0LmpnZWEuY29yZS5yZXByZXNlbnRhdGlvbi5ncmFwaC5Ob2RlrogRKSuEZ5sCAAFJAAVpbmRleHhwAAAABnQAA3gwN3NyAEJpby5naXRodWIuZXJpY21lZHZldC5qZ2VhLmNvcmUucmVwcmVzZW50YXRpb24uZ3JhcGgubnVtZXJpYy5PdXRwdXSrYi642b9HcgIAAUwABG5hbWVxAH4AC3hxAH4ADAAAAAB0AAJ5MXNyAGRpby5naXRodWIuZXJpY21lZHZldC5qZ2VhLmNvcmUucmVwcmVzZW50YXRpb24uZ3JhcGgubnVtZXJpYy5vcGVyYXRvcmdyYXBoLk9wZXJhdG9yR3JhcGgkTm9uVmFsdWVkQXJj8SY5W2gCXpACAAB4cHNxAH4AB3NxAH4ACgAAAAJ0AAN4MDNzcQB+AA8AAAACdAACeTNxAH4AE3NxAH4AB3EAfgANc3IAVmlvLmdpdGh1Yi5lcmljbWVkdmV0LmpnZWEuY29yZS5yZXByZXNlbnRhdGlvbi5ncmFwaC5udW1lcmljLm9wZXJhdG9yZ3JhcGguT3BlcmF0b3JOb2Rl9BLOPf4p+ywCAAFMAAhvcGVyYXRvcnQAWExpby9naXRodWIvZXJpY21lZHZldC9qZ2VhL2NvcmUvcmVwcmVzZW50YXRpb24vZ3JhcGgvbnVtZXJpYy9vcGVyYXRvcmdyYXBoL0Jhc2VPcGVyYXRvcjt4cQB+AAwAAAETfnIAVmlvLmdpdGh1Yi5lcmljbWVkdmV0LmpnZWEuY29yZS5yZXByZXNlbnRhdGlvbi5ncmFwaC5udW1lcmljLm9wZXJhdG9yZ3JhcGguQmFzZU9wZXJhdG9yAAAAAAAAAAASAAB4cgAOamF2YS5sYW5nLkVudW0AAAAAAAAAABIAAHhwdAANUFJPVF9ESVZJU0lPTnEAfgATc3EAfgAHcQB+ABxzcQB+ABoAAACpfnEAfgAddAAIUFJPVF9MT0dxAH4AE3NxAH4AB3EAfgAic3EAfgAaAAABJ35xAH4AHXQADk1VTFRJUExJQ0FUSU9OcQB+ABNzcQB+AAdzcQB+AAoAAAAAdAADeDAxc3EAfgAaAAABTnEAfgAncQB+ABNzcQB+AAdzcQB+ABoAAAFmfnEAfgAddAALU1VCVFJBQ1RJT05zcQB+ABoAAAIKfnEAfgAddAAIQURESVRJT05xAH4AE3NxAH4AB3NxAH4AGgAAAuJxAH4AMnNxAH4AGgAAADNxAH4AJ3EAfgATc3EAfgAHcQB+ACZzcQB+ABoAAAMpcQB+AB9xAH4AE3NxAH4AB3EAfgA4cQB+ACxxAH4AE3NxAH4AB3EAfgAmc3EAfgAaAAADuXEAfgAvcQB+ABNzcQB+AAdxAH4AO3EAfgAucQB+ABNzcQB+AAdxAH4ALHNxAH4AGgAABGtxAH4AH3EAfgATc3EAfgAHcQB+AD5xAH4ANXEAfgATc3EAfgAHc3EAfgAaAAAA/HEAfgAyc3EAfgAaAAAE1XEAfgAfcQB+ABNzcQB+AAdxAH4AQnNxAH4ADwAAAAN0AAJ5NHEAfgATc3EAfgAHc3EAfgAKAAAAAXQAA3gwMnNxAH4AGgAABPNxAH4AMnEAfgATc3EAfgAHcQB+AA1xAH4ANnEAfgATc3EAfgAHc3EAfgAaAAAFk3EAfgAycQB+ADFxAH4AE3NxAH4AB3NxAH4ACgAAAAp0AAN4MTFxAH4AQXEAfgATc3EAfgAHc3EAfgAaAAAFzHEAfgAycQB+AEFxAH4AE3NxAH4AB3EAfgBJc3EAfgAaAAAG1XEAfgAycQB+ABNzcQB+AAdxAH4AU3EAfgBMcQB+ABNzcQB+AAdxAH4ALnNxAH4AGgAABwZxAH4AJ3EAfgATc3EAfgAHc3IARGlvLmdpdGh1Yi5lcmljbWVkdmV0LmpnZWEuY29yZS5yZXByZXNlbnRhdGlvbi5ncmFwaC5udW1lcmljLkNvbnN0YW50TGSPkxwUCVACAAFEAAV2YWx1ZXhxAH4ADAAAAAE/4AAAAAAAAHEAfgBWcQB+ABNzcQB+AAdxAH4ASXNxAH4AGgAAB3VxAH4AL3EAfgATc3EAfgAHcQB+AFtxAH4AOHEAfgATc3EAfgAHcQB+ACpzcQB+ABoAAAeicQB+AB9xAH4AE3NxAH4AB3EAfgBecQB+AEFxAH4AE3NxAH4AB3NxAH4ACgAAAA50AAN4MTVzcQB+AA8AAAABdAACeTJxAH4AE3NxAH4AB3NxAH4ACgAAAAN0AAN4MDRzcQB+ABoAAAfccQB+AB9xAH4AE3NxAH4AB3EAfgBocQB+AFFxAH4AE3NxAH4AB3NxAH4AWAAAAAM/+AAAAAAAAHEAfgAccQB+ABNzcQB+AAdzcQB+AFgAAAAAAAAAAAAAAABzcQB+ABoAAAhscQB+ACdxAH4AE3NxAH4AB3EAfgBucQB+ACZxAH4AE3NxAH4AB3EAfgBWc3EAfgAaAAAInXEAfgAjcQB+ABNzcQB+AAdxAH4AcXEAfgBMcQB+ABNzcQB+AAdxAH4AMXNxAH4AGgAACMpxAH4AMnEAfgATc3EAfgAHcQB+AHRxAH4AQXEAfgATc3EAfgAHcQB+AG1zcQB+ABoAAAkacQB+ACNxAH4AE3NxAH4AB3EAfgB3cQB+AD5xAH4AE3NxAH4AB3EAfgBmcQB+AFFxAH4AE3gAc3IAF2phdmEudXRpbC5MaW5rZWRIYXNoU2V02GzXWpXdKh4CAAB4cgARamF2YS51dGlsLkhhc2hTZXS6RIWVlri3NAMAAHhwdwwAAACAP0AAAAAAADdxAH4AKnEAfgBHcQB+ABVxAH4AZnNxAH4ACgAAAAR0AAN4MDVzcQB+AAoAAAAFdAADeDA2cQB+AA1zcQB+AAoAAAAHdAADeDA4c3EAfgAKAAAACHQAA3gwOXNxAH4ACgAAAAl0AAN4MTBxAH4ATnNxAH4ACgAAAAt0AAN4MTJzcQB+AAoAAAAMdAADeDEzc3EAfgAKAAAADXQAA3gxNHEAfgBhc3EAfgAKAAAAD3QAA3gxNnEAfgAQcQB+AGNxAH4AF3EAfgBEcQB+AG1xAH4AWXNxAH4AWAAAAAI/8AAAAAAAAHEAfgBrc3EAfgBYAAAABEAAAAAAAAAAc3EAfgBYAAAABUAEAAAAAAAAc3EAfgBYAAAABkAIAAAAAAAAc3EAfgBYAAAAB0AMAAAAAAAAc3EAfgBYAAAACEAQAAAAAAAAc3EAfgBYAAAACUASAAAAAAAAcQB+ADZxAH4AInEAfgBBcQB+ABxxAH4AJnEAfgAscQB+AC5xAH4AMXEAfgA1cQB+ADhxAH4AO3EAfgA+cQB+AEJxAH4ASXEAfgBMcQB+AFFxAH4AU3EAfgBWcQB+AFtxAH4AXnEAfgBocQB+AG5xAH4AcXEAfgB0cQB+AHd4";
    "rO0ABXNyAENpby5naXRodWIuZXJpY21lZHZldC5qZ2VhLmNvcmUucmVwcmVzZW50YXRpb24uZ3JhcGguTGlua2VkSGFzaEdyYXBo8kE6+k8gs3gCAAJMAARhcmNzdAAPTGphdmEvdXRpbC9NYXA7TAAFbm9kZXN0AA9MamF2YS91dGlsL1NldDt4cHNyABdqYXZhLnV0aWwuTGlua2VkSGFzaE1hcDTATlwQbMD7AgABWgALYWNjZXNzT3JkZXJ4cgARamF2YS51dGlsLkhhc2hNYXAFB9rBwxZg0QMAAkYACmxvYWRGYWN0b3JJAAl0aHJlc2hvbGR4cD9AAAAAAAAwdwgAAABAAAAAKnNyAD1pby5naXRodWIuZXJpY21lZHZldC5qZ2VhLmNvcmUucmVwcmVzZW50YXRpb24uZ3JhcGguR3JhcGgkQXJjdMoFPXw1b5ECAAJMAAZzb3VyY2V0ABJMamF2YS9sYW5nL09iamVjdDtMAAZ0YXJnZXRxAH4ACHhwc3IAQWlvLmdpdGh1Yi5lcmljbWVkdmV0LmpnZWEuY29yZS5yZXByZXNlbnRhdGlvbi5ncmFwaC5udW1lcmljLklucHV0kenlcnOuaK4CAAFMAARuYW1ldAASTGphdmEvbGFuZy9TdHJpbmc7eHIAOGlvLmdpdGh1Yi5lcmljbWVkdmV0LmpnZWEuY29yZS5yZXByZXNlbnRhdGlvbi5ncmFwaC5Ob2RlrogRKSuEZ5sCAAFJAAVpbmRleHhwAAAABnQAA3gwN3NyAEJpby5naXRodWIuZXJpY21lZHZldC5qZ2VhLmNvcmUucmVwcmVzZW50YXRpb24uZ3JhcGgubnVtZXJpYy5PdXRwdXSrYi642b9HcgIAAUwABG5hbWVxAH4AC3hxAH4ADAAAAAB0AAJ5MXNyAGRpby5naXRodWIuZXJpY21lZHZldC5qZ2VhLmNvcmUucmVwcmVzZW50YXRpb24uZ3JhcGgubnVtZXJpYy5vcGVyYXRvcmdyYXBoLk9wZXJhdG9yR3JhcGgkTm9uVmFsdWVkQXJj8SY5W2gCXpACAAB4cHNxAH4AB3NxAH4ACgAAAAJ0AAN4MDNzcQB+AA8AAAACdAACeTNxAH4AE3NxAH4AB3EAfgANc3IAVmlvLmdpdGh1Yi5lcmljbWVkdmV0LmpnZWEuY29yZS5yZXByZXNlbnRhdGlvbi5ncmFwaC5udW1lcmljLm9wZXJhdG9yZ3JhcGguT3BlcmF0b3JOb2Rl9BLOPf4p+ywCAAFMAAhvcGVyYXRvcnQAWExpby9naXRodWIvZXJpY21lZHZldC9qZ2VhL2NvcmUvcmVwcmVzZW50YXRpb24vZ3JhcGgvbnVtZXJpYy9vcGVyYXRvcmdyYXBoL0Jhc2VPcGVyYXRvcjt4cQB+AAwAAAETfnIAVmlvLmdpdGh1Yi5lcmljbWVkdmV0LmpnZWEuY29yZS5yZXByZXNlbnRhdGlvbi5ncmFwaC5udW1lcmljLm9wZXJhdG9yZ3JhcGguQmFzZU9wZXJhdG9yAAAAAAAAAAASAAB4cgAOamF2YS5sYW5nLkVudW0AAAAAAAAAABIAAHhwdAANUFJPVF9ESVZJU0lPTnEAfgATc3EAfgAHcQB+ABxzcQB+ABoAAACpfnEAfgAddAAIUFJPVF9MT0dxAH4AE3NxAH4AB3EAfgAic3EAfgAaAAABJ35xAH4AHXQADk1VTFRJUExJQ0FUSU9OcQB+ABNzcQB+AAdzcQB+AAoAAAAAdAADeDAxc3EAfgAaAAABTnEAfgAncQB+ABNzcQB+AAdzcQB+ABoAAAFmfnEAfgAddAALU1VCVFJBQ1RJT05zcQB+ABoAAAIKfnEAfgAddAAIQURESVRJT05xAH4AE3NxAH4AB3NxAH4AGgAAAuJxAH4AMnNxAH4AGgAAADNxAH4AJ3EAfgATc3EAfgAHcQB+ACZzcQB+ABoAAAMpcQB+AB9xAH4AE3NxAH4AB3EAfgA4cQB+ACxxAH4AE3NxAH4AB3EAfgAmc3EAfgAaAAADuXEAfgAvcQB+ABNzcQB+AAdxAH4AO3EAfgAucQB+ABNzcQB+AAdxAH4ALHNxAH4AGgAABGtxAH4AH3EAfgATc3EAfgAHcQB+AD5xAH4ANXEAfgATc3EAfgAHc3EAfgAaAAAA/HEAfgAyc3EAfgAaAAAE1XEAfgAfcQB+ABNzcQB+AAdxAH4AQnNxAH4ADwAAAAN0AAJ5NHEAfgATc3EAfgAHc3EAfgAKAAAAAXQAA3gwMnNxAH4AGgAABPNxAH4AMnEAfgATc3EAfgAHcQB+AA1xAH4ANnEAfgATc3EAfgAHc3EAfgAaAAAFk3EAfgAycQB+ADFxAH4AE3NxAH4AB3NxAH4ACgAAAAp0AAN4MTFxAH4AQXEAfgATc3EAfgAHc3EAfgAaAAAFzHEAfgAycQB+AEFxAH4AE3NxAH4AB3EAfgBJc3EAfgAaAAAG1XEAfgAycQB+ABNzcQB+AAdxAH4AU3EAfgBMcQB+ABNzcQB+AAdxAH4ALnNxAH4AGgAABwZxAH4AJ3EAfgATc3EAfgAHc3IARGlvLmdpdGh1Yi5lcmljbWVkdmV0LmpnZWEuY29yZS5yZXByZXNlbnRhdGlvbi5ncmFwaC5udW1lcmljLkNvbnN0YW50TGSPkxwUCVACAAFEAAV2YWx1ZXhxAH4ADAAAAAE/4AAAAAAAAHEAfgBWcQB+ABNzcQB+AAdxAH4ASXNxAH4AGgAAB3VxAH4AL3EAfgATc3EAfgAHcQB+AFtxAH4AOHEAfgATc3EAfgAHcQB+ACpzcQB+ABoAAAeicQB+AB9xAH4AE3NxAH4AB3EAfgBecQB+AEFxAH4AE3NxAH4AB3NxAH4ACgAAAA50AAN4MTVzcQB+AA8AAAABdAACeTJxAH4AE3NxAH4AB3NxAH4ACgAAAAN0AAN4MDRzcQB+ABoAAAfccQB+AB9xAH4AE3NxAH4AB3EAfgBocQB+AFFxAH4AE3NxAH4AB3NxAH4AWAAAAAM/+AAAAAAAAHEAfgAccQB+ABNzcQB+AAdzcQB+AFgAAAAAAAAAAAAAAABzcQB+ABoAAAhscQB+ACdxAH4AE3NxAH4AB3EAfgBucQB+ACZxAH4AE3NxAH4AB3EAfgBWc3EAfgAaAAAInXEAfgAjcQB+ABNzcQB+AAdxAH4AcXEAfgBMcQB+ABNzcQB+AAdxAH4AMXNxAH4AGgAACMpxAH4AMnEAfgATc3EAfgAHcQB+AHRxAH4AQXEAfgATc3EAfgAHcQB+AG1zcQB+ABoAAAkacQB+ACNxAH4AE3NxAH4AB3EAfgB3cQB+AD5xAH4AE3NxAH4AB3EAfgBmcQB+AFFxAH4AE3gAc3IAF2phdmEudXRpbC5MaW5rZWRIYXNoU2V02GzXWpXdKh4CAAB4cgARamF2YS51dGlsLkhhc2hTZXS6RIWVlri3NAMAAHhwdwwAAACAP0AAAAAAADdxAH4AKnEAfgBHcQB+ABVxAH4AZnNxAH4ACgAAAAR0AAN4MDVzcQB+AAoAAAAFdAADeDA2cQB+AA1zcQB+AAoAAAAHdAADeDA4c3EAfgAKAAAACHQAA3gwOXNxAH4ACgAAAAl0AAN4MTBxAH4ATnNxAH4ACgAAAAt0AAN4MTJzcQB+AAoAAAAMdAADeDEzc3EAfgAKAAAADXQAA3gxNHEAfgBhc3EAfgAKAAAAD3QAA3gxNnEAfgAQcQB+AGNxAH4AF3EAfgBEcQB+AG1xAH4AWXNxAH4AWAAAAAI/8AAAAAAAAHEAfgBrc3EAfgBYAAAABEAAAAAAAAAAc3EAfgBYAAAABUAEAAAAAAAAc3EAfgBYAAAABkAIAAAAAAAAc3EAfgBYAAAAB0AMAAAAAAAAc3EAfgBYAAAACEAQAAAAAAAAc3EAfgBYAAAACUASAAAAAAAAcQB+ADZxAH4AInEAfgBBcQB+ABxxAH4AJnEAfgAscQB+AC5xAH4AMXEAfgA1cQB+ADhxAH4AO3EAfgA+cQB+AEJxAH4ASXEAfgBMcQB+AFFxAH4AU3EAfgBWcQB+AFtxAH4AXnEAfgBocQB+AG5xAH4AcXEAfgB0cQB+AHd4"
  ]
)