ea.runOutcome(
  index = 394;
  run = ea.run(
    problem = ea.p.mr.fromData(
      trainingDataset = ea.dataset.numerical.fromFile(
        filePath = "../phase2/data-ro-ographea-3-007.txt";
        folds = [0];
        nFolds = 50;
        xVarNamePattern = "x.*";
        yVarNamePattern = "y.*"
      )
    );
    randomGenerator = ea.rg.defaultRG(seed = 5);
    solver = ea.s.multiSRTreeGP(
      crossoverP = 0.8;
      diversity = true;
      mapper = ea.m.treeMRF(
        dataset = ea.d.num.empty(
          xVars = [
            x01;
            x02;
            x03;
            x04;
            x05;
            x06;
            x07;
            x08;
            x09;
            x10;
            x11;
            x12;
            x13;
            x14;
            x15;
            x16
          ];
          yVars = [y1; y2; y3; y4]
        );
        postOperator = tanh
      );
      maxConst = 5;
      maxTreeH = 8;
      minConst = 0;
      minNTournament = 3;
      minTreeH = 3;
      nAttemptsDiversity = 100;
      nConst = 10;
      nEval = 10000;
      nPop = 100;
      operators = [
        addition;
        subtraction;
        multiplication;
        prot_division;
        prot_log
      ];
      tournamentRate = 0.05
    )
  );
  serializedGenotypes = [
    "rO0ABXNyABFqYXZhLnV0aWwuQ29sbFNlcleOq7Y6G6gRAwABSQADdGFneHAAAAAEdwQAAAAEc3IAN2lvLmdpdGh1Yi5lcmljbWVkdmV0LmpnZWEuY29yZS5yZXByZXNlbnRhdGlvbi50cmVlLlRyZWUKs7/qnQrEZQIAA0wACGNoaWxkcmVudAAQTGphdmEvdXRpbC9MaXN0O0wAB2NvbnRlbnR0ABJMamF2YS9sYW5nL09iamVjdDtMAAZwYXJlbnR0ADlMaW8vZ2l0aHViL2VyaWNtZWR2ZXQvamdlYS9jb3JlL3JlcHJlc2VudGF0aW9uL3RyZWUvVHJlZTt4cHNyABNqYXZhLnV0aWwuQXJyYXlMaXN0eIHSHZnHYZ0DAAFJAARzaXpleHAAAAACdwQAAAACc3EAfgACc3EAfgAHAAAAAncEAAAAAnNxAH4AAnNxAH4ABwAAAAB3BAAAAAB4c3IAS2lvLmdpdGh1Yi5lcmljbWVkdmV0LmpnZWEuY29yZS5yZXByZXNlbnRhdGlvbi50cmVlLm51bWVyaWMuRWxlbWVudCRDb25zdGFudAAAAAAAAAAAAgABRAAFdmFsdWV4cEAQAAAAAAAAcQB+AAlzcQB+AAJzcQB+AAcAAAAAdwQAAAAAeHNyAEtpby5naXRodWIuZXJpY21lZHZldC5qZ2VhLmNvcmUucmVwcmVzZW50YXRpb24udHJlZS5udW1lcmljLkVsZW1lbnQkVmFyaWFibGUAAAAAAAAAAAIAAUwABG5hbWV0ABJMamF2YS9sYW5nL1N0cmluZzt4cHQAA3gwMXEAfgAJeH5yAEtpby5naXRodWIuZXJpY21lZHZldC5qZ2VhLmNvcmUucmVwcmVzZW50YXRpb24udHJlZS5udW1lcmljLkVsZW1lbnQkT3BlcmF0b3IAAAAAAAAAABIAAHhyAA5qYXZhLmxhbmcuRW51bQAAAAAAAAAAEgAAeHB0AA5NVUxUSVBMSUNBVElPTnEAfgAGc3EAfgACc3EAfgAHAAAAAncEAAAAAnNxAH4AAnNxAH4ABwAAAAB3BAAAAAB4c3EAfgANQBIAAAAAAABxAH4AGXNxAH4AAnNxAH4ABwAAAAJ3BAAAAAJzcQB+AAJzcQB+AAcAAAAAdwQAAAAAeHEAfgAOcQB+AB5zcQB+AAJzcQB+AAcAAAAAdwQAAAAAeHEAfgAdcQB+AB54cQB+ABdxAH4AGXh+cQB+ABV0AA1QUk9UX0RJVklTSU9OcQB+AAZ4fnEAfgAVdAAIQURESVRJT05wc3EAfgACc3EAfgAHAAAAAncEAAAAAnNxAH4AAnNxAH4ABwAAAAJ3BAAAAAJzcQB+AAJzcQB+AAcAAAACdwQAAAACc3EAfgACc3EAfgAHAAAAAHcEAAAAAHhzcQB+AA1AAAAAAAAAAHEAfgAsc3EAfgACc3EAfgAHAAAAAncEAAAAAnNxAH4AAnNxAH4ABwAAAAB3BAAAAAB4c3EAfgANQAQAAAAAAABxAH4AMXNxAH4AAnNxAH4ABwAAAAB3BAAAAAB4c3EAfgANAAAAAAAAAABxAH4AMXh+cQB+ABV0AAhQUk9UX0xPR3EAfgAseH5xAH4AFXQAC1NVQlRSQUNUSU9OcQB+ACpzcQB+AAJzcQB+AAcAAAACdwQAAAACc3EAfgACc3EAfgAHAAAAAHcEAAAAAHhxAH4AMHEAfgA9c3EAfgACc3EAfgAHAAAAAncEAAAAAnNxAH4AAnNxAH4ABwAAAAJ3BAAAAAJzcQB+AAJzcQB+AAcAAAACdwQAAAACc3EAfgACc3EAfgAHAAAAAncEAAAAAnNxAH4AAnNxAH4ABwAAAAJ3BAAAAAJzcQB+AAJzcQB+AAcAAAAAdwQAAAAAeHEAfgA4cQB+AElzcQB+AAJzcQB+AAcAAAAAdwQAAAAAeHEAfgAwcQB+AEl4cQB+ACZxAH4AR3NxAH4AAnNxAH4ABwAAAAB3BAAAAAB4cQB+ADBxAH4AR3hxAH4AJnEAfgBFc3EAfgACc3EAfgAHAAAAAHcEAAAAAHhxAH4AMHEAfgBFeHEAfgAmcQB+AENzcQB+AAJzcQB+AAcAAAACdwQAAAACc3EAfgACc3EAfgAHAAAAAHcEAAAAAHhzcQB+AA0/+AAAAAAAAHEAfgBTc3EAfgACc3EAfgAHAAAAAHcEAAAAAHhxAH4AV3NxAH4AAnNxAH4ABwAAAAJ3BAAAAAJzcQB+AAJzcQB+AAcAAAAAdwQAAAAAeHEAfgAOcQB+AFpxAH4AWHhxAH4AJHNxAH4AAnNxAH4ABwAAAAJ3BAAAAAJzcQB+AAJzcQB+AAcAAAACdwQAAAACc3EAfgACc3EAfgAHAAAAAncEAAAAAnNxAH4AAnNxAH4ABwAAAAB3BAAAAAB4c3EAfgANP/AAAAAAAABxAH4AYnNxAH4AAnNxAH4ABwAAAAB3BAAAAAB4cQB+ADBxAH4AYnhxAH4AJnEAfgBgc3EAfgACc3EAfgAHAAAAAHcEAAAAAHhxAH4AMHEAfgBgeHEAfgAmcQB+AF5xAH4AWnhxAH4AJnNxAH4AAnNxAH4ABwAAAAJ3BAAAAAJxAH4AXnNxAH4AAnNxAH4ABwAAAAJ3BAAAAAJzcQB+AAJzcQB+AAcAAAAAdwQAAAAAeHEAfgA4cQB+AG1zcQB+AAJzcQB+AAcAAAAAdwQAAAAAeHEAfgAOc3EAfgACc3EAfgAHAAAAAncEAAAAAnNxAH4AAnNxAH4ABwAAAAJ3BAAAAAJzcQB+AAJzcQB+AAcAAAAAdwQAAAAAeHEAfgAwcQB+AHVzcQB+AAJzcQB+AAcAAAACdwQAAAACc3EAfgACc3EAfgAHAAAAAHcEAAAAAHhxAH4ANXEAfgB5c3EAfgACc3EAfgAHAAAAAHcEAAAAAHhxAH4AOHEAfgB5eHEAfgA5cQB+AHV4cQB+ADtxAH4Ac3EAfgBxeHEAfgA5c3EAfgACc3EAfgAHAAAAAncEAAAAAnNxAH4AAnNxAH4ABwAAAAJ3BAAAAAJzcQB+AAJzcQB+AAcAAAACdwQAAAACc3EAfgACc3EAfgAHAAAAAHcEAAAAAHhxAH4AZnEAfgCDc3EAfgACc3EAfgAHAAAAAHcEAAAAAHhxAH4AMHEAfgCDeHEAfgAmcQB+AIFzcQB+AAJzcQB+AAcAAAACdwQAAAACc3EAfgACc3EAfgAHAAAAAncEAAAAAnNxAH4AAnNxAH4ABwAAAAB3BAAAAAB4cQB+AGZxAH4Ai3NxAH4AAnNxAH4ABwAAAAB3BAAAAAB4cQB+ADBxAH4Ai3hxAH4AJnEAfgCJc3EAfgACc3EAfgAHAAAAAHcEAAAAAHhzcQB+AA1ADAAAAAAAAHEAfgCJeHEAfgAmcQB+AIF4cQB+ACZxAH4Af3EAfgBzeHEAfgA7c3EAfgACc3EAfgAHAAAAAncEAAAAAnNxAH4AAnNxAH4ABwAAAAB3BAAAAAB4cQB+ADBxAH4AlHEAfgB/eHEAfgA5c3EAfgACc3EAfgAHAAAAAncEAAAAAnNxAH4AAnNxAH4ABwAAAAJ3BAAAAAJzcQB+AAJzcQB+AAcAAAAAdwQAAAAAeHEAfgAwcQB+AJpzcQB+AAJzcQB+AAcAAAACdwQAAAACc3EAfgACc3EAfgAHAAAAAHcEAAAAAHhxAH4ANXEAfgCec3EAfgACc3EAfgAHAAAAAHcEAAAAAHhxAH4AV3EAfgCeeHEAfgA5cQB+AJp4cQB+ADtxAH4AmHEAfgCUeHEAfgAmc3EAfgACc3EAfgAHAAAAAncEAAAAAnEAfgCYc3EAfgACc3EAfgAHAAAAAncEAAAAAnNxAH4AAnNxAH4ABwAAAAJ3BAAAAAJzcQB+AAJzcQB+AAcAAAAAdwQAAAAAeHEAfgAwcQB+AKhzcQB+AAJzcQB+AAcAAAACdwQAAAACc3EAfgACc3EAfgAHAAAAAHcEAAAAAHhxAH4ANXEAfgCsc3EAfgACc3EAfgAHAAAAAHcEAAAAAHhxAH4AOHEAfgCseHEAfgA5cQB+AKh4cQB+ADtxAH4ApnNxAH4AAnNxAH4ABwAAAAJ3BAAAAAJzcQB+AAJzcQB+AAcAAAAAdwQAAAAAeHEAfgAwcQB+ALJzcQB+AAJzcQB+AAcAAAACdwQAAAACc3EAfgACc3EAfgAHAAAAAncEAAAAAnNxAH4AAnNxAH4ABwAAAAJ3BAAAAAJzcQB+AAJzcQB+AAcAAAAAdwQAAAAAeHEAfgBmcQB+ALpzcQB+AAJzcQB+AAcAAAAAdwQAAAAAeHEAfgAwc3EAfgACc3EAfgAHAAAAAncEAAAAAnNxAH4AAnNxAH4ABwAAAAB3BAAAAAB4cQB+ADBxAH4AwHEAfgC+eHEAfgAmc3EAfgACc3EAfgAHAAAAAncEAAAAAnEAfgDAc3EAfgACc3EAfgAHAAAAAHcEAAAAAHhxAH4Ak3NxAH4AAnNxAH4ABwAAAAJ3BAAAAAJzcQB+AAJzcQB+AAcAAAACdwQAAAACc3EAfgACc3EAfgAHAAAAAHcEAAAAAHhxAH4AOHEAfgDKc3EAfgACc3EAfgAHAAAAAHcEAAAAAHhxAH4ADnEAfgDKeHEAfgA5cQB+AMhxAH4AxnhxAH4AJnNxAH4AAnNxAH4ABwAAAAJ3BAAAAAJxAH4AyHNxAH4AAnNxAH4ABwAAAAJ3BAAAAAJzcQB+AAJzcQB+AAcAAAAAdwQAAAAAeHEAfgA4cQB+ANJzcQB+AAJzcQB+AAcAAAAAdwQAAAAAeHEAfgAOcQB+ANJ4cQB+ADlzcQB+AAJzcQB+AAcAAAACdwQAAAACc3EAfgACc3EAfgAHAAAAAncEAAAAAnNxAH4AAnNxAH4ABwAAAAJ3BAAAAAJzcQB+AAJzcQB+AAcAAAAAdwQAAAAAeHEAfgBmcQB+ANxzcQB+AAJzcQB+AAcAAAAAdwQAAAAAeHEAfgAwcQB+ANx4cQB+ACZxAH4A2nNxAH4AAnNxAH4ABwAAAAB3BAAAAAB4cQB+AFdxAH4A2nhxAH4AJnEAfgDYcQB+ANJ4cQB+ADtzcQB+AAJzcQB+AAcAAAACdwQAAAACc3EAfgACc3EAfgAHAAAAAHcEAAAAAHhxAH4AMHEAfgDkcQB+ANh4cQB+ADlzcQB+AAJzcQB+AAcAAAACdwQAAAACc3EAfgACc3EAfgAHAAAAAncEAAAAAnNxAH4AAnNxAH4ABwAAAAB3BAAAAAB4cQB+ADBxAH4A6nNxAH4AAnNxAH4ABwAAAAJ3BAAAAAJzcQB+AAJzcQB+AAcAAAAAdwQAAAAAeHEAfgA1cQB+AO5zcQB+AAJzcQB+AAcAAAAAdwQAAAAAeHEAfgA4cQB+AO54cQB+ADlxAH4A6nhxAH4AO3EAfgDocQB+AOR4cQB+ACZzcQB+AAJzcQB+AAcAAAACdwQAAAACc3EAfgACc3EAfgAHAAAAAncEAAAAAnNxAH4AAnNxAH4ABwAAAAJ3BAAAAAJzcQB+AAJzcQB+AAcAAAAAdwQAAAAAeHEAfgAwcQB+APhzcQB+AAJzcQB+AAcAAAACdwQAAAACc3EAfgACc3EAfgAHAAAAAHcEAAAAAHhxAH4ANXEAfgD8c3EAfgACc3EAfgAHAAAAAHcEAAAAAHhxAH4AOHEAfgD8eHEAfgA5cQB+APh4cQB+ADtxAH4A9nNxAH4AAnNxAH4ABwAAAAJ3BAAAAAJzcQB+AAJzcQB+AAcAAAAAdwQAAAAAeHEAfgAwcQB+AQJzcQB+AAJzcQB+AAcAAAACdwQAAAACc3EAfgACc3EAfgAHAAAAAHcEAAAAAHhxAH4ANXEAfgEGc3EAfgACc3EAfgAHAAAAAHcEAAAAAHhxAH4AOHEAfgEGeHEAfgA7cQB+AQJ4cQB+ADlxAH4A9nhxAH4AJnEAfgD0cQB+AOh4cQB+ACRweHEAfgA7c3EAfgACc3EAfgAHAAAAAncEAAAAAnNxAH4AAnNxAH4ABwAAAAB3BAAAAAB4cQB+ADBxAH4BDHEAfgDQeHEAfgA5c3EAfgACc3EAfgAHAAAAAncEAAAAAnNxAH4AAnNxAH4ABwAAAAJ3BAAAAAJzcQB+AAJzcQB+AAcAAAAAdwQAAAAAeHEAfgAwcQB+ARJzcQB+AAJzcQB+AAcAAAACdwQAAAACc3EAfgACc3EAfgAHAAAAAHcEAAAAAHhxAH4ANXEAfgEWc3EAfgACc3EAfgAHAAAAAHcEAAAAAHhxAH4AOHEAfgEWeHEAfgA5cQB+ARJ4cQB+ADtxAH4BEHEAfgEMeHEAfgAmc3EAfgACc3EAfgAHAAAAAncEAAAAAnNxAH4AAnNxAH4ABwAAAAJ3BAAAAAJzcQB+AAJzcQB+AAcAAAACdwQAAAACc3EAfgACc3EAfgAHAAAAAHcEAAAAAHhxAH4AMHEAfgEgc3EAfgACc3EAfgAHAAAAAncEAAAAAnNxAH4AAnNxAH4ABwAAAAB3BAAAAAB4cQB+ADVxAH4BJHNxAH4AAnNxAH4ABwAAAAB3BAAAAAB4cQB+ADhxAH4BJHhxAH4AOXEAfgEgeHEAfgA7cQB+AR5zcQB+AAJzcQB+AAcAAAACdwQAAAACc3EAfgACc3EAfgAHAAAAAHcEAAAAAHhxAH4AMHEAfgEqc3EAfgACc3EAfgAHAAAAAncEAAAAAnNxAH4AAnNxAH4ABwAAAAB3BAAAAAB4cQB+AA5xAH4BLnNxAH4AAnNxAH4ABwAAAAJ3BAAAAAJzcQB+AAJzcQB+AAcAAAAAdwQAAAAAeHEAfgA4cQB+ATJzcQB+AAJzcQB+AAcAAAAAdwQAAAAAeHEAfgAOcQB+ATJ4cQB+ADlxAH4BLnhxAH4AO3EAfgEqeHEAfgA5cQB+AR54cQB+ACZxAH4BHHEAfgEQeHEAfgAkcHhxAH4AJnNxAH4AAnNxAH4ABwAAAAJ3BAAAAAJxAH4AxHEAfgDSeHEAfgA7c3EAfgACc3EAfgAHAAAAAncEAAAAAnNxAH4AAnNxAH4ABwAAAAB3BAAAAAB4cQB+ADBxAH4BOnEAfgE4eHEAfgA5c3EAfgACc3EAfgAHAAAAAncEAAAAAnNxAH4AAnNxAH4ABwAAAAJ3BAAAAAJzcQB+AAJzcQB+AAcAAAAAdwQAAAAAeHEAfgAwcQB+AUBzcQB+AAJzcQB+AAcAAAACdwQAAAACc3EAfgACc3EAfgAHAAAAAHcEAAAAAHhxAH4ANXEAfgFEc3EAfgACc3EAfgAHAAAAAHcEAAAAAHhxAH4AOHEAfgFEeHEAfgA5cQB+AUB4cQB+ADtxAH4BPnEAfgE6eHEAfgAmc3EAfgACc3EAfgAHAAAAAncEAAAAAnNxAH4AAnNxAH4ABwAAAAJ3BAAAAAJzcQB+AAJzcQB+AAcAAAACdwQAAAACc3EAfgACc3EAfgAHAAAAAHcEAAAAAHhxAH4AMHEAfgFOc3EAfgACc3EAfgAHAAAAAncEAAAAAnNxAH4AAnNxAH4ABwAAAAB3BAAAAAB4cQB+ADVxAH4BUnNxAH4AAnNxAH4ABwAAAAB3BAAAAAB4cQB+ADhxAH4BUnhxAH4AOXEAfgFOeHEAfgA7cQB+AUxzcQB+AAJzcQB+AAcAAAACdwQAAAACc3EAfgACc3EAfgAHAAAAAHcEAAAAAHhxAH4AMHEAfgFYc3EAfgACc3EAfgAHAAAAAncEAAAAAnNxAH4AAnNxAH4ABwAAAAB3BAAAAAB4cQB+AA5xAH4BXHNxAH4AAnNxAH4ABwAAAAJ3BAAAAAJzcQB+AAJzcQB+AAcAAAAAdwQAAAAAeHEAfgA4cQB+AWBzcQB+AAJzcQB+AAcAAAAAdwQAAAAAeHEAfgAOcQB+AWB4cQB+ADlxAH4BXHhxAH4AO3EAfgFYeHEAfgA5cQB+AUx4cQB+ACZxAH4BSnEAfgE+eHEAfgAkcHhxAH4AJnEAfgC4cQB+AMZ4cQB+ACZxAH4AtnEAfgDSeHEAfgA7cQB+ALJ4cQB+ADlzcQB+AAJzcQB+AAcAAAACdwQAAAACc3EAfgACc3EAfgAHAAAAAncEAAAAAnNxAH4AAnNxAH4ABwAAAAB3BAAAAAB4cQB+ADhxAH4BaHNxAH4AAnNxAH4ABwAAAAB3BAAAAAB4cQB+AA5xAH4BaHhxAH4AOXEAfgFmcQB+ALJ4cQB+ACZzcQB+AAJzcQB+AAcAAAACdwQAAAACc3EAfgACc3EAfgAHAAAAAncEAAAAAnNxAH4AAnNxAH4ABwAAAAJ3BAAAAAJzcQB+AAJzcQB+AAcAAAAAdwQAAAAAeHEAfgAwcQB+AXJzcQB+AAJzcQB+AAcAAAACdwQAAAACc3EAfgACc3EAfgAHAAAAAHcEAAAAAHhxAH4ANXEAfgF2c3EAfgACc3EAfgAHAAAAAHcEAAAAAHhxAH4AMHEAfgF2eHEAfgA5cQB+AXJ4cQB+ADtxAH4BcHNxAH4AAnNxAH4ABwAAAAJ3BAAAAAJzcQB+AAJzcQB+AAcAAAAAdwQAAAAAeHEAfgAwcQB+AXxzcQB+AAJzcQB+AAcAAAACdwQAAAACc3EAfgACc3EAfgAHAAAAAncEAAAAAnNxAH4AAnNxAH4ABwAAAAJ3BAAAAAJzcQB+AAJzcQB+AAcAAAAAdwQAAAAAeHEAfgBmcQB+AYRzcQB+AAJzcQB+AAcAAAAAdwQAAAAAeHEAfgAwcQB+AYR4cQB+ACZxAH4BgnNxAH4AAnNxAH4ABwAAAAJ3BAAAAAJzcQB+AAJzcQB+AAcAAAACdwQAAAACc3EAfgACc3EAfgAHAAAAAHcEAAAAAHhxAH4AZnEAfgGMc3EAfgACc3EAfgAHAAAAAHcEAAAAAHhxAH4AMHEAfgGMeHEAfgAmcQB+AYpzcQB+AAJzcQB+AAcAAAAAdwQAAAAAeHEAfgCTcQB+AYp4cQB+ACZxAH4BgnhxAH4AJnEAfgGAc3EAfgACc3EAfgAHAAAAAncEAAAAAnNxAH4AAnNxAH4ABwAAAAB3BAAAAAB4cQB+ADhxAH4BlHNxAH4AAnNxAH4ABwAAAAB3BAAAAAB4cQB+AA5xAH4BlHhxAH4AOXEAfgGAeHEAfgA7cQB+AXx4cQB+ADlxAH4BcHhxAH4AJnEAfgFucQB+AWZ4cQB+ACRweHEAfgAmc3EAfgACc3EAfgAHAAAAAncEAAAAAnNxAH4AAnNxAH4ABwAAAAJ3BAAAAAJzcQB+AAJzcQB+AAcAAAACdwQAAAACc3EAfgACc3EAfgAHAAAAAHcEAAAAAHhxAH4AMHEAfgGec3EAfgACc3EAfgAHAAAAAncEAAAAAnNxAH4AAnNxAH4ABwAAAAB3BAAAAAB4cQB+AGZxAH4BonNxAH4AAnNxAH4ABwAAAAB3BAAAAAB4cQB+ADhxAH4BonhxAH4AOXEAfgGeeHEAfgA7cQB+AZxzcQB+AAJzcQB+AAcAAAACdwQAAAACc3EAfgACc3EAfgAHAAAAAHcEAAAAAHhxAH4AMHEAfgGoc3EAfgACc3EAfgAHAAAAAncEAAAAAnNxAH4AAnNxAH4ABwAAAAJ3BAAAAAJzcQB+AAJzcQB+AAcAAAACdwQAAAACc3EAfgACc3EAfgAHAAAAAHcEAAAAAHhxAH4AZnEAfgGwc3EAfgACc3EAfgAHAAAAAHcEAAAAAHhxAH4AMHNxAH4AAnNxAH4ABwAAAAJ3BAAAAAJzcQB+AAJzcQB+AAcAAAAAdwQAAAAAeHEAfgAwcQB+AbZxAH4BtHhxAH4AJnNxAH4AAnNxAH4ABwAAAAJ3BAAAAAJxAH4BtnNxAH4AAnNxAH4ABwAAAAB3BAAAAAB4cQB+AJNxAH4BunhxAH4AJnNxAH4AAnNxAH4ABwAAAAJ3BAAAAAJxAH4BunNxAH4AAnNxAH4ABwAAAAJ3BAAAAAJzcQB+AAJzcQB+AAcAAAACdwQAAAACc3EAfgACc3EAfgAHAAAAAncEAAAAAnNxAH4AAnNxAH4ABwAAAAB3BAAAAAB4cQB+AGZxAH4BxHNxAH4AAnNxAH4ABwAAAAB3BAAAAAB4cQB+ADBxAH4BxHhxAH4AJnEAfgHCc3EAfgACc3EAfgAHAAAAAHcEAAAAAHhxAH4Ak3EAfgHCeHEAfgAmcQB+AcBzcQB+AAJzcQB+AAcAAAACdwQAAAACc3EAfgACc3EAfgAHAAAAAHcEAAAAAHhxAH4AOHEAfgHMc3EAfgACc3EAfgAHAAAAAHcEAAAAAHhxAH4ADnEAfgHMeHEAfgA5cQB+AcB4cQB+ADtzcQB+AAJzcQB+AAcAAAACdwQAAAACc3EAfgACc3EAfgAHAAAAAHcEAAAAAHhxAH4AMHEAfgHScQB+AcB4cQB+ADtzcQB+AAJzcQB+AAcAAAACdwQAAAACc3EAfgACc3EAfgAHAAAAAHcEAAAAAHhxAH4AMHEAfgHWcQB+AdJ4cQB+ADlzcQB+AAJzcQB+AAcAAAACdwQAAAACc3EAfgACc3EAfgAHAAAAAncEAAAAAnNxAH4AAnNxAH4ABwAAAAB3BAAAAAB4cQB+ADBxAH4B3HNxAH4AAnNxAH4ABwAAAAJ3BAAAAAJzcQB+AAJzcQB+AAcAAAAAdwQAAAAAeHEAfgA1cQB+AeBzcQB+AAJzcQB+AAcAAAAAdwQAAAAAeHEAfgA4cQB+AeB4cQB+ADlxAH4B3HhxAH4AO3EAfgHacQB+AdZ4cQB+ACZzcQB+AAJzcQB+AAcAAAACdwQAAAACcQB+AdpxAH4ApnhxAH4AJHB4cQB+ADtzcQB+AAJzcQB+AAcAAAACdwQAAAACc3EAfgACc3EAfgAHAAAAAHcEAAAAAHhxAH4AMHEAfgHocQB+Ab54cQB+ADlzcQB+AAJzcQB+AAcAAAACdwQAAAACc3EAfgACc3EAfgAHAAAAAncEAAAAAnNxAH4AAnNxAH4ABwAAAAB3BAAAAAB4cQB+ADBxAH4B7nNxAH4AAnNxAH4ABwAAAAJ3BAAAAAJzcQB+AAJzcQB+AAcAAAAAdwQAAAAAeHEAfgA1cQB+AfJzcQB+AAJzcQB+AAcAAAAAdwQAAAAAeHEAfgA4cQB+AfJ4cQB+ADlxAH4B7nhxAH4AO3EAfgHscQB+Aeh4cQB+ACZzcQB+AAJzcQB+AAcAAAACdwQAAAACcQB+AexxAH4ApnhxAH4AJHB4cQB+ACZxAH4BrnEAfgG8eHEAfgAmcQB+AaxxAH4BwHhxAH4AO3EAfgGoeHEAfgA5cQB+AZx4cQB+ACZxAH4BmnEAfgCmeHEAfgAkcHhxAH4AJHB4cQB+ADlzcQB+AAJzcQB+AAcAAAACdwQAAAACc3EAfgACc3EAfgAHAAAAAncEAAAAAnNxAH4AAnNxAH4ABwAAAAJ3BAAAAAJzcQB+AAJzcQB+AAcAAAAAdwQAAAAAeHEAfgBmcQB+Af5zcQB+AAJzcQB+AAcAAAAAdwQAAAAAeHEAfgAwcQB+Af54cQB+ACZxAH4B/HNxAH4AAnNxAH4ABwAAAAB3BAAAAAB4cQB+ADhxAH4B/HhxAH4AJnEAfgH6cQB+AG14cQB+ADtzcQB+AAJzcQB+AAcAAAACdwQAAAACc3EAfgACc3EAfgAHAAAAAHcEAAAAAHhxAH4AMHEAfgIGcQB+Afp4cQB+ADlzcQB+AAJzcQB+AAcAAAACdwQAAAACc3EAfgACc3EAfgAHAAAAAncEAAAAAnNxAH4AAnNxAH4ABwAAAAB3BAAAAAB4cQB+ADBxAH4CDHNxAH4AAnNxAH4ABwAAAAJ3BAAAAAJzcQB+AAJzcQB+AAcAAAAAdwQAAAAAeHEAfgA1cQB+AhBzcQB+AAJzcQB+AAcAAAAAdwQAAAAAeHEAfgAwcQB+AhB4cQB+ADlxAH4CDHhxAH4AO3EAfgIKcQB+AgZ4cQB+ACZzcQB+AAJzcQB+AAcAAAACdwQAAAACcQB+AgpxAH4ApnhxAH4AJHB4cQB+ADtzcQB+AAJzcQB+AAcAAAACdwQAAAACc3EAfgACc3EAfgAHAAAAAHcEAAAAAHhxAH4AMHEAfgIYcQB+AGt4cQB+ADlzcQB+AAJzcQB+AAcAAAACdwQAAAACc3EAfgACc3EAfgAHAAAAAncEAAAAAnNxAH4AAnNxAH4ABwAAAAB3BAAAAAB4cQB+ADBxAH4CHnNxAH4AAnNxAH4ABwAAAAJ3BAAAAAJzcQB+AAJzcQB+AAcAAAAAdwQAAAAAeHEAfgA1cQB+AiJzcQB+AAJzcQB+AAcAAAAAdwQAAAAAeHEAfgA4cQB+AiJ4cQB+ADlxAH4CHnhxAH4AO3EAfgIccQB+Ahh4cQB+ACZzcQB+AAJzcQB+AAcAAAACdwQAAAACcQB+AhxxAH4ApnhxAH4AJHB4cQB+ACRxAH4AQ3hxAH4AJnEAfgBBcQB+AG14cQB+ADtxAH4APXhxAH4AOXEAfgAqeHEAfgAmcQB+AChxAH4ApnhxAH4AJHBzcQB+AAJzcQB+AAcAAAAAdwQAAAAAeHNxAH4AEXQAA3gwNHBzcQB+AAJzcQB+AAcAAAACdwQAAAACc3EAfgACc3EAfgAHAAAAAncEAAAAAnNxAH4AAnNxAH4ABwAAAAJ3BAAAAAJzcQB+AAJzcQB+AAcAAAACdwQAAAACc3EAfgACc3EAfgAHAAAAAHcEAAAAAHhzcQB+ABF0AAN4MTFxAH4CNHNxAH4AAnNxAH4ABwAAAAB3BAAAAAB4cQB+AJNxAH4CNHhxAH4AJHEAfgIyc3EAfgACc3EAfgAHAAAAAncEAAAAAnNxAH4AAnNxAH4ABwAAAAB3BAAAAAB4c3EAfgANQAgAAAAAAABxAH4CPHNxAH4AAnNxAH4ABwAAAAJ3BAAAAAJzcQB+AAJzcQB+AAcAAAAAdwQAAAAAeHEAfgI4cQB+AkFzcQB+AAJzcQB+AAcAAAAAdwQAAAAAeHNxAH4AEXQAA3gxM3NxAH4AAnNxAH4ABwAAAAJ3BAAAAAJzcQB+AAJzcQB+AAcAAAACdwQAAAACc3EAfgACc3EAfgAHAAAAAncEAAAAAnNxAH4AAnNxAH4ABwAAAAB3BAAAAAB4cQB+AjhxAH4CTXNxAH4AAnNxAH4ABwAAAAB3BAAAAAB4cQB+AjhxAH4CTXhxAH4AOXEAfgJLc3EAfgACc3EAfgAHAAAAAHcEAAAAAHhxAH4Ak3EAfgJLeHEAfgA5cQB+AklxAH4CRXhxAH4AO3NxAH4AAnNxAH4ABwAAAAJ3BAAAAAJzcQB+AAJzcQB+AAcAAAAAdwQAAAAAeHEAfgJAcQB+AlVxAH4CSXhxAH4AF3NxAH4AAnNxAH4ABwAAAAJ3BAAAAAJzcQB+AAJzcQB+AAcAAAACdwQAAAACc3EAfgACc3EAfgAHAAAAAHcEAAAAAHhxAH4COHEAfgJbc3EAfgACc3EAfgAHAAAAAHcEAAAAAHhxAH4Ak3EAfgJbeHEAfgAkcQB+AllxAH4CVXhxAH4AJnNxAH4AAnNxAH4ABwAAAAJ3BAAAAAJxAH4CWXNxAH4AAnNxAH4ABwAAAAJ3BAAAAAJzcQB+AAJzcQB+AAcAAAACdwQAAAACc3EAfgACc3EAfgAHAAAAAHcEAAAAAHhzcQB+ABF0AAN4MTRxAH4CZXNxAH4AAnNxAH4ABwAAAAB3BAAAAAB4cQB+ABNzcQB+AAJzcQB+AAcAAAACdwQAAAACc3EAfgACc3EAfgAHAAAAAncEAAAAAnNxAH4AAnNxAH4ABwAAAAJ3BAAAAAJzcQB+AAJzcQB+AAcAAAAAdwQAAAAAeHEAfgA4cQB+AnFzcQB+AAJzcQB+AAcAAAAAdwQAAAAAeHEAfgCTcQB+AnF4cQB+ADlxAH4Cb3NxAH4AAnNxAH4ABwAAAAJ3BAAAAAJzcQB+AAJzcQB+AAcAAAAAdwQAAAAAeHEAfgJAcQB+AndzcQB+AAJzcQB+AAcAAAACdwQAAAACc3EAfgACc3EAfgAHAAAAAHcEAAAAAHhzcQB+ABF0AAN4MTZxAH4Ce3NxAH4AAnNxAH4ABwAAAAB3BAAAAAB4cQB+AjhxAH4Ce3hxAH4AO3EAfgJ3eHEAfgAXcQB+Am94cQB+ADlxAH4CbXEAfgJreHEAfgA5c3EAfgACc3EAfgAHAAAAAncEAAAAAnEAfgJtc3EAfgACc3EAfgAHAAAAAHcEAAAAAHhxAH4AE3NxAH4AAnNxAH4ABwAAAAJ3BAAAAAJzcQB+AAJzcQB+AAcAAAAAdwQAAAAAeHEAfgCTcQB+AodxAH4ChXhxAH4AO3NxAH4AAnNxAH4ABwAAAAJ3BAAAAAJzcQB+AAJzcQB+AAcAAAACdwQAAAACc3EAfgACc3EAfgAHAAAAAncEAAAAAnNxAH4AAnNxAH4ABwAAAAB3BAAAAAB4cQB+AjhxAH4Cj3NxAH4AAnNxAH4ABwAAAAB3BAAAAAB4cQB+AJNxAH4Cj3hxAH4AJHEAfgKNc3EAfgACc3EAfgAHAAAAAncEAAAAAnNxAH4AAnNxAH4ABwAAAAB3BAAAAAB4cQB+AkBxAH4ClXNxAH4AAnNxAH4ABwAAAAJ3BAAAAAJzcQB+AAJzcQB+AAcAAAAAdwQAAAAAeHEAfgJ/cQB+AplzcQB+AAJzcQB+AAcAAAAAdwQAAAAAeHEAfgJHcQB+Apl4cQB+ADtxAH4ClXhxAH4AF3EAfgKNeHEAfgAmcQB+AotxAH4Ch3hxAH4AF3NxAH4AAnNxAH4ABwAAAAJ3BAAAAAJxAH4Ci3NxAH4AAnNxAH4ABwAAAAJ3BAAAAAJzcQB+AAJzcQB+AAcAAAAAdwQAAAAAeHEAfgA4cQB+AqFzcQB+AAJzcQB+AAcAAAAAdwQAAAAAeHNxAH4AEXQAA3gxNXNxAH4AAnNxAH4ABwAAAAJ3BAAAAAJzcQB+AAJzcQB+AAcAAAACdwQAAAACc3EAfgACc3EAfgAHAAAAAncEAAAAAnNxAH4AAnNxAH4ABwAAAAB3BAAAAAB4cQB+AjhxAH4CrXNxAH4AAnNxAH4ABwAAAAB3BAAAAAB4cQB+AjhxAH4CrXhxAH4AOXEAfgKrc3EAfgACc3EAfgAHAAAAAHcEAAAAAHhxAH4Ak3EAfgKreHEAfgA5cQB+AqlxAH4CpXhxAH4AOXNxAH4AAnNxAH4ABwAAAAJ3BAAAAAJzcQB+AAJzcQB+AAcAAAACdwQAAAACc3EAfgACc3EAfgAHAAAAAncEAAAAAnNxAH4AAnNxAH4ABwAAAAJ3BAAAAAJzcQB+AAJzcQB+AAcAAAAAdwQAAAAAeHEAfgI4cQB+ArtzcQB+AAJzcQB+AAcAAAAAdwQAAAAAeHEAfgCTcQB+Art4cQB+ACRxAH4CuXNxAH4AAnNxAH4ABwAAAAJ3BAAAAAJzcQB+AAJzcQB+AAcAAAAAdwQAAAAAeHEAfgJAcQB+AsFzcQB+AAJzcQB+AAcAAAACdwQAAAACc3EAfgACc3EAfgAHAAAAAHcEAAAAAHhxAH4Cf3EAfgLFc3EAfgACc3EAfgAHAAAAAHcEAAAAAHhxAH4CR3EAfgLFeHEAfgA7cQB+AsF4cQB+ABdxAH4CuXhxAH4AJnEAfgK3c3EAfgACc3EAfgAHAAAAAncEAAAAAnNxAH4AAnNxAH4ABwAAAAJ3BAAAAAJzcQB+AAJzcQB+AAcAAAAAdwQAAAAAeHEAfgJpcQB+As1zcQB+AAJzcQB+AAcAAAAAdwQAAAAAeHEAfgATcQB+As14cQB+ADlxAH4Cy3NxAH4AAnNxAH4ABwAAAAB3BAAAAAB4cQB+ABNxAH4Cy3hxAH4AO3EAfgK3eHEAfgAXcQB+ArVxAH4CqXhxAH4AF3B4cQB+ADlzcQB+AAJzcQB+AAcAAAACdwQAAAACc3EAfgACc3EAfgAHAAAAAncEAAAAAnNxAH4AAnNxAH4ABwAAAAJ3BAAAAAJzcQB+AAJzcQB+AAcAAAACdwQAAAACc3EAfgACc3EAfgAHAAAAAncEAAAAAnNxAH4AAnNxAH4ABwAAAAJ3BAAAAAJzcQB+AAJzcQB+AAcAAAAAdwQAAAAAeHEAfgCTcQB+At9zcQB+AAJzcQB+AAcAAAAAdwQAAAAAeHEAfgI4cQB+At94cQB+ADlxAH4C3XNxAH4AAnNxAH4ABwAAAAJ3BAAAAAJzcQB+AAJzcQB+AAcAAAAAdwQAAAAAeHEAfgJpcQB+AuVzcQB+AAJzcQB+AAcAAAACdwQAAAACc3EAfgACc3EAfgAHAAAAAHcEAAAAAHhxAH4Cf3EAfgLpc3EAfgACc3EAfgAHAAAAAHcEAAAAAHhxAH4Cp3EAfgLpeHEAfgA7cQB+AuV4cQB+ACRxAH4C3XhxAH4AOXEAfgLbc3EAfgACc3EAfgAHAAAAAHcEAAAAAHhxAH4Ak3EAfgLbeHEAfgAkcQB+AtlzcQB+AAJzcQB+AAcAAAACdwQAAAACc3EAfgACc3EAfgAHAAAAAHcEAAAAAHhxAH4CQHEAfgLxc3EAfgACc3EAfgAHAAAAAncEAAAAAnNxAH4AAnNxAH4ABwAAAAB3BAAAAAB4cQB+An9xAH4C9XNxAH4AAnNxAH4ABwAAAAB3BAAAAAB4cQB+AkdxAH4C9XhxAH4AO3EAfgLxeHEAfgAXcQB+Atl4cQB+ACZxAH4C13NxAH4AAnNxAH4ABwAAAAB3BAAAAAB4cQB+AqdxAH4C13hxAH4AF3EAfgLVcQB+AqF4cQB+ABdweHEAfgAXcHhxAH4AO3NxAH4AAnNxAH4ABwAAAAJ3BAAAAAJzcQB+AAJzcQB+AAcAAAACdwQAAAACc3EAfgACc3EAfgAHAAAAAncEAAAAAnNxAH4AAnNxAH4ABwAAAAJ3BAAAAAJzcQB+AAJzcQB+AAcAAAACdwQAAAACc3EAfgACc3EAfgAHAAAAAHcEAAAAAHhxAH4AOHEAfgMFc3EAfgACc3EAfgAHAAAAAHcEAAAAAHhxAH4COHEAfgMFeHEAfgA5cQB+AwNzcQB+AAJzcQB+AAcAAAACdwQAAAACc3EAfgACc3EAfgAHAAAAAHcEAAAAAHhxAH4CaXEAfgMLc3EAfgACc3EAfgAHAAAAAHcEAAAAAHhxAH4AE3EAfgMLeHEAfgAkcQB+AwN4cQB+ADlxAH4DAXNxAH4AAnNxAH4ABwAAAAB3BAAAAAB4cQB+AJNxAH4DAXhxAH4AJHEAfgL/c3EAfgACc3EAfgAHAAAAAncEAAAAAnNxAH4AAnNxAH4ABwAAAAB3BAAAAAB4cQB+AkBxAH4DE3NxAH4AAnNxAH4ABwAAAAJ3BAAAAAJzcQB+AAJzcQB+AAcAAAAAdwQAAAAAeHEAfgJ/cQB+AxdzcQB+AAJzcQB+AAcAAAAAdwQAAAAAeHEAfgJHcQB+Axd4cQB+ADtxAH4DE3hxAH4AF3EAfgL/eHEAfgAmcQB+Av1xAH4Cg3hxAH4AF3NxAH4AAnNxAH4ABwAAAAJ3BAAAAAJxAH4C/XEAfgKheHEAfgAXcHhxAH4AOXEAfgJjcQB+AoV4cQB+ADtzcQB+AAJzcQB+AAcAAAACdwQAAAACc3EAfgACc3EAfgAHAAAAAncEAAAAAnNxAH4AAnNxAH4ABwAAAAJ3BAAAAAJzcQB+AAJzcQB+AAcAAAAAdwQAAAAAeHEAfgI4cQB+AyNzcQB+AAJzcQB+AAcAAAAAdwQAAAAAeHEAfgCTcQB+AyN4cQB+ACRxAH4DIXNxAH4AAnNxAH4ABwAAAAJ3BAAAAAJzcQB+AAJzcQB+AAcAAAAAdwQAAAAAeHEAfgJAcQB+AylzcQB+AAJzcQB+AAcAAAAAdwQAAAAAeHEAfgCTcQB+Ayl4cQB+ABdxAH4DIXhxAH4AJnEAfgMfcQB+AmN4cQB+ABdzcQB+AAJzcQB+AAcAAAACdwQAAAACcQB+Ax9xAH4CoXhxAH4AF3B4cQB+ABdzcQB+AAJzcQB+AAcAAAACdwQAAAACcQB+AmFxAH4CoXhxAH4AF3B4cQB+ADtxAH4CPHhxAH4AF3EAfgIyeHEAfgAmcQB+AjBxAH4CY3hxAH4AF3EAfgIucQB+AqF4cQB+ABdweA==";
    "rO0ABXNyABFqYXZhLnV0aWwuQ29sbFNlcleOq7Y6G6gRAwABSQADdGFneHAAAAAEdwQAAAAEc3IAN2lvLmdpdGh1Yi5lcmljbWVkdmV0LmpnZWEuY29yZS5yZXByZXNlbnRhdGlvbi50cmVlLlRyZWUKs7/qnQrEZQIAA0wACGNoaWxkcmVudAAQTGphdmEvdXRpbC9MaXN0O0wAB2NvbnRlbnR0ABJMamF2YS9sYW5nL09iamVjdDtMAAZwYXJlbnR0ADlMaW8vZ2l0aHViL2VyaWNtZWR2ZXQvamdlYS9jb3JlL3JlcHJlc2VudGF0aW9uL3RyZWUvVHJlZTt4cHNyABNqYXZhLnV0aWwuQXJyYXlMaXN0eIHSHZnHYZ0DAAFJAARzaXpleHAAAAACdwQAAAACc3EAfgACc3EAfgAHAAAAAncEAAAAAnNxAH4AAnNxAH4ABwAAAAB3BAAAAAB4c3IAS2lvLmdpdGh1Yi5lcmljbWVkdmV0LmpnZWEuY29yZS5yZXByZXNlbnRhdGlvbi50cmVlLm51bWVyaWMuRWxlbWVudCRDb25zdGFudAAAAAAAAAAAAgABRAAFdmFsdWV4cEAQAAAAAAAAcQB+AAlzcQB+AAJzcQB+AAcAAAAAdwQAAAAAeHNyAEtpby5naXRodWIuZXJpY21lZHZldC5qZ2VhLmNvcmUucmVwcmVzZW50YXRpb24udHJlZS5udW1lcmljLkVsZW1lbnQkVmFyaWFibGUAAAAAAAAAAAIAAUwABG5hbWV0ABJMamF2YS9sYW5nL1N0cmluZzt4cHQAA3gwMXEAfgAJeH5yAEtpby5naXRodWIuZXJpY21lZHZldC5qZ2VhLmNvcmUucmVwcmVzZW50YXRpb24udHJlZS5udW1lcmljLkVsZW1lbnQkT3BlcmF0b3IAAAAAAAAAABIAAHhyAA5qYXZhLmxhbmcuRW51bQAAAAAAAAAAEgAAeHB0AA5NVUxUSVBMSUNBVElPTnEAfgAGc3EAfgACc3EAfgAHAAAAAncEAAAAAnNxAH4AAnNxAH4ABwAAAAB3BAAAAAB4c3EAfgANQBIAAAAAAABxAH4AGXNxAH4AAnNxAH4ABwAAAAJ3BAAAAAJzcQB+AAJzcQB+AAcAAAAAdwQAAAAAeHEAfgAOcQB+AB5zcQB+AAJzcQB+AAcAAAAAdwQAAAAAeHEAfgAdcQB+AB54cQB+ABdxAH4AGXh+cQB+ABV0AA1QUk9UX0RJVklTSU9OcQB+AAZ4fnEAfgAVdAAIQURESVRJT05wc3EAfgACc3EAfgAHAAAAAncEAAAAAnNxAH4AAnNxAH4ABwAAAAJ3BAAAAAJzcQB+AAJzcQB+AAcAAAACdwQAAAACc3EAfgACc3EAfgAHAAAAAHcEAAAAAHhzcQB+AA1AAAAAAAAAAHEAfgAsc3EAfgACc3EAfgAHAAAAAncEAAAAAnNxAH4AAnNxAH4ABwAAAAB3BAAAAAB4c3EAfgANQAQAAAAAAABxAH4AMXNxAH4AAnNxAH4ABwAAAAB3BAAAAAB4c3EAfgANAAAAAAAAAABxAH4AMXh+cQB+ABV0AAhQUk9UX0xPR3EAfgAseH5xAH4AFXQAC1NVQlRSQUNUSU9OcQB+ACpzcQB+AAJzcQB+AAcAAAACdwQAAAACc3EAfgACc3EAfgAHAAAAAHcEAAAAAHhxAH4AMHEAfgA9c3EAfgACc3EAfgAHAAAAAncEAAAAAnNxAH4AAnNxAH4ABwAAAAJ3BAAAAAJzcQB+AAJzcQB+AAcAAAAAdwQAAAAAeHEAfgA1cQB+AENzcQB+AAJzcQB+AAcAAAAAdwQAAAAAeHEAfgA4cQB+AEN4cQB+ADlxAH4AQXNxAH4AAnNxAH4ABwAAAAB3BAAAAAB4cQB+ADBzcQB+AAJzcQB+AAcAAAACdwQAAAACc3EAfgACc3EAfgAHAAAAAncEAAAAAnNxAH4AAnNxAH4ABwAAAAB3BAAAAAB4cQB+ADhxAH4ATXNxAH4AAnNxAH4ABwAAAAB3BAAAAAB4cQB+AA5xAH4ATXhxAH4AOXEAfgBLcQB+AEl4cQB+ADtzcQB+AAJzcQB+AAcAAAACdwQAAAACc3EAfgACc3EAfgAHAAAAAHcEAAAAAHhxAH4AMHEAfgBTcQB+AEt4cQB+ADlzcQB+AAJzcQB+AAcAAAACdwQAAAACc3EAfgACc3EAfgAHAAAAAncEAAAAAnNxAH4AAnNxAH4ABwAAAAB3BAAAAAB4cQB+ADBxAH4AWXNxAH4AAnNxAH4ABwAAAAJ3BAAAAAJzcQB+AAJzcQB+AAcAAAAAdwQAAAAAeHEAfgA1cQB+AF1zcQB+AAJzcQB+AAcAAAAAdwQAAAAAeHEAfgA4cQB+AF14cQB+ADlxAH4AWXhxAH4AO3EAfgBXcQB+AFN4cQB+ACZzcQB+AAJzcQB+AAcAAAACdwQAAAACcQB+AFdzcQB+AAJzcQB+AAcAAAACdwQAAAACc3EAfgACc3EAfgAHAAAAAncEAAAAAnNxAH4AAnNxAH4ABwAAAAB3BAAAAAB4cQB+ADBxAH4AZ3NxAH4AAnNxAH4ABwAAAAJ3BAAAAAJzcQB+AAJzcQB+AAcAAAAAdwQAAAAAeHEAfgA1cQB+AGtzcQB+AAJzcQB+AAcAAAAAdwQAAAAAeHEAfgA4cQB+AGt4cQB+ADlxAH4AZ3hxAH4AO3EAfgBlc3EAfgACc3EAfgAHAAAAAncEAAAAAnNxAH4AAnNxAH4ABwAAAAB3BAAAAAB4cQB+ADBxAH4AcXNxAH4AAnNxAH4ABwAAAAJ3BAAAAAJzcQB+AAJzcQB+AAcAAAACdwQAAAACc3EAfgACc3EAfgAHAAAAAncEAAAAAnNxAH4AAnNxAH4ABwAAAAB3BAAAAAB4c3EAfgANP/AAAAAAAABxAH4AeXNxAH4AAnNxAH4ABwAAAAB3BAAAAAB4cQB+ADBzcQB+AAJzcQB+AAcAAAACdwQAAAACc3EAfgACc3EAfgAHAAAAAHcEAAAAAHhxAH4AMHEAfgCAcQB+AH54cQB+ACZzcQB+AAJzcQB+AAcAAAACdwQAAAACcQB+AIBzcQB+AAJzcQB+AAcAAAAAdwQAAAAAeHNxAH4ADUAMAAAAAAAAc3EAfgACc3EAfgAHAAAAAncEAAAAAnNxAH4AAnNxAH4ABwAAAAJ3BAAAAAJzcQB+AAJzcQB+AAcAAAAAdwQAAAAAeHEAfgA4cQB+AItzcQB+AAJzcQB+AAcAAAAAdwQAAAAAeHEAfgAOcQB+AIt4cQB+ADlxAH4AiXEAfgCGeHEAfgAmc3EAfgACc3EAfgAHAAAAAncEAAAAAnEAfgCJc3EAfgACc3EAfgAHAAAAAncEAAAAAnNxAH4AAnNxAH4ABwAAAAB3BAAAAAB4cQB+ADhxAH4Ak3NxAH4AAnNxAH4ABwAAAAB3BAAAAAB4cQB+AA5xAH4Ak3hxAH4AOXNxAH4AAnNxAH4ABwAAAAJ3BAAAAAJzcQB+AAJzcQB+AAcAAAACdwQAAAACc3EAfgACc3EAfgAHAAAAAncEAAAAAnNxAH4AAnNxAH4ABwAAAAB3BAAAAAB4cQB+AH1xAH4AnXNxAH4AAnNxAH4ABwAAAAB3BAAAAAB4cQB+ADBxAH4AnXhxAH4AJnEAfgCbc3EAfgACc3EAfgAHAAAAAHcEAAAAAHhzcQB+AA0/+AAAAAAAAHEAfgCbeHEAfgAmcQB+AJlxAH4Ak3hxAH4AO3NxAH4AAnNxAH4ABwAAAAJ3BAAAAAJzcQB+AAJzcQB+AAcAAAAAdwQAAAAAeHEAfgAwcQB+AKZxAH4AmXhxAH4AOXNxAH4AAnNxAH4ABwAAAAJ3BAAAAAJzcQB+AAJzcQB+AAcAAAACdwQAAAACc3EAfgACc3EAfgAHAAAAAHcEAAAAAHhxAH4AMHEAfgCsc3EAfgACc3EAfgAHAAAAAncEAAAAAnNxAH4AAnNxAH4ABwAAAAB3BAAAAAB4cQB+ADVxAH4AsHNxAH4AAnNxAH4ABwAAAAB3BAAAAAB4cQB+ADhxAH4AsHhxAH4AOXEAfgCseHEAfgA7cQB+AKpxAH4ApnhxAH4AJnNxAH4AAnNxAH4ABwAAAAJ3BAAAAAJzcQB+AAJzcQB+AAcAAAACdwQAAAACc3EAfgACc3EAfgAHAAAAAncEAAAAAnNxAH4AAnNxAH4ABwAAAAB3BAAAAAB4cQB+ADBxAH4AunNxAH4AAnNxAH4ABwAAAAJ3BAAAAAJzcQB+AAJzcQB+AAcAAAAAdwQAAAAAeHEAfgA1cQB+AL5zcQB+AAJzcQB+AAcAAAAAdwQAAAAAeHEAfgA4cQB+AL54cQB+ADlxAH4AunhxAH4AO3EAfgC4c3EAfgACc3EAfgAHAAAAAncEAAAAAnNxAH4AAnNxAH4ABwAAAAB3BAAAAAB4cQB+ADBxAH4AxHNxAH4AAnNxAH4ABwAAAAJ3BAAAAAJzcQB+AAJzcQB+AAcAAAAAdwQAAAAAeHEAfgA1cQB+AMhzcQB+AAJzcQB+AAcAAAAAdwQAAAAAeHEAfgA4cQB+AMh4cQB+ADtxAH4AxHhxAH4AOXEAfgC4eHEAfgAmcQB+ALZxAH4AqnhxAH4AJHB4cQB+ADtzcQB+AAJzcQB+AAcAAAACdwQAAAACc3EAfgACc3EAfgAHAAAAAHcEAAAAAHhxAH4AMHEAfgDOcQB+AJF4cQB+ADlzcQB+AAJzcQB+AAcAAAACdwQAAAACc3EAfgACc3EAfgAHAAAAAncEAAAAAnNxAH4AAnNxAH4ABwAAAAB3BAAAAAB4cQB+ADBxAH4A1HNxAH4AAnNxAH4ABwAAAAJ3BAAAAAJzcQB+AAJzcQB+AAcAAAAAdwQAAAAAeHEAfgA1cQB+ANhzcQB+AAJzcQB+AAcAAAAAdwQAAAAAeHEAfgA4cQB+ANh4cQB+ADlxAH4A1HhxAH4AO3EAfgDScQB+AM54cQB+ACZzcQB+AAJzcQB+AAcAAAACdwQAAAACc3EAfgACc3EAfgAHAAAAAncEAAAAAnNxAH4AAnNxAH4ABwAAAAJ3BAAAAAJzcQB+AAJzcQB+AAcAAAAAdwQAAAAAeHEAfgAwcQB+AOJzcQB+AAJzcQB+AAcAAAACdwQAAAACc3EAfgACc3EAfgAHAAAAAHcEAAAAAHhxAH4ANXEAfgDmc3EAfgACc3EAfgAHAAAAAHcEAAAAAHhxAH4AOHEAfgDmeHEAfgA5cQB+AOJ4cQB+ADtxAH4A4HNxAH4AAnNxAH4ABwAAAAJ3BAAAAAJzcQB+AAJzcQB+AAcAAAAAdwQAAAAAeHEAfgAwcQB+AOxzcQB+AAJzcQB+AAcAAAACdwQAAAACc3EAfgACc3EAfgAHAAAAAHcEAAAAAHhxAH4ADnEAfgDwc3EAfgACc3EAfgAHAAAAAncEAAAAAnNxAH4AAnNxAH4ABwAAAAB3BAAAAAB4cQB+ADhxAH4A9HNxAH4AAnNxAH4ABwAAAAB3BAAAAAB4cQB+AA5xAH4A9HhxAH4AOXEAfgDweHEAfgA7cQB+AOx4cQB+ADlxAH4A4HhxAH4AJnEAfgDecQB+ANJ4cQB+ACRweHEAfgAmc3EAfgACc3EAfgAHAAAAAncEAAAAAnEAfgCEcQB+AJN4cQB+ADtzcQB+AAJzcQB+AAcAAAACdwQAAAACc3EAfgACc3EAfgAHAAAAAHcEAAAAAHhxAH4AMHEAfgD8cQB+APp4cQB+ADlzcQB+AAJzcQB+AAcAAAACdwQAAAACc3EAfgACc3EAfgAHAAAAAncEAAAAAnNxAH4AAnNxAH4ABwAAAAB3BAAAAAB4cQB+ADBxAH4BAnNxAH4AAnNxAH4ABwAAAAJ3BAAAAAJzcQB+AAJzcQB+AAcAAAAAdwQAAAAAeHEAfgA1cQB+AQZzcQB+AAJzcQB+AAcAAAAAdwQAAAAAeHEAfgA4cQB+AQZ4cQB+ADlxAH4BAnhxAH4AO3EAfgEAcQB+APx4cQB+ACZzcQB+AAJzcQB+AAcAAAACdwQAAAACc3EAfgACc3EAfgAHAAAAAncEAAAAAnNxAH4AAnNxAH4ABwAAAAJ3BAAAAAJzcQB+AAJzcQB+AAcAAAAAdwQAAAAAeHEAfgAwcQB+ARBzcQB+AAJzcQB+AAcAAAACdwQAAAACc3EAfgACc3EAfgAHAAAAAHcEAAAAAHhxAH4ANXEAfgEUc3EAfgACc3EAfgAHAAAAAHcEAAAAAHhxAH4AOHEAfgEUeHEAfgA5cQB+ARB4cQB+ADtxAH4BDnNxAH4AAnNxAH4ABwAAAAJ3BAAAAAJzcQB+AAJzcQB+AAcAAAAAdwQAAAAAeHEAfgAwcQB+ARpzcQB+AAJzcQB+AAcAAAACdwQAAAACc3EAfgACc3EAfgAHAAAAAHcEAAAAAHhxAH4ADnEAfgEec3EAfgACc3EAfgAHAAAAAncEAAAAAnNxAH4AAnNxAH4ABwAAAAB3BAAAAAB4cQB+ADhxAH4BInNxAH4AAnNxAH4ABwAAAAB3BAAAAAB4cQB+AA5xAH4BInhxAH4AOXEAfgEeeHEAfgA7cQB+ARp4cQB+ADlxAH4BDnhxAH4AJnEAfgEMcQB+AQB4cQB+ACRweHEAfgAmcQB+AHdxAH4AhnhxAH4AJnEAfgB1cQB+AJN4cQB+ADtxAH4AcXhxAH4AOXNxAH4AAnNxAH4ABwAAAAJ3BAAAAAJzcQB+AAJzcQB+AAcAAAACdwQAAAACc3EAfgACc3EAfgAHAAAAAHcEAAAAAHhxAH4AOHEAfgEqc3EAfgACc3EAfgAHAAAAAHcEAAAAAHhxAH4ADnEAfgEqeHEAfgA5cQB+AShxAH4AcXhxAH4AJnNxAH4AAnNxAH4ABwAAAAJ3BAAAAAJzcQB+AAJzcQB+AAcAAAACdwQAAAACc3EAfgACc3EAfgAHAAAAAncEAAAAAnNxAH4AAnNxAH4ABwAAAAB3BAAAAAB4cQB+ADBxAH4BNHNxAH4AAnNxAH4ABwAAAAJ3BAAAAAJzcQB+AAJzcQB+AAcAAAAAdwQAAAAAeHEAfgA1cQB+AThzcQB+AAJzcQB+AAcAAAAAdwQAAAAAeHEAfgAwcQB+ATh4cQB+ADlxAH4BNHhxAH4AO3EAfgEyc3EAfgACc3EAfgAHAAAAAncEAAAAAnNxAH4AAnNxAH4ABwAAAAB3BAAAAAB4cQB+ADBxAH4BPnNxAH4AAnNxAH4ABwAAAAJ3BAAAAAJzcQB+AAJzcQB+AAcAAAACdwQAAAACc3EAfgACc3EAfgAHAAAAAncEAAAAAnNxAH4AAnNxAH4ABwAAAAB3BAAAAAB4cQB+AH1xAH4BRnNxAH4AAnNxAH4ABwAAAAB3BAAAAAB4cQB+ADBxAH4BRnhxAH4AJnEAfgFEc3EAfgACc3EAfgAHAAAAAncEAAAAAnNxAH4AAnNxAH4ABwAAAAJ3BAAAAAJzcQB+AAJzcQB+AAcAAAAAdwQAAAAAeHEAfgB9cQB+AU5zcQB+AAJzcQB+AAcAAAAAdwQAAAAAeHEAfgAwcQB+AU54cQB+ACZxAH4BTHNxAH4AAnNxAH4ABwAAAAB3BAAAAAB4cQB+AIhxAH4BTHhxAH4AJnEAfgFEeHEAfgAmcQB+AUJzcQB+AAJzcQB+AAcAAAACdwQAAAACc3EAfgACc3EAfgAHAAAAAHcEAAAAAHhxAH4AOHEAfgFWc3EAfgACc3EAfgAHAAAAAHcEAAAAAHhxAH4ADnEAfgFWeHEAfgA5cQB+AUJ4cQB+ADtxAH4BPnhxAH4AOXEAfgEyeHEAfgAmcQB+ATBxAH4BKHhxAH4AJHB4cQB+ACZzcQB+AAJzcQB+AAcAAAACdwQAAAACc3EAfgACc3EAfgAHAAAAAncEAAAAAnNxAH4AAnNxAH4ABwAAAAJ3BAAAAAJzcQB+AAJzcQB+AAcAAAAAdwQAAAAAeHEAfgAwcQB+AWBzcQB+AAJzcQB+AAcAAAACdwQAAAACc3EAfgACc3EAfgAHAAAAAHcEAAAAAHhxAH4AfXEAfgFkc3EAfgACc3EAfgAHAAAAAHcEAAAAAHhxAH4AOHEAfgFkeHEAfgA5cQB+AWB4cQB+ADtxAH4BXnNxAH4AAnNxAH4ABwAAAAJ3BAAAAAJzcQB+AAJzcQB+AAcAAAAAdwQAAAAAeHEAfgAwcQB+AWpzcQB+AAJzcQB+AAcAAAACdwQAAAACc3EAfgACc3EAfgAHAAAAAncEAAAAAnNxAH4AAnNxAH4ABwAAAAJ3BAAAAAJzcQB+AAJzcQB+AAcAAAAAdwQAAAAAeHEAfgB9cQB+AXJzcQB+AAJzcQB+AAcAAAAAdwQAAAAAeHEAfgAwc3EAfgACc3EAfgAHAAAAAncEAAAAAnNxAH4AAnNxAH4ABwAAAAB3BAAAAAB4cQB+ADBxAH4BeHEAfgF2eHEAfgAmc3EAfgACc3EAfgAHAAAAAncEAAAAAnEAfgF4c3EAfgACc3EAfgAHAAAAAHcEAAAAAHhxAH4AiHEAfgF8eHEAfgAmc3EAfgACc3EAfgAHAAAAAncEAAAAAnEAfgF8c3EAfgACc3EAfgAHAAAAAncEAAAAAnNxAH4AAnNxAH4ABwAAAAJ3BAAAAAJzcQB+AAJzcQB+AAcAAAACdwQAAAACc3EAfgACc3EAfgAHAAAAAHcEAAAAAHhxAH4AfXEAfgGGc3EAfgACc3EAfgAHAAAAAHcEAAAAAHhxAH4AMHEAfgGGeHEAfgAmcQB+AYRzcQB+AAJzcQB+AAcAAAAAdwQAAAAAeHEAfgCIcQB+AYR4cQB+ACZxAH4BgnNxAH4AAnNxAH4ABwAAAAJ3BAAAAAJzcQB+AAJzcQB+AAcAAAAAdwQAAAAAeHEAfgA4cQB+AY5zcQB+AAJzcQB+AAcAAAAAdwQAAAAAeHEAfgAOcQB+AY54cQB+ADlxAH4BgnhxAH4AO3NxAH4AAnNxAH4ABwAAAAJ3BAAAAAJzcQB+AAJzcQB+AAcAAAAAdwQAAAAAeHEAfgAwcQB+AZRxAH4BgnhxAH4AO3NxAH4AAnNxAH4ABwAAAAJ3BAAAAAJzcQB+AAJzcQB+AAcAAAAAdwQAAAAAeHEAfgAwcQB+AZhxAH4BlHhxAH4AOXNxAH4AAnNxAH4ABwAAAAJ3BAAAAAJzcQB+AAJzcQB+AAcAAAACdwQAAAACc3EAfgACc3EAfgAHAAAAAHcEAAAAAHhxAH4AMHEAfgGec3EAfgACc3EAfgAHAAAAAncEAAAAAnNxAH4AAnNxAH4ABwAAAAB3BAAAAAB4cQB+ADVxAH4BonNxAH4AAnNxAH4ABwAAAAB3BAAAAAB4cQB+ADhxAH4BonhxAH4AOXEAfgGeeHEAfgA7cQB+AZxxAH4BmHhxAH4AJnNxAH4AAnNxAH4ABwAAAAJ3BAAAAAJxAH4BnHEAfgBleHEAfgAkcHhxAH4AO3NxAH4AAnNxAH4ABwAAAAJ3BAAAAAJzcQB+AAJzcQB+AAcAAAAAdwQAAAAAeHEAfgAwcQB+AapxAH4BgHhxAH4AOXNxAH4AAnNxAH4ABwAAAAJ3BAAAAAJzcQB+AAJzcQB+AAcAAAACdwQAAAACc3EAfgACc3EAfgAHAAAAAHcEAAAAAHhxAH4AMHEAfgGwc3EAfgACc3EAfgAHAAAAAncEAAAAAnNxAH4AAnNxAH4ABwAAAAB3BAAAAAB4cQB+ADVxAH4BtHNxAH4AAnNxAH4ABwAAAAB3BAAAAAB4cQB+ADhxAH4BtHhxAH4AOXEAfgGweHEAfgA7cQB+Aa5xAH4BqnhxAH4AJnNxAH4AAnNxAH4ABwAAAAJ3BAAAAAJxAH4BrnEAfgBleHEAfgAkcHhxAH4AJnEAfgFwcQB+AX54cQB+ACZxAH4BbnEAfgGCeHEAfgA7cQB+AWp4cQB+ADlxAH4BXnhxAH4AJnEAfgFccQB+AGV4cQB+ACRweHEAfgAkcHhxAH4AO3EAfgA9eHEAfgA5cQB+ACp4cQB+ACZxAH4AKHEAfgBleHEAfgAkcHNxAH4AAnNxAH4ABwAAAAB3BAAAAAB4c3EAfgARdAADeDA0cHNxAH4AAnNxAH4ABwAAAAJ3BAAAAAJzcQB+AAJzcQB+AAcAAAACdwQAAAACc3EAfgACc3EAfgAHAAAAAncEAAAAAnNxAH4AAnNxAH4ABwAAAAJ3BAAAAAJzcQB+AAJzcQB+AAcAAAAAdwQAAAAAeHNxAH4AEXQAA3gxMXEAfgHGc3EAfgACc3EAfgAHAAAAAHcEAAAAAHhxAH4AiHEAfgHGeHEAfgAkcQB+AcRzcQB+AAJzcQB+AAcAAAACdwQAAAACc3EAfgACc3EAfgAHAAAAAHcEAAAAAHhzcQB+AA1ACAAAAAAAAHEAfgHOc3EAfgACc3EAfgAHAAAAAncEAAAAAnNxAH4AAnNxAH4ABwAAAAJ3BAAAAAJzcQB+AAJzcQB+AAcAAAACdwQAAAACc3EAfgACc3EAfgAHAAAAAHcEAAAAAHhxAH4BynEAfgHXc3EAfgACc3EAfgAHAAAAAHcEAAAAAHhxAH4BynEAfgHXeHEAfgA5cQB+AdVzcQB+AAJzcQB+AAcAAAAAdwQAAAAAeHEAfgCIcQB+AdV4cQB+ADlxAH4B03NxAH4AAnNxAH4ABwAAAAB3BAAAAAB4c3EAfgARdAADeDEzcQB+AdN4cQB+ADtxAH4BznhxAH4AF3EAfgHEeHEAfgAmcQB+AcJzcQB+AAJzcQB+AAcAAAACdwQAAAACc3EAfgACc3EAfgAHAAAAAncEAAAAAnNxAH4AAnNxAH4ABwAAAAB3BAAAAAB4c3EAfgARdAADeDE0cQB+AeVzcQB+AAJzcQB+AAcAAAAAdwQAAAAAeHEAfgATc3EAfgACc3EAfgAHAAAAAncEAAAAAnNxAH4AAnNxAH4ABwAAAAJ3BAAAAAJzcQB+AAJzcQB+AAcAAAACdwQAAAACc3EAfgACc3EAfgAHAAAAAHcEAAAAAHhxAH4AOHEAfgHxc3EAfgACc3EAfgAHAAAAAHcEAAAAAHhxAH4AiHEAfgHxeHEAfgA5cQB+Ae9zcQB+AAJzcQB+AAcAAAACdwQAAAACc3EAfgACc3EAfgAHAAAAAHcEAAAAAHhxAH4B0nEAfgH3c3EAfgACc3EAfgAHAAAAAncEAAAAAnNxAH4AAnNxAH4ABwAAAAB3BAAAAAB4c3EAfgARdAADeDE2cQB+AftzcQB+AAJzcQB+AAcAAAAAdwQAAAAAeHEAfgHKcQB+Aft4cQB+ADtxAH4B93hxAH4AF3EAfgHveHEAfgA5cQB+Ae1xAH4B63hxAH4AOXNxAH4AAnNxAH4ABwAAAAJ3BAAAAAJxAH4B7XNxAH4AAnNxAH4ABwAAAAB3BAAAAAB4cQB+ABNzcQB+AAJzcQB+AAcAAAACdwQAAAACc3EAfgACc3EAfgAHAAAAAHcEAAAAAHhxAH4AiHEAfgIHcQB+AgV4cQB+ADtzcQB+AAJzcQB+AAcAAAACdwQAAAACc3EAfgACc3EAfgAHAAAAAncEAAAAAnNxAH4AAnNxAH4ABwAAAAJ3BAAAAAJzcQB+AAJzcQB+AAcAAAAAdwQAAAAAeHEAfgHKcQB+Ag9zcQB+AAJzcQB+AAcAAAAAdwQAAAAAeHEAfgCIcQB+Ag94cQB+ACRxAH4CDXNxAH4AAnNxAH4ABwAAAAJ3BAAAAAJzcQB+AAJzcQB+AAcAAAAAdwQAAAAAeHEAfgHScQB+AhVzcQB+AAJzcQB+AAcAAAACdwQAAAACc3EAfgACc3EAfgAHAAAAAHcEAAAAAHhxAH4B/3EAfgIZc3EAfgACc3EAfgAHAAAAAHcEAAAAAHhxAH4B4XEAfgIZeHEAfgA7cQB+AhV4cQB+ABdxAH4CDXhxAH4AJnEAfgILcQB+Agd4cQB+ABdzcQB+AAJzcQB+AAcAAAACdwQAAAACcQB+AgtzcQB+AAJzcQB+AAcAAAACdwQAAAACc3EAfgACc3EAfgAHAAAAAHcEAAAAAHhxAH4AOHEAfgIhc3EAfgACc3EAfgAHAAAAAHcEAAAAAHhzcQB+ABF0AAN4MTVzcQB+AAJzcQB+AAcAAAACdwQAAAACc3EAfgACc3EAfgAHAAAAAncEAAAAAnNxAH4AAnNxAH4ABwAAAAJ3BAAAAAJzcQB+AAJzcQB+AAcAAAAAdwQAAAAAeHEAfgHKcQB+Ai1zcQB+AAJzcQB+AAcAAAAAdwQAAAAAeHEAfgHKcQB+Ai14cQB+ADlxAH4CK3NxAH4AAnNxAH4ABwAAAAB3BAAAAAB4cQB+AIhxAH4CK3hxAH4AOXEAfgIpcQB+AiV4cQB+ADlzcQB+AAJzcQB+AAcAAAACdwQAAAACc3EAfgACc3EAfgAHAAAAAncEAAAAAnNxAH4AAnNxAH4ABwAAAAJ3BAAAAAJzcQB+AAJzcQB+AAcAAAACdwQAAAACc3EAfgACc3EAfgAHAAAAAHcEAAAAAHhxAH4BynEAfgI7c3EAfgACc3EAfgAHAAAAAHcEAAAAAHhxAH4AiHEAfgI7eHEAfgAkcQB+AjlzcQB+AAJzcQB+AAcAAAACdwQAAAACc3EAfgACc3EAfgAHAAAAAHcEAAAAAHhxAH4B0nEAfgJBc3EAfgACc3EAfgAHAAAAAncEAAAAAnNxAH4AAnNxAH4ABwAAAAB3BAAAAAB4cQB+Af9xAH4CRXNxAH4AAnNxAH4ABwAAAAB3BAAAAAB4cQB+AeFxAH4CRXhxAH4AO3EAfgJBeHEAfgAXcQB+Ajl4cQB+ACZxAH4CN3NxAH4AAnNxAH4ABwAAAAJ3BAAAAAJzcQB+AAJzcQB+AAcAAAACdwQAAAACc3EAfgACc3EAfgAHAAAAAHcEAAAAAHhxAH4B6XEAfgJNc3EAfgACc3EAfgAHAAAAAHcEAAAAAHhxAH4AE3EAfgJNeHEAfgA5cQB+AktzcQB+AAJzcQB+AAcAAAAAdwQAAAAAeHEAfgATcQB+Akt4cQB+ADtxAH4CN3hxAH4AF3EAfgI1cQB+Ail4cQB+ABdweHEAfgA5c3EAfgACc3EAfgAHAAAAAncEAAAAAnNxAH4AAnNxAH4ABwAAAAJ3BAAAAAJzcQB+AAJzcQB+AAcAAAACdwQAAAACc3EAfgACc3EAfgAHAAAAAncEAAAAAnNxAH4AAnNxAH4ABwAAAAJ3BAAAAAJzcQB+AAJzcQB+AAcAAAACdwQAAAACc3EAfgACc3EAfgAHAAAAAHcEAAAAAHhxAH4AiHEAfgJfc3EAfgACc3EAfgAHAAAAAHcEAAAAAHhxAH4BynEAfgJfeHEAfgA5cQB+Al1zcQB+AAJzcQB+AAcAAAACdwQAAAACc3EAfgACc3EAfgAHAAAAAHcEAAAAAHhxAH4B6XEAfgJlc3EAfgACc3EAfgAHAAAAAncEAAAAAnNxAH4AAnNxAH4ABwAAAAB3BAAAAAB4cQB+Af9xAH4CaXNxAH4AAnNxAH4ABwAAAAB3BAAAAAB4cQB+AidxAH4CaXhxAH4AO3EAfgJleHEAfgAkcQB+Al14cQB+ADlxAH4CW3NxAH4AAnNxAH4ABwAAAAB3BAAAAAB4cQB+AIhxAH4CW3hxAH4AJHEAfgJZc3EAfgACc3EAfgAHAAAAAncEAAAAAnNxAH4AAnNxAH4ABwAAAAB3BAAAAAB4cQB+AdJxAH4CcXNxAH4AAnNxAH4ABwAAAAJ3BAAAAAJzcQB+AAJzcQB+AAcAAAAAdwQAAAAAeHEAfgH/cQB+AnVzcQB+AAJzcQB+AAcAAAAAdwQAAAAAeHEAfgHhcQB+AnV4cQB+ADtxAH4CcXhxAH4AF3EAfgJZeHEAfgAmcQB+AldzcQB+AAJzcQB+AAcAAAAAdwQAAAAAeHEAfgIncQB+Ald4cQB+ABdxAH4CVXEAfgIheHEAfgAXcHhxAH4AF3B4cQB+ADtzcQB+AAJzcQB+AAcAAAACdwQAAAACc3EAfgACc3EAfgAHAAAAAncEAAAAAnNxAH4AAnNxAH4ABwAAAAJ3BAAAAAJzcQB+AAJzcQB+AAcAAAACdwQAAAACc3EAfgACc3EAfgAHAAAAAncEAAAAAnNxAH4AAnNxAH4ABwAAAAB3BAAAAAB4cQB+ADhxAH4ChXNxAH4AAnNxAH4ABwAAAAB3BAAAAAB4cQB+AcpxAH4ChXhxAH4AOXEAfgKDc3EAfgACc3EAfgAHAAAAAncEAAAAAnNxAH4AAnNxAH4ABwAAAAB3BAAAAAB4cQB+AelxAH4Ci3NxAH4AAnNxAH4ABwAAAAB3BAAAAAB4cQB+ABNxAH4Ci3hxAH4AJHEAfgKDeHEAfgA5cQB+AoFzcQB+AAJzcQB+AAcAAAAAdwQAAAAAeHEAfgCIcQB+AoF4cQB+ACRxAH4Cf3NxAH4AAnNxAH4ABwAAAAJ3BAAAAAJzcQB+AAJzcQB+AAcAAAAAdwQAAAAAeHEAfgHScQB+ApNzcQB+AAJzcQB+AAcAAAACdwQAAAACc3EAfgACc3EAfgAHAAAAAHcEAAAAAHhxAH4B/3EAfgKXc3EAfgACc3EAfgAHAAAAAHcEAAAAAHhxAH4B4XEAfgKXeHEAfgA7cQB+ApN4cQB+ABdxAH4Cf3hxAH4AJnEAfgJ9cQB+AgN4cQB+ABdzcQB+AAJzcQB+AAcAAAACdwQAAAACcQB+An1xAH4CIXhxAH4AF3B4cQB+ADlxAH4B43EAfgIFeHEAfgA7c3EAfgACc3EAfgAHAAAAAncEAAAAAnNxAH4AAnNxAH4ABwAAAAJ3BAAAAAJzcQB+AAJzcQB+AAcAAAACdwQAAAACc3EAfgACc3EAfgAHAAAAAHcEAAAAAHhxAH4BynEAfgKjc3EAfgACc3EAfgAHAAAAAHcEAAAAAHhxAH4AiHEAfgKjeHEAfgAkcQB+AqFzcQB+AAJzcQB+AAcAAAACdwQAAAACc3EAfgACc3EAfgAHAAAAAHcEAAAAAHhxAH4B0nEAfgKpc3EAfgACc3EAfgAHAAAAAHcEAAAAAHhxAH4AiHEAfgKpeHEAfgAXcQB+AqF4cQB+ACZxAH4Cn3EAfgHjeHEAfgAXc3EAfgACc3EAfgAHAAAAAncEAAAAAnEAfgKfcQB+AiF4cQB+ABdweHEAfgAXcQB+AcBxAH4CIXhxAH4AF3B4";
    "rO0ABXNyABFqYXZhLnV0aWwuQ29sbFNlcleOq7Y6G6gRAwABSQADdGFneHAAAAAEdwQAAAAEc3IAN2lvLmdpdGh1Yi5lcmljbWVkdmV0LmpnZWEuY29yZS5yZXByZXNlbnRhdGlvbi50cmVlLlRyZWUKs7/qnQrEZQIAA0wACGNoaWxkcmVudAAQTGphdmEvdXRpbC9MaXN0O0wAB2NvbnRlbnR0ABJMamF2YS9sYW5nL09iamVjdDtMAAZwYXJlbnR0ADlMaW8vZ2l0aHViL2VyaWNtZWR2ZXQvamdlYS9jb3JlL3JlcHJlc2VudGF0aW9uL3RyZWUvVHJlZTt4cHNyABNqYXZhLnV0aWwuQXJyYXlMaXN0eIHSHZnHYZ0DAAFJAARzaXpleHAAAAACdwQAAAACc3EAfgACc3EAfgAHAAAAAncEAAAAAnNxAH4AAnNxAH4ABwAAAAB3BAAAAAB4c3IAS2lvLmdpdGh1Yi5lcmljbWVkdmV0LmpnZWEuY29yZS5yZXByZXNlbnRhdGlvbi50cmVlLm51bWVyaWMuRWxlbWVudCRDb25zdGFudAAAAAAAAAAAAgABRAAFdmFsdWV4cEAQAAAAAAAAcQB+AAlzcQB+AAJzcQB+AAcAAAAAdwQAAAAAeHNyAEtpby5naXRodWIuZXJpY21lZHZldC5qZ2VhLmNvcmUucmVwcmVzZW50YXRpb24udHJlZS5udW1lcmljLkVsZW1lbnQkVmFyaWFibGUAAAAAAAAAAAIAAUwABG5hbWV0ABJMamF2YS9sYW5nL1N0cmluZzt4cHQAA3gwMXNxAH4AAnNxAH4ABwAAAAJ3BAAAAAJzcQB+AAJzcQB+AAcAAAACdwQAAAACc3EAfgACc3EAfgAHAAAAAHcEAAAAAHhzcQB+AA1AEgAAAAAAAHEAfgAXc3EAfgACc3EAfgAHAAAAAncEAAAAAnNxAH4AAnNxAH4ABwAAAAB3BAAAAAB4cQB+AA5xAH4AHHNxAH4AAnNxAH4ABwAAAAB3BAAAAAB4cQB+ABtxAH4AHHh+cgBLaW8uZ2l0aHViLmVyaWNtZWR2ZXQuamdlYS5jb3JlLnJlcHJlc2VudGF0aW9uLnRyZWUubnVtZXJpYy5FbGVtZW50JE9wZXJhdG9yAAAAAAAAAAASAAB4cgAOamF2YS5sYW5nLkVudW0AAAAAAAAAABIAAHhwdAAOTVVMVElQTElDQVRJT05xAH4AF3h+cQB+ACJ0AA1QUk9UX0RJVklTSU9OcQB+ABVxAH4AD3hxAH4AJHNxAH4AAnNxAH4ABwAAAAJ3BAAAAAJxAH4AFXNxAH4AAnNxAH4ABwAAAAJ3BAAAAAJzcQB+AAJzcQB+AAcAAAAAdwQAAAAAeHEAfgAbcQB+ACpzcQB+AAJzcQB+AAcAAAACdwQAAAACc3EAfgACc3EAfgAHAAAAAHcEAAAAAHhxAH4ADnEAfgAuc3EAfgACc3EAfgAHAAAAAHcEAAAAAHhxAH4AG3EAfgAueHEAfgAkc3EAfgACc3EAfgAHAAAAAncEAAAAAnNxAH4AAnNxAH4ABwAAAAJ3BAAAAAJzcQB+AAJzcQB+AAcAAAAAdwQAAAAAeHEAfgAbcQB+ADZzcQB+AAJzcQB+AAcAAAACdwQAAAACc3EAfgACc3EAfgAHAAAAAHcEAAAAAHhxAH4ADnEAfgA6c3EAfgACc3EAfgAHAAAAAHcEAAAAAHhxAH4AG3EAfgA6eHEAfgAkcQB+ADZ4cQB+ACZxAH4ANHEAfgAueHEAfgAmc3EAfgACc3EAfgAHAAAAAncEAAAAAnNxAH4AAnNxAH4ABwAAAAJ3BAAAAAJzcQB+AAJzcQB+AAcAAAAAdwQAAAAAeHEAfgAOcQB+AEJzcQB+AAJzcQB+AAcAAAAAdwQAAAAAeHEAfgATcQB+AEJ4cQB+ACRxAH4AQHEAfgA0eH5xAH4AInQACEFERElUSU9OcHhxAH4AJnNxAH4AAnNxAH4ABwAAAAJ3BAAAAAJzcQB+AAJzcQB+AAcAAAAAdwQAAAAAeHEAfgAOcQB+AEpxAH4AKnhxAH4ASHB4cQB+AEhweHEAfgAkcQB+AAZxAH4AKnhxAH4ASHBzcQB+AAJzcQB+AAcAAAACdwQAAAACc3EAfgACc3EAfgAHAAAAAncEAAAAAnNxAH4AAnNxAH4ABwAAAAJ3BAAAAAJzcQB+AAJzcQB+AAcAAAAAdwQAAAAAeHNxAH4ADUAAAAAAAAAAcQB+AFJzcQB+AAJzcQB+AAcAAAACdwQAAAACc3EAfgACc3EAfgAHAAAAAHcEAAAAAHhzcQB+AA1ABAAAAAAAAHEAfgBXc3EAfgACc3EAfgAHAAAAAHcEAAAAAHhzcQB+AA0AAAAAAAAAAHNxAH4AAnNxAH4ABwAAAAJ3BAAAAAJzcQB+AAJzcQB+AAcAAAACdwQAAAACc3EAfgACc3EAfgAHAAAAAHcEAAAAAHhxAH4AXnEAfgBhc3EAfgACc3EAfgAHAAAAAHcEAAAAAHhxAH4ADnEAfgBheH5xAH4AInQACFBST1RfTE9HcQB+AF9xAH4AXHhxAH4AZ3NxAH4AAnNxAH4ABwAAAAJ3BAAAAAJzcQB+AAJzcQB+AAcAAAAAdwQAAAAAeHEAfgBWcQB+AGlxAH4AX3h+cQB+ACJ0AAtTVUJUUkFDVElPTnNxAH4AAnNxAH4ABwAAAAJ3BAAAAAJxAH4AaXNxAH4AAnNxAH4ABwAAAAJ3BAAAAAJzcQB+AAJzcQB+AAcAAAAAdwQAAAAAeHEAfgBWcQB+AHFzcQB+AAJzcQB+AAcAAAACdwQAAAACc3EAfgACc3EAfgAHAAAAAncEAAAAAnNxAH4AAnNxAH4ABwAAAAJ3BAAAAAJzcQB+AAJzcQB+AAcAAAAAdwQAAAAAeHNxAH4ADT/wAAAAAAAAcQB+AHlzcQB+AAJzcQB+AAcAAAAAdwQAAAAAeHEAfgBWc3EAfgACc3EAfgAHAAAAAncEAAAAAnNxAH4AAnNxAH4ABwAAAAB3BAAAAAB4cQB+AFZxAH4AgHEAfgB+eHEAfgBIc3EAfgACc3EAfgAHAAAAAncEAAAAAnEAfgCAc3EAfgACc3EAfgAHAAAAAHcEAAAAAHhzcQB+AA1ADAAAAAAAAHNxAH4AAnNxAH4ABwAAAAJ3BAAAAAJzcQB+AAJzcQB+AAcAAAACdwQAAAACc3EAfgACc3EAfgAHAAAAAHcEAAAAAHhxAH4AW3EAfgCLc3EAfgACc3EAfgAHAAAAAHcEAAAAAHhxAH4AXnEAfgCLeHEAfgBncQB+AIlxAH4AhnhxAH4ASHNxAH4AAnNxAH4ABwAAAAJ3BAAAAAJxAH4AiXNxAH4AAnNxAH4ABwAAAAB3BAAAAAB4cQB+AF5xAH4AkXhxAH4AbXNxAH4AAnNxAH4ABwAAAAJ3BAAAAAJzcQB+AAJzcQB+AAcAAAAAdwQAAAAAeHEAfgBWcQB+AJVxAH4AkXhxAH4AZ3NxAH4AAnNxAH4ABwAAAAJ3BAAAAAJzcQB+AAJzcQB+AAcAAAACdwQAAAACc3EAfgACc3EAfgAHAAAAAHcEAAAAAHhxAH4AVnEAfgCbc3EAfgACc3EAfgAHAAAAAncEAAAAAnNxAH4AAnNxAH4ABwAAAAB3BAAAAAB4cQB+AFtxAH4An3NxAH4AAnNxAH4ABwAAAAB3BAAAAAB4cQB+AF5xAH4An3hxAH4AZ3EAfgCbeHEAfgBtcQB+AJlxAH4AlXhxAH4ASHNxAH4AAnNxAH4ABwAAAAJ3BAAAAAJxAH4AmXNxAH4AAnNxAH4ABwAAAAJ3BAAAAAJzcQB+AAJzcQB+AAcAAAACdwQAAAACc3EAfgACc3EAfgAHAAAAAHcEAAAAAHhxAH4AVnEAfgCpc3EAfgACc3EAfgAHAAAAAncEAAAAAnNxAH4AAnNxAH4ABwAAAAB3BAAAAAB4cQB+AFtxAH4ArXNxAH4AAnNxAH4ABwAAAAB3BAAAAAB4cQB+AF5xAH4ArXhxAH4AZ3EAfgCpeHEAfgBtcQB+AKdzcQB+AAJzcQB+AAcAAAACdwQAAAACc3EAfgACc3EAfgAHAAAAAHcEAAAAAHhxAH4AVnEAfgCzc3EAfgACc3EAfgAHAAAAAncEAAAAAnNxAH4AAnNxAH4ABwAAAAJ3BAAAAAJzcQB+AAJzcQB+AAcAAAACdwQAAAACc3EAfgACc3EAfgAHAAAAAHcEAAAAAHhxAH4AfXEAfgC7c3EAfgACc3EAfgAHAAAAAHcEAAAAAHhxAH4AVnNxAH4AAnNxAH4ABwAAAAJ3BAAAAAJzcQB+AAJzcQB+AAcAAAAAdwQAAAAAeHEAfgBWcQB+AMFxAH4Av3hxAH4ASHNxAH4AAnNxAH4ABwAAAAJ3BAAAAAJxAH4AwXNxAH4AAnNxAH4ABwAAAAB3BAAAAAB4cQB+AIhzcQB+AAJzcQB+AAcAAAACdwQAAAACc3EAfgACc3EAfgAHAAAAAncEAAAAAnNxAH4AAnNxAH4ABwAAAAB3BAAAAAB4cQB+AF5xAH4Ay3NxAH4AAnNxAH4ABwAAAAB3BAAAAAB4cQB+AA5xAH4Ay3hxAH4AZ3EAfgDJcQB+AMd4cQB+AEhzcQB+AAJzcQB+AAcAAAACdwQAAAACcQB+AMlzcQB+AAJzcQB+AAcAAAACdwQAAAACc3EAfgACc3EAfgAHAAAAAHcEAAAAAHhxAH4AXnEAfgDTc3EAfgACc3EAfgAHAAAAAHcEAAAAAHhxAH4ADnEAfgDTeHEAfgBnc3EAfgACc3EAfgAHAAAAAncEAAAAAnNxAH4AAnNxAH4ABwAAAAJ3BAAAAAJzcQB+AAJzcQB+AAcAAAACdwQAAAACc3EAfgACc3EAfgAHAAAAAHcEAAAAAHhxAH4AfXEAfgDdc3EAfgACc3EAfgAHAAAAAHcEAAAAAHhxAH4AVnEAfgDdeHEAfgBIcQB+ANtzcQB+AAJzcQB+AAcAAAAAdwQAAAAAeHNxAH4ADT/4AAAAAAAAcQB+ANt4cQB+AEhxAH4A2XEAfgDTeHEAfgBtc3EAfgACc3EAfgAHAAAAAncEAAAAAnNxAH4AAnNxAH4ABwAAAAB3BAAAAAB4cQB+AFZxAH4A5nEAfgDZeHEAfgBnc3EAfgACc3EAfgAHAAAAAncEAAAAAnNxAH4AAnNxAH4ABwAAAAJ3BAAAAAJzcQB+AAJzcQB+AAcAAAAAdwQAAAAAeHEAfgBWcQB+AOxzcQB+AAJzcQB+AAcAAAACdwQAAAACc3EAfgACc3EAfgAHAAAAAHcEAAAAAHhxAH4AW3EAfgDwc3EAfgACc3EAfgAHAAAAAHcEAAAAAHhxAH4AXnEAfgDweHEAfgBncQB+AOx4cQB+AG1xAH4A6nEAfgDmeHEAfgBIc3EAfgACc3EAfgAHAAAAAncEAAAAAnNxAH4AAnNxAH4ABwAAAAJ3BAAAAAJzcQB+AAJzcQB+AAcAAAACdwQAAAACc3EAfgACc3EAfgAHAAAAAHcEAAAAAHhxAH4AVnEAfgD6c3EAfgACc3EAfgAHAAAAAncEAAAAAnNxAH4AAnNxAH4ABwAAAAB3BAAAAAB4cQB+AFtxAH4A/nNxAH4AAnNxAH4ABwAAAAB3BAAAAAB4cQB+AF5xAH4A/nhxAH4AZ3EAfgD6eHEAfgBtcQB+APhzcQB+AAJzcQB+AAcAAAACdwQAAAACc3EAfgACc3EAfgAHAAAAAHcEAAAAAHhxAH4AVnEAfgEEc3EAfgACc3EAfgAHAAAAAncEAAAAAnNxAH4AAnNxAH4ABwAAAAB3BAAAAAB4cQB+AFtxAH4BCHNxAH4AAnNxAH4ABwAAAAB3BAAAAAB4cQB+AF5xAH4BCHhxAH4AbXEAfgEEeHEAfgBncQB+APh4cQB+AEhxAH4A9nEAfgDqeHEAfgAmcHhxAH4AbXNxAH4AAnNxAH4ABwAAAAJ3BAAAAAJzcQB+AAJzcQB+AAcAAAAAdwQAAAAAeHEAfgBWcQB+AQ5xAH4A0XhxAH4AZ3NxAH4AAnNxAH4ABwAAAAJ3BAAAAAJzcQB+AAJzcQB+AAcAAAACdwQAAAACc3EAfgACc3EAfgAHAAAAAHcEAAAAAHhxAH4AVnEAfgEUc3EAfgACc3EAfgAHAAAAAncEAAAAAnNxAH4AAnNxAH4ABwAAAAB3BAAAAAB4cQB+AFtxAH4BGHNxAH4AAnNxAH4ABwAAAAB3BAAAAAB4cQB+AF5xAH4BGHhxAH4AZ3EAfgEUeHEAfgBtcQB+ARJxAH4BDnhxAH4ASHNxAH4AAnNxAH4ABwAAAAJ3BAAAAAJzcQB+AAJzcQB+AAcAAAACdwQAAAACc3EAfgACc3EAfgAHAAAAAncEAAAAAnNxAH4AAnNxAH4ABwAAAAB3BAAAAAB4cQB+AFZxAH4BInNxAH4AAnNxAH4ABwAAAAJ3BAAAAAJzcQB+AAJzcQB+AAcAAAAAdwQAAAAAeHEAfgBbcQB+ASZzcQB+AAJzcQB+AAcAAAAAdwQAAAAAeHEAfgBecQB+ASZ4cQB+AGdxAH4BInhxAH4AbXEAfgEgc3EAfgACc3EAfgAHAAAAAncEAAAAAnNxAH4AAnNxAH4ABwAAAAB3BAAAAAB4cQB+AFZxAH4BLHNxAH4AAnNxAH4ABwAAAAJ3BAAAAAJzcQB+AAJzcQB+AAcAAAAAdwQAAAAAeHEAfgAOcQB+ATBzcQB+AAJzcQB+AAcAAAACdwQAAAACc3EAfgACc3EAfgAHAAAAAHcEAAAAAHhxAH4AXnEAfgE0c3EAfgACc3EAfgAHAAAAAHcEAAAAAHhxAH4ADnEAfgE0eHEAfgBncQB+ATB4cQB+AG1xAH4BLHhxAH4AZ3EAfgEgeHEAfgBIcQB+AR5xAH4BEnhxAH4AJnB4cQB+AEhzcQB+AAJzcQB+AAcAAAACdwQAAAACcQB+AMVxAH4A03hxAH4AbXNxAH4AAnNxAH4ABwAAAAJ3BAAAAAJzcQB+AAJzcQB+AAcAAAAAdwQAAAAAeHEAfgBWcQB+ATxxAH4BOnhxAH4AZ3NxAH4AAnNxAH4ABwAAAAJ3BAAAAAJzcQB+AAJzcQB+AAcAAAACdwQAAAACc3EAfgACc3EAfgAHAAAAAHcEAAAAAHhxAH4AVnEAfgFCc3EAfgACc3EAfgAHAAAAAncEAAAAAnNxAH4AAnNxAH4ABwAAAAB3BAAAAAB4cQB+AFtxAH4BRnNxAH4AAnNxAH4ABwAAAAB3BAAAAAB4cQB+AF5xAH4BRnhxAH4AZ3EAfgFCeHEAfgBtcQB+AUBxAH4BPHhxAH4ASHNxAH4AAnNxAH4ABwAAAAJ3BAAAAAJzcQB+AAJzcQB+AAcAAAACdwQAAAACc3EAfgACc3EAfgAHAAAAAncEAAAAAnNxAH4AAnNxAH4ABwAAAAB3BAAAAAB4cQB+AFZxAH4BUHNxAH4AAnNxAH4ABwAAAAJ3BAAAAAJzcQB+AAJzcQB+AAcAAAAAdwQAAAAAeHEAfgBbcQB+AVRzcQB+AAJzcQB+AAcAAAAAdwQAAAAAeHEAfgBecQB+AVR4cQB+AGdxAH4BUHhxAH4AbXEAfgFOc3EAfgACc3EAfgAHAAAAAncEAAAAAnNxAH4AAnNxAH4ABwAAAAB3BAAAAAB4cQB+AFZxAH4BWnNxAH4AAnNxAH4ABwAAAAJ3BAAAAAJzcQB+AAJzcQB+AAcAAAAAdwQAAAAAeHEAfgAOcQB+AV5zcQB+AAJzcQB+AAcAAAACdwQAAAACc3EAfgACc3EAfgAHAAAAAHcEAAAAAHhxAH4AXnEAfgFic3EAfgACc3EAfgAHAAAAAHcEAAAAAHhxAH4ADnEAfgFieHEAfgBncQB+AV54cQB+AG1xAH4BWnhxAH4AZ3EAfgFOeHEAfgBIcQB+AUxxAH4BQHhxAH4AJnB4cQB+AEhxAH4AuXEAfgDHeHEAfgBIcQB+ALdxAH4A03hxAH4AbXEAfgCzeHEAfgBnc3EAfgACc3EAfgAHAAAAAncEAAAAAnNxAH4AAnNxAH4ABwAAAAJ3BAAAAAJzcQB+AAJzcQB+AAcAAAAAdwQAAAAAeHEAfgBecQB+AWpzcQB+AAJzcQB+AAcAAAAAdwQAAAAAeHEAfgAOcQB+AWp4cQB+AGdxAH4BaHEAfgCzeHEAfgBIc3EAfgACc3EAfgAHAAAAAncEAAAAAnNxAH4AAnNxAH4ABwAAAAJ3BAAAAAJzcQB+AAJzcQB+AAcAAAACdwQAAAACc3EAfgACc3EAfgAHAAAAAHcEAAAAAHhxAH4AVnEAfgF0c3EAfgACc3EAfgAHAAAAAncEAAAAAnNxAH4AAnNxAH4ABwAAAAB3BAAAAAB4cQB+AFtxAH4BeHNxAH4AAnNxAH4ABwAAAAB3BAAAAAB4cQB+AFZxAH4BeHhxAH4AZ3EAfgF0eHEAfgBtcQB+AXJzcQB+AAJzcQB+AAcAAAACdwQAAAACc3EAfgACc3EAfgAHAAAAAHcEAAAAAHhxAH4AVnEAfgF+c3EAfgACc3EAfgAHAAAAAncEAAAAAnNxAH4AAnNxAH4ABwAAAAJ3BAAAAAJzcQB+AAJzcQB+AAcAAAACdwQAAAACc3EAfgACc3EAfgAHAAAAAHcEAAAAAHhxAH4AfXEAfgGGc3EAfgACc3EAfgAHAAAAAHcEAAAAAHhxAH4AVnEAfgGGeHEAfgBIcQB+AYRzcQB+AAJzcQB+AAcAAAACdwQAAAACc3EAfgACc3EAfgAHAAAAAncEAAAAAnNxAH4AAnNxAH4ABwAAAAB3BAAAAAB4cQB+AH1xAH4BjnNxAH4AAnNxAH4ABwAAAAB3BAAAAAB4cQB+AFZxAH4BjnhxAH4ASHEAfgGMc3EAfgACc3EAfgAHAAAAAHcEAAAAAHhxAH4AiHEAfgGMeHEAfgBIcQB+AYR4cQB+AEhxAH4BgnNxAH4AAnNxAH4ABwAAAAJ3BAAAAAJzcQB+AAJzcQB+AAcAAAAAdwQAAAAAeHEAfgBecQB+AZZzcQB+AAJzcQB+AAcAAAAAdwQAAAAAeHEAfgAOcQB+AZZ4cQB+AGdxAH4BgnhxAH4AbXEAfgF+eHEAfgBncQB+AXJ4cQB+AEhxAH4BcHEAfgFoeHEAfgAmcHhxAH4ASHNxAH4AAnNxAH4ABwAAAAJ3BAAAAAJzcQB+AAJzcQB+AAcAAAACdwQAAAACc3EAfgACc3EAfgAHAAAAAncEAAAAAnNxAH4AAnNxAH4ABwAAAAB3BAAAAAB4cQB+AFZxAH4BoHNxAH4AAnNxAH4ABwAAAAJ3BAAAAAJzcQB+AAJzcQB+AAcAAAAAdwQAAAAAeHEAfgB9cQB+AaRzcQB+AAJzcQB+AAcAAAAAdwQAAAAAeHEAfgBecQB+AaR4cQB+AGdxAH4BoHhxAH4AbXEAfgGec3EAfgACc3EAfgAHAAAAAncEAAAAAnNxAH4AAnNxAH4ABwAAAAB3BAAAAAB4cQB+AFZxAH4BqnNxAH4AAnNxAH4ABwAAAAJ3BAAAAAJzcQB+AAJzcQB+AAcAAAACdwQAAAACc3EAfgACc3EAfgAHAAAAAncEAAAAAnNxAH4AAnNxAH4ABwAAAAB3BAAAAAB4cQB+AH1xAH4BsnNxAH4AAnNxAH4ABwAAAAB3BAAAAAB4cQB+AFZzcQB+AAJzcQB+AAcAAAACdwQAAAACc3EAfgACc3EAfgAHAAAAAHcEAAAAAHhxAH4AVnEAfgG4cQB+AbZ4cQB+AEhzcQB+AAJzcQB+AAcAAAACdwQAAAACcQB+AbhzcQB+AAJzcQB+AAcAAAAAdwQAAAAAeHEAfgCIcQB+Abx4cQB+AEhzcQB+AAJzcQB+AAcAAAACdwQAAAACcQB+AbxzcQB+AAJzcQB+AAcAAAACdwQAAAACc3EAfgACc3EAfgAHAAAAAncEAAAAAnNxAH4AAnNxAH4ABwAAAAJ3BAAAAAJzcQB+AAJzcQB+AAcAAAAAdwQAAAAAeHEAfgB9cQB+AcZzcQB+AAJzcQB+AAcAAAAAdwQAAAAAeHEAfgBWcQB+AcZ4cQB+AEhxAH4BxHNxAH4AAnNxAH4ABwAAAAB3BAAAAAB4cQB+AIhxAH4BxHhxAH4ASHEAfgHCc3EAfgACc3EAfgAHAAAAAncEAAAAAnNxAH4AAnNxAH4ABwAAAAB3BAAAAAB4cQB+AF5xAH4BznNxAH4AAnNxAH4ABwAAAAB3BAAAAAB4cQB+AA5xAH4BznhxAH4AZ3EAfgHCeHEAfgBtc3EAfgACc3EAfgAHAAAAAncEAAAAAnNxAH4AAnNxAH4ABwAAAAB3BAAAAAB4cQB+AFZxAH4B1HEAfgHCeHEAfgBtc3EAfgACc3EAfgAHAAAAAncEAAAAAnNxAH4AAnNxAH4ABwAAAAB3BAAAAAB4cQB+AFZxAH4B2HEAfgHUeHEAfgBnc3EAfgACc3EAfgAHAAAAAncEAAAAAnNxAH4AAnNxAH4ABwAAAAJ3BAAAAAJzcQB+AAJzcQB+AAcAAAAAdwQAAAAAeHEAfgBWcQB+Ad5zcQB+AAJzcQB+AAcAAAACdwQAAAACc3EAfgACc3EAfgAHAAAAAHcEAAAAAHhxAH4AW3EAfgHic3EAfgACc3EAfgAHAAAAAHcEAAAAAHhxAH4AXnEAfgHieHEAfgBncQB+Ad54cQB+AG1xAH4B3HEAfgHYeHEAfgBIc3EAfgACc3EAfgAHAAAAAncEAAAAAnEAfgHccQB+AKd4cQB+ACZweHEAfgBtc3EAfgACc3EAfgAHAAAAAncEAAAAAnNxAH4AAnNxAH4ABwAAAAB3BAAAAAB4cQB+AFZxAH4B6nEAfgHAeHEAfgBnc3EAfgACc3EAfgAHAAAAAncEAAAAAnNxAH4AAnNxAH4ABwAAAAJ3BAAAAAJzcQB+AAJzcQB+AAcAAAAAdwQAAAAAeHEAfgBWcQB+AfBzcQB+AAJzcQB+AAcAAAACdwQAAAACc3EAfgACc3EAfgAHAAAAAHcEAAAAAHhxAH4AW3EAfgH0c3EAfgACc3EAfgAHAAAAAHcEAAAAAHhxAH4AXnEAfgH0eHEAfgBncQB+AfB4cQB+AG1xAH4B7nEAfgHqeHEAfgBIc3EAfgACc3EAfgAHAAAAAncEAAAAAnEAfgHucQB+AKd4cQB+ACZweHEAfgBIcQB+AbBxAH4BvnhxAH4ASHEAfgGucQB+AcJ4cQB+AG1xAH4BqnhxAH4AZ3EAfgGeeHEAfgBIcQB+AZxxAH4Ap3hxAH4AJnB4cQB+ACZweHEAfgBIc3EAfgACc3EAfgAHAAAAAncEAAAAAnEAfgCEcQB+AJN4cQB+AG1zcQB+AAJzcQB+AAcAAAACdwQAAAACc3EAfgACc3EAfgAHAAAAAHcEAAAAAHhxAH4AVnEAfgH+cQB+Afx4cQB+AGdzcQB+AAJzcQB+AAcAAAACdwQAAAACc3EAfgACc3EAfgAHAAAAAncEAAAAAnNxAH4AAnNxAH4ABwAAAAB3BAAAAAB4cQB+AFZxAH4CBHNxAH4AAnNxAH4ABwAAAAJ3BAAAAAJzcQB+AAJzcQB+AAcAAAAAdwQAAAAAeHEAfgBbcQB+AghzcQB+AAJzcQB+AAcAAAAAdwQAAAAAeHEAfgBWcQB+Agh4cQB+AGdxAH4CBHhxAH4AbXEAfgICcQB+Af54cQB+AEhzcQB+AAJzcQB+AAcAAAACdwQAAAACcQB+AgJxAH4Ap3hxAH4AJnB4cQB+AEhxAH4Ad3EAfgCGeHEAfgBIcQB+AHVxAH4Ak3hxAH4AbXEAfgBxeHEAfgBnc3EAfgACc3EAfgAHAAAAAncEAAAAAnNxAH4AAnNxAH4ABwAAAAJ3BAAAAAJzcQB+AAJzcQB+AAcAAAACdwQAAAACc3EAfgACc3EAfgAHAAAAAncEAAAAAnNxAH4AAnNxAH4ABwAAAAJ3BAAAAAJzcQB+AAJzcQB+AAcAAAAAdwQAAAAAeHEAfgB9cQB+AhhzcQB+AAJzcQB+AAcAAAAAdwQAAAAAeHEAfgBWcQB+Ahh4cQB+AEhxAH4CFnNxAH4AAnNxAH4ABwAAAAB3BAAAAAB4cQB+AIhxAH4CFnhxAH4ASHEAfgIUc3EAfgACc3EAfgAHAAAAAncEAAAAAnNxAH4AAnNxAH4ABwAAAAJ3BAAAAAJzcQB+AAJzcQB+AAcAAAACdwQAAAACc3EAfgACc3EAfgAHAAAAAHcEAAAAAHhxAH4AfXEAfgIkc3EAfgACc3EAfgAHAAAAAHcEAAAAAHhxAH4AVnEAfgIkeHEAfgBIcQB+AiJzcQB+AAJzcQB+AAcAAAAAdwQAAAAAeHEAfgCIcQB+AiJ4cQB+AEhxAH4CIHNxAH4AAnNxAH4ABwAAAAJ3BAAAAAJzcQB+AAJzcQB+AAcAAAAAdwQAAAAAeHEAfgBecQB+AixzcQB+AAJzcQB+AAcAAAAAdwQAAAAAeHEAfgAOcQB+Aix4cQB+AGdxAH4CIHhxAH4AbXEAfgIUeHEAfgBtcQB+AhJzcQB+AAJzcQB+AAcAAAACdwQAAAACc3EAfgACc3EAfgAHAAAAAHcEAAAAAHhxAH4AW3EAfgIyc3EAfgACc3EAfgAHAAAAAHcEAAAAAHhxAH4AVnNxAH4AAnNxAH4ABwAAAAJ3BAAAAAJzcQB+AAJzcQB+AAcAAAACdwQAAAACc3EAfgACc3EAfgAHAAAAAncEAAAAAnNxAH4AAnNxAH4ABwAAAAJ3BAAAAAJzcQB+AAJzcQB+AAcAAAAAdwQAAAAAeHEAfgB9cQB+Aj5zcQB+AAJzcQB+AAcAAAAAdwQAAAAAeHEAfgBWcQB+Aj54cQB+AEhxAH4CPHNxAH4AAnNxAH4ABwAAAAB3BAAAAAB4cQB+AIhxAH4CPHhxAH4ASHEAfgI6c3EAfgACc3EAfgAHAAAAAncEAAAAAnNxAH4AAnNxAH4ABwAAAAB3BAAAAAB4cQB+AF5xAH4CRnNxAH4AAnNxAH4ABwAAAAB3BAAAAAB4cQB+AA5xAH4CRnhxAH4AZ3EAfgI6eHEAfgBtcQB+AjhxAH4CNnhxAH4AZ3NxAH4AAnNxAH4ABwAAAAJ3BAAAAAJzcQB+AAJzcQB+AAcAAAAAdwQAAAAAeHEAfgBWcQB+AkxxAH4COHhxAH4AbXNxAH4AAnNxAH4ABwAAAAJ3BAAAAAJxAH4CTHEAfgBxeHEAfgBIc3EAfgACc3EAfgAHAAAAAncEAAAAAnEAfgJQcQB+AKd4cQB+ACZweHEAfgBncQB+AhJ4cQB+AG1xAH4CEHEAfgBxeHEAfgBIc3EAfgACc3EAfgAHAAAAAncEAAAAAnEAfgIQcQB+AKd4cQB+ACZweHEAfgBIc3EAfgACc3EAfgAHAAAAAncEAAAAAnEAfgBvcQB+AKd4cQB+ACZweHEAfgBnc3EAfgACc3EAfgAHAAAAAncEAAAAAnNxAH4AAnNxAH4ABwAAAAJ3BAAAAAJzcQB+AAJzcQB+AAcAAAAAdwQAAAAAeHEAfgBecQB+AlpzcQB+AAJzcQB+AAcAAAAAdwQAAAAAeHNxAH4AEXQAA3gxNXEAfgJaeHEAfgAkcQB+AlhxAH4AV3hxAH4AbXNxAH4AAnNxAH4ABwAAAAJ3BAAAAAJxAH4CWHEAfgBxeHEAfgBIc3EAfgACc3EAfgAHAAAAAncEAAAAAnEAfgJicQB+AKd4cQB+ACZweHEAfgBtcQB+AFBxAH4AcXhxAH4ASHEAfgBOcQB+AKd4cQB+ACZwc3EAfgACc3EAfgAHAAAAAHcEAAAAAHhzcQB+ABF0AAN4MDRwc3EAfgACc3EAfgAHAAAAAncEAAAAAnNxAH4AAnNxAH4ABwAAAAJ3BAAAAAJzcQB+AAJzcQB+AAcAAAACdwQAAAACc3EAfgACc3EAfgAHAAAAAncEAAAAAnNxAH4AAnNxAH4ABwAAAAJ3BAAAAAJzcQB+AAJzcQB+AAcAAAACdwQAAAACc3EAfgACc3EAfgAHAAAAAHcEAAAAAHhxAH4AiHEAfgJ0c3EAfgACc3EAfgAHAAAAAHcEAAAAAHhzcQB+ABF0AAN4MTFxAH4CdHhxAH4AZ3EAfgJyc3EAfgACc3EAfgAHAAAAAncEAAAAAnNxAH4AAnNxAH4ABwAAAAB3BAAAAAB4c3EAfgARdAADeDE0cQB+AnxzcQB+AAJzcQB+AAcAAAACdwQAAAACc3EAfgACc3EAfgAHAAAAAHcEAAAAAHhzcQB+ABF0AAN4MTZxAH4CgnNxAH4AAnNxAH4ABwAAAAB3BAAAAAB4c3EAfgARdAADeDEzcQB+AoJ4cQB+AG1zcQB+AAJzcQB+AAcAAAACdwQAAAACc3EAfgACc3EAfgAHAAAAAHcEAAAAAHhxAH4CYHEAfgKMcQB+AoJ4cQB+ACZzcQB+AAJzcQB+AAcAAAACdwQAAAACc3EAfgACc3EAfgAHAAAAAncEAAAAAnNxAH4AAnNxAH4ABwAAAAB3BAAAAAB4cQB+AIhxAH4CknNxAH4AAnNxAH4ABwAAAAB3BAAAAAB4cQB+AnpxAH4CknhxAH4AZ3EAfgKQcQB+Aox4cQB+AGdzcQB+AAJzcQB+AAcAAAACdwQAAAACcQB+ApBzcQB+AAJzcQB+AAcAAAAAdwQAAAAAeHEAfgCIc3EAfgACc3EAfgAHAAAAAncEAAAAAnNxAH4AAnNxAH4ABwAAAAJ3BAAAAAJzcQB+AAJzcQB+AAcAAAACdwQAAAACc3EAfgACc3EAfgAHAAAAAHcEAAAAAHhxAH4AiHEAfgKgc3EAfgACc3EAfgAHAAAAAHcEAAAAAHhxAH4CenEAfgKgeHEAfgBncQB+Ap5zcQB+AAJzcQB+AAcAAAACdwQAAAACc3EAfgACc3EAfgAHAAAAAHcEAAAAAHhxAH4CgHEAfgKmc3EAfgACc3EAfgAHAAAAAncEAAAAAnNxAH4AAnNxAH4ABwAAAAB3BAAAAAB4cQB+AoZxAH4CqnNxAH4AAnNxAH4ABwAAAAB3BAAAAAB4cQB+AmBxAH4CqnhxAH4AbXEAfgKmeHEAfgAmcQB+Ap54cQB+AGdxAH4CnHEAfgKaeHEAfgAmc3EAfgACc3EAfgAHAAAAAncEAAAAAnEAfgKcc3EAfgACc3EAfgAHAAAAAncEAAAAAnNxAH4AAnNxAH4ABwAAAAB3BAAAAAB4c3EAfgANQAgAAAAAAABxAH4CsnNxAH4AAnNxAH4ABwAAAAJ3BAAAAAJzcQB+AAJzcQB+AAcAAAAAdwQAAAAAeHEAfgKGcQB+ArdzcQB+AAJzcQB+AAcAAAAAdwQAAAAAeHEAfgKKcQB+Ard4cQB+AG1xAH4CsnhxAH4AJHEAfgKweHEAfgBIc3EAfgACc3EAfgAHAAAAAncEAAAAAnEAfgKwc3EAfgACc3EAfgAHAAAAAHcEAAAAAHhxAH4CYHEAfgK9eHEAfgAkc3EAfgACc3EAfgAHAAAAAncEAAAAAnEAfgK9c3EAfgACc3EAfgAHAAAAAncEAAAAAnNxAH4AAnNxAH4ABwAAAAB3BAAAAAB4cQB+AF5xAH4Cw3NxAH4AAnNxAH4ABwAAAAB3BAAAAAB4cQB+AmBzcQB+AAJzcQB+AAcAAAACdwQAAAACc3EAfgACc3EAfgAHAAAAAncEAAAAAnNxAH4AAnNxAH4ABwAAAAJ3BAAAAAJzcQB+AAJzcQB+AAcAAAAAdwQAAAAAeHEAfgJ6cQB+As1zcQB+AAJzcQB+AAcAAAAAdwQAAAAAeHEAfgJ6cQB+As14cQB+AGdxAH4Cy3NxAH4AAnNxAH4ABwAAAAB3BAAAAAB4cQB+AIhxAH4Cy3hxAH4AZ3EAfgLJcQB+Asd4cQB+AGdzcQB+AAJzcQB+AAcAAAACdwQAAAACc3EAfgACc3EAfgAHAAAAAncEAAAAAnNxAH4AAnNxAH4ABwAAAAJ3BAAAAAJzcQB+AAJzcQB+AAcAAAACdwQAAAACc3EAfgACc3EAfgAHAAAAAHcEAAAAAHhxAH4CenEAfgLbc3EAfgACc3EAfgAHAAAAAHcEAAAAAHhxAH4AiHEAfgLbeHEAfgAmcQB+AtlzcQB+AAJzcQB+AAcAAAACdwQAAAACc3EAfgACc3EAfgAHAAAAAHcEAAAAAHhxAH4CtnEAfgLhc3EAfgACc3EAfgAHAAAAAncEAAAAAnNxAH4AAnNxAH4ABwAAAAB3BAAAAAB4cQB+AoZxAH4C5XNxAH4AAnNxAH4ABwAAAAB3BAAAAAB4cQB+AopxAH4C5XhxAH4AbXEAfgLheHEAfgAkcQB+Atl4cQB+AEhxAH4C13NxAH4AAnNxAH4ABwAAAAJ3BAAAAAJzcQB+AAJzcQB+AAcAAAACdwQAAAACc3EAfgACc3EAfgAHAAAAAHcEAAAAAHhxAH4CgHEAfgLtc3EAfgACc3EAfgAHAAAAAHcEAAAAAHhxAH4AE3EAfgLteHEAfgBncQB+AutzcQB+AAJzcQB+AAcAAAAAdwQAAAAAeHEAfgATcQB+Aut4cQB+AG1xAH4C13hxAH4AJHEAfgLVcQB+Asl4cQB+ACRweHEAfgBncQB+AsF4cQB+ACRweHEAfgAmc3EAfgACc3EAfgAHAAAAAncEAAAAAnEAfgKYcQB+ArJ4cQB+AEhzcQB+AAJzcQB+AAcAAAACdwQAAAACcQB+AvVxAH4Cv3hxAH4AJHNxAH4AAnNxAH4ABwAAAAJ3BAAAAAJxAH4C93EAfgLDeHEAfgAkcHhxAH4AJnEAfgJyeHEAfgBncQB+AnBxAH4CmnhxAH4AJnEAfgJucQB+ArJ4cQB+AEhxAH4CbHEAfgK/eHEAfgAkcQB+AmpxAH4Cw3hxAH4AJHB4";
    "rO0ABXNyABFqYXZhLnV0aWwuQ29sbFNlcleOq7Y6G6gRAwABSQADdGFneHAAAAAEdwQAAAAEc3IAN2lvLmdpdGh1Yi5lcmljbWVkdmV0LmpnZWEuY29yZS5yZXByZXNlbnRhdGlvbi50cmVlLlRyZWUKs7/qnQrEZQIAA0wACGNoaWxkcmVudAAQTGphdmEvdXRpbC9MaXN0O0wAB2NvbnRlbnR0ABJMamF2YS9sYW5nL09iamVjdDtMAAZwYXJlbnR0ADlMaW8vZ2l0aHViL2VyaWNtZWR2ZXQvamdlYS9jb3JlL3JlcHJlc2VudGF0aW9uL3RyZWUvVHJlZTt4cHNyABNqYXZhLnV0aWwuQXJyYXlMaXN0eIHSHZnHYZ0DAAFJAARzaXpleHAAAAACdwQAAAACc3EAfgACc3EAfgAHAAAAAncEAAAAAnNxAH4AAnNxAH4ABwAAAAB3BAAAAAB4c3IAS2lvLmdpdGh1Yi5lcmljbWVkdmV0LmpnZWEuY29yZS5yZXByZXNlbnRhdGlvbi50cmVlLm51bWVyaWMuRWxlbWVudCRDb25zdGFudAAAAAAAAAAAAgABRAAFdmFsdWV4cEAQAAAAAAAAcQB+AAlzcQB+AAJzcQB+AAcAAAAAdwQAAAAAeHNyAEtpby5naXRodWIuZXJpY21lZHZldC5qZ2VhLmNvcmUucmVwcmVzZW50YXRpb24udHJlZS5udW1lcmljLkVsZW1lbnQkVmFyaWFibGUAAAAAAAAAAAIAAUwABG5hbWV0ABJMamF2YS9sYW5nL1N0cmluZzt4cHQAA3gwMXNxAH4AAnNxAH4ABwAAAAJ3BAAAAAJzcQB+AAJzcQB+AAcAAAACdwQAAAACc3EAfgACc3EAfgAHAAAAAHcEAAAAAHhzcQB+AA1AEgAAAAAAAHEAfgAXc3EAfgACc3EAfgAHAAAAAncEAAAAAnNxAH4AAnNxAH4ABwAAAAB3BAAAAAB4cQB+AA5xAH4AHHNxAH4AAnNxAH4ABwAAAAB3BAAAAAB4cQB+ABtxAH4AHHh+cgBLaW8uZ2l0aHViLmVyaWNtZWR2ZXQuamdlYS5jb3JlLnJlcHJlc2VudGF0aW9uLnRyZWUubnVtZXJpYy5FbGVtZW50JE9wZXJhdG9yAAAAAAAAAAASAAB4cgAOamF2YS5sYW5nLkVudW0AAAAAAAAAABIAAHhwdAAOTVVMVElQTElDQVRJT05xAH4AF3h+cQB+ACJ0AA1QUk9UX0RJVklTSU9OcQB+ABVxAH4AD3hxAH4AJHNxAH4AAnNxAH4ABwAAAAJ3BAAAAAJxAH4AFXNxAH4AAnNxAH4ABwAAAAJ3BAAAAAJzcQB+AAJzcQB+AAcAAAAAdwQAAAAAeHEAfgAbcQB+ACpzcQB+AAJzcQB+AAcAAAACdwQAAAACc3EAfgACc3EAfgAHAAAAAHcEAAAAAHhxAH4ADnEAfgAuc3EAfgACc3EAfgAHAAAAAHcEAAAAAHhxAH4AG3EAfgAueHEAfgAkc3EAfgACc3EAfgAHAAAAAncEAAAAAnNxAH4AAnNxAH4ABwAAAAJ3BAAAAAJzcQB+AAJzcQB+AAcAAAAAdwQAAAAAeHEAfgAbcQB+ADZzcQB+AAJzcQB+AAcAAAACdwQAAAACc3EAfgACc3EAfgAHAAAAAHcEAAAAAHhxAH4ADnEAfgA6c3EAfgACc3EAfgAHAAAAAHcEAAAAAHhxAH4AG3EAfgA6eHEAfgAkcQB+ADZ4cQB+ACZxAH4ANHEAfgAueHEAfgAmc3EAfgACc3EAfgAHAAAAAncEAAAAAnNxAH4AAnNxAH4ABwAAAAJ3BAAAAAJzcQB+AAJzcQB+AAcAAAAAdwQAAAAAeHEAfgAOcQB+AEJzcQB+AAJzcQB+AAcAAAAAdwQAAAAAeHEAfgATcQB+AEJ4cQB+ACRxAH4AQHEAfgA0eH5xAH4AInQACEFERElUSU9OcHhxAH4AJnNxAH4AAnNxAH4ABwAAAAJ3BAAAAAJzcQB+AAJzcQB+AAcAAAAAdwQAAAAAeHEAfgAOcQB+AEpxAH4AKnhxAH4ASHB4cQB+AEhweHEAfgAkcQB+AAZxAH4AKnhxAH4ASHBzcQB+AAJzcQB+AAcAAAACdwQAAAACc3EAfgACc3EAfgAHAAAAAncEAAAAAnNxAH4AAnNxAH4ABwAAAAJ3BAAAAAJzcQB+AAJzcQB+AAcAAAAAdwQAAAAAeHNxAH4ADUAAAAAAAAAAcQB+AFJzcQB+AAJzcQB+AAcAAAACdwQAAAACc3EAfgACc3EAfgAHAAAAAHcEAAAAAHhzcQB+AA1ABAAAAAAAAHEAfgBXc3EAfgACc3EAfgAHAAAAAHcEAAAAAHhzcQB+AA0AAAAAAAAAAHEAfgBXeH5xAH4AInQACFBST1RfTE9HcQB+AFJ4fnEAfgAidAALU1VCVFJBQ1RJT05xAH4AUHNxAH4AAnNxAH4ABwAAAAJ3BAAAAAJzcQB+AAJzcQB+AAcAAAAAdwQAAAAAeHEAfgBWcQB+AGNzcQB+AAJzcQB+AAcAAAACdwQAAAACc3EAfgACc3EAfgAHAAAAAHcEAAAAAHhxAH4AW3EAfgBnc3EAfgACc3EAfgAHAAAAAHcEAAAAAHhxAH4AXnNxAH4AAnNxAH4ABwAAAAJ3BAAAAAJzcQB+AAJzcQB+AAcAAAACdwQAAAACc3EAfgACc3EAfgAHAAAAAncEAAAAAnNxAH4AAnNxAH4ABwAAAAB3BAAAAAB4cQB+AFtxAH4AcXNxAH4AAnNxAH4ABwAAAAB3BAAAAAB4cQB+AF5xAH4AcXhxAH4AX3EAfgBvc3EAfgACc3EAfgAHAAAAAHcEAAAAAHhzcQB+AA1ADAAAAAAAAHEAfgBveHEAfgBIcQB+AG1xAH4Aa3hxAH4AYXNxAH4AAnNxAH4ABwAAAAJ3BAAAAAJzcQB+AAJzcQB+AAcAAAAAdwQAAAAAeHEAfgBWcQB+AHpxAH4AbXhxAH4AX3NxAH4AAnNxAH4ABwAAAAJ3BAAAAAJzcQB+AAJzcQB+AAcAAAACdwQAAAACc3EAfgACc3EAfgAHAAAAAHcEAAAAAHhxAH4AVnEAfgCAc3EAfgACc3EAfgAHAAAAAncEAAAAAnNxAH4AAnNxAH4ABwAAAAB3BAAAAAB4cQB+AFtxAH4AhHNxAH4AAnNxAH4ABwAAAAB3BAAAAAB4cQB+AF5xAH4AhHhxAH4AX3EAfgCAeHEAfgBhcQB+AH5xAH4AenhxAH4ASHNxAH4AAnNxAH4ABwAAAAJ3BAAAAAJxAH4AfnNxAH4AAnNxAH4ABwAAAAJ3BAAAAAJzcQB+AAJzcQB+AAcAAAACdwQAAAACc3EAfgACc3EAfgAHAAAAAHcEAAAAAHhxAH4AVnEAfgCOc3EAfgACc3EAfgAHAAAAAncEAAAAAnNxAH4AAnNxAH4ABwAAAAB3BAAAAAB4cQB+AFtxAH4AknNxAH4AAnNxAH4ABwAAAAB3BAAAAAB4cQB+AF5xAH4AknhxAH4AX3EAfgCOeHEAfgBhcQB+AIxzcQB+AAJzcQB+AAcAAAACdwQAAAACc3EAfgACc3EAfgAHAAAAAHcEAAAAAHhxAH4AVnEAfgCYc3EAfgACc3EAfgAHAAAAAncEAAAAAnNxAH4AAnNxAH4ABwAAAAJ3BAAAAAJzcQB+AAJzcQB+AAcAAAACdwQAAAACc3EAfgACc3EAfgAHAAAAAHcEAAAAAHhzcQB+AA0/8AAAAAAAAHEAfgCgc3EAfgACc3EAfgAHAAAAAHcEAAAAAHhxAH4AVnNxAH4AAnNxAH4ABwAAAAJ3BAAAAAJzcQB+AAJzcQB+AAcAAAAAdwQAAAAAeHEAfgBWcQB+AKdxAH4ApXhxAH4ASHNxAH4AAnNxAH4ABwAAAAJ3BAAAAAJxAH4Ap3NxAH4AAnNxAH4ABwAAAAB3BAAAAAB4cQB+AHlzcQB+AAJzcQB+AAcAAAACdwQAAAACc3EAfgACc3EAfgAHAAAAAncEAAAAAnNxAH4AAnNxAH4ABwAAAAB3BAAAAAB4cQB+AF5xAH4AsXNxAH4AAnNxAH4ABwAAAAB3BAAAAAB4cQB+AA5xAH4AsXhxAH4AX3EAfgCvcQB+AK14cQB+AEhzcQB+AAJzcQB+AAcAAAACdwQAAAACcQB+AK9zcQB+AAJzcQB+AAcAAAACdwQAAAACc3EAfgACc3EAfgAHAAAAAHcEAAAAAHhxAH4AXnEAfgC5c3EAfgACc3EAfgAHAAAAAHcEAAAAAHhxAH4ADnEAfgC5eHEAfgBfc3EAfgACc3EAfgAHAAAAAncEAAAAAnNxAH4AAnNxAH4ABwAAAAJ3BAAAAAJzcQB+AAJzcQB+AAcAAAACdwQAAAACc3EAfgACc3EAfgAHAAAAAHcEAAAAAHhxAH4ApHEAfgDDc3EAfgACc3EAfgAHAAAAAHcEAAAAAHhxAH4AVnEAfgDDeHEAfgBIcQB+AMFzcQB+AAJzcQB+AAcAAAAAdwQAAAAAeHNxAH4ADT/4AAAAAAAAcQB+AMF4cQB+AEhxAH4Av3EAfgC5eHEAfgBhc3EAfgACc3EAfgAHAAAAAncEAAAAAnNxAH4AAnNxAH4ABwAAAAB3BAAAAAB4cQB+AFZxAH4AzHEAfgC/eHEAfgBfc3EAfgACc3EAfgAHAAAAAncEAAAAAnNxAH4AAnNxAH4ABwAAAAJ3BAAAAAJzcQB+AAJzcQB+AAcAAAAAdwQAAAAAeHEAfgBWcQB+ANJzcQB+AAJzcQB+AAcAAAACdwQAAAACc3EAfgACc3EAfgAHAAAAAHcEAAAAAHhxAH4AW3EAfgDWc3EAfgACc3EAfgAHAAAAAHcEAAAAAHhxAH4AXnEAfgDWeHEAfgBfcQB+ANJ4cQB+AGFxAH4A0HEAfgDMeHEAfgBIc3EAfgACc3EAfgAHAAAAAncEAAAAAnNxAH4AAnNxAH4ABwAAAAJ3BAAAAAJzcQB+AAJzcQB+AAcAAAACdwQAAAACc3EAfgACc3EAfgAHAAAAAHcEAAAAAHhxAH4AVnEAfgDgc3EAfgACc3EAfgAHAAAAAncEAAAAAnNxAH4AAnNxAH4ABwAAAAB3BAAAAAB4cQB+AFtxAH4A5HNxAH4AAnNxAH4ABwAAAAB3BAAAAAB4cQB+AF5xAH4A5HhxAH4AX3EAfgDgeHEAfgBhcQB+AN5zcQB+AAJzcQB+AAcAAAACdwQAAAACc3EAfgACc3EAfgAHAAAAAHcEAAAAAHhxAH4AVnEAfgDqc3EAfgACc3EAfgAHAAAAAncEAAAAAnNxAH4AAnNxAH4ABwAAAAB3BAAAAAB4cQB+AFtxAH4A7nNxAH4AAnNxAH4ABwAAAAB3BAAAAAB4cQB+AF5xAH4A7nhxAH4AYXEAfgDqeHEAfgBfcQB+AN54cQB+AEhxAH4A3HEAfgDQeHEAfgAmcHhxAH4AYXNxAH4AAnNxAH4ABwAAAAJ3BAAAAAJzcQB+AAJzcQB+AAcAAAAAdwQAAAAAeHEAfgBWcQB+APRxAH4At3hxAH4AX3NxAH4AAnNxAH4ABwAAAAJ3BAAAAAJzcQB+AAJzcQB+AAcAAAACdwQAAAACc3EAfgACc3EAfgAHAAAAAHcEAAAAAHhxAH4AVnEAfgD6c3EAfgACc3EAfgAHAAAAAncEAAAAAnNxAH4AAnNxAH4ABwAAAAB3BAAAAAB4cQB+AFtxAH4A/nNxAH4AAnNxAH4ABwAAAAB3BAAAAAB4cQB+AF5xAH4A/nhxAH4AX3EAfgD6eHEAfgBhcQB+APhxAH4A9HhxAH4ASHNxAH4AAnNxAH4ABwAAAAJ3BAAAAAJzcQB+AAJzcQB+AAcAAAACdwQAAAACc3EAfgACc3EAfgAHAAAAAncEAAAAAnNxAH4AAnNxAH4ABwAAAAB3BAAAAAB4cQB+AFZxAH4BCHNxAH4AAnNxAH4ABwAAAAJ3BAAAAAJzcQB+AAJzcQB+AAcAAAAAdwQAAAAAeHEAfgBbcQB+AQxzcQB+AAJzcQB+AAcAAAAAdwQAAAAAeHEAfgBecQB+AQx4cQB+AF9xAH4BCHhxAH4AYXEAfgEGc3EAfgACc3EAfgAHAAAAAncEAAAAAnNxAH4AAnNxAH4ABwAAAAB3BAAAAAB4cQB+AFZxAH4BEnNxAH4AAnNxAH4ABwAAAAJ3BAAAAAJzcQB+AAJzcQB+AAcAAAAAdwQAAAAAeHEAfgAOcQB+ARZzcQB+AAJzcQB+AAcAAAACdwQAAAACc3EAfgACc3EAfgAHAAAAAHcEAAAAAHhxAH4AXnEAfgEac3EAfgACc3EAfgAHAAAAAHcEAAAAAHhxAH4ADnEAfgEaeHEAfgBfcQB+ARZ4cQB+AGFxAH4BEnhxAH4AX3EAfgEGeHEAfgBIcQB+AQRxAH4A+HhxAH4AJnB4cQB+AEhzcQB+AAJzcQB+AAcAAAACdwQAAAACcQB+AKtxAH4AuXhxAH4AYXNxAH4AAnNxAH4ABwAAAAJ3BAAAAAJzcQB+AAJzcQB+AAcAAAAAdwQAAAAAeHEAfgBWcQB+ASJxAH4BIHhxAH4AX3NxAH4AAnNxAH4ABwAAAAJ3BAAAAAJzcQB+AAJzcQB+AAcAAAACdwQAAAACc3EAfgACc3EAfgAHAAAAAHcEAAAAAHhxAH4AVnEAfgEoc3EAfgACc3EAfgAHAAAAAncEAAAAAnNxAH4AAnNxAH4ABwAAAAB3BAAAAAB4cQB+AFtxAH4BLHNxAH4AAnNxAH4ABwAAAAB3BAAAAAB4cQB+AF5xAH4BLHhxAH4AX3EAfgEoeHEAfgBhcQB+ASZxAH4BInhxAH4ASHNxAH4AAnNxAH4ABwAAAAJ3BAAAAAJzcQB+AAJzcQB+AAcAAAACdwQAAAACc3EAfgACc3EAfgAHAAAAAncEAAAAAnNxAH4AAnNxAH4ABwAAAAB3BAAAAAB4cQB+AFZxAH4BNnNxAH4AAnNxAH4ABwAAAAJ3BAAAAAJzcQB+AAJzcQB+AAcAAAAAdwQAAAAAeHEAfgBbcQB+ATpzcQB+AAJzcQB+AAcAAAAAdwQAAAAAeHEAfgBecQB+ATp4cQB+AF9xAH4BNnhxAH4AYXEAfgE0c3EAfgACc3EAfgAHAAAAAncEAAAAAnNxAH4AAnNxAH4ABwAAAAB3BAAAAAB4cQB+AFZxAH4BQHNxAH4AAnNxAH4ABwAAAAJ3BAAAAAJzcQB+AAJzcQB+AAcAAAAAdwQAAAAAeHEAfgAOcQB+AURzcQB+AAJzcQB+AAcAAAACdwQAAAACc3EAfgACc3EAfgAHAAAAAHcEAAAAAHhxAH4AXnEAfgFIc3EAfgACc3EAfgAHAAAAAHcEAAAAAHhxAH4ADnEAfgFIeHEAfgBfcQB+AUR4cQB+AGFxAH4BQHhxAH4AX3EAfgE0eHEAfgBIcQB+ATJxAH4BJnhxAH4AJnB4cQB+AEhxAH4AnnEAfgCteHEAfgBIcQB+AJxxAH4AuXhxAH4AYXEAfgCYeHEAfgBfc3EAfgACc3EAfgAHAAAAAncEAAAAAnNxAH4AAnNxAH4ABwAAAAJ3BAAAAAJzcQB+AAJzcQB+AAcAAAAAdwQAAAAAeHEAfgBecQB+AVBzcQB+AAJzcQB+AAcAAAAAdwQAAAAAeHEAfgAOcQB+AVB4cQB+AF9xAH4BTnEAfgCYeHEAfgBIc3EAfgACc3EAfgAHAAAAAncEAAAAAnNxAH4AAnNxAH4ABwAAAAJ3BAAAAAJzcQB+AAJzcQB+AAcAAAACdwQAAAACc3EAfgACc3EAfgAHAAAAAHcEAAAAAHhxAH4AVnEAfgFac3EAfgACc3EAfgAHAAAAAncEAAAAAnNxAH4AAnNxAH4ABwAAAAB3BAAAAAB4cQB+AFtxAH4BXnNxAH4AAnNxAH4ABwAAAAB3BAAAAAB4cQB+AFZxAH4BXnhxAH4AX3EAfgFaeHEAfgBhcQB+AVhzcQB+AAJzcQB+AAcAAAACdwQAAAACc3EAfgACc3EAfgAHAAAAAHcEAAAAAHhxAH4AVnEAfgFkc3EAfgACc3EAfgAHAAAAAncEAAAAAnNxAH4AAnNxAH4ABwAAAAJ3BAAAAAJzcQB+AAJzcQB+AAcAAAACdwQAAAACc3EAfgACc3EAfgAHAAAAAHcEAAAAAHhxAH4ApHEAfgFsc3EAfgACc3EAfgAHAAAAAHcEAAAAAHhxAH4AVnEAfgFseHEAfgBIcQB+AWpzcQB+AAJzcQB+AAcAAAACdwQAAAACc3EAfgACc3EAfgAHAAAAAncEAAAAAnNxAH4AAnNxAH4ABwAAAAB3BAAAAAB4cQB+AKRxAH4BdHNxAH4AAnNxAH4ABwAAAAB3BAAAAAB4cQB+AFZxAH4BdHhxAH4ASHEAfgFyc3EAfgACc3EAfgAHAAAAAHcEAAAAAHhxAH4AeXEAfgFyeHEAfgBIcQB+AWp4cQB+AEhxAH4BaHNxAH4AAnNxAH4ABwAAAAJ3BAAAAAJzcQB+AAJzcQB+AAcAAAAAdwQAAAAAeHEAfgBecQB+AXxzcQB+AAJzcQB+AAcAAAAAdwQAAAAAeHEAfgAOcQB+AXx4cQB+AF9xAH4BaHhxAH4AYXEAfgFkeHEAfgBfcQB+AVh4cQB+AEhxAH4BVnEAfgFOeHEAfgAmcHhxAH4ASHNxAH4AAnNxAH4ABwAAAAJ3BAAAAAJzcQB+AAJzcQB+AAcAAAACdwQAAAACc3EAfgACc3EAfgAHAAAAAncEAAAAAnNxAH4AAnNxAH4ABwAAAAB3BAAAAAB4cQB+AFZxAH4BhnNxAH4AAnNxAH4ABwAAAAJ3BAAAAAJzcQB+AAJzcQB+AAcAAAAAdwQAAAAAeHEAfgCkcQB+AYpzcQB+AAJzcQB+AAcAAAAAdwQAAAAAeHEAfgBecQB+AYp4cQB+AF9xAH4BhnhxAH4AYXEAfgGEc3EAfgACc3EAfgAHAAAAAncEAAAAAnNxAH4AAnNxAH4ABwAAAAB3BAAAAAB4cQB+AFZxAH4BkHNxAH4AAnNxAH4ABwAAAAJ3BAAAAAJzcQB+AAJzcQB+AAcAAAACdwQAAAACc3EAfgACc3EAfgAHAAAAAncEAAAAAnNxAH4AAnNxAH4ABwAAAAB3BAAAAAB4cQB+AKRxAH4BmHNxAH4AAnNxAH4ABwAAAAB3BAAAAAB4cQB+AFZzcQB+AAJzcQB+AAcAAAACdwQAAAACc3EAfgACc3EAfgAHAAAAAHcEAAAAAHhxAH4AVnEAfgGecQB+AZx4cQB+AEhzcQB+AAJzcQB+AAcAAAACdwQAAAACcQB+AZ5zcQB+AAJzcQB+AAcAAAAAdwQAAAAAeHEAfgB5cQB+AaJ4cQB+AEhzcQB+AAJzcQB+AAcAAAACdwQAAAACcQB+AaJzcQB+AAJzcQB+AAcAAAACdwQAAAACc3EAfgACc3EAfgAHAAAAAncEAAAAAnNxAH4AAnNxAH4ABwAAAAJ3BAAAAAJzcQB+AAJzcQB+AAcAAAAAdwQAAAAAeHEAfgCkcQB+AaxzcQB+AAJzcQB+AAcAAAAAdwQAAAAAeHEAfgBWcQB+Aax4cQB+AEhxAH4BqnNxAH4AAnNxAH4ABwAAAAB3BAAAAAB4cQB+AHlxAH4BqnhxAH4ASHEAfgGoc3EAfgACc3EAfgAHAAAAAncEAAAAAnNxAH4AAnNxAH4ABwAAAAB3BAAAAAB4cQB+AF5xAH4BtHNxAH4AAnNxAH4ABwAAAAB3BAAAAAB4cQB+AA5xAH4BtHhxAH4AX3EAfgGoeHEAfgBhc3EAfgACc3EAfgAHAAAAAncEAAAAAnNxAH4AAnNxAH4ABwAAAAB3BAAAAAB4cQB+AFZxAH4BunEAfgGoeHEAfgBhc3EAfgACc3EAfgAHAAAAAncEAAAAAnNxAH4AAnNxAH4ABwAAAAB3BAAAAAB4cQB+AFZxAH4BvnEAfgG6eHEAfgBfc3EAfgACc3EAfgAHAAAAAncEAAAAAnNxAH4AAnNxAH4ABwAAAAJ3BAAAAAJzcQB+AAJzcQB+AAcAAAAAdwQAAAAAeHEAfgBWcQB+AcRzcQB+AAJzcQB+AAcAAAACdwQAAAACc3EAfgACc3EAfgAHAAAAAHcEAAAAAHhxAH4AW3EAfgHIc3EAfgACc3EAfgAHAAAAAHcEAAAAAHhxAH4AXnEAfgHIeHEAfgBfcQB+AcR4cQB+AGFxAH4BwnEAfgG+eHEAfgBIc3EAfgACc3EAfgAHAAAAAncEAAAAAnEAfgHCcQB+AIx4cQB+ACZweHEAfgBhc3EAfgACc3EAfgAHAAAAAncEAAAAAnNxAH4AAnNxAH4ABwAAAAB3BAAAAAB4cQB+AFZxAH4B0HEAfgGmeHEAfgBfc3EAfgACc3EAfgAHAAAAAncEAAAAAnNxAH4AAnNxAH4ABwAAAAJ3BAAAAAJzcQB+AAJzcQB+AAcAAAAAdwQAAAAAeHEAfgBWcQB+AdZzcQB+AAJzcQB+AAcAAAACdwQAAAACc3EAfgACc3EAfgAHAAAAAHcEAAAAAHhxAH4AW3EAfgHac3EAfgACc3EAfgAHAAAAAHcEAAAAAHhxAH4AXnEAfgHaeHEAfgBfcQB+AdZ4cQB+AGFxAH4B1HEAfgHQeHEAfgBIc3EAfgACc3EAfgAHAAAAAncEAAAAAnEAfgHUcQB+AIx4cQB+ACZweHEAfgBIcQB+AZZxAH4BpHhxAH4ASHEAfgGUcQB+Aah4cQB+AGFxAH4BkHhxAH4AX3EAfgGEeHEAfgBIcQB+AYJxAH4AjHhxAH4AJnB4cQB+ACZweHEAfgBhcQB+AGN4cQB+AF9zcQB+AAJzcQB+AAcAAAACdwQAAAACc3EAfgACc3EAfgAHAAAAAncEAAAAAnNxAH4AAnNxAH4ABwAAAAB3BAAAAAB4cQB+AFZxAH4B5HNxAH4AAnNxAH4ABwAAAAJ3BAAAAAJzcQB+AAJzcQB+AAcAAAAAdwQAAAAAeHEAfgBbcQB+AehzcQB+AAJzcQB+AAcAAAAAdwQAAAAAeHEAfgBWcQB+Aeh4cQB+AF9xAH4B5HhxAH4AYXEAfgHicQB+AGN4cQB+AEhzcQB+AAJzcQB+AAcAAAACdwQAAAACcQB+AeJxAH4AjHhxAH4AJnB4cQB+AEhxAH4ATnEAfgCMeHEAfgAmcHNxAH4AAnNxAH4ABwAAAAB3BAAAAAB4c3EAfgARdAADeDA0cHNxAH4AAnNxAH4ABwAAAAJ3BAAAAAJzcQB+AAJzcQB+AAcAAAACdwQAAAACc3EAfgACc3EAfgAHAAAAAHcEAAAAAHhzcQB+ABF0AAN4MTNxAH4B9nNxAH4AAnNxAH4ABwAAAAJ3BAAAAAJzcQB+AAJzcQB+AAcAAAACdwQAAAACc3EAfgACc3EAfgAHAAAAAHcEAAAAAHhxAH4AXnEAfgH+c3EAfgACc3EAfgAHAAAAAHcEAAAAAHhzcQB+ABF0AAN4MTVzcQB+AAJzcQB+AAcAAAACdwQAAAACc3EAfgACc3EAfgAHAAAAAHcEAAAAAHhzcQB+ABF0AAN4MTRxAH4CBnEAfgICeHEAfgBfc3EAfgACc3EAfgAHAAAAAncEAAAAAnEAfgIGc3EAfgACc3EAfgAHAAAAAHcEAAAAAHhxAH4CBHEAfgIMeHEAfgBfc3EAfgACc3EAfgAHAAAAAncEAAAAAnNxAH4AAnNxAH4ABwAAAAB3BAAAAAB4cQB+AfpxAH4CEHEAfgIMeHEAfgBfc3EAfgACc3EAfgAHAAAAAncEAAAAAnEAfgIQc3EAfgACc3EAfgAHAAAAAncEAAAAAnNxAH4AAnNxAH4ABwAAAAB3BAAAAAB4cQB+AHlxAH4CFnNxAH4AAnNxAH4ABwAAAAJ3BAAAAAJzcQB+AAJzcQB+AAcAAAACdwQAAAACc3EAfgACc3EAfgAHAAAAAHcEAAAAAHhzcQB+ABF0AAN4MTFxAH4CHHNxAH4AAnNxAH4ABwAAAAB3BAAAAAB4cQB+AiBzcQB+AAJzcQB+AAcAAAACdwQAAAACc3EAfgACc3EAfgAHAAAAAHcEAAAAAHhxAH4AE3EAfgIkcQB+AiJ4cQB+AF9zcQB+AAJzcQB+AAcAAAACdwQAAAACcQB+AiRzcQB+AAJzcQB+AAcAAAAAdwQAAAAAeHEAfgB5cQB+Aih4cQB+AF9zcQB+AAJzcQB+AAcAAAACdwQAAAACc3EAfgACc3EAfgAHAAAAAHcEAAAAAHhxAH4AeXEAfgIscQB+Aih4cQB+ACRzcQB+AAJzcQB+AAcAAAACdwQAAAACc3EAfgACc3EAfgAHAAAAAncEAAAAAnNxAH4AAnNxAH4ABwAAAAB3BAAAAAB4cQB+AfpxAH4CMnNxAH4AAnNxAH4ABwAAAAJ3BAAAAAJzcQB+AAJzcQB+AAcAAAACdwQAAAACc3EAfgACc3EAfgAHAAAAAHcEAAAAAHhxAH4AXnEAfgI4c3EAfgACc3EAfgAHAAAAAHcEAAAAAHhxAH4CBHEAfgI4eHEAfgBfcQB+AjZzcQB+AAJzcQB+AAcAAAAAdwQAAAAAeHEAfgIEcQB+AjZ4cQB+AF9xAH4CMnhxAH4AX3EAfgIwcQB+Aix4cQB+AF9weHEAfgBfcQB+AhpxAH4CKnhxAH4AX3NxAH4AAnNxAH4ABwAAAAJ3BAAAAAJzcQB+AAJzcQB+AAcAAAAAdwQAAAAAeHEAfgIgcQB+AkBxAH4CGnhxAH4AJHNxAH4AAnNxAH4ABwAAAAJ3BAAAAAJzcQB+AAJzcQB+AAcAAAACdwQAAAACc3EAfgACc3EAfgAHAAAAAHcEAAAAAHhxAH4B+nEAfgJGc3EAfgACc3EAfgAHAAAAAncEAAAAAnNxAH4AAnNxAH4ABwAAAAJ3BAAAAAJzcQB+AAJzcQB+AAcAAAAAdwQAAAAAeHEAfgBecQB+AkxzcQB+AAJzcQB+AAcAAAAAdwQAAAAAeHEAfgIEcQB+Akx4cQB+AF9xAH4CSnNxAH4AAnNxAH4ABwAAAAB3BAAAAAB4cQB+AgRxAH4CSnhxAH4AX3EAfgJGeHEAfgBfcQB+AkRxAH4CQHhxAH4AX3B4cQB+ACRzcQB+AAJzcQB+AAcAAAACdwQAAAACc3EAfgACc3EAfgAHAAAAAncEAAAAAnNxAH4AAnNxAH4ABwAAAAJ3BAAAAAJzcQB+AAJzcQB+AAcAAAACdwQAAAACc3EAfgACc3EAfgAHAAAAAHcEAAAAAHhxAH4AXnEAfgJac3EAfgACc3EAfgAHAAAAAHcEAAAAAHhxAH4CBHEAfgJaeHEAfgBfcQB+AlhzcQB+AAJzcQB+AAcAAAAAdwQAAAAAeHEAfgIEcQB+Alh4cQB+AF9xAH4CVnNxAH4AAnNxAH4ABwAAAAB3BAAAAAB4cQB+AiBxAH4CVnhxAH4AX3EAfgJUcQB+AhZ4cQB+AF9weHEAfgBfcHhxAH4AX3EAfgH8cQB+Ag54cQB+AF9zcQB+AAJzcQB+AAcAAAACdwQAAAACc3EAfgACc3EAfgAHAAAAAncEAAAAAnNxAH4AAnNxAH4ABwAAAAB3BAAAAAB4cQB+AF5xAH4CZnNxAH4AAnNxAH4ABwAAAAB3BAAAAAB4cQB+AgRxAH4CZnhxAH4AX3EAfgJkcQB+Afx4cQB+AF9zcQB+AAJzcQB+AAcAAAACdwQAAAACcQB+AmRxAH4CFnhxAH4AX3B4cQB+AF9xAH4B9HEAfgIWeHEAfgBfcHg=";
    "rO0ABXNyABFqYXZhLnV0aWwuQ29sbFNlcleOq7Y6G6gRAwABSQADdGFneHAAAAAEdwQAAAAEc3IAN2lvLmdpdGh1Yi5lcmljbWVkdmV0LmpnZWEuY29yZS5yZXByZXNlbnRhdGlvbi50cmVlLlRyZWUKs7/qnQrEZQIAA0wACGNoaWxkcmVudAAQTGphdmEvdXRpbC9MaXN0O0wAB2NvbnRlbnR0ABJMamF2YS9sYW5nL09iamVjdDtMAAZwYXJlbnR0ADlMaW8vZ2l0aHViL2VyaWNtZWR2ZXQvamdlYS9jb3JlL3JlcHJlc2VudGF0aW9uL3RyZWUvVHJlZTt4cHNyABNqYXZhLnV0aWwuQXJyYXlMaXN0eIHSHZnHYZ0DAAFJAARzaXpleHAAAAACdwQAAAACc3EAfgACc3EAfgAHAAAAAncEAAAAAnNxAH4AAnNxAH4ABwAAAAB3BAAAAAB4c3IAS2lvLmdpdGh1Yi5lcmljbWVkdmV0LmpnZWEuY29yZS5yZXByZXNlbnRhdGlvbi50cmVlLm51bWVyaWMuRWxlbWVudCRDb25zdGFudAAAAAAAAAAAAgABRAAFdmFsdWV4cEAQAAAAAAAAcQB+AAlzcQB+AAJzcQB+AAcAAAAAdwQAAAAAeHNyAEtpby5naXRodWIuZXJpY21lZHZldC5qZ2VhLmNvcmUucmVwcmVzZW50YXRpb24udHJlZS5udW1lcmljLkVsZW1lbnQkVmFyaWFibGUAAAAAAAAAAAIAAUwABG5hbWV0ABJMamF2YS9sYW5nL1N0cmluZzt4cHQAA3gwMXEAfgAJeH5yAEtpby5naXRodWIuZXJpY21lZHZldC5qZ2VhLmNvcmUucmVwcmVzZW50YXRpb24udHJlZS5udW1lcmljLkVsZW1lbnQkT3BlcmF0b3IAAAAAAAAAABIAAHhyAA5qYXZhLmxhbmcuRW51bQAAAAAAAAAAEgAAeHB0AA5NVUxUSVBMSUNBVElPTnEAfgAGc3EAfgACc3EAfgAHAAAAAncEAAAAAnNxAH4AAnNxAH4ABwAAAAB3BAAAAAB4c3EAfgANQBIAAAAAAABxAH4AGXNxAH4AAnNxAH4ABwAAAAJ3BAAAAAJzcQB+AAJzcQB+AAcAAAAAdwQAAAAAeHEAfgAOcQB+AB5zcQB+AAJzcQB+AAcAAAAAdwQAAAAAeHEAfgAdcQB+AB54cQB+ABdxAH4AGXh+cQB+ABV0AA1QUk9UX0RJVklTSU9Oc3EAfgACc3EAfgAHAAAAAncEAAAAAnNxAH4AAnNxAH4ABwAAAAB3BAAAAAB4cQB+AB1xAH4AJnEAfgAZeH5xAH4AFXQACEFERElUSU9OcHhxAH4AKnBzcQB+AAJzcQB+AAcAAAACdwQAAAACc3EAfgACc3EAfgAHAAAAAncEAAAAAnNxAH4AAnNxAH4ABwAAAAJ3BAAAAAJzcQB+AAJzcQB+AAcAAAAAdwQAAAAAeHNxAH4ADUAAAAAAAAAAcQB+ADBzcQB+AAJzcQB+AAcAAAACdwQAAAACc3EAfgACc3EAfgAHAAAAAHcEAAAAAHhzcQB+AA1ABAAAAAAAAHEAfgA1c3EAfgACc3EAfgAHAAAAAHcEAAAAAHhzcQB+AA0/+AAAAAAAAHNxAH4AAnNxAH4ABwAAAAJ3BAAAAAJzcQB+AAJzcQB+AAcAAAAAdwQAAAAAeHEAfgAOcQB+AD1xAH4AOnh+cQB+ABV0AAhQUk9UX0xPR3NxAH4AAnNxAH4ABwAAAAJ3BAAAAAJzcQB+AAJzcQB+AAcAAAAAdwQAAAAAeHEAfgA0cQB+AENxAH4APXh+cQB+ABV0AAtTVUJUUkFDVElPTnNxAH4AAnNxAH4ABwAAAAJ3BAAAAAJxAH4AQ3NxAH4AAnNxAH4ABwAAAAJ3BAAAAAJzcQB+AAJzcQB+AAcAAAAAdwQAAAAAeHEAfgA0cQB+AEtzcQB+AAJzcQB+AAcAAAACdwQAAAACc3EAfgACc3EAfgAHAAAAAncEAAAAAnNxAH4AAnNxAH4ABwAAAAJ3BAAAAAJzcQB+AAJzcQB+AAcAAAAAdwQAAAAAeHNxAH4ADT/wAAAAAAAAcQB+AFNzcQB+AAJzcQB+AAcAAAAAdwQAAAAAeHEAfgA0c3EAfgACc3EAfgAHAAAAAncEAAAAAnNxAH4AAnNxAH4ABwAAAAB3BAAAAAB4cQB+AA5xAH4AWnEAfgBYeHEAfgAqc3EAfgACc3EAfgAHAAAAAncEAAAAAnEAfgBac3EAfgACc3EAfgAHAAAAAncEAAAAAnNxAH4AAnNxAH4ABwAAAAJ3BAAAAAJzcQB+AAJzcQB+AAcAAAAAdwQAAAAAeHEAfgBXcQB+AGJzcQB+AAJzcQB+AAcAAAAAdwQAAAAAeHEAfgA0cQB+AGJ4cQB+ACpxAH4AYHNxAH4AAnNxAH4ABwAAAAB3BAAAAAB4c3EAfgANQAwAAAAAAABxAH4AYHhxAH4AKnNxAH4AAnNxAH4ABwAAAAJ3BAAAAAJzcQB+AAJzcQB+AAcAAAACdwQAAAACc3EAfgACc3EAfgAHAAAAAHcEAAAAAHhxAH4ANHEAfgBtc3EAfgACc3EAfgAHAAAAAncEAAAAAnNxAH4AAnNxAH4ABwAAAAB3BAAAAAB4cQB+ADlxAH4AcXNxAH4AAnNxAH4ABwAAAAB3BAAAAAB4cQB+ADRxAH4AcXhxAH4AQXEAfgBteHEAfgBHcQB+AGtxAH4AYHhxAH4AKnNxAH4AAnNxAH4ABwAAAAJ3BAAAAAJxAH4Aa3NxAH4AAnNxAH4ABwAAAAJ3BAAAAAJzcQB+AAJzcQB+AAcAAAAAdwQAAAAAeHNxAH4ADQAAAAAAAAAAcQB+AHlzcQB+AAJzcQB+AAcAAAAAdwQAAAAAeHEAfgAOc3EAfgACc3EAfgAHAAAAAncEAAAAAnNxAH4AAnNxAH4ABwAAAAJ3BAAAAAJzcQB+AAJzcQB+AAcAAAAAdwQAAAAAeHEAfgA0cQB+AIJzcQB+AAJzcQB+AAcAAAACdwQAAAACc3EAfgACc3EAfgAHAAAAAHcEAAAAAHhxAH4AOXEAfgCGc3EAfgACc3EAfgAHAAAAAHcEAAAAAHhxAH4AfXEAfgCGeHEAfgBBcQB+AIJ4cQB+AEdxAH4AgHEAfgB+eHEAfgBBc3EAfgACc3EAfgAHAAAAAncEAAAAAnNxAH4AAnNxAH4ABwAAAAJ3BAAAAAJzcQB+AAJzcQB+AAcAAAACdwQAAAACc3EAfgACc3EAfgAHAAAAAHcEAAAAAHhxAH4AV3EAfgCQc3EAfgACc3EAfgAHAAAAAHcEAAAAAHhxAH4ANHEAfgCQeHEAfgAqcQB+AI5zcQB+AAJzcQB+AAcAAAACdwQAAAACc3EAfgACc3EAfgAHAAAAAncEAAAAAnNxAH4AAnNxAH4ABwAAAAB3BAAAAAB4cQB+AFdxAH4AmHNxAH4AAnNxAH4ABwAAAAB3BAAAAAB4cQB+ADRxAH4AmHhxAH4AKnEAfgCWc3EAfgACc3EAfgAHAAAAAHcEAAAAAHhxAH4AanEAfgCWeHEAfgAqcQB+AI54cQB+ACpxAH4AjHEAfgCAeHEAfgBHc3EAfgACc3EAfgAHAAAAAncEAAAAAnNxAH4AAnNxAH4ABwAAAAB3BAAAAAB4cQB+ADRxAH4AoHEAfgCMeHEAfgBBc3EAfgACc3EAfgAHAAAAAncEAAAAAnNxAH4AAnNxAH4ABwAAAAJ3BAAAAAJzcQB+AAJzcQB+AAcAAAAAdwQAAAAAeHEAfgA0cQB+AKZzcQB+AAJzcQB+AAcAAAACdwQAAAACc3EAfgACc3EAfgAHAAAAAHcEAAAAAHhxAH4AOXEAfgCqc3EAfgACc3EAfgAHAAAAAHcEAAAAAHhxAH4APHEAfgCqeHEAfgBBcQB+AKZ4cQB+AEdxAH4ApHEAfgCgeHEAfgAqc3EAfgACc3EAfgAHAAAAAncEAAAAAnEAfgCkc3EAfgACc3EAfgAHAAAAAncEAAAAAnNxAH4AAnNxAH4ABwAAAAJ3BAAAAAJzcQB+AAJzcQB+AAcAAAAAdwQAAAAAeHEAfgA0cQB+ALRzcQB+AAJzcQB+AAcAAAACdwQAAAACc3EAfgACc3EAfgAHAAAAAHcEAAAAAHhxAH4AOXEAfgC4c3EAfgACc3EAfgAHAAAAAHcEAAAAAHhxAH4AfXEAfgC4eHEAfgBBcQB+ALR4cQB+AEdxAH4AsnNxAH4AAnNxAH4ABwAAAAJ3BAAAAAJzcQB+AAJzcQB+AAcAAAAAdwQAAAAAeHEAfgA0cQB+AL5zcQB+AAJzcQB+AAcAAAACdwQAAAACc3EAfgACc3EAfgAHAAAAAncEAAAAAnNxAH4AAnNxAH4ABwAAAAJ3BAAAAAJzcQB+AAJzcQB+AAcAAAAAdwQAAAAAeHEAfgBXcQB+AMZzcQB+AAJzcQB+AAcAAAAAdwQAAAAAeHEAfgA0c3EAfgACc3EAfgAHAAAAAncEAAAAAnNxAH4AAnNxAH4ABwAAAAB3BAAAAAB4cQB+ADRxAH4AzHEAfgDKeHEAfgAqc3EAfgACc3EAfgAHAAAAAncEAAAAAnEAfgDMc3EAfgACc3EAfgAHAAAAAHcEAAAAAHhxAH4AanNxAH4AAnNxAH4ABwAAAAJ3BAAAAAJzcQB+AAJzcQB+AAcAAAACdwQAAAACc3EAfgACc3EAfgAHAAAAAHcEAAAAAHhxAH4AfXEAfgDWc3EAfgACc3EAfgAHAAAAAHcEAAAAAHhxAH4ADnEAfgDWeHEAfgBBcQB+ANRxAH4A0nhxAH4AKnNxAH4AAnNxAH4ABwAAAAJ3BAAAAAJxAH4A1HNxAH4AAnNxAH4ABwAAAAJ3BAAAAAJzcQB+AAJzcQB+AAcAAAAAdwQAAAAAeHEAfgB9cQB+AN5zcQB+AAJzcQB+AAcAAAAAdwQAAAAAeHEAfgAOcQB+AN54cQB+AEFzcQB+AAJzcQB+AAcAAAACdwQAAAACc3EAfgACc3EAfgAHAAAAAncEAAAAAnNxAH4AAnNxAH4ABwAAAAJ3BAAAAAJzcQB+AAJzcQB+AAcAAAAAdwQAAAAAeHEAfgBXcQB+AOhzcQB+AAJzcQB+AAcAAAAAdwQAAAAAeHEAfgA0cQB+AOh4cQB+ACpxAH4A5nNxAH4AAnNxAH4ABwAAAAB3BAAAAAB4cQB+ADxxAH4A5nhxAH4AKnEAfgDkcQB+AN54cQB+AEdzcQB+AAJzcQB+AAcAAAACdwQAAAACc3EAfgACc3EAfgAHAAAAAHcEAAAAAHhxAH4ANHEAfgDwcQB+AOR4cQB+AEFzcQB+AAJzcQB+AAcAAAACdwQAAAACc3EAfgACc3EAfgAHAAAAAncEAAAAAnNxAH4AAnNxAH4ABwAAAAB3BAAAAAB4cQB+ADRxAH4A9nNxAH4AAnNxAH4ABwAAAAJ3BAAAAAJzcQB+AAJzcQB+AAcAAAAAdwQAAAAAeHEAfgA5cQB+APpzcQB+AAJzcQB+AAcAAAAAdwQAAAAAeHEAfgB9cQB+APp4cQB+AEFxAH4A9nhxAH4AR3EAfgD0cQB+APB4cQB+ACpzcQB+AAJzcQB+AAcAAAACdwQAAAACc3EAfgACc3EAfgAHAAAAAncEAAAAAnNxAH4AAnNxAH4ABwAAAAJ3BAAAAAJzcQB+AAJzcQB+AAcAAAAAdwQAAAAAeHEAfgA0cQB+AQRzcQB+AAJzcQB+AAcAAAACdwQAAAACc3EAfgACc3EAfgAHAAAAAHcEAAAAAHhxAH4AOXEAfgEIc3EAfgACc3EAfgAHAAAAAHcEAAAAAHhxAH4AfXEAfgEIeHEAfgBBcQB+AQR4cQB+AEdxAH4BAnNxAH4AAnNxAH4ABwAAAAJ3BAAAAAJzcQB+AAJzcQB+AAcAAAAAdwQAAAAAeHEAfgA0cQB+AQ5zcQB+AAJzcQB+AAcAAAACdwQAAAACc3EAfgACc3EAfgAHAAAAAHcEAAAAAHhxAH4AOXEAfgESc3EAfgACc3EAfgAHAAAAAHcEAAAAAHhxAH4AfXEAfgESeHEAfgBHcQB+AQ54cQB+AEFxAH4BAnhxAH4AKnEAfgEAcQB+APR4cQB+ACRweHEAfgBHc3EAfgACc3EAfgAHAAAAAncEAAAAAnNxAH4AAnNxAH4ABwAAAAB3BAAAAAB4cQB+ADRxAH4BGHEAfgDceHEAfgBBc3EAfgACc3EAfgAHAAAAAncEAAAAAnNxAH4AAnNxAH4ABwAAAAJ3BAAAAAJzcQB+AAJzcQB+AAcAAAAAdwQAAAAAeHEAfgA0cQB+AR5zcQB+AAJzcQB+AAcAAAACdwQAAAACc3EAfgACc3EAfgAHAAAAAHcEAAAAAHhxAH4AOXEAfgEic3EAfgACc3EAfgAHAAAAAHcEAAAAAHhxAH4AfXEAfgEieHEAfgBBcQB+AR54cQB+AEdxAH4BHHEAfgEYeHEAfgAqc3EAfgACc3EAfgAHAAAAAncEAAAAAnNxAH4AAnNxAH4ABwAAAAJ3BAAAAAJzcQB+AAJzcQB+AAcAAAACdwQAAAACc3EAfgACc3EAfgAHAAAAAHcEAAAAAHhxAH4ANHEAfgEsc3EAfgACc3EAfgAHAAAAAncEAAAAAnNxAH4AAnNxAH4ABwAAAAB3BAAAAAB4cQB+ADlxAH4BMHNxAH4AAnNxAH4ABwAAAAB3BAAAAAB4cQB+AH1xAH4BMHhxAH4AQXEAfgEseHEAfgBHcQB+ASpzcQB+AAJzcQB+AAcAAAACdwQAAAACc3EAfgACc3EAfgAHAAAAAHcEAAAAAHhxAH4ANHEAfgE2c3EAfgACc3EAfgAHAAAAAncEAAAAAnNxAH4AAnNxAH4ABwAAAAB3BAAAAAB4cQB+AA5xAH4BOnNxAH4AAnNxAH4ABwAAAAJ3BAAAAAJzcQB+AAJzcQB+AAcAAAAAdwQAAAAAeHEAfgB9cQB+AT5zcQB+AAJzcQB+AAcAAAAAdwQAAAAAeHEAfgAOcQB+AT54cQB+AEFxAH4BOnhxAH4AR3EAfgE2eHEAfgBBcQB+ASp4cQB+ACpxAH4BKHEAfgEceHEAfgAkcHhxAH4AKnNxAH4AAnNxAH4ABwAAAAJ3BAAAAAJxAH4A0HEAfgDeeHEAfgBHc3EAfgACc3EAfgAHAAAAAncEAAAAAnNxAH4AAnNxAH4ABwAAAAB3BAAAAAB4cQB+ADRxAH4BRnEAfgFEeHEAfgBBc3EAfgACc3EAfgAHAAAAAncEAAAAAnNxAH4AAnNxAH4ABwAAAAJ3BAAAAAJzcQB+AAJzcQB+AAcAAAAAdwQAAAAAeHEAfgA0cQB+AUxzcQB+AAJzcQB+AAcAAAACdwQAAAACc3EAfgACc3EAfgAHAAAAAHcEAAAAAHhxAH4AOXEAfgFQc3EAfgACc3EAfgAHAAAAAHcEAAAAAHhxAH4AfXEAfgFQeHEAfgBBcQB+AUx4cQB+AEdxAH4BSnEAfgFGeHEAfgAqc3EAfgACc3EAfgAHAAAAAncEAAAAAnNxAH4AAnNxAH4ABwAAAAJ3BAAAAAJzcQB+AAJzcQB+AAcAAAACdwQAAAACc3EAfgACc3EAfgAHAAAAAHcEAAAAAHhxAH4ANHEAfgFac3EAfgACc3EAfgAHAAAAAncEAAAAAnNxAH4AAnNxAH4ABwAAAAB3BAAAAAB4cQB+ADlxAH4BXnNxAH4AAnNxAH4ABwAAAAB3BAAAAAB4cQB+AH1xAH4BXnhxAH4AQXEAfgFaeHEAfgBHcQB+AVhzcQB+AAJzcQB+AAcAAAACdwQAAAACc3EAfgACc3EAfgAHAAAAAHcEAAAAAHhxAH4ANHEAfgFkc3EAfgACc3EAfgAHAAAAAncEAAAAAnNxAH4AAnNxAH4ABwAAAAB3BAAAAAB4cQB+AA5xAH4BaHNxAH4AAnNxAH4ABwAAAAJ3BAAAAAJzcQB+AAJzcQB+AAcAAAAAdwQAAAAAeHEAfgB9cQB+AWxzcQB+AAJzcQB+AAcAAAAAdwQAAAAAeHEAfgAOcQB+AWx4cQB+AEFxAH4BaHhxAH4AR3EAfgFkeHEAfgBBcQB+AVh4cQB+ACpxAH4BVnEAfgFKeHEAfgAkcHhxAH4AKnEAfgDEcQB+ANJ4cQB+ACpxAH4AwnEAfgDeeHEAfgBHcQB+AL54cQB+AEFzcQB+AAJzcQB+AAcAAAACdwQAAAACc3EAfgACc3EAfgAHAAAAAncEAAAAAnNxAH4AAnNxAH4ABwAAAAB3BAAAAAB4cQB+AH1xAH4BdHNxAH4AAnNxAH4ABwAAAAB3BAAAAAB4cQB+AA5xAH4BdHhxAH4AQXEAfgFycQB+AL54cQB+ACpzcQB+AAJzcQB+AAcAAAACdwQAAAACc3EAfgACc3EAfgAHAAAAAncEAAAAAnNxAH4AAnNxAH4ABwAAAAJ3BAAAAAJzcQB+AAJzcQB+AAcAAAAAdwQAAAAAeHEAfgA0cQB+AX5zcQB+AAJzcQB+AAcAAAACdwQAAAACc3EAfgACc3EAfgAHAAAAAHcEAAAAAHhxAH4AOXEAfgGCc3EAfgACc3EAfgAHAAAAAHcEAAAAAHhxAH4ANHEAfgGCeHEAfgBBcQB+AX54cQB+AEdxAH4BfHNxAH4AAnNxAH4ABwAAAAJ3BAAAAAJzcQB+AAJzcQB+AAcAAAAAdwQAAAAAeHEAfgA0cQB+AYhzcQB+AAJzcQB+AAcAAAACdwQAAAACc3EAfgACc3EAfgAHAAAAAncEAAAAAnNxAH4AAnNxAH4ABwAAAAJ3BAAAAAJzcQB+AAJzcQB+AAcAAAAAdwQAAAAAeHEAfgBXcQB+AZBzcQB+AAJzcQB+AAcAAAAAdwQAAAAAeHEAfgA0cQB+AZB4cQB+ACpxAH4BjnNxAH4AAnNxAH4ABwAAAAJ3BAAAAAJzcQB+AAJzcQB+AAcAAAACdwQAAAACc3EAfgACc3EAfgAHAAAAAHcEAAAAAHhxAH4AV3EAfgGYc3EAfgACc3EAfgAHAAAAAHcEAAAAAHhxAH4ANHEAfgGYeHEAfgAqcQB+AZZzcQB+AAJzcQB+AAcAAAAAdwQAAAAAeHEAfgBqcQB+AZZ4cQB+ACpxAH4BjnhxAH4AKnEAfgGMc3EAfgACc3EAfgAHAAAAAncEAAAAAnNxAH4AAnNxAH4ABwAAAAB3BAAAAAB4cQB+AH1xAH4BoHNxAH4AAnNxAH4ABwAAAAB3BAAAAAB4cQB+AA5xAH4BoHhxAH4AQXEAfgGMeHEAfgBHcQB+AYh4cQB+AEFxAH4BfHhxAH4AKnEAfgF6cQB+AXJ4cQB+ACRweHEAfgAqc3EAfgACc3EAfgAHAAAAAncEAAAAAnNxAH4AAnNxAH4ABwAAAAJ3BAAAAAJzcQB+AAJzcQB+AAcAAAACdwQAAAACc3EAfgACc3EAfgAHAAAAAHcEAAAAAHhxAH4ANHEAfgGqc3EAfgACc3EAfgAHAAAAAncEAAAAAnNxAH4AAnNxAH4ABwAAAAB3BAAAAAB4cQB+AFdxAH4BrnNxAH4AAnNxAH4ABwAAAAB3BAAAAAB4cQB+AH1xAH4BrnhxAH4AQXEAfgGqeHEAfgBHcQB+AahzcQB+AAJzcQB+AAcAAAACdwQAAAACc3EAfgACc3EAfgAHAAAAAHcEAAAAAHhxAH4ANHEAfgG0c3EAfgACc3EAfgAHAAAAAncEAAAAAnNxAH4AAnNxAH4ABwAAAAJ3BAAAAAJzcQB+AAJzcQB+AAcAAAACdwQAAAACc3EAfgACc3EAfgAHAAAAAHcEAAAAAHhxAH4AV3EAfgG8c3EAfgACc3EAfgAHAAAAAHcEAAAAAHhxAH4ANHNxAH4AAnNxAH4ABwAAAAJ3BAAAAAJzcQB+AAJzcQB+AAcAAAAAdwQAAAAAeHEAfgA0cQB+AcJxAH4BwHhxAH4AKnNxAH4AAnNxAH4ABwAAAAJ3BAAAAAJxAH4BwnNxAH4AAnNxAH4ABwAAAAB3BAAAAAB4cQB+AGpxAH4BxnhxAH4AKnNxAH4AAnNxAH4ABwAAAAJ3BAAAAAJxAH4BxnNxAH4AAnNxAH4ABwAAAAJ3BAAAAAJzcQB+AAJzcQB+AAcAAAACdwQAAAACc3EAfgACc3EAfgAHAAAAAncEAAAAAnNxAH4AAnNxAH4ABwAAAAB3BAAAAAB4cQB+AFdxAH4B0HNxAH4AAnNxAH4ABwAAAAB3BAAAAAB4cQB+ADRxAH4B0HhxAH4AKnEAfgHOc3EAfgACc3EAfgAHAAAAAHcEAAAAAHhxAH4AanEAfgHOeHEAfgAqcQB+AcxzcQB+AAJzcQB+AAcAAAACdwQAAAACc3EAfgACc3EAfgAHAAAAAHcEAAAAAHhxAH4AfXEAfgHYc3EAfgACc3EAfgAHAAAAAHcEAAAAAHhxAH4ADnEAfgHYeHEAfgBBcQB+Acx4cQB+AEdzcQB+AAJzcQB+AAcAAAACdwQAAAACc3EAfgACc3EAfgAHAAAAAHcEAAAAAHhxAH4ANHEAfgHecQB+Acx4cQB+AEdzcQB+AAJzcQB+AAcAAAACdwQAAAACc3EAfgACc3EAfgAHAAAAAHcEAAAAAHhxAH4ANHEAfgHicQB+Ad54cQB+AEFzcQB+AAJzcQB+AAcAAAACdwQAAAACc3EAfgACc3EAfgAHAAAAAncEAAAAAnNxAH4AAnNxAH4ABwAAAAB3BAAAAAB4cQB+ADRxAH4B6HNxAH4AAnNxAH4ABwAAAAJ3BAAAAAJzcQB+AAJzcQB+AAcAAAAAdwQAAAAAeHEAfgA5cQB+AexzcQB+AAJzcQB+AAcAAAAAdwQAAAAAeHEAfgB9cQB+Aex4cQB+AEFxAH4B6HhxAH4AR3EAfgHmcQB+AeJ4cQB+ACpzcQB+AAJzcQB+AAcAAAACdwQAAAACcQB+AeZxAH4AsnhxAH4AJHB4cQB+AEdzcQB+AAJzcQB+AAcAAAACdwQAAAACc3EAfgACc3EAfgAHAAAAAHcEAAAAAHhxAH4ANHEAfgH0cQB+Acp4cQB+AEFzcQB+AAJzcQB+AAcAAAACdwQAAAACc3EAfgACc3EAfgAHAAAAAncEAAAAAnNxAH4AAnNxAH4ABwAAAAB3BAAAAAB4cQB+ADRxAH4B+nNxAH4AAnNxAH4ABwAAAAJ3BAAAAAJzcQB+AAJzcQB+AAcAAAAAdwQAAAAAeHEAfgA5cQB+Af5zcQB+AAJzcQB+AAcAAAAAdwQAAAAAeHEAfgB9cQB+Af54cQB+AEFxAH4B+nhxAH4AR3EAfgH4cQB+AfR4cQB+ACpzcQB+AAJzcQB+AAcAAAACdwQAAAACcQB+AfhxAH4AsnhxAH4AJHB4cQB+ACpxAH4BunEAfgHIeHEAfgAqcQB+AbhxAH4BzHhxAH4AR3EAfgG0eHEAfgBBcQB+Aah4cQB+ACpxAH4BpnEAfgCyeHEAfgAkcHhxAH4AJHB4cQB+AEFzcQB+AAJzcQB+AAcAAAACdwQAAAACc3EAfgACc3EAfgAHAAAAAncEAAAAAnNxAH4AAnNxAH4ABwAAAAJ3BAAAAAJzcQB+AAJzcQB+AAcAAAAAdwQAAAAAeHEAfgBXcQB+AgpzcQB+AAJzcQB+AAcAAAAAdwQAAAAAeHEAfgA0cQB+Agp4cQB+ACpxAH4CCHNxAH4AAnNxAH4ABwAAAAB3BAAAAAB4cQB+AH1xAH4CCHhxAH4AKnEAfgIGcQB+AHl4cQB+AEdzcQB+AAJzcQB+AAcAAAACdwQAAAACc3EAfgACc3EAfgAHAAAAAHcEAAAAAHhxAH4ANHEAfgIScQB+AgZ4cQB+AEFzcQB+AAJzcQB+AAcAAAACdwQAAAACc3EAfgACc3EAfgAHAAAAAncEAAAAAnNxAH4AAnNxAH4ABwAAAAB3BAAAAAB4cQB+ADRxAH4CGHNxAH4AAnNxAH4ABwAAAAJ3BAAAAAJzcQB+AAJzcQB+AAcAAAAAdwQAAAAAeHEAfgA5cQB+AhxzcQB+AAJzcQB+AAcAAAAAdwQAAAAAeHEAfgA0cQB+Ahx4cQB+AEFxAH4CGHhxAH4AR3EAfgIWcQB+AhJ4cQB+ACpzcQB+AAJzcQB+AAcAAAACdwQAAAACcQB+AhZxAH4AsnhxAH4AJHB4cQB+AEdzcQB+AAJzcQB+AAcAAAACdwQAAAACc3EAfgACc3EAfgAHAAAAAHcEAAAAAHhxAH4ANHEAfgIkcQB+AHd4cQB+AEFzcQB+AAJzcQB+AAcAAAACdwQAAAACc3EAfgACc3EAfgAHAAAAAncEAAAAAnNxAH4AAnNxAH4ABwAAAAB3BAAAAAB4cQB+ADRxAH4CKnNxAH4AAnNxAH4ABwAAAAJ3BAAAAAJzcQB+AAJzcQB+AAcAAAAAdwQAAAAAeHEAfgA5cQB+Ai5zcQB+AAJzcQB+AAcAAAAAdwQAAAAAeHEAfgA8cQB+Ai54cQB+AEFxAH4CKnhxAH4AR3EAfgIocQB+AiR4cQB+ACpzcQB+AAJzcQB+AAcAAAACdwQAAAACcQB+AihxAH4AsnhxAH4AJHB4cQB+ACpzcQB+AAJzcQB+AAcAAAACdwQAAAACcQB+AF5xAH4AeXhxAH4AR3NxAH4AAnNxAH4ABwAAAAJ3BAAAAAJzcQB+AAJzcQB+AAcAAAAAdwQAAAAAeHEAfgA0cQB+AjhxAH4CNnhxAH4AQXNxAH4AAnNxAH4ABwAAAAJ3BAAAAAJzcQB+AAJzcQB+AAcAAAACdwQAAAACc3EAfgACc3EAfgAHAAAAAHcEAAAAAHhxAH4ANHEAfgI+c3EAfgACc3EAfgAHAAAAAncEAAAAAnNxAH4AAnNxAH4ABwAAAAB3BAAAAAB4cQB+ADlxAH4CQnNxAH4AAnNxAH4ABwAAAAB3BAAAAAB4cQB+ADRxAH4CQnhxAH4AQXEAfgI+eHEAfgBHcQB+AjxxAH4COHhxAH4AKnNxAH4AAnNxAH4ABwAAAAJ3BAAAAAJxAH4CPHEAfgCyeHEAfgAkcHhxAH4AKnEAfgBRcQB+AGB4cQB+ACpxAH4AT3EAfgB5eHEAfgBHcQB+AEt4cQB+AEFzcQB+AAJzcQB+AAcAAAACdwQAAAACc3EAfgACc3EAfgAHAAAAAncEAAAAAnNxAH4AAnNxAH4ABwAAAAJ3BAAAAAJzcQB+AAJzcQB+AAcAAAAAdwQAAAAAeHEAfgBXcQB+Ak5zcQB+AAJzcQB+AAcAAAAAdwQAAAAAeHEAfgA0cQB+Ak54cQB+ACpxAH4CTHNxAH4AAnNxAH4ABwAAAAB3BAAAAAB4cQB+AGpxAH4CTHhxAH4AKnEAfgJKcQB+AEt4cQB+ACpzcQB+AAJzcQB+AAcAAAACdwQAAAACcQB+AkpxAH4AsnhxAH4AJHB4cQB+ACpzcQB+AAJzcQB+AAcAAAACdwQAAAACcQB+AElxAH4AsnhxAH4AJHB4cQB+AEFzcQB+AAJzcQB+AAcAAAACdwQAAAACc3EAfgACc3EAfgAHAAAAAncEAAAAAnNxAH4AAnNxAH4ABwAAAAB3BAAAAAB4cQB+ADlxAH4CXHNxAH4AAnNxAH4ABwAAAAB3BAAAAAB4cQB+AH1xAH4CXHhxAH4AQXEAfgJacQB+ADV4cQB+AEdzcQB+AAJzcQB+AAcAAAACdwQAAAACcQB+AlpxAH4AS3hxAH4AKnNxAH4AAnNxAH4ABwAAAAJ3BAAAAAJxAH4CYnEAfgCyeHEAfgAkcHhxAH4AR3EAfgAucQB+AEt4cQB+ACpxAH4ALHEAfgCyeHEAfgAkcHNxAH4AAnNxAH4ABwAAAAB3BAAAAAB4c3EAfgARdAADeDA0cHNxAH4AAnNxAH4ABwAAAAJ3BAAAAAJzcQB+AAJzcQB+AAcAAAACdwQAAAACc3EAfgACc3EAfgAHAAAAAHcEAAAAAHhzcQB+ABF0AAN4MTFxAH4CbHNxAH4AAnNxAH4ABwAAAAB3BAAAAAB4cQB+AnBzcQB+AAJzcQB+AAcAAAACdwQAAAACc3EAfgACc3EAfgAHAAAAAHcEAAAAAHhxAH4AfXEAfgJ0cQB+AnJ4cQB+AEFzcQB+AAJzcQB+AAcAAAACdwQAAAACcQB+AnRzcQB+AAJzcQB+AAcAAAACdwQAAAACc3EAfgACc3EAfgAHAAAAAHcEAAAAAHhzcQB+ABF0AAN4MTRxAH4CenNxAH4AAnNxAH4ABwAAAAJ3BAAAAAJzcQB+AAJzcQB+AAcAAAAAdwQAAAAAeHEAfgJwcQB+AoBzcQB+AAJzcQB+AAcAAAAAdwQAAAAAeHEAfgJwcQB+AoB4cQB+AEFzcQB+AAJzcQB+AAcAAAACdwQAAAACc3EAfgACc3EAfgAHAAAAAHcEAAAAAHhxAH4CcHEAfgKGcQB+AoB4cQB+ACRzcQB+AAJzcQB+AAcAAAACdwQAAAACc3EAfgACc3EAfgAHAAAAAncEAAAAAnNxAH4AAnNxAH4ABwAAAAB3BAAAAAB4cQB+AnBxAH4CjHNxAH4AAnNxAH4ABwAAAAB3BAAAAAB4cQB+AnBxAH4CjHhxAH4AQXEAfgKKcQB+AoZ4cQB+AEFweHEAfgAkcQB+Anh4cQB+AEFweHEAfgBBcQB+AmpxAH4CenhxAH4AQXB4";
    "rO0ABXNyABFqYXZhLnV0aWwuQ29sbFNlcleOq7Y6G6gRAwABSQADdGFneHAAAAAEdwQAAAAEc3IAN2lvLmdpdGh1Yi5lcmljbWVkdmV0LmpnZWEuY29yZS5yZXByZXNlbnRhdGlvbi50cmVlLlRyZWUKs7/qnQrEZQIAA0wACGNoaWxkcmVudAAQTGphdmEvdXRpbC9MaXN0O0wAB2NvbnRlbnR0ABJMamF2YS9sYW5nL09iamVjdDtMAAZwYXJlbnR0ADlMaW8vZ2l0aHViL2VyaWNtZWR2ZXQvamdlYS9jb3JlL3JlcHJlc2VudGF0aW9uL3RyZWUvVHJlZTt4cHNyABNqYXZhLnV0aWwuQXJyYXlMaXN0eIHSHZnHYZ0DAAFJAARzaXpleHAAAAACdwQAAAACc3EAfgACc3EAfgAHAAAAAncEAAAAAnNxAH4AAnNxAH4ABwAAAAB3BAAAAAB4c3IAS2lvLmdpdGh1Yi5lcmljbWVkdmV0LmpnZWEuY29yZS5yZXByZXNlbnRhdGlvbi50cmVlLm51bWVyaWMuRWxlbWVudCRDb25zdGFudAAAAAAAAAAAAgABRAAFdmFsdWV4cEAQAAAAAAAAcQB+AAlzcQB+AAJzcQB+AAcAAAAAdwQAAAAAeHNyAEtpby5naXRodWIuZXJpY21lZHZldC5qZ2VhLmNvcmUucmVwcmVzZW50YXRpb24udHJlZS5udW1lcmljLkVsZW1lbnQkVmFyaWFibGUAAAAAAAAAAAIAAUwABG5hbWV0ABJMamF2YS9sYW5nL1N0cmluZzt4cHQAA3gwMXNxAH4AAnNxAH4ABwAAAAJ3BAAAAAJzcQB+AAJzcQB+AAcAAAACdwQAAAACc3EAfgACc3EAfgAHAAAAAHcEAAAAAHhzcQB+AA1AEgAAAAAAAHEAfgAXc3EAfgACc3EAfgAHAAAAAncEAAAAAnNxAH4AAnNxAH4ABwAAAAB3BAAAAAB4cQB+AA5xAH4AHHNxAH4AAnNxAH4ABwAAAAB3BAAAAAB4cQB+ABtxAH4AHHh+cgBLaW8uZ2l0aHViLmVyaWNtZWR2ZXQuamdlYS5jb3JlLnJlcHJlc2VudGF0aW9uLnRyZWUubnVtZXJpYy5FbGVtZW50JE9wZXJhdG9yAAAAAAAAAAASAAB4cgAOamF2YS5sYW5nLkVudW0AAAAAAAAAABIAAHhwdAAOTVVMVElQTElDQVRJT05xAH4AF3h+cQB+ACJ0AA1QUk9UX0RJVklTSU9OcQB+ABVxAH4AD3hxAH4AJHNxAH4AAnNxAH4ABwAAAAJ3BAAAAAJxAH4AFXNxAH4AAnNxAH4ABwAAAAJ3BAAAAAJzcQB+AAJzcQB+AAcAAAAAdwQAAAAAeHEAfgAbcQB+ACpzcQB+AAJzcQB+AAcAAAACdwQAAAACc3EAfgACc3EAfgAHAAAAAHcEAAAAAHhxAH4ADnEAfgAuc3EAfgACc3EAfgAHAAAAAHcEAAAAAHhxAH4AG3EAfgAueHEAfgAkc3EAfgACc3EAfgAHAAAAAncEAAAAAnNxAH4AAnNxAH4ABwAAAAJ3BAAAAAJzcQB+AAJzcQB+AAcAAAAAdwQAAAAAeHEAfgAbcQB+ADZzcQB+AAJzcQB+AAcAAAACdwQAAAACc3EAfgACc3EAfgAHAAAAAHcEAAAAAHhxAH4ADnEAfgA6c3EAfgACc3EAfgAHAAAAAHcEAAAAAHhxAH4AG3EAfgA6eHEAfgAkcQB+ADZ4cQB+ACZxAH4ANHEAfgAueHEAfgAmc3EAfgACc3EAfgAHAAAAAncEAAAAAnNxAH4AAnNxAH4ABwAAAAJ3BAAAAAJzcQB+AAJzcQB+AAcAAAAAdwQAAAAAeHEAfgAOcQB+AEJzcQB+AAJzcQB+AAcAAAAAdwQAAAAAeHEAfgATcQB+AEJ4cQB+ACRxAH4AQHEAfgA0eH5xAH4AInQACEFERElUSU9OcHhxAH4AJnNxAH4AAnNxAH4ABwAAAAJ3BAAAAAJzcQB+AAJzcQB+AAcAAAAAdwQAAAAAeHEAfgAOcQB+AEpxAH4AKnhxAH4ASHB4cQB+AEhweHEAfgAkcQB+AAZxAH4AKnhxAH4ASHBzcQB+AAJzcQB+AAcAAAACdwQAAAACc3EAfgACc3EAfgAHAAAAAncEAAAAAnNxAH4AAnNxAH4ABwAAAAJ3BAAAAAJzcQB+AAJzcQB+AAcAAAAAdwQAAAAAeHNxAH4ADUAAAAAAAAAAcQB+AFJzcQB+AAJzcQB+AAcAAAACdwQAAAACc3EAfgACc3EAfgAHAAAAAHcEAAAAAHhzcQB+AA1ABAAAAAAAAHEAfgBXc3EAfgACc3EAfgAHAAAAAHcEAAAAAHhzcQB+AA0AAAAAAAAAAHEAfgBXeH5xAH4AInQACFBST1RfTE9Hc3EAfgACc3EAfgAHAAAAAncEAAAAAnNxAH4AAnNxAH4ABwAAAAB3BAAAAAB4cQB+AFtxAH4AYXEAfgBXeH5xAH4AInQAC1NVQlRSQUNUSU9Oc3EAfgACc3EAfgAHAAAAAncEAAAAAnEAfgBhc3EAfgACc3EAfgAHAAAAAncEAAAAAnNxAH4AAnNxAH4ABwAAAAB3BAAAAAB4cQB+AFZxAH4AaXNxAH4AAnNxAH4ABwAAAAJ3BAAAAAJzcQB+AAJzcQB+AAcAAAACdwQAAAACc3EAfgACc3EAfgAHAAAAAncEAAAAAnNxAH4AAnNxAH4ABwAAAAJ3BAAAAAJzcQB+AAJzcQB+AAcAAAAAdwQAAAAAeHNxAH4ADT/wAAAAAAAAcQB+AHNzcQB+AAJzcQB+AAcAAAAAdwQAAAAAeHEAfgBWc3EAfgACc3EAfgAHAAAAAncEAAAAAnNxAH4AAnNxAH4ABwAAAAJ3BAAAAAJzcQB+AAJzcQB+AAcAAAAAdwQAAAAAeHEAfgBecQB+AHxzcQB+AAJzcQB+AAcAAAAAdwQAAAAAeHEAfgBWcQB+AHx4cQB+AEhxAH4AenEAfgB4eHEAfgBIc3EAfgACc3EAfgAHAAAAAncEAAAAAnEAfgB6c3EAfgACc3EAfgAHAAAAAHcEAAAAAHhxAH4AVnEAfgCCeHEAfgBIc3EAfgACc3EAfgAHAAAAAncEAAAAAnEAfgCCc3EAfgACc3EAfgAHAAAAAncEAAAAAnNxAH4AAnNxAH4ABwAAAAB3BAAAAAB4c3EAfgANP/gAAAAAAABxAH4AiHNxAH4AAnNxAH4ABwAAAAB3BAAAAAB4cQB+AIxzcQB+AAJzcQB+AAcAAAACdwQAAAACc3EAfgACc3EAfgAHAAAAAHcEAAAAAHhxAH4ADnEAfgCPcQB+AI14cQB+ACZzcQB+AAJzcQB+AAcAAAACdwQAAAACc3EAfgACc3EAfgAHAAAAAncEAAAAAnNxAH4AAnNxAH4ABwAAAAJ3BAAAAAJzcQB+AAJzcQB+AAcAAAAAdwQAAAAAeHEAfgB3cQB+AJdzcQB+AAJzcQB+AAcAAAAAdwQAAAAAeHEAfgBWcQB+AJd4cQB+AEhxAH4AlXNxAH4AAnNxAH4ABwAAAAB3BAAAAAB4cQB+AFZxAH4AlXhxAH4ASHEAfgCTcQB+AI94cQB+AEhzcQB+AAJzcQB+AAcAAAACdwQAAAACcQB+AJNzcQB+AAJzcQB+AAcAAAACdwQAAAACc3EAfgACc3EAfgAHAAAAAHcEAAAAAHhxAH4AXnEAfgChc3EAfgACc3EAfgAHAAAAAHcEAAAAAHhxAH4ADnNxAH4AAnNxAH4ABwAAAAJ3BAAAAAJzcQB+AAJzcQB+AAcAAAACdwQAAAACc3EAfgACc3EAfgAHAAAAAHcEAAAAAHhxAH4AVnEAfgCpc3EAfgACc3EAfgAHAAAAAncEAAAAAnNxAH4AAnNxAH4ABwAAAAB3BAAAAAB4cQB+AFtxAH4ArXNxAH4AAnNxAH4ABwAAAAB3BAAAAAB4cQB+AF5xAH4ArXhxAH4AX3EAfgCpeHEAfgBlcQB+AKdxAH4ApXhxAH4AX3NxAH4AAnNxAH4ABwAAAAJ3BAAAAAJzcQB+AAJzcQB+AAcAAAACdwQAAAACc3EAfgACc3EAfgAHAAAAAncEAAAAAnNxAH4AAnNxAH4ABwAAAAB3BAAAAAB4cQB+AHdxAH4At3NxAH4AAnNxAH4ABwAAAAB3BAAAAAB4cQB+AFZxAH4At3hxAH4ASHEAfgC1c3EAfgACc3EAfgAHAAAAAncEAAAAAnNxAH4AAnNxAH4ABwAAAAJ3BAAAAAJzcQB+AAJzcQB+AAcAAAAAdwQAAAAAeHEAfgB3cQB+AL9zcQB+AAJzcQB+AAcAAAAAdwQAAAAAeHEAfgBWcQB+AL94cQB+AEhxAH4AvXNxAH4AAnNxAH4ABwAAAAB3BAAAAAB4c3EAfgANQAwAAAAAAABxAH4AvXhxAH4ASHEAfgC1eHEAfgBIcQB+ALNxAH4Ap3hxAH4AZXNxAH4AAnNxAH4ABwAAAAJ3BAAAAAJzcQB+AAJzcQB+AAcAAAAAdwQAAAAAeHEAfgBWcQB+AMhxAH4As3hxAH4AX3NxAH4AAnNxAH4ABwAAAAJ3BAAAAAJzcQB+AAJzcQB+AAcAAAACdwQAAAACc3EAfgACc3EAfgAHAAAAAHcEAAAAAHhxAH4AVnEAfgDOc3EAfgACc3EAfgAHAAAAAncEAAAAAnNxAH4AAnNxAH4ABwAAAAB3BAAAAAB4cQB+AFtxAH4A0nNxAH4AAnNxAH4ABwAAAAB3BAAAAAB4cQB+AIxxAH4A0nhxAH4AX3EAfgDOeHEAfgBlcQB+AMxxAH4AyHhxAH4ASHNxAH4AAnNxAH4ABwAAAAJ3BAAAAAJxAH4AzHNxAH4AAnNxAH4ABwAAAAJ3BAAAAAJzcQB+AAJzcQB+AAcAAAACdwQAAAACc3EAfgACc3EAfgAHAAAAAHcEAAAAAHhxAH4AVnEAfgDcc3EAfgACc3EAfgAHAAAAAncEAAAAAnNxAH4AAnNxAH4ABwAAAAB3BAAAAAB4cQB+AFtxAH4A4HNxAH4AAnNxAH4ABwAAAAB3BAAAAAB4cQB+AF5xAH4A4HhxAH4AX3EAfgDceHEAfgBlcQB+ANpzcQB+AAJzcQB+AAcAAAACdwQAAAACc3EAfgACc3EAfgAHAAAAAHcEAAAAAHhxAH4AVnEAfgDmc3EAfgACc3EAfgAHAAAAAncEAAAAAnNxAH4AAnNxAH4ABwAAAAJ3BAAAAAJzcQB+AAJzcQB+AAcAAAACdwQAAAACc3EAfgACc3EAfgAHAAAAAHcEAAAAAHhxAH4Ad3EAfgDuc3EAfgACc3EAfgAHAAAAAHcEAAAAAHhxAH4AVnNxAH4AAnNxAH4ABwAAAAJ3BAAAAAJzcQB+AAJzcQB+AAcAAAAAdwQAAAAAeHEAfgBWcQB+APRxAH4A8nhxAH4ASHNxAH4AAnNxAH4ABwAAAAJ3BAAAAAJxAH4A9HNxAH4AAnNxAH4ABwAAAAB3BAAAAAB4cQB+AMdzcQB+AAJzcQB+AAcAAAACdwQAAAACc3EAfgACc3EAfgAHAAAAAncEAAAAAnNxAH4AAnNxAH4ABwAAAAB3BAAAAAB4cQB+AF5xAH4A/nNxAH4AAnNxAH4ABwAAAAB3BAAAAAB4cQB+AA5xAH4A/nhxAH4AX3EAfgD8cQB+APp4cQB+AEhzcQB+AAJzcQB+AAcAAAACdwQAAAACcQB+APxzcQB+AAJzcQB+AAcAAAACdwQAAAACc3EAfgACc3EAfgAHAAAAAHcEAAAAAHhxAH4AXnEAfgEGc3EAfgACc3EAfgAHAAAAAHcEAAAAAHhxAH4ADnEAfgEGeHEAfgBfc3EAfgACc3EAfgAHAAAAAncEAAAAAnNxAH4AAnNxAH4ABwAAAAJ3BAAAAAJzcQB+AAJzcQB+AAcAAAACdwQAAAACc3EAfgACc3EAfgAHAAAAAHcEAAAAAHhxAH4Ad3EAfgEQc3EAfgACc3EAfgAHAAAAAHcEAAAAAHhxAH4AVnEAfgEQeHEAfgBIcQB+AQ5zcQB+AAJzcQB+AAcAAAAAdwQAAAAAeHEAfgCMcQB+AQ54cQB+AEhxAH4BDHEAfgEGeHEAfgBlc3EAfgACc3EAfgAHAAAAAncEAAAAAnNxAH4AAnNxAH4ABwAAAAB3BAAAAAB4cQB+AFZxAH4BGHEAfgEMeHEAfgBfc3EAfgACc3EAfgAHAAAAAncEAAAAAnNxAH4AAnNxAH4ABwAAAAJ3BAAAAAJzcQB+AAJzcQB+AAcAAAAAdwQAAAAAeHEAfgBWcQB+AR5zcQB+AAJzcQB+AAcAAAACdwQAAAACc3EAfgACc3EAfgAHAAAAAHcEAAAAAHhxAH4AW3EAfgEic3EAfgACc3EAfgAHAAAAAHcEAAAAAHhxAH4AXnEAfgEieHEAfgBfcQB+AR54cQB+AGVxAH4BHHEAfgEYeHEAfgBIc3EAfgACc3EAfgAHAAAAAncEAAAAAnNxAH4AAnNxAH4ABwAAAAJ3BAAAAAJzcQB+AAJzcQB+AAcAAAACdwQAAAACc3EAfgACc3EAfgAHAAAAAHcEAAAAAHhxAH4AVnEAfgEsc3EAfgACc3EAfgAHAAAAAncEAAAAAnNxAH4AAnNxAH4ABwAAAAB3BAAAAAB4cQB+AFtxAH4BMHNxAH4AAnNxAH4ABwAAAAB3BAAAAAB4cQB+AF5xAH4BMHhxAH4AX3EAfgEseHEAfgBlcQB+ASpzcQB+AAJzcQB+AAcAAAACdwQAAAACc3EAfgACc3EAfgAHAAAAAHcEAAAAAHhxAH4AVnEAfgE2c3EAfgACc3EAfgAHAAAAAncEAAAAAnNxAH4AAnNxAH4ABwAAAAB3BAAAAAB4cQB+AFtxAH4BOnNxAH4AAnNxAH4ABwAAAAB3BAAAAAB4cQB+AF5xAH4BOnhxAH4AZXEAfgE2eHEAfgBfcQB+ASp4cQB+AEhxAH4BKHEAfgEceHEAfgAmcHhxAH4AZXNxAH4AAnNxAH4ABwAAAAJ3BAAAAAJzcQB+AAJzcQB+AAcAAAAAdwQAAAAAeHEAfgBWcQB+AUBxAH4BBHhxAH4AX3NxAH4AAnNxAH4ABwAAAAJ3BAAAAAJzcQB+AAJzcQB+AAcAAAACdwQAAAACc3EAfgACc3EAfgAHAAAAAHcEAAAAAHhxAH4AVnEAfgFGc3EAfgACc3EAfgAHAAAAAncEAAAAAnNxAH4AAnNxAH4ABwAAAAB3BAAAAAB4cQB+AFtxAH4BSnNxAH4AAnNxAH4ABwAAAAB3BAAAAAB4cQB+AF5xAH4BSnhxAH4AX3EAfgFGeHEAfgBlcQB+AURxAH4BQHhxAH4ASHNxAH4AAnNxAH4ABwAAAAJ3BAAAAAJzcQB+AAJzcQB+AAcAAAACdwQAAAACc3EAfgACc3EAfgAHAAAAAncEAAAAAnNxAH4AAnNxAH4ABwAAAAB3BAAAAAB4cQB+AFZxAH4BVHNxAH4AAnNxAH4ABwAAAAJ3BAAAAAJzcQB+AAJzcQB+AAcAAAAAdwQAAAAAeHEAfgBbcQB+AVhzcQB+AAJzcQB+AAcAAAAAdwQAAAAAeHEAfgBecQB+AVh4cQB+AF9xAH4BVHhxAH4AZXEAfgFSc3EAfgACc3EAfgAHAAAAAncEAAAAAnNxAH4AAnNxAH4ABwAAAAB3BAAAAAB4cQB+AFZxAH4BXnNxAH4AAnNxAH4ABwAAAAJ3BAAAAAJzcQB+AAJzcQB+AAcAAAAAdwQAAAAAeHEAfgAOcQB+AWJzcQB+AAJzcQB+AAcAAAACdwQAAAACc3EAfgACc3EAfgAHAAAAAHcEAAAAAHhxAH4AXnEAfgFmc3EAfgACc3EAfgAHAAAAAHcEAAAAAHhxAH4ADnEAfgFmeHEAfgBfcQB+AWJ4cQB+AGVxAH4BXnhxAH4AX3EAfgFSeHEAfgBIcQB+AVBxAH4BRHhxAH4AJnB4cQB+AEhzcQB+AAJzcQB+AAcAAAACdwQAAAACcQB+APhxAH4BBnhxAH4AZXNxAH4AAnNxAH4ABwAAAAJ3BAAAAAJzcQB+AAJzcQB+AAcAAAAAdwQAAAAAeHEAfgBWcQB+AW5xAH4BbHhxAH4AX3NxAH4AAnNxAH4ABwAAAAJ3BAAAAAJzcQB+AAJzcQB+AAcAAAACdwQAAAACc3EAfgACc3EAfgAHAAAAAHcEAAAAAHhxAH4AVnEAfgF0c3EAfgACc3EAfgAHAAAAAncEAAAAAnNxAH4AAnNxAH4ABwAAAAB3BAAAAAB4cQB+AFtxAH4BeHNxAH4AAnNxAH4ABwAAAAB3BAAAAAB4cQB+AF5xAH4BeHhxAH4AX3EAfgF0eHEAfgBlcQB+AXJxAH4BbnhxAH4ASHNxAH4AAnNxAH4ABwAAAAJ3BAAAAAJzcQB+AAJzcQB+AAcAAAACdwQAAAACc3EAfgACc3EAfgAHAAAAAncEAAAAAnNxAH4AAnNxAH4ABwAAAAB3BAAAAAB4cQB+AFZxAH4BgnNxAH4AAnNxAH4ABwAAAAJ3BAAAAAJzcQB+AAJzcQB+AAcAAAAAdwQAAAAAeHEAfgBbcQB+AYZzcQB+AAJzcQB+AAcAAAAAdwQAAAAAeHEAfgBecQB+AYZ4cQB+AF9xAH4BgnhxAH4AZXEAfgGAc3EAfgACc3EAfgAHAAAAAncEAAAAAnNxAH4AAnNxAH4ABwAAAAB3BAAAAAB4cQB+AFZxAH4BjHNxAH4AAnNxAH4ABwAAAAJ3BAAAAAJzcQB+AAJzcQB+AAcAAAAAdwQAAAAAeHEAfgAOcQB+AZBzcQB+AAJzcQB+AAcAAAACdwQAAAACc3EAfgACc3EAfgAHAAAAAHcEAAAAAHhxAH4AXnEAfgGUc3EAfgACc3EAfgAHAAAAAHcEAAAAAHhxAH4ADnEAfgGUeHEAfgBfcQB+AZB4cQB+AGVxAH4BjHhxAH4AX3EAfgGAeHEAfgBIcQB+AX5xAH4BcnhxAH4AJnB4cQB+AEhxAH4A7HEAfgD6eHEAfgBIcQB+AOpxAH4BBnhxAH4AZXEAfgDmeHEAfgBfc3EAfgACc3EAfgAHAAAAAncEAAAAAnNxAH4AAnNxAH4ABwAAAAJ3BAAAAAJzcQB+AAJzcQB+AAcAAAAAdwQAAAAAeHEAfgBecQB+AZxzcQB+AAJzcQB+AAcAAAAAdwQAAAAAeHEAfgAOcQB+AZx4cQB+AF9xAH4BmnEAfgDmeHEAfgBIc3EAfgACc3EAfgAHAAAAAncEAAAAAnNxAH4AAnNxAH4ABwAAAAJ3BAAAAAJzcQB+AAJzcQB+AAcAAAACdwQAAAACc3EAfgACc3EAfgAHAAAAAHcEAAAAAHhxAH4AVnEAfgGmc3EAfgACc3EAfgAHAAAAAncEAAAAAnNxAH4AAnNxAH4ABwAAAAB3BAAAAAB4cQB+AFtxAH4BqnNxAH4AAnNxAH4ABwAAAAB3BAAAAAB4cQB+AFZxAH4BqnhxAH4AX3EAfgGmeHEAfgBlcQB+AaRzcQB+AAJzcQB+AAcAAAACdwQAAAACc3EAfgACc3EAfgAHAAAAAHcEAAAAAHhxAH4AVnEAfgGwc3EAfgACc3EAfgAHAAAAAncEAAAAAnNxAH4AAnNxAH4ABwAAAAJ3BAAAAAJzcQB+AAJzcQB+AAcAAAACdwQAAAACc3EAfgACc3EAfgAHAAAAAHcEAAAAAHhxAH4Ad3EAfgG4c3EAfgACc3EAfgAHAAAAAHcEAAAAAHhxAH4AVnEAfgG4eHEAfgBIcQB+AbZzcQB+AAJzcQB+AAcAAAACdwQAAAACc3EAfgACc3EAfgAHAAAAAncEAAAAAnNxAH4AAnNxAH4ABwAAAAB3BAAAAAB4cQB+AHdxAH4BwHNxAH4AAnNxAH4ABwAAAAB3BAAAAAB4cQB+AFZxAH4BwHhxAH4ASHEAfgG+c3EAfgACc3EAfgAHAAAAAHcEAAAAAHhxAH4Ax3EAfgG+eHEAfgBIcQB+AbZ4cQB+AEhxAH4BtHNxAH4AAnNxAH4ABwAAAAJ3BAAAAAJzcQB+AAJzcQB+AAcAAAAAdwQAAAAAeHEAfgBecQB+AchzcQB+AAJzcQB+AAcAAAAAdwQAAAAAeHEAfgAOcQB+Ach4cQB+AF9xAH4BtHhxAH4AZXEAfgGweHEAfgBfcQB+AaR4cQB+AEhxAH4BonEAfgGaeHEAfgAmcHhxAH4ASHNxAH4AAnNxAH4ABwAAAAJ3BAAAAAJzcQB+AAJzcQB+AAcAAAACdwQAAAACc3EAfgACc3EAfgAHAAAAAncEAAAAAnNxAH4AAnNxAH4ABwAAAAB3BAAAAAB4cQB+AFZxAH4B0nNxAH4AAnNxAH4ABwAAAAJ3BAAAAAJzcQB+AAJzcQB+AAcAAAAAdwQAAAAAeHEAfgB3cQB+AdZzcQB+AAJzcQB+AAcAAAAAdwQAAAAAeHEAfgBecQB+AdZ4cQB+AF9xAH4B0nhxAH4AZXEAfgHQc3EAfgACc3EAfgAHAAAAAncEAAAAAnNxAH4AAnNxAH4ABwAAAAB3BAAAAAB4cQB+AFZxAH4B3HNxAH4AAnNxAH4ABwAAAAJ3BAAAAAJzcQB+AAJzcQB+AAcAAAACdwQAAAACc3EAfgACc3EAfgAHAAAAAncEAAAAAnNxAH4AAnNxAH4ABwAAAAB3BAAAAAB4cQB+AHdxAH4B5HNxAH4AAnNxAH4ABwAAAAB3BAAAAAB4cQB+AFZzcQB+AAJzcQB+AAcAAAACdwQAAAACc3EAfgACc3EAfgAHAAAAAHcEAAAAAHhxAH4AVnEAfgHqcQB+Aeh4cQB+AEhzcQB+AAJzcQB+AAcAAAACdwQAAAACcQB+AepzcQB+AAJzcQB+AAcAAAAAdwQAAAAAeHEAfgDHcQB+Ae54cQB+AEhzcQB+AAJzcQB+AAcAAAACdwQAAAACcQB+Ae5zcQB+AAJzcQB+AAcAAAACdwQAAAACc3EAfgACc3EAfgAHAAAAAncEAAAAAnNxAH4AAnNxAH4ABwAAAAJ3BAAAAAJzcQB+AAJzcQB+AAcAAAAAdwQAAAAAeHEAfgB3cQB+AfhzcQB+AAJzcQB+AAcAAAAAdwQAAAAAeHEAfgBWcQB+Afh4cQB+AEhxAH4B9nNxAH4AAnNxAH4ABwAAAAB3BAAAAAB4cQB+AMdxAH4B9nhxAH4ASHEAfgH0c3EAfgACc3EAfgAHAAAAAncEAAAAAnNxAH4AAnNxAH4ABwAAAAB3BAAAAAB4cQB+AF5xAH4CAHNxAH4AAnNxAH4ABwAAAAB3BAAAAAB4cQB+AA5xAH4CAHhxAH4AX3EAfgH0eHEAfgBlc3EAfgACc3EAfgAHAAAAAncEAAAAAnNxAH4AAnNxAH4ABwAAAAB3BAAAAAB4cQB+AFZxAH4CBnEAfgH0eHEAfgBlc3EAfgACc3EAfgAHAAAAAncEAAAAAnNxAH4AAnNxAH4ABwAAAAB3BAAAAAB4cQB+AFZxAH4CCnEAfgIGeHEAfgBfc3EAfgACc3EAfgAHAAAAAncEAAAAAnNxAH4AAnNxAH4ABwAAAAJ3BAAAAAJzcQB+AAJzcQB+AAcAAAAAdwQAAAAAeHEAfgBWcQB+AhBzcQB+AAJzcQB+AAcAAAACdwQAAAACc3EAfgACc3EAfgAHAAAAAHcEAAAAAHhxAH4AW3EAfgIUc3EAfgACc3EAfgAHAAAAAHcEAAAAAHhxAH4AXnEAfgIUeHEAfgBfcQB+AhB4cQB+AGVxAH4CDnEAfgIKeHEAfgBIc3EAfgACc3EAfgAHAAAAAncEAAAAAnEAfgIOcQB+ANp4cQB+ACZweHEAfgBlc3EAfgACc3EAfgAHAAAAAncEAAAAAnNxAH4AAnNxAH4ABwAAAAB3BAAAAAB4cQB+AFZxAH4CHHEAfgHyeHEAfgBfc3EAfgACc3EAfgAHAAAAAncEAAAAAnNxAH4AAnNxAH4ABwAAAAJ3BAAAAAJzcQB+AAJzcQB+AAcAAAAAdwQAAAAAeHEAfgBWcQB+AiJzcQB+AAJzcQB+AAcAAAACdwQAAAACc3EAfgACc3EAfgAHAAAAAHcEAAAAAHhxAH4AW3EAfgImc3EAfgACc3EAfgAHAAAAAHcEAAAAAHhxAH4AXnEAfgImeHEAfgBfcQB+AiJ4cQB+AGVxAH4CIHEAfgIceHEAfgBIc3EAfgACc3EAfgAHAAAAAncEAAAAAnEAfgIgcQB+ANp4cQB+ACZweHEAfgBIcQB+AeJxAH4B8HhxAH4ASHEAfgHgcQB+AfR4cQB+AGVxAH4B3HhxAH4AX3EAfgHQeHEAfgBIcQB+Ac5xAH4A2nhxAH4AJnB4cQB+ACZweHEAfgBfc3EAfgACc3EAfgAHAAAAAncEAAAAAnNxAH4AAnNxAH4ABwAAAAJ3BAAAAAJzcQB+AAJzcQB+AAcAAAACdwQAAAACc3EAfgACc3EAfgAHAAAAAHcEAAAAAHhxAH4Ad3EAfgIyc3EAfgACc3EAfgAHAAAAAHcEAAAAAHhxAH4AVnEAfgIyeHEAfgBIcQB+AjBzcQB+AAJzcQB+AAcAAAAAdwQAAAAAeHEAfgBecQB+AjB4cQB+AEhxAH4CLnEAfgCheHEAfgBlc3EAfgACc3EAfgAHAAAAAncEAAAAAnNxAH4AAnNxAH4ABwAAAAB3BAAAAAB4cQB+AFZxAH4COnEAfgIueHEAfgBfc3EAfgACc3EAfgAHAAAAAncEAAAAAnNxAH4AAnNxAH4ABwAAAAJ3BAAAAAJzcQB+AAJzcQB+AAcAAAAAdwQAAAAAeHEAfgBWcQB+AkBzcQB+AAJzcQB+AAcAAAACdwQAAAACc3EAfgACc3EAfgAHAAAAAHcEAAAAAHhxAH4AW3EAfgJEc3EAfgACc3EAfgAHAAAAAHcEAAAAAHhxAH4AVnEAfgJEeHEAfgBfcQB+AkB4cQB+AGVxAH4CPnEAfgI6eHEAfgBIc3EAfgACc3EAfgAHAAAAAncEAAAAAnEAfgI+cQB+ANp4cQB+ACZweHEAfgBlc3EAfgACc3EAfgAHAAAAAncEAAAAAnNxAH4AAnNxAH4ABwAAAAB3BAAAAAB4cQB+AFZxAH4CTHEAfgCfeHEAfgBfc3EAfgACc3EAfgAHAAAAAncEAAAAAnNxAH4AAnNxAH4ABwAAAAJ3BAAAAAJzcQB+AAJzcQB+AAcAAAAAdwQAAAAAeHEAfgBWcQB+AlJzcQB+AAJzcQB+AAcAAAACdwQAAAACc3EAfgACc3EAfgAHAAAAAHcEAAAAAHhxAH4AW3EAfgJWc3EAfgACc3EAfgAHAAAAAHcEAAAAAHhxAH4AXnEAfgJWeHEAfgBfcQB+AlJ4cQB+AGVxAH4CUHEAfgJMeHEAfgBIc3EAfgACc3EAfgAHAAAAAncEAAAAAnEAfgJQcQB+ANp4cQB+ACZweHEAfgAmcQB+AIZ4cQB+AEhzcQB+AAJzcQB+AAcAAAACdwQAAAACcQB+AIZxAH4AoXhxAH4AZXNxAH4AAnNxAH4ABwAAAAJ3BAAAAAJzcQB+AAJzcQB+AAcAAAAAdwQAAAAAeHEAfgBWcQB+AmBxAH4CXnhxAH4AX3NxAH4AAnNxAH4ABwAAAAJ3BAAAAAJzcQB+AAJzcQB+AAcAAAACdwQAAAACc3EAfgACc3EAfgAHAAAAAHcEAAAAAHhxAH4AVnEAfgJmc3EAfgACc3EAfgAHAAAAAncEAAAAAnNxAH4AAnNxAH4ABwAAAAB3BAAAAAB4cQB+AFtxAH4CanNxAH4AAnNxAH4ABwAAAAB3BAAAAAB4cQB+AF5xAH4CanhxAH4AX3EAfgJmeHEAfgBlcQB+AmRxAH4CYHhxAH4ASHNxAH4AAnNxAH4ABwAAAAJ3BAAAAAJxAH4CZHEAfgDaeHEAfgAmcHhxAH4ASHEAfgBxcQB+AIR4cQB+AEhxAH4Ab3EAfgCIeHEAfgBIcQB+AG1xAH4AoXhxAH4AZXEAfgBpeHEAfgBfcQB+AGd4cQB+AEhzcQB+AAJzcQB+AAcAAAACdwQAAAACcQB+AGdxAH4A2nhxAH4AJnB4cQB+AGVxAH4AUHEAfgBpeHEAfgBIcQB+AE5xAH4A2nhxAH4AJnBzcQB+AAJzcQB+AAcAAAAAdwQAAAAAeHNxAH4AEXQAA3gwNHBzcQB+AAJzcQB+AAcAAAACdwQAAAACc3EAfgACc3EAfgAHAAAAAncEAAAAAnNxAH4AAnNxAH4ABwAAAAB3BAAAAAB4c3EAfgARdAADeDExcQB+AnpzcQB+AAJzcQB+AAcAAAAAdwQAAAAAeHEAfgJ+c3EAfgACc3EAfgAHAAAAAncEAAAAAnNxAH4AAnNxAH4ABwAAAAJ3BAAAAAJzcQB+AAJzcQB+AAcAAAACdwQAAAACc3EAfgACc3EAfgAHAAAAAHcEAAAAAHhxAH4CfnEAfgKGc3EAfgACc3EAfgAHAAAAAHcEAAAAAHhxAH4CfnEAfgKGeHEAfgBfcQB+AoRzcQB+AAJzcQB+AAcAAAACdwQAAAACc3EAfgACc3EAfgAHAAAAAHcEAAAAAHhzcQB+ABF0AAN4MTRxAH4CjHNxAH4AAnNxAH4ABwAAAAB3BAAAAAB4cQB+ABNxAH4CjHhxAH4AJnEAfgKEeHEAfgBfcQB+AoJxAH4CgHhxAH4AX3NxAH4AAnNxAH4ABwAAAAJ3BAAAAAJxAH4CgnNxAH4AAnNxAH4ABwAAAAJ3BAAAAAJzcQB+AAJzcQB+AAcAAAAAdwQAAAAAeHEAfgKQcQB+ApZzcQB+AAJzcQB+AAcAAAAAdwQAAAAAeHEAfgATc3EAfgACc3EAfgAHAAAAAncEAAAAAnNxAH4AAnNxAH4ABwAAAAJ3BAAAAAJzcQB+AAJzcQB+AAcAAAACdwQAAAACc3EAfgACc3EAfgAHAAAAAHcEAAAAAHhzcQB+ABF0AAN4MTZxAH4CoHNxAH4AAnNxAH4ABwAAAAJ3BAAAAAJzcQB+AAJzcQB+AAcAAAAAdwQAAAAAeHNxAH4ADUAIAAAAAAAAcQB+AqZzcQB+AAJzcQB+AAcAAAACdwQAAAACc3EAfgACc3EAfgAHAAAAAHcEAAAAAHhxAH4CpHEAfgKrc3EAfgACc3EAfgAHAAAAAHcEAAAAAHhzcQB+ABF0AAN4MTNxAH4Cq3hxAH4AZXEAfgKmeHEAfgAkcQB+AqB4cQB+AEhxAH4CnnNxAH4AAnNxAH4ABwAAAAB3BAAAAAB4cQB+AF5xAH4CnnhxAH4AJHEAfgKccQB+App4cQB+ACZzcQB+AAJzcQB+AAcAAAACdwQAAAACc3EAfgACc3EAfgAHAAAAAncEAAAAAnNxAH4AAnNxAH4ABwAAAAB3BAAAAAB4cQB+An5xAH4Ct3NxAH4AAnNxAH4ABwAAAAB3BAAAAAB4cQB+An5xAH4Ct3hxAH4AX3EAfgK1cQB+Apx4cQB+AF9weHEAfgAmcQB+ApR4cQB+AF9weHEAfgBfcQB+AnhxAH4ClnhxAH4AX3B4";
