ea.runOutcome(
  index = 78;
  run = ea.run(
    problem = ea.p.mr.fromData(
      trainingDataset = ea.dataset.numerical.fromFile(
        filePath = "../phase2/data-ro-ga-3-006.txt";
        folds = [0];
        nFolds = 40;
        xVarNamePattern = "x.*";
        yVarNamePattern = "y.*"
      )
    );
    randomGenerator = ea.rg.defaultRG(seed = 4);
    solver = ea.s.multiSRTreeGP(
      crossoverP = 0.8;
      diversity = true;
      mapper = ea.m.treeMRF(
        dataset = ea.d.num.empty(
          xVars = [
            x0;
            x1;
            x2;
            x3;
            x4;
            x5;
            x6;
            x7;
            x8;
            x9;
            x10;
            x11;
            x12;
            x13;
            x14;
            x15
          ];
          yVars = [y0; y1; y2; y3]
        );
        postOperator = tanh
      );
      maxConst = 5;
      maxTreeH = 8;
      minConst = 0;
      minNTournament = 3;
      minTreeH = 3;
      nAttemptsDiversity = 100;
      nConst = 10;
      nEval = 10000;
      nPop = 100;
      operators = [addition; subtraction; multiplication; prot_division];
      tournamentRate = 0.05
    )
  );
  serializedGenotypes = [
    "rO0ABXNyABFqYXZhLnV0aWwuQ29sbFNlcleOq7Y6G6gRAwABSQADdGFneHAAAAAEdwQAAAAEc3IAN2lvLmdpdGh1Yi5lcmljbWVkdmV0LmpnZWEuY29yZS5yZXByZXNlbnRhdGlvbi50cmVlLlRyZWUKs7/qnQrEZQIAA0wACGNoaWxkcmVudAAQTGphdmEvdXRpbC9MaXN0O0wAB2NvbnRlbnR0ABJMamF2YS9sYW5nL09iamVjdDtMAAZwYXJlbnR0ADlMaW8vZ2l0aHViL2VyaWNtZWR2ZXQvamdlYS9jb3JlL3JlcHJlc2VudGF0aW9uL3RyZWUvVHJlZTt4cHNyABNqYXZhLnV0aWwuQXJyYXlMaXN0eIHSHZnHYZ0DAAFJAARzaXpleHAAAAACdwQAAAACc3EAfgACc3EAfgAHAAAAAncEAAAAAnNxAH4AAnNxAH4ABwAAAAB3BAAAAAB4c3IAS2lvLmdpdGh1Yi5lcmljbWVkdmV0LmpnZWEuY29yZS5yZXByZXNlbnRhdGlvbi50cmVlLm51bWVyaWMuRWxlbWVudCRWYXJpYWJsZQAAAAAAAAAAAgABTAAEbmFtZXQAEkxqYXZhL2xhbmcvU3RyaW5nO3hwdAACeDZxAH4ACXNxAH4AAnNxAH4ABwAAAAB3BAAAAAB4c3EAfgANdAACeDFzcQB+AAJzcQB+AAcAAAACdwQAAAACc3EAfgACc3EAfgAHAAAAAHcEAAAAAHhxAH4AE3EAfgAVcQB+ABF4fnIAS2lvLmdpdGh1Yi5lcmljbWVkdmV0LmpnZWEuY29yZS5yZXByZXNlbnRhdGlvbi50cmVlLm51bWVyaWMuRWxlbWVudCRPcGVyYXRvcgAAAAAAAAAAEgAAeHIADmphdmEubGFuZy5FbnVtAAAAAAAAAAASAAB4cHQADk1VTFRJUExJQ0FUSU9Oc3EAfgACc3EAfgAHAAAAAncEAAAAAnEAfgAVc3EAfgACc3EAfgAHAAAAAHcEAAAAAHhxAH4AE3NxAH4AAnNxAH4ABwAAAAJ3BAAAAAJzcQB+AAJzcQB+AAcAAAAAdwQAAAAAeHEAfgAPcQB+ACFxAH4AH3h+cQB+ABl0AA1QUk9UX0RJVklTSU9OcHhxAH4AJXB4cQB+ABtxAH4ABnEAfgAfeHEAfgAlcHNxAH4AAnNxAH4ABwAAAAJ3BAAAAAJzcQB+AAJzcQB+AAcAAAACdwQAAAACc3EAfgACc3EAfgAHAAAAAncEAAAAAnNxAH4AAnNxAH4ABwAAAAJ3BAAAAAJzcQB+AAJzcQB+AAcAAAACdwQAAAACc3EAfgACc3EAfgAHAAAAAncEAAAAAnNxAH4AAnNxAH4ABwAAAAB3BAAAAAB4c3EAfgANdAACeDhxAH4AMXNxAH4AAnNxAH4ABwAAAAJ3BAAAAAJzcQB+AAJzcQB+AAcAAAAAdwQAAAAAeHEAfgA1cQB+ADdzcQB+AAJzcQB+AAcAAAAAdwQAAAAAeHNxAH4ADXQAA3gxMnEAfgA3eH5xAH4AGXQACEFERElUSU9Oc3EAfgACc3EAfgAHAAAAAncEAAAAAnNxAH4AAnNxAH4ABwAAAAJ3BAAAAAJzcQB+AAJzcQB+AAcAAAAAdwQAAAAAeHEAfgA1cQB+AENzcQB+AAJzcQB+AAcAAAAAdwQAAAAAeHEAfgA9cQB+AEN4cQB+AD9xAH4AQXEAfgA3eHEAfgA/c3EAfgACc3EAfgAHAAAAAncEAAAAAnEAfgBBc3EAfgACc3EAfgAHAAAAAHcEAAAAAHhxAH4APXNxAH4AAnNxAH4ABwAAAAJ3BAAAAAJzcQB+AAJzcQB+AAcAAAACdwQAAAACc3EAfgACc3EAfgAHAAAAAHcEAAAAAHhxAH4ANXEAfgBPc3EAfgACc3EAfgAHAAAAAHcEAAAAAHhxAH4APXEAfgBPeHEAfgA/cQB+AE1xAH4AS3h+cQB+ABl0AAtTVUJUUkFDVElPTnNxAH4AAnNxAH4ABwAAAAJ3BAAAAAJxAH4ATXNxAH4AAnNxAH4ABwAAAAJ3BAAAAAJzcQB+AAJzcQB+AAcAAAAAdwQAAAAAeHEAfgA9cQB+AFlzcQB+AAJzcQB+AAcAAAAAdwQAAAAAeHEAfgA9c3EAfgACc3EAfgAHAAAAAncEAAAAAnNxAH4AAnNxAH4ABwAAAAB3BAAAAAB4cQB+AA9xAH4AX3EAfgBdeHEAfgA/c3EAfgACc3EAfgAHAAAAAncEAAAAAnNxAH4AAnNxAH4ABwAAAAJ3BAAAAAJzcQB+AAJzcQB+AAcAAAACdwQAAAACc3EAfgACc3EAfgAHAAAAAHcEAAAAAHhxAH4ANXEAfgBnc3EAfgACc3EAfgAHAAAAAncEAAAAAnNxAH4AAnNxAH4ABwAAAAJ3BAAAAAJzcQB+AAJzcQB+AAcAAAAAdwQAAAAAeHEAfgA1cQB+AG1zcQB+AAJzcQB+AAcAAAAAdwQAAAAAeHEAfgA9cQB+AG14cQB+AD9xAH4Aa3NxAH4AAnNxAH4ABwAAAAB3BAAAAAB4cQB+AD1xAH4Aa3hxAH4AVXEAfgBneHEAfgA/cQB+AGVzcQB+AAJzcQB+AAcAAAAAdwQAAAAAeHEAfgA9cQB+AGV4cQB+AFVxAH4AY3EAfgBfeHEAfgAbc3EAfgACc3EAfgAHAAAAAncEAAAAAnEAfgBjc3EAfgACc3EAfgAHAAAAAHcEAAAAAHhxAH4AD3NxAH4AAnNxAH4ABwAAAAJ3BAAAAAJxAH4AV3EAfgB5eHEAfgAlc3EAfgACc3EAfgAHAAAAAncEAAAAAnEAfgB7c3EAfgACc3EAfgAHAAAAAHcEAAAAAHhxAH4AD3EAfgB9eHEAfgAlc3EAfgACc3EAfgAHAAAAAncEAAAAAnEAfgB9c3EAfgACc3EAfgAHAAAAAHcEAAAAAHhxAH4AD3EAfgCBeHEAfgBVcHhxAH4AJXNxAH4AAnNxAH4ABwAAAAJ3BAAAAAJxAH4Ad3EAfgB/eHEAfgAlc3EAfgACc3EAfgAHAAAAAncEAAAAAnEAfgCFcQB+AIN4cQB+AFVweHEAfgA/cQB+AFd4cQB+ABtxAH4Ae3hxAH4AVXNxAH4AAnNxAH4ABwAAAAJ3BAAAAAJxAH4ASXEAfgBZeHEAfgAbc3EAfgACc3EAfgAHAAAAAncEAAAAAnEAfgCJcQB+AHl4cQB+ACVzcQB+AAJzcQB+AAcAAAACdwQAAAACcQB+AItxAH4Af3hxAH4AJXNxAH4AAnNxAH4ABwAAAAJ3BAAAAAJxAH4AjXEAfgCDeHEAfgBVcHhxAH4AP3EAfgAvcQB+AEt4cQB+AFVxAH4ALXEAfgBZeHEAfgAbcQB+ACtxAH4AeXhxAH4AJXEAfgApcQB+AH94cQB+ACVxAH4AJ3EAfgCDeHEAfgBVcHNxAH4AAnNxAH4ABwAAAAB3BAAAAAB4cQB+AA9wc3EAfgACc3EAfgAHAAAAAncEAAAAAnNxAH4AAnNxAH4ABwAAAAB3BAAAAAB4c3EAfgANdAACeDlxAH4Ak3NxAH4AAnNxAH4ABwAAAAJ3BAAAAAJzcQB+AAJzcQB+AAcAAAAAdwQAAAAAeHNyAEtpby5naXRodWIuZXJpY21lZHZldC5qZ2VhLmNvcmUucmVwcmVzZW50YXRpb24udHJlZS5udW1lcmljLkVsZW1lbnQkQ29uc3RhbnQAAAAAAAAAAAIAAUQABXZhbHVleHA/8AAAAAAAAHEAfgCZc3EAfgACc3EAfgAHAAAAAncEAAAAAnNxAH4AAnNxAH4ABwAAAAB3BAAAAAB4cQB+AJ5xAH4An3NxAH4AAnNxAH4ABwAAAAJ3BAAAAAJzcQB+AAJzcQB+AAcAAAAAdwQAAAAAeHEAfgCecQB+AKNzcQB+AAJzcQB+AAcAAAACdwQAAAACc3EAfgACc3EAfgAHAAAAAHcEAAAAAHhxAH4AnnEAfgCnc3EAfgACc3EAfgAHAAAAAHcEAAAAAHhzcQB+AA10AAJ4NHEAfgCneHEAfgAbcQB+AKN4cQB+ABtxAH4An3hxAH4AG3NxAH4AAnNxAH4ABwAAAAJ3BAAAAAJzcQB+AAJzcQB+AAcAAAACdwQAAAACc3EAfgACc3EAfgAHAAAAAHcEAAAAAHhxAH4AnnEAfgCxc3EAfgACc3EAfgAHAAAAAncEAAAAAnNxAH4AAnNxAH4ABwAAAAB3BAAAAAB4cQB+AJ5xAH4AtXNxAH4AAnNxAH4ABwAAAAB3BAAAAAB4cQB+AK1xAH4AtXhxAH4AG3EAfgCxeHEAfgAbcQB+AK9xAH4An3hxAH4AG3NxAH4AAnNxAH4ABwAAAAJ3BAAAAAJzcQB+AAJzcQB+AAcAAAAAdwQAAAAAeHEAfgCXcQB+ALtxAH4Ar3hxAH4AVXB4cQB+ABtzcQB+AAJzcQB+AAcAAAACdwQAAAACc3EAfgACc3EAfgAHAAAAAHcEAAAAAHhxAH4AnnEAfgC/cQB+AJl4cQB+AFVweHEAfgBVcHg=";
    "rO0ABXNyABFqYXZhLnV0aWwuQ29sbFNlcleOq7Y6G6gRAwABSQADdGFneHAAAAAEdwQAAAAEc3IAN2lvLmdpdGh1Yi5lcmljbWVkdmV0LmpnZWEuY29yZS5yZXByZXNlbnRhdGlvbi50cmVlLlRyZWUKs7/qnQrEZQIAA0wACGNoaWxkcmVudAAQTGphdmEvdXRpbC9MaXN0O0wAB2NvbnRlbnR0ABJMamF2YS9sYW5nL09iamVjdDtMAAZwYXJlbnR0ADlMaW8vZ2l0aHViL2VyaWNtZWR2ZXQvamdlYS9jb3JlL3JlcHJlc2VudGF0aW9uL3RyZWUvVHJlZTt4cHNyABNqYXZhLnV0aWwuQXJyYXlMaXN0eIHSHZnHYZ0DAAFJAARzaXpleHAAAAAAdwQAAAAAeHNyAEtpby5naXRodWIuZXJpY21lZHZldC5qZ2VhLmNvcmUucmVwcmVzZW50YXRpb24udHJlZS5udW1lcmljLkVsZW1lbnQkVmFyaWFibGUAAAAAAAAAAAIAAUwABG5hbWV0ABJMamF2YS9sYW5nL1N0cmluZzt4cHQAAng2cHNxAH4AAnNxAH4ABwAAAAJ3BAAAAAJzcQB+AAJzcQB+AAcAAAACdwQAAAACc3EAfgACc3EAfgAHAAAAAncEAAAAAnNxAH4AAnNxAH4ABwAAAAJ3BAAAAAJzcQB+AAJzcQB+AAcAAAACdwQAAAACc3EAfgACc3EAfgAHAAAAAncEAAAAAnNxAH4AAnNxAH4ABwAAAAB3BAAAAAB4c3EAfgAJdAACeDhxAH4AF3NxAH4AAnNxAH4ABwAAAAJ3BAAAAAJzcQB+AAJzcQB+AAcAAAAAdwQAAAAAeHEAfgAbcQB+AB1zcQB+AAJzcQB+AAcAAAAAdwQAAAAAeHNxAH4ACXQAA3gxMnEAfgAdeH5yAEtpby5naXRodWIuZXJpY21lZHZldC5qZ2VhLmNvcmUucmVwcmVzZW50YXRpb24udHJlZS5udW1lcmljLkVsZW1lbnQkT3BlcmF0b3IAAAAAAAAAABIAAHhyAA5qYXZhLmxhbmcuRW51bQAAAAAAAAAAEgAAeHB0AAhBRERJVElPTnNxAH4AAnNxAH4ABwAAAAJ3BAAAAAJzcQB+AAJzcQB+AAcAAAACdwQAAAACc3EAfgACc3EAfgAHAAAAAHcEAAAAAHhxAH4AG3EAfgArc3EAfgACc3EAfgAHAAAAAHcEAAAAAHhxAH4AI3EAfgAreHEAfgAncQB+AClxAH4AHXhxAH4AJ3NxAH4AAnNxAH4ABwAAAAJ3BAAAAAJxAH4AKXNxAH4AAnNxAH4ABwAAAAB3BAAAAAB4cQB+ACNzcQB+AAJzcQB+AAcAAAACdwQAAAACc3EAfgACc3EAfgAHAAAAAncEAAAAAnNxAH4AAnNxAH4ABwAAAAB3BAAAAAB4cQB+ABtxAH4AN3NxAH4AAnNxAH4ABwAAAAB3BAAAAAB4cQB+ACNxAH4AN3hxAH4AJ3EAfgA1cQB+ADN4fnEAfgAldAALU1VCVFJBQ1RJT05zcQB+AAJzcQB+AAcAAAACdwQAAAACcQB+ADVzcQB+AAJzcQB+AAcAAAACdwQAAAACc3EAfgACc3EAfgAHAAAAAHcEAAAAAHhxAH4AI3EAfgBBc3EAfgACc3EAfgAHAAAAAHcEAAAAAHhxAH4AI3NxAH4AAnNxAH4ABwAAAAJ3BAAAAAJzcQB+AAJzcQB+AAcAAAAAdwQAAAAAeHEAfgALcQB+AEdxAH4ARXhxAH4AJ3NxAH4AAnNxAH4ABwAAAAJ3BAAAAAJzcQB+AAJzcQB+AAcAAAACdwQAAAACc3EAfgACc3EAfgAHAAAAAncEAAAAAnNxAH4AAnNxAH4ABwAAAAB3BAAAAAB4cQB+ABtxAH4AT3NxAH4AAnNxAH4ABwAAAAJ3BAAAAAJzcQB+AAJzcQB+AAcAAAACdwQAAAACc3EAfgACc3EAfgAHAAAAAHcEAAAAAHhxAH4AG3EAfgBVc3EAfgACc3EAfgAHAAAAAHcEAAAAAHhxAH4AI3EAfgBVeHEAfgAncQB+AFNzcQB+AAJzcQB+AAcAAAAAdwQAAAAAeHEAfgAjcQB+AFN4cQB+AD1xAH4AT3hxAH4AJ3EAfgBNc3EAfgACc3EAfgAHAAAAAHcEAAAAAHhxAH4AI3EAfgBNeHEAfgA9cQB+AEtxAH4AR3h+cQB+ACV0AA5NVUxUSVBMSUNBVElPTnNxAH4AAnNxAH4ABwAAAAJ3BAAAAAJxAH4AS3NxAH4AAnNxAH4ABwAAAAB3BAAAAAB4cQB+AAtzcQB+AAJzcQB+AAcAAAACdwQAAAACcQB+AD9xAH4AY3h+cQB+ACV0AA1QUk9UX0RJVklTSU9Oc3EAfgACc3EAfgAHAAAAAncEAAAAAnEAfgBlc3EAfgACc3EAfgAHAAAAAHcEAAAAAHhxAH4AC3EAfgBpeHEAfgBnc3EAfgACc3EAfgAHAAAAAncEAAAAAnEAfgBpc3EAfgACc3EAfgAHAAAAAHcEAAAAAHhxAH4AC3EAfgBteHEAfgA9cHhxAH4AZ3NxAH4AAnNxAH4ABwAAAAJ3BAAAAAJxAH4AYXEAfgBreHEAfgBnc3EAfgACc3EAfgAHAAAAAncEAAAAAnEAfgBxcQB+AG94cQB+AD1weHEAfgAncQB+AD94cQB+AF9xAH4AZXhxAH4APXNxAH4AAnNxAH4ABwAAAAJ3BAAAAAJxAH4AMXEAfgBBeHEAfgBfc3EAfgACc3EAfgAHAAAAAncEAAAAAnEAfgB1cQB+AGN4cQB+AGdzcQB+AAJzcQB+AAcAAAACdwQAAAACcQB+AHdxAH4Aa3hxAH4AZ3NxAH4AAnNxAH4ABwAAAAJ3BAAAAAJxAH4AeXEAfgBveHEAfgA9cHhxAH4AJ3EAfgAVcQB+ADN4cQB+AD1xAH4AE3EAfgBBeHEAfgBfcQB+ABFxAH4AY3hxAH4AZ3EAfgAPcQB+AGt4cQB+AGdxAH4ADXEAfgBveHEAfgA9cHNxAH4AAnNxAH4ABwAAAAB3BAAAAAB4cQB+AAtwc3EAfgACc3EAfgAHAAAAAncEAAAAAnNxAH4AAnNxAH4ABwAAAAB3BAAAAAB4c3EAfgAJdAACeDlxAH4Af3NxAH4AAnNxAH4ABwAAAAB3BAAAAAB4c3EAfgAJdAACeDRzcQB+AAJzcQB+AAcAAAACdwQAAAACc3EAfgACc3EAfgAHAAAAAHcEAAAAAHhxAH4Ah3EAfgCJcQB+AIV4cQB+AD1weHEAfgA9cHg=";
    "rO0ABXNyABFqYXZhLnV0aWwuQ29sbFNlcleOq7Y6G6gRAwABSQADdGFneHAAAAAEdwQAAAAEc3IAN2lvLmdpdGh1Yi5lcmljbWVkdmV0LmpnZWEuY29yZS5yZXByZXNlbnRhdGlvbi50cmVlLlRyZWUKs7/qnQrEZQIAA0wACGNoaWxkcmVudAAQTGphdmEvdXRpbC9MaXN0O0wAB2NvbnRlbnR0ABJMamF2YS9sYW5nL09iamVjdDtMAAZwYXJlbnR0ADlMaW8vZ2l0aHViL2VyaWNtZWR2ZXQvamdlYS9jb3JlL3JlcHJlc2VudGF0aW9uL3RyZWUvVHJlZTt4cHNyABNqYXZhLnV0aWwuQXJyYXlMaXN0eIHSHZnHYZ0DAAFJAARzaXpleHAAAAAAdwQAAAAAeHNyAEtpby5naXRodWIuZXJpY21lZHZldC5qZ2VhLmNvcmUucmVwcmVzZW50YXRpb24udHJlZS5udW1lcmljLkVsZW1lbnQkVmFyaWFibGUAAAAAAAAAAAIAAUwABG5hbWV0ABJMamF2YS9sYW5nL1N0cmluZzt4cHQAAng2cHNxAH4AAnNxAH4ABwAAAAJ3BAAAAAJzcQB+AAJzcQB+AAcAAAACdwQAAAACc3EAfgACc3EAfgAHAAAAAncEAAAAAnNxAH4AAnNxAH4ABwAAAAJ3BAAAAAJzcQB+AAJzcQB+AAcAAAACdwQAAAACc3EAfgACc3EAfgAHAAAAAncEAAAAAnNxAH4AAnNxAH4ABwAAAAB3BAAAAAB4c3EAfgAJdAACeDhxAH4AF3NxAH4AAnNxAH4ABwAAAAJ3BAAAAAJzcQB+AAJzcQB+AAcAAAAAdwQAAAAAeHEAfgAbcQB+AB1zcQB+AAJzcQB+AAcAAAAAdwQAAAAAeHNxAH4ACXQAA3gxMnEAfgAdeH5yAEtpby5naXRodWIuZXJpY21lZHZldC5qZ2VhLmNvcmUucmVwcmVzZW50YXRpb24udHJlZS5udW1lcmljLkVsZW1lbnQkT3BlcmF0b3IAAAAAAAAAABIAAHhyAA5qYXZhLmxhbmcuRW51bQAAAAAAAAAAEgAAeHB0AAhBRERJVElPTnNxAH4AAnNxAH4ABwAAAAJ3BAAAAAJzcQB+AAJzcQB+AAcAAAACdwQAAAACc3EAfgACc3EAfgAHAAAAAHcEAAAAAHhxAH4AG3EAfgArc3EAfgACc3EAfgAHAAAAAHcEAAAAAHhxAH4AI3EAfgAreHEAfgAncQB+AClxAH4AHXhxAH4AJ3NxAH4AAnNxAH4ABwAAAAJ3BAAAAAJxAH4AKXNxAH4AAnNxAH4ABwAAAAB3BAAAAAB4cQB+ACNzcQB+AAJzcQB+AAcAAAACdwQAAAACc3EAfgACc3EAfgAHAAAAAncEAAAAAnNxAH4AAnNxAH4ABwAAAAB3BAAAAAB4cQB+ABtxAH4AN3NxAH4AAnNxAH4ABwAAAAB3BAAAAAB4cQB+ACNxAH4AN3hxAH4AJ3EAfgA1cQB+ADN4fnEAfgAldAALU1VCVFJBQ1RJT05zcQB+AAJzcQB+AAcAAAACdwQAAAACcQB+ADVzcQB+AAJzcQB+AAcAAAACdwQAAAACc3EAfgACc3EAfgAHAAAAAHcEAAAAAHhxAH4AI3EAfgBBc3EAfgACc3EAfgAHAAAAAHcEAAAAAHhxAH4AI3NxAH4AAnNxAH4ABwAAAAJ3BAAAAAJzcQB+AAJzcQB+AAcAAAAAdwQAAAAAeHEAfgALcQB+AEdxAH4ARXhxAH4AJ3NxAH4AAnNxAH4ABwAAAAJ3BAAAAAJzcQB+AAJzcQB+AAcAAAACdwQAAAACc3EAfgACc3EAfgAHAAAAAncEAAAAAnNxAH4AAnNxAH4ABwAAAAB3BAAAAAB4cQB+ABtxAH4AT3NxAH4AAnNxAH4ABwAAAAJ3BAAAAAJzcQB+AAJzcQB+AAcAAAACdwQAAAACc3EAfgACc3EAfgAHAAAAAHcEAAAAAHhxAH4AG3EAfgBVc3EAfgACc3EAfgAHAAAAAHcEAAAAAHhxAH4AI3EAfgBVeHEAfgAncQB+AFNzcQB+AAJzcQB+AAcAAAAAdwQAAAAAeHEAfgAjcQB+AFN4cQB+AD1xAH4AT3hxAH4AJ3EAfgBNc3EAfgACc3EAfgAHAAAAAHcEAAAAAHhxAH4AI3EAfgBNeHEAfgA9cQB+AEtxAH4AR3h+cQB+ACV0AA5NVUxUSVBMSUNBVElPTnNxAH4AAnNxAH4ABwAAAAJ3BAAAAAJxAH4AS3NxAH4AAnNxAH4ABwAAAAB3BAAAAAB4cQB+AAtzcQB+AAJzcQB+AAcAAAACdwQAAAACcQB+AD9xAH4AY3h+cQB+ACV0AA1QUk9UX0RJVklTSU9Oc3EAfgACc3EAfgAHAAAAAncEAAAAAnEAfgBlc3EAfgACc3EAfgAHAAAAAHcEAAAAAHhxAH4AC3EAfgBpeHEAfgBnc3EAfgACc3EAfgAHAAAAAncEAAAAAnEAfgBpc3EAfgACc3EAfgAHAAAAAHcEAAAAAHhxAH4AC3EAfgBteHEAfgA9cHhxAH4AZ3NxAH4AAnNxAH4ABwAAAAJ3BAAAAAJxAH4AYXEAfgBreHEAfgBnc3EAfgACc3EAfgAHAAAAAncEAAAAAnEAfgBxcQB+AG94cQB+AD1weHEAfgAncQB+AD94cQB+AF9xAH4AZXhxAH4APXNxAH4AAnNxAH4ABwAAAAJ3BAAAAAJxAH4AMXEAfgBBeHEAfgBfc3EAfgACc3EAfgAHAAAAAncEAAAAAnEAfgB1cQB+AGN4cQB+AGdzcQB+AAJzcQB+AAcAAAACdwQAAAACcQB+AHdxAH4Aa3hxAH4AZ3NxAH4AAnNxAH4ABwAAAAJ3BAAAAAJxAH4AeXEAfgBveHEAfgA9cHhxAH4AJ3EAfgAVcQB+ADN4cQB+AD1xAH4AE3EAfgBBeHEAfgBfcQB+ABFxAH4AY3hxAH4AZ3EAfgAPcQB+AGt4cQB+AGdxAH4ADXEAfgBveHEAfgA9cHNxAH4AAnNxAH4ABwAAAAB3BAAAAAB4cQB+AAtwc3EAfgACc3EAfgAHAAAAAncEAAAAAnNxAH4AAnNxAH4ABwAAAAB3BAAAAAB4c3EAfgAJdAACeDlxAH4Af3NxAH4AAnNxAH4ABwAAAAJ3BAAAAAJzcQB+AAJzcQB+AAcAAAAAdwQAAAAAeHNyAEtpby5naXRodWIuZXJpY21lZHZldC5qZ2VhLmNvcmUucmVwcmVzZW50YXRpb24udHJlZS5udW1lcmljLkVsZW1lbnQkQ29uc3RhbnQAAAAAAAAAAAIAAUQABXZhbHVleHA/8AAAAAAAAHEAfgCFc3EAfgACc3EAfgAHAAAAAncEAAAAAnNxAH4AAnNxAH4ABwAAAAB3BAAAAAB4cQB+AIpxAH4Ai3NxAH4AAnNxAH4ABwAAAAJ3BAAAAAJzcQB+AAJzcQB+AAcAAAAAdwQAAAAAeHEAfgCKcQB+AI9zcQB+AAJzcQB+AAcAAAACdwQAAAACc3EAfgACc3EAfgAHAAAAAHcEAAAAAHhxAH4AinEAfgCTc3EAfgACc3EAfgAHAAAAAHcEAAAAAHhzcQB+AAl0AAJ4NHEAfgCTeHEAfgBfcQB+AI94cQB+AF9xAH4Ai3hxAH4AX3NxAH4AAnNxAH4ABwAAAAJ3BAAAAAJzcQB+AAJzcQB+AAcAAAACdwQAAAACc3EAfgACc3EAfgAHAAAAAHcEAAAAAHhxAH4AinEAfgCdc3EAfgACc3EAfgAHAAAAAncEAAAAAnNxAH4AAnNxAH4ABwAAAAB3BAAAAAB4cQB+AIpxAH4AoXNxAH4AAnNxAH4ABwAAAAB3BAAAAAB4cQB+AJlxAH4AoXhxAH4AX3EAfgCdeHEAfgBfcQB+AJtxAH4Ai3hxAH4AX3NxAH4AAnNxAH4ABwAAAAJ3BAAAAAJzcQB+AAJzcQB+AAcAAAAAdwQAAAAAeHEAfgCDcQB+AKdxAH4Am3hxAH4APXB4cQB+AF9zcQB+AAJzcQB+AAcAAAACdwQAAAACc3EAfgACc3EAfgAHAAAAAHcEAAAAAHhxAH4AinEAfgCrcQB+AIV4cQB+AD1weHEAfgA9cHg=";
    "rO0ABXNyABFqYXZhLnV0aWwuQ29sbFNlcleOq7Y6G6gRAwABSQADdGFneHAAAAAEdwQAAAAEc3IAN2lvLmdpdGh1Yi5lcmljbWVkdmV0LmpnZWEuY29yZS5yZXByZXNlbnRhdGlvbi50cmVlLlRyZWUKs7/qnQrEZQIAA0wACGNoaWxkcmVudAAQTGphdmEvdXRpbC9MaXN0O0wAB2NvbnRlbnR0ABJMamF2YS9sYW5nL09iamVjdDtMAAZwYXJlbnR0ADlMaW8vZ2l0aHViL2VyaWNtZWR2ZXQvamdlYS9jb3JlL3JlcHJlc2VudGF0aW9uL3RyZWUvVHJlZTt4cHNyABNqYXZhLnV0aWwuQXJyYXlMaXN0eIHSHZnHYZ0DAAFJAARzaXpleHAAAAACdwQAAAACc3EAfgACc3EAfgAHAAAAAncEAAAAAnNxAH4AAnNxAH4ABwAAAAJ3BAAAAAJzcQB+AAJzcQB+AAcAAAACdwQAAAACc3EAfgACc3EAfgAHAAAAAHcEAAAAAHhzcgBLaW8uZ2l0aHViLmVyaWNtZWR2ZXQuamdlYS5jb3JlLnJlcHJlc2VudGF0aW9uLnRyZWUubnVtZXJpYy5FbGVtZW50JFZhcmlhYmxlAAAAAAAAAAACAAFMAARuYW1ldAASTGphdmEvbGFuZy9TdHJpbmc7eHB0AAJ4NnEAfgANc3EAfgACc3EAfgAHAAAAAHcEAAAAAHhzcQB+ABF0AAJ4MXNxAH4AAnNxAH4ABwAAAAJ3BAAAAAJzcQB+AAJzcQB+AAcAAAACdwQAAAACc3EAfgACc3EAfgAHAAAAAncEAAAAAnNxAH4AAnNxAH4ABwAAAAJ3BAAAAAJzcQB+AAJzcQB+AAcAAAAAdwQAAAAAeHEAfgATcQB+AB9zcQB+AAJzcQB+AAcAAAAAdwQAAAAAeHEAfgAXcQB+AB94fnIAS2lvLmdpdGh1Yi5lcmljbWVkdmV0LmpnZWEuY29yZS5yZXByZXNlbnRhdGlvbi50cmVlLm51bWVyaWMuRWxlbWVudCRPcGVyYXRvcgAAAAAAAAAAEgAAeHIADmphdmEubGFuZy5FbnVtAAAAAAAAAAASAAB4cHQADk1VTFRJUExJQ0FUSU9OcQB+AB1zcQB+AAJzcQB+AAcAAAAAdwQAAAAAeHEAfgAXcQB+AB14fnEAfgAldAANUFJPVF9ESVZJU0lPTnEAfgAbc3EAfgACc3EAfgAHAAAAAHcEAAAAAHhxAH4AF3EAfgAbeHEAfgAncQB+ABlxAH4AFXhxAH4AJ3NxAH4AAnNxAH4ABwAAAAJ3BAAAAAJxAH4AGXNxAH4AAnNxAH4ABwAAAAB3BAAAAAB4cQB+ABdzcQB+AAJzcQB+AAcAAAACdwQAAAACc3EAfgACc3EAfgAHAAAAAncEAAAAAnNxAH4AAnNxAH4ABwAAAAB3BAAAAAB4cQB+ABNxAH4ANXNxAH4AAnNxAH4ABwAAAAJ3BAAAAAJzcQB+AAJzcQB+AAcAAAAAdwQAAAAAeHEAfgATcQB+ADlzcQB+AAJzcQB+AAcAAAAAdwQAAAAAeHEAfgAXcQB+ADl4cQB+ACdxAH4ANXhxAH4AJ3EAfgAzcQB+ADF4cQB+ACtzcQB+AAJzcQB+AAcAAAACdwQAAAACcQB+ADNzcQB+AAJzcQB+AAcAAAAAdwQAAAAAeHEAfgAXcQB+AD94cQB+ACdzcQB+AAJzcQB+AAcAAAACdwQAAAACcQB+AD9zcQB+AAJzcQB+AAcAAAAAdwQAAAAAeHEAfgAXcQB+AEN4cQB+ACtweHEAfgArc3EAfgACc3EAfgAHAAAAAncEAAAAAnEAfgAvcQB+AEF4cQB+ACdzcQB+AAJzcQB+AAcAAAACdwQAAAACcQB+AEdxAH4ARXhxAH4AK3B4cQB+ACdxAH4AC3EAfgAxeHEAfgArcQB+AAlxAH4AQXhxAH4AJ3EAfgAGcQB+AEV4cQB+ACtwc3EAfgACc3EAfgAHAAAAAncEAAAAAnNxAH4AAnNxAH4ABwAAAAJ3BAAAAAJzcQB+AAJzcQB+AAcAAAACdwQAAAACc3EAfgACc3EAfgAHAAAAAncEAAAAAnNxAH4AAnNxAH4ABwAAAAJ3BAAAAAJzcQB+AAJzcQB+AAcAAAACdwQAAAACc3EAfgACc3EAfgAHAAAAAHcEAAAAAHhzcQB+ABF0AAJ4OHEAfgBVc3EAfgACc3EAfgAHAAAAAncEAAAAAnNxAH4AAnNxAH4ABwAAAAB3BAAAAAB4cQB+AFlxAH4AW3NxAH4AAnNxAH4ABwAAAAB3BAAAAAB4c3EAfgARdAADeDEycQB+AFt4fnEAfgAldAAIQURESVRJT05zcQB+AAJzcQB+AAcAAAACdwQAAAACc3EAfgACc3EAfgAHAAAAAncEAAAAAnNxAH4AAnNxAH4ABwAAAAB3BAAAAAB4cQB+AFlxAH4AZ3NxAH4AAnNxAH4ABwAAAAB3BAAAAAB4cQB+AGFxAH4AZ3hxAH4AY3EAfgBlcQB+AFt4cQB+AGNzcQB+AAJzcQB+AAcAAAACdwQAAAACcQB+AGVzcQB+AAJzcQB+AAcAAAAAdwQAAAAAeHEAfgBhc3EAfgACc3EAfgAHAAAAAncEAAAAAnNxAH4AAnNxAH4ABwAAAAJ3BAAAAAJzcQB+AAJzcQB+AAcAAAAAdwQAAAAAeHEAfgBZcQB+AHNzcQB+AAJzcQB+AAcAAAAAdwQAAAAAeHEAfgBhcQB+AHN4cQB+AGNxAH4AcXEAfgBveH5xAH4AJXQAC1NVQlRSQUNUSU9Oc3EAfgACc3EAfgAHAAAAAncEAAAAAnEAfgBxc3EAfgACc3EAfgAHAAAAAncEAAAAAnNxAH4AAnNxAH4ABwAAAAB3BAAAAAB4cQB+AGFxAH4AfXNxAH4AAnNxAH4ABwAAAAB3BAAAAAB4cQB+AGFzcQB+AAJzcQB+AAcAAAACdwQAAAACc3EAfgACc3EAfgAHAAAAAHcEAAAAAHhxAH4AE3EAfgCDcQB+AIF4cQB+AGNzcQB+AAJzcQB+AAcAAAACdwQAAAACc3EAfgACc3EAfgAHAAAAAncEAAAAAnNxAH4AAnNxAH4ABwAAAAJ3BAAAAAJzcQB+AAJzcQB+AAcAAAAAdwQAAAAAeHEAfgBZcQB+AItzcQB+AAJzcQB+AAcAAAACdwQAAAACc3EAfgACc3EAfgAHAAAAAncEAAAAAnNxAH4AAnNxAH4ABwAAAAB3BAAAAAB4cQB+AFlxAH4AkXNxAH4AAnNxAH4ABwAAAAB3BAAAAAB4cQB+AGFxAH4AkXhxAH4AY3EAfgCPc3EAfgACc3EAfgAHAAAAAHcEAAAAAHhxAH4AYXEAfgCPeHEAfgB5cQB+AIt4cQB+AGNxAH4AiXNxAH4AAnNxAH4ABwAAAAB3BAAAAAB4cQB+AGFxAH4AiXhxAH4AeXEAfgCHcQB+AIN4cQB+ACdzcQB+AAJzcQB+AAcAAAACdwQAAAACcQB+AIdzcQB+AAJzcQB+AAcAAAAAdwQAAAAAeHEAfgATc3EAfgACc3EAfgAHAAAAAncEAAAAAnEAfgB7cQB+AJ14cQB+ACtzcQB+AAJzcQB+AAcAAAACdwQAAAACcQB+AJ9zcQB+AAJzcQB+AAcAAAAAdwQAAAAAeHEAfgATcQB+AKF4cQB+ACtzcQB+AAJzcQB+AAcAAAACdwQAAAACcQB+AKFzcQB+AAJzcQB+AAcAAAAAdwQAAAAAeHEAfgATcQB+AKV4cQB+AHlweHEAfgArc3EAfgACc3EAfgAHAAAAAncEAAAAAnEAfgCbcQB+AKN4cQB+ACtzcQB+AAJzcQB+AAcAAAACdwQAAAACcQB+AKlxAH4Ap3hxAH4AeXB4cQB+AGNxAH4Ae3hxAH4AJ3EAfgCfeHEAfgB5c3EAfgACc3EAfgAHAAAAAncEAAAAAnEAfgBtcQB+AH14cQB+ACdzcQB+AAJzcQB+AAcAAAACdwQAAAACcQB+AK1xAH4AnXhxAH4AK3NxAH4AAnNxAH4ABwAAAAJ3BAAAAAJxAH4Ar3EAfgCjeHEAfgArc3EAfgACc3EAfgAHAAAAAncEAAAAAnEAfgCxcQB+AKd4cQB+AHlweHEAfgBjcQB+AFNxAH4Ab3hxAH4AeXEAfgBRcQB+AH14cQB+ACdxAH4AT3EAfgCdeHEAfgArcQB+AE1xAH4Ao3hxAH4AK3EAfgBLcQB+AKd4cQB+AHlwc3EAfgACc3EAfgAHAAAAAHcEAAAAAHhxAH4AE3BzcQB+AAJzcQB+AAcAAAACdwQAAAACc3EAfgACc3EAfgAHAAAAAHcEAAAAAHhzcQB+ABF0AAJ4OXEAfgC3c3EAfgACc3EAfgAHAAAAAncEAAAAAnNxAH4AAnNxAH4ABwAAAAB3BAAAAAB4c3IAS2lvLmdpdGh1Yi5lcmljbWVkdmV0LmpnZWEuY29yZS5yZXByZXNlbnRhdGlvbi50cmVlLm51bWVyaWMuRWxlbWVudCRDb25zdGFudAAAAAAAAAAAAgABRAAFdmFsdWV4cD/wAAAAAAAAcQB+AL1zcQB+AAJzcQB+AAcAAAAAdwQAAAAAeHNxAH4AEXQAAng0c3EAfgACc3EAfgAHAAAAAncEAAAAAnNxAH4AAnNxAH4ABwAAAAJ3BAAAAAJzcQB+AAJzcQB+AAcAAAAAdwQAAAAAeHEAfgC7cQB+AMlzcQB+AAJzcQB+AAcAAAACdwQAAAACc3EAfgACc3EAfgAHAAAAAHcEAAAAAHhxAH4AwnEAfgDNc3EAfgACc3EAfgAHAAAAAncEAAAAAnNxAH4AAnNxAH4ABwAAAAB3BAAAAAB4cQB+AMJxAH4A0XNxAH4AAnNxAH4ABwAAAAJ3BAAAAAJzcQB+AAJzcQB+AAcAAAAAdwQAAAAAeHEAfgDCcQB+ANVzcQB+AAJzcQB+AAcAAAACdwQAAAACc3EAfgACc3EAfgAHAAAAAHcEAAAAAHhxAH4AwnEAfgDZc3EAfgACc3EAfgAHAAAAAHcEAAAAAHhxAH4AxXEAfgDZeHEAfgAncQB+ANV4cQB+ACdxAH4A0XhxAH4AJ3EAfgDNeHEAfgAncQB+AMl4cQB+AHlxAH4Ax3EAfgDDeHEAfgAnc3EAfgACc3EAfgAHAAAAAncEAAAAAnNxAH4AAnNxAH4ABwAAAAB3BAAAAAB4cQB+ALtxAH4A33EAfgDHeHEAfgB5cHhxAH4AJ3NxAH4AAnNxAH4ABwAAAAJ3BAAAAAJzcQB+AAJzcQB+AAcAAAACdwQAAAACc3EAfgACc3EAfgAHAAAAAHcEAAAAAHhxAH4Au3EAfgDlc3EAfgACc3EAfgAHAAAAAncEAAAAAnNxAH4AAnNxAH4ABwAAAAB3BAAAAAB4cQB+AMJxAH4A6XNxAH4AAnNxAH4ABwAAAAB3BAAAAAB4cQB+AMVxAH4A6XhxAH4AJ3EAfgDleHEAfgB5cQB+AONxAH4AvXhxAH4AeXB4cQB+AHlweA==";
    "rO0ABXNyABFqYXZhLnV0aWwuQ29sbFNlcleOq7Y6G6gRAwABSQADdGFneHAAAAAEdwQAAAAEc3IAN2lvLmdpdGh1Yi5lcmljbWVkdmV0LmpnZWEuY29yZS5yZXByZXNlbnRhdGlvbi50cmVlLlRyZWUKs7/qnQrEZQIAA0wACGNoaWxkcmVudAAQTGphdmEvdXRpbC9MaXN0O0wAB2NvbnRlbnR0ABJMamF2YS9sYW5nL09iamVjdDtMAAZwYXJlbnR0ADlMaW8vZ2l0aHViL2VyaWNtZWR2ZXQvamdlYS9jb3JlL3JlcHJlc2VudGF0aW9uL3RyZWUvVHJlZTt4cHNyABNqYXZhLnV0aWwuQXJyYXlMaXN0eIHSHZnHYZ0DAAFJAARzaXpleHAAAAAAdwQAAAAAeHNyAEtpby5naXRodWIuZXJpY21lZHZldC5qZ2VhLmNvcmUucmVwcmVzZW50YXRpb24udHJlZS5udW1lcmljLkVsZW1lbnQkVmFyaWFibGUAAAAAAAAAAAIAAUwABG5hbWV0ABJMamF2YS9sYW5nL1N0cmluZzt4cHQAAng2cHNxAH4AAnNxAH4ABwAAAAJ3BAAAAAJzcQB+AAJzcQB+AAcAAAACdwQAAAACc3EAfgACc3EAfgAHAAAAAncEAAAAAnNxAH4AAnNxAH4ABwAAAAJ3BAAAAAJzcQB+AAJzcQB+AAcAAAACdwQAAAACc3EAfgACc3EAfgAHAAAAAncEAAAAAnNxAH4AAnNxAH4ABwAAAAB3BAAAAAB4c3EAfgAJdAACeDhxAH4AF3NxAH4AAnNxAH4ABwAAAAJ3BAAAAAJzcQB+AAJzcQB+AAcAAAAAdwQAAAAAeHEAfgAbcQB+AB1zcQB+AAJzcQB+AAcAAAAAdwQAAAAAeHNxAH4ACXQAA3gxMnEAfgAdeH5yAEtpby5naXRodWIuZXJpY21lZHZldC5qZ2VhLmNvcmUucmVwcmVzZW50YXRpb24udHJlZS5udW1lcmljLkVsZW1lbnQkT3BlcmF0b3IAAAAAAAAAABIAAHhyAA5qYXZhLmxhbmcuRW51bQAAAAAAAAAAEgAAeHB0AAhBRERJVElPTnNxAH4AAnNxAH4ABwAAAAJ3BAAAAAJzcQB+AAJzcQB+AAcAAAACdwQAAAACc3EAfgACc3EAfgAHAAAAAHcEAAAAAHhxAH4AG3EAfgArc3EAfgACc3EAfgAHAAAAAHcEAAAAAHhxAH4AI3EAfgAreHEAfgAncQB+AClxAH4AHXhxAH4AJ3NxAH4AAnNxAH4ABwAAAAJ3BAAAAAJxAH4AKXNxAH4AAnNxAH4ABwAAAAB3BAAAAAB4cQB+ACNzcQB+AAJzcQB+AAcAAAACdwQAAAACc3EAfgACc3EAfgAHAAAAAncEAAAAAnNxAH4AAnNxAH4ABwAAAAB3BAAAAAB4cQB+ABtxAH4AN3NxAH4AAnNxAH4ABwAAAAB3BAAAAAB4cQB+ACNxAH4AN3hxAH4AJ3EAfgA1cQB+ADN4fnEAfgAldAALU1VCVFJBQ1RJT05zcQB+AAJzcQB+AAcAAAACdwQAAAACcQB+ADVzcQB+AAJzcQB+AAcAAAACdwQAAAACc3EAfgACc3EAfgAHAAAAAHcEAAAAAHhxAH4AI3EAfgBBc3EAfgACc3EAfgAHAAAAAHcEAAAAAHhxAH4AI3NxAH4AAnNxAH4ABwAAAAJ3BAAAAAJzcQB+AAJzcQB+AAcAAAAAdwQAAAAAeHEAfgALcQB+AEdxAH4ARXhxAH4AJ3NxAH4AAnNxAH4ABwAAAAJ3BAAAAAJzcQB+AAJzcQB+AAcAAAACdwQAAAACc3EAfgACc3EAfgAHAAAAAncEAAAAAnNxAH4AAnNxAH4ABwAAAAB3BAAAAAB4cQB+ABtxAH4AT3NxAH4AAnNxAH4ABwAAAAJ3BAAAAAJzcQB+AAJzcQB+AAcAAAACdwQAAAACc3EAfgACc3EAfgAHAAAAAHcEAAAAAHhxAH4AG3EAfgBVc3EAfgACc3EAfgAHAAAAAHcEAAAAAHhxAH4AI3EAfgBVeHEAfgAncQB+AFNzcQB+AAJzcQB+AAcAAAAAdwQAAAAAeHEAfgAjcQB+AFN4cQB+AD1xAH4AT3hxAH4AJ3EAfgBNc3EAfgACc3EAfgAHAAAAAHcEAAAAAHhxAH4AI3EAfgBNeHEAfgA9cQB+AEtxAH4AR3h+cQB+ACV0AA5NVUxUSVBMSUNBVElPTnNxAH4AAnNxAH4ABwAAAAJ3BAAAAAJxAH4AS3NxAH4AAnNxAH4ABwAAAAB3BAAAAAB4cQB+AAtzcQB+AAJzcQB+AAcAAAACdwQAAAACcQB+AD9xAH4AY3h+cQB+ACV0AA1QUk9UX0RJVklTSU9Oc3EAfgACc3EAfgAHAAAAAncEAAAAAnEAfgBlc3EAfgACc3EAfgAHAAAAAHcEAAAAAHhxAH4AC3EAfgBpeHEAfgBnc3EAfgACc3EAfgAHAAAAAncEAAAAAnEAfgBpc3EAfgACc3EAfgAHAAAAAHcEAAAAAHhxAH4AC3EAfgBteHEAfgA9cHhxAH4AZ3NxAH4AAnNxAH4ABwAAAAJ3BAAAAAJxAH4AYXEAfgBreHEAfgBnc3EAfgACc3EAfgAHAAAAAncEAAAAAnEAfgBxcQB+AG94cQB+AD1weHEAfgAncQB+AD94cQB+AF9xAH4AZXhxAH4APXNxAH4AAnNxAH4ABwAAAAJ3BAAAAAJxAH4AMXEAfgBBeHEAfgBfc3EAfgACc3EAfgAHAAAAAncEAAAAAnEAfgB1cQB+AGN4cQB+AGdzcQB+AAJzcQB+AAcAAAACdwQAAAACcQB+AHdxAH4Aa3hxAH4AZ3NxAH4AAnNxAH4ABwAAAAJ3BAAAAAJxAH4AeXEAfgBveHEAfgA9cHhxAH4AJ3EAfgAVcQB+ADN4cQB+AD1xAH4AE3EAfgBBeHEAfgBfcQB+ABFxAH4AY3hxAH4AZ3EAfgAPcQB+AGt4cQB+AGdxAH4ADXEAfgBveHEAfgA9cHNxAH4AAnNxAH4ABwAAAAB3BAAAAAB4cQB+AAtwc3EAfgACc3EAfgAHAAAAAncEAAAAAnNxAH4AAnNxAH4ABwAAAAB3BAAAAAB4c3EAfgAJdAACeDlxAH4Af3NxAH4AAnNxAH4ABwAAAAJ3BAAAAAJzcQB+AAJzcQB+AAcAAAAAdwQAAAAAeHNyAEtpby5naXRodWIuZXJpY21lZHZldC5qZ2VhLmNvcmUucmVwcmVzZW50YXRpb24udHJlZS5udW1lcmljLkVsZW1lbnQkQ29uc3RhbnQAAAAAAAAAAAIAAUQABXZhbHVleHA/8AAAAAAAAHEAfgCFc3EAfgACc3EAfgAHAAAAAHcEAAAAAHhzcQB+AAl0AAJ4NHNxAH4AAnNxAH4ABwAAAAJ3BAAAAAJzcQB+AAJzcQB+AAcAAAACdwQAAAACc3EAfgACc3EAfgAHAAAAAHcEAAAAAHhxAH4Ag3EAfgCRc3EAfgACc3EAfgAHAAAAAncEAAAAAnNxAH4AAnNxAH4ABwAAAAB3BAAAAAB4cQB+AIpxAH4AlXNxAH4AAnNxAH4ABwAAAAJ3BAAAAAJzcQB+AAJzcQB+AAcAAAAAdwQAAAAAeHEAfgCKcQB+AJlzcQB+AAJzcQB+AAcAAAACdwQAAAACc3EAfgACc3EAfgAHAAAAAHcEAAAAAHhxAH4AinEAfgCdc3EAfgACc3EAfgAHAAAAAncEAAAAAnNxAH4AAnNxAH4ABwAAAAB3BAAAAAB4cQB+AIpxAH4AoXNxAH4AAnNxAH4ABwAAAAB3BAAAAAB4cQB+AI1xAH4AoXhxAH4AX3EAfgCdeHEAfgBfcQB+AJl4cQB+AF9xAH4AlXhxAH4AX3EAfgCReHEAfgA9cQB+AI9xAH4Ai3hxAH4AX3NxAH4AAnNxAH4ABwAAAAJ3BAAAAAJzcQB+AAJzcQB+AAcAAAAAdwQAAAAAeHEAfgCDcQB+AKdxAH4Aj3hxAH4APXB4cQB+AF9zcQB+AAJzcQB+AAcAAAACdwQAAAACc3EAfgACc3EAfgAHAAAAAncEAAAAAnNxAH4AAnNxAH4ABwAAAAB3BAAAAAB4cQB+AINxAH4ArXNxAH4AAnNxAH4ABwAAAAJ3BAAAAAJzcQB+AAJzcQB+AAcAAAAAdwQAAAAAeHEAfgCKcQB+ALFzcQB+AAJzcQB+AAcAAAAAdwQAAAAAeHEAfgCNcQB+ALF4cQB+AF9xAH4ArXhxAH4APXEAfgCrcQB+AIV4cQB+AD1weHEAfgA9cHg=";
    "rO0ABXNyABFqYXZhLnV0aWwuQ29sbFNlcleOq7Y6G6gRAwABSQADdGFneHAAAAAEdwQAAAAEc3IAN2lvLmdpdGh1Yi5lcmljbWVkdmV0LmpnZWEuY29yZS5yZXByZXNlbnRhdGlvbi50cmVlLlRyZWUKs7/qnQrEZQIAA0wACGNoaWxkcmVudAAQTGphdmEvdXRpbC9MaXN0O0wAB2NvbnRlbnR0ABJMamF2YS9sYW5nL09iamVjdDtMAAZwYXJlbnR0ADlMaW8vZ2l0aHViL2VyaWNtZWR2ZXQvamdlYS9jb3JlL3JlcHJlc2VudGF0aW9uL3RyZWUvVHJlZTt4cHNyABNqYXZhLnV0aWwuQXJyYXlMaXN0eIHSHZnHYZ0DAAFJAARzaXpleHAAAAAAdwQAAAAAeHNyAEtpby5naXRodWIuZXJpY21lZHZldC5qZ2VhLmNvcmUucmVwcmVzZW50YXRpb24udHJlZS5udW1lcmljLkVsZW1lbnQkVmFyaWFibGUAAAAAAAAAAAIAAUwABG5hbWV0ABJMamF2YS9sYW5nL1N0cmluZzt4cHQAAng2cHNxAH4AAnNxAH4ABwAAAAJ3BAAAAAJzcQB+AAJzcQB+AAcAAAACdwQAAAACc3EAfgACc3EAfgAHAAAAAncEAAAAAnNxAH4AAnNxAH4ABwAAAAJ3BAAAAAJzcQB+AAJzcQB+AAcAAAACdwQAAAACc3EAfgACc3EAfgAHAAAAAncEAAAAAnNxAH4AAnNxAH4ABwAAAAB3BAAAAAB4c3EAfgAJdAACeDhxAH4AF3NxAH4AAnNxAH4ABwAAAAJ3BAAAAAJzcQB+AAJzcQB+AAcAAAAAdwQAAAAAeHEAfgAbcQB+AB1zcQB+AAJzcQB+AAcAAAAAdwQAAAAAeHNxAH4ACXQAA3gxMnEAfgAdeH5yAEtpby5naXRodWIuZXJpY21lZHZldC5qZ2VhLmNvcmUucmVwcmVzZW50YXRpb24udHJlZS5udW1lcmljLkVsZW1lbnQkT3BlcmF0b3IAAAAAAAAAABIAAHhyAA5qYXZhLmxhbmcuRW51bQAAAAAAAAAAEgAAeHB0AAhBRERJVElPTnNxAH4AAnNxAH4ABwAAAAJ3BAAAAAJzcQB+AAJzcQB+AAcAAAACdwQAAAACc3EAfgACc3EAfgAHAAAAAHcEAAAAAHhxAH4AG3EAfgArc3EAfgACc3EAfgAHAAAAAHcEAAAAAHhxAH4AI3EAfgAreHEAfgAncQB+AClxAH4AHXhxAH4AJ3NxAH4AAnNxAH4ABwAAAAJ3BAAAAAJxAH4AKXNxAH4AAnNxAH4ABwAAAAB3BAAAAAB4cQB+ACNzcQB+AAJzcQB+AAcAAAACdwQAAAACc3EAfgACc3EAfgAHAAAAAncEAAAAAnNxAH4AAnNxAH4ABwAAAAB3BAAAAAB4cQB+ABtxAH4AN3NxAH4AAnNxAH4ABwAAAAB3BAAAAAB4cQB+ACNxAH4AN3hxAH4AJ3EAfgA1cQB+ADN4fnEAfgAldAALU1VCVFJBQ1RJT05zcQB+AAJzcQB+AAcAAAACdwQAAAACcQB+ADVzcQB+AAJzcQB+AAcAAAACdwQAAAACc3EAfgACc3EAfgAHAAAAAHcEAAAAAHhxAH4AI3EAfgBBc3EAfgACc3EAfgAHAAAAAHcEAAAAAHhxAH4AI3NxAH4AAnNxAH4ABwAAAAJ3BAAAAAJzcQB+AAJzcQB+AAcAAAAAdwQAAAAAeHEAfgALcQB+AEdxAH4ARXhxAH4AJ3NxAH4AAnNxAH4ABwAAAAJ3BAAAAAJzcQB+AAJzcQB+AAcAAAACdwQAAAACc3EAfgACc3EAfgAHAAAAAncEAAAAAnNxAH4AAnNxAH4ABwAAAAB3BAAAAAB4cQB+ABtxAH4AT3NxAH4AAnNxAH4ABwAAAAJ3BAAAAAJzcQB+AAJzcQB+AAcAAAACdwQAAAACc3EAfgACc3EAfgAHAAAAAHcEAAAAAHhxAH4AG3EAfgBVc3EAfgACc3EAfgAHAAAAAHcEAAAAAHhxAH4AI3EAfgBVeHEAfgAncQB+AFNzcQB+AAJzcQB+AAcAAAAAdwQAAAAAeHEAfgAjcQB+AFN4cQB+AD1xAH4AT3hxAH4AJ3EAfgBNc3EAfgACc3EAfgAHAAAAAHcEAAAAAHhxAH4AI3EAfgBNeHEAfgA9cQB+AEtxAH4AR3h+cQB+ACV0AA5NVUxUSVBMSUNBVElPTnNxAH4AAnNxAH4ABwAAAAJ3BAAAAAJxAH4AS3NxAH4AAnNxAH4ABwAAAAB3BAAAAAB4cQB+AAtzcQB+AAJzcQB+AAcAAAACdwQAAAACcQB+AD9xAH4AY3h+cQB+ACV0AA1QUk9UX0RJVklTSU9Oc3EAfgACc3EAfgAHAAAAAncEAAAAAnEAfgBlc3EAfgACc3EAfgAHAAAAAHcEAAAAAHhxAH4AC3EAfgBpeHEAfgBnc3EAfgACc3EAfgAHAAAAAncEAAAAAnEAfgBpc3EAfgACc3EAfgAHAAAAAHcEAAAAAHhxAH4AC3EAfgBteHEAfgA9cHhxAH4AZ3NxAH4AAnNxAH4ABwAAAAJ3BAAAAAJxAH4AYXEAfgBreHEAfgBnc3EAfgACc3EAfgAHAAAAAncEAAAAAnEAfgBxcQB+AG94cQB+AD1weHEAfgAncQB+AD94cQB+AF9xAH4AZXhxAH4APXNxAH4AAnNxAH4ABwAAAAJ3BAAAAAJxAH4AMXEAfgBBeHEAfgBfc3EAfgACc3EAfgAHAAAAAncEAAAAAnEAfgB1cQB+AGN4cQB+AGdzcQB+AAJzcQB+AAcAAAACdwQAAAACcQB+AHdxAH4Aa3hxAH4AZ3NxAH4AAnNxAH4ABwAAAAJ3BAAAAAJxAH4AeXEAfgBveHEAfgA9cHhxAH4AJ3EAfgAVcQB+ADN4cQB+AD1xAH4AE3EAfgBBeHEAfgBfcQB+ABFxAH4AY3hxAH4AZ3EAfgAPcQB+AGt4cQB+AGdxAH4ADXEAfgBveHEAfgA9cHNxAH4AAnNxAH4ABwAAAAB3BAAAAAB4cQB+AAtwc3EAfgACc3EAfgAHAAAAAncEAAAAAnNxAH4AAnNxAH4ABwAAAAB3BAAAAAB4c3EAfgAJdAACeDlxAH4Af3NxAH4AAnNxAH4ABwAAAAJ3BAAAAAJzcQB+AAJzcQB+AAcAAAAAdwQAAAAAeHNyAEtpby5naXRodWIuZXJpY21lZHZldC5qZ2VhLmNvcmUucmVwcmVzZW50YXRpb24udHJlZS5udW1lcmljLkVsZW1lbnQkQ29uc3RhbnQAAAAAAAAAAAIAAUQABXZhbHVleHA/8AAAAAAAAHEAfgCFc3EAfgACc3EAfgAHAAAAAncEAAAAAnNxAH4AAnNxAH4ABwAAAAB3BAAAAAB4cQB+AIpxAH4Ai3NxAH4AAnNxAH4ABwAAAAJ3BAAAAAJzcQB+AAJzcQB+AAcAAAAAdwQAAAAAeHEAfgCKcQB+AI9zcQB+AAJzcQB+AAcAAAACdwQAAAACc3EAfgACc3EAfgAHAAAAAHcEAAAAAHhxAH4AinEAfgCTc3EAfgACc3EAfgAHAAAAAHcEAAAAAHhzcQB+AAl0AAJ4NHEAfgCTeHEAfgBfcQB+AI94cQB+AF9xAH4Ai3hxAH4AX3NxAH4AAnNxAH4ABwAAAAJ3BAAAAAJzcQB+AAJzcQB+AAcAAAACdwQAAAACc3EAfgACc3EAfgAHAAAAAHcEAAAAAHhxAH4AinEAfgCdc3EAfgACc3EAfgAHAAAAAncEAAAAAnNxAH4AAnNxAH4ABwAAAAB3BAAAAAB4cQB+AIpxAH4AoXNxAH4AAnNxAH4ABwAAAAB3BAAAAAB4cQB+AJlxAH4AoXhxAH4AX3EAfgCdeHEAfgBfcQB+AJtxAH4Ai3hxAH4AX3NxAH4AAnNxAH4ABwAAAAJ3BAAAAAJzcQB+AAJzcQB+AAcAAAAAdwQAAAAAeHEAfgCDcQB+AKdxAH4Am3hxAH4APXB4cQB+AF9zcQB+AAJzcQB+AAcAAAACdwQAAAACc3EAfgACc3EAfgAHAAAAAHcEAAAAAHhxAH4AinEAfgCrcQB+AIV4cQB+AD1weHEAfgA9cHg=";
    "rO0ABXNyABFqYXZhLnV0aWwuQ29sbFNlcleOq7Y6G6gRAwABSQADdGFneHAAAAAEdwQAAAAEc3IAN2lvLmdpdGh1Yi5lcmljbWVkdmV0LmpnZWEuY29yZS5yZXByZXNlbnRhdGlvbi50cmVlLlRyZWUKs7/qnQrEZQIAA0wACGNoaWxkcmVudAAQTGphdmEvdXRpbC9MaXN0O0wAB2NvbnRlbnR0ABJMamF2YS9sYW5nL09iamVjdDtMAAZwYXJlbnR0ADlMaW8vZ2l0aHViL2VyaWNtZWR2ZXQvamdlYS9jb3JlL3JlcHJlc2VudGF0aW9uL3RyZWUvVHJlZTt4cHNyABNqYXZhLnV0aWwuQXJyYXlMaXN0eIHSHZnHYZ0DAAFJAARzaXpleHAAAAACdwQAAAACc3EAfgACc3EAfgAHAAAAAncEAAAAAnNxAH4AAnNxAH4ABwAAAAJ3BAAAAAJzcQB+AAJzcQB+AAcAAAACdwQAAAACc3EAfgACc3EAfgAHAAAAAHcEAAAAAHhzcgBLaW8uZ2l0aHViLmVyaWNtZWR2ZXQuamdlYS5jb3JlLnJlcHJlc2VudGF0aW9uLnRyZWUubnVtZXJpYy5FbGVtZW50JFZhcmlhYmxlAAAAAAAAAAACAAFMAARuYW1ldAASTGphdmEvbGFuZy9TdHJpbmc7eHB0AAJ4NnEAfgANc3EAfgACc3EAfgAHAAAAAHcEAAAAAHhzcQB+ABF0AAJ4MXNxAH4AAnNxAH4ABwAAAAJ3BAAAAAJzcQB+AAJzcQB+AAcAAAACdwQAAAACc3EAfgACc3EAfgAHAAAAAncEAAAAAnNxAH4AAnNxAH4ABwAAAAJ3BAAAAAJzcQB+AAJzcQB+AAcAAAAAdwQAAAAAeHEAfgATcQB+AB9zcQB+AAJzcQB+AAcAAAAAdwQAAAAAeHEAfgAXcQB+AB94fnIAS2lvLmdpdGh1Yi5lcmljbWVkdmV0LmpnZWEuY29yZS5yZXByZXNlbnRhdGlvbi50cmVlLm51bWVyaWMuRWxlbWVudCRPcGVyYXRvcgAAAAAAAAAAEgAAeHIADmphdmEubGFuZy5FbnVtAAAAAAAAAAASAAB4cHQADk1VTFRJUExJQ0FUSU9OcQB+AB1zcQB+AAJzcQB+AAcAAAAAdwQAAAAAeHEAfgAXcQB+AB14fnEAfgAldAANUFJPVF9ESVZJU0lPTnEAfgAbc3EAfgACc3EAfgAHAAAAAHcEAAAAAHhxAH4AF3EAfgAbeHEAfgAncQB+ABlxAH4AFXhxAH4AJ3NxAH4AAnNxAH4ABwAAAAJ3BAAAAAJxAH4AGXNxAH4AAnNxAH4ABwAAAAB3BAAAAAB4cQB+ABdzcQB+AAJzcQB+AAcAAAACdwQAAAACc3EAfgACc3EAfgAHAAAAAncEAAAAAnNxAH4AAnNxAH4ABwAAAAB3BAAAAAB4cQB+ABNxAH4ANXNxAH4AAnNxAH4ABwAAAAJ3BAAAAAJzcQB+AAJzcQB+AAcAAAAAdwQAAAAAeHEAfgATcQB+ADlzcQB+AAJzcQB+AAcAAAAAdwQAAAAAeHEAfgAXcQB+ADl4cQB+ACdxAH4ANXhxAH4AJ3EAfgAzcQB+ADF4cQB+ACtzcQB+AAJzcQB+AAcAAAACdwQAAAACcQB+ADNzcQB+AAJzcQB+AAcAAAAAdwQAAAAAeHEAfgAXcQB+AD94cQB+ACdzcQB+AAJzcQB+AAcAAAACdwQAAAACcQB+AD9zcQB+AAJzcQB+AAcAAAAAdwQAAAAAeHEAfgAXcQB+AEN4cQB+ACtweHEAfgArc3EAfgACc3EAfgAHAAAAAncEAAAAAnEAfgAvcQB+AEF4cQB+ACdzcQB+AAJzcQB+AAcAAAACdwQAAAACcQB+AEdxAH4ARXhxAH4AK3B4cQB+ACdxAH4AC3EAfgAxeHEAfgArcQB+AAlxAH4AQXhxAH4AJ3EAfgAGcQB+AEV4cQB+ACtwc3EAfgACc3EAfgAHAAAAAncEAAAAAnNxAH4AAnNxAH4ABwAAAAJ3BAAAAAJzcQB+AAJzcQB+AAcAAAACdwQAAAACc3EAfgACc3EAfgAHAAAAAncEAAAAAnNxAH4AAnNxAH4ABwAAAAJ3BAAAAAJzcQB+AAJzcQB+AAcAAAACdwQAAAACc3EAfgACc3EAfgAHAAAAAHcEAAAAAHhzcQB+ABF0AAJ4OHEAfgBVc3EAfgACc3EAfgAHAAAAAncEAAAAAnNxAH4AAnNxAH4ABwAAAAB3BAAAAAB4cQB+AFlxAH4AW3NxAH4AAnNxAH4ABwAAAAB3BAAAAAB4c3EAfgARdAADeDEycQB+AFt4fnEAfgAldAAIQURESVRJT05zcQB+AAJzcQB+AAcAAAACdwQAAAACc3EAfgACc3EAfgAHAAAAAncEAAAAAnNxAH4AAnNxAH4ABwAAAAB3BAAAAAB4cQB+AFlxAH4AZ3NxAH4AAnNxAH4ABwAAAAB3BAAAAAB4cQB+AGFxAH4AZ3hxAH4AY3EAfgBlcQB+AFt4cQB+AGNzcQB+AAJzcQB+AAcAAAACdwQAAAACcQB+AGVzcQB+AAJzcQB+AAcAAAAAdwQAAAAAeHEAfgBhc3EAfgACc3EAfgAHAAAAAncEAAAAAnNxAH4AAnNxAH4ABwAAAAJ3BAAAAAJzcQB+AAJzcQB+AAcAAAAAdwQAAAAAeHEAfgBZcQB+AHNzcQB+AAJzcQB+AAcAAAAAdwQAAAAAeHEAfgBhcQB+AHN4cQB+AGNxAH4AcXEAfgBveH5xAH4AJXQAC1NVQlRSQUNUSU9Oc3EAfgACc3EAfgAHAAAAAncEAAAAAnEAfgBxc3EAfgACc3EAfgAHAAAAAncEAAAAAnNxAH4AAnNxAH4ABwAAAAB3BAAAAAB4cQB+AGFxAH4AfXNxAH4AAnNxAH4ABwAAAAB3BAAAAAB4cQB+AGFzcQB+AAJzcQB+AAcAAAACdwQAAAACc3EAfgACc3EAfgAHAAAAAHcEAAAAAHhxAH4AE3EAfgCDcQB+AIF4cQB+AGNzcQB+AAJzcQB+AAcAAAACdwQAAAACc3EAfgACc3EAfgAHAAAAAncEAAAAAnNxAH4AAnNxAH4ABwAAAAJ3BAAAAAJzcQB+AAJzcQB+AAcAAAAAdwQAAAAAeHEAfgBZcQB+AItzcQB+AAJzcQB+AAcAAAACdwQAAAACc3EAfgACc3EAfgAHAAAAAncEAAAAAnNxAH4AAnNxAH4ABwAAAAB3BAAAAAB4cQB+AFlxAH4AkXNxAH4AAnNxAH4ABwAAAAB3BAAAAAB4cQB+AGFxAH4AkXhxAH4AY3EAfgCPc3EAfgACc3EAfgAHAAAAAHcEAAAAAHhxAH4AYXEAfgCPeHEAfgB5cQB+AIt4cQB+AGNxAH4AiXNxAH4AAnNxAH4ABwAAAAB3BAAAAAB4cQB+AGFxAH4AiXhxAH4AeXEAfgCHcQB+AIN4cQB+ACdzcQB+AAJzcQB+AAcAAAACdwQAAAACcQB+AIdzcQB+AAJzcQB+AAcAAAAAdwQAAAAAeHEAfgATc3EAfgACc3EAfgAHAAAAAncEAAAAAnEAfgB7cQB+AJ14cQB+ACtzcQB+AAJzcQB+AAcAAAACdwQAAAACcQB+AJ9zcQB+AAJzcQB+AAcAAAAAdwQAAAAAeHEAfgATcQB+AKF4cQB+ACtzcQB+AAJzcQB+AAcAAAACdwQAAAACcQB+AKFzcQB+AAJzcQB+AAcAAAAAdwQAAAAAeHEAfgATcQB+AKV4cQB+AHlweHEAfgArc3EAfgACc3EAfgAHAAAAAncEAAAAAnEAfgCbcQB+AKN4cQB+ACtzcQB+AAJzcQB+AAcAAAACdwQAAAACcQB+AKlxAH4Ap3hxAH4AeXB4cQB+AGNxAH4Ae3hxAH4AJ3EAfgCfeHEAfgB5c3EAfgACc3EAfgAHAAAAAncEAAAAAnEAfgBtcQB+AH14cQB+ACdzcQB+AAJzcQB+AAcAAAACdwQAAAACcQB+AK1xAH4AnXhxAH4AK3NxAH4AAnNxAH4ABwAAAAJ3BAAAAAJxAH4Ar3EAfgCjeHEAfgArc3EAfgACc3EAfgAHAAAAAncEAAAAAnEAfgCxcQB+AKd4cQB+AHlweHEAfgBjcQB+AFNxAH4Ab3hxAH4AeXEAfgBRcQB+AH14cQB+ACdxAH4AT3EAfgCdeHEAfgArcQB+AE1xAH4Ao3hxAH4AK3EAfgBLcQB+AKd4cQB+AHlwc3EAfgACc3EAfgAHAAAAAHcEAAAAAHhxAH4AE3BzcQB+AAJzcQB+AAcAAAACdwQAAAACc3EAfgACc3EAfgAHAAAAAHcEAAAAAHhzcQB+ABF0AAJ4OXEAfgC3c3EAfgACc3EAfgAHAAAAAncEAAAAAnNxAH4AAnNxAH4ABwAAAAB3BAAAAAB4c3IAS2lvLmdpdGh1Yi5lcmljbWVkdmV0LmpnZWEuY29yZS5yZXByZXNlbnRhdGlvbi50cmVlLm51bWVyaWMuRWxlbWVudCRDb25zdGFudAAAAAAAAAAAAgABRAAFdmFsdWV4cD/wAAAAAAAAcQB+AL1zcQB+AAJzcQB+AAcAAAACdwQAAAACc3EAfgACc3EAfgAHAAAAAHcEAAAAAHhxAH4AwnEAfgDDc3EAfgACc3EAfgAHAAAAAncEAAAAAnNxAH4AAnNxAH4ABwAAAAB3BAAAAAB4cQB+AMJxAH4Ax3NxAH4AAnNxAH4ABwAAAAJ3BAAAAAJzcQB+AAJzcQB+AAcAAAAAdwQAAAAAeHEAfgDCcQB+AMtzcQB+AAJzcQB+AAcAAAACdwQAAAACc3EAfgACc3EAfgAHAAAAAHcEAAAAAHhxAH4AwnEAfgDPc3EAfgACc3EAfgAHAAAAAncEAAAAAnNxAH4AAnNxAH4ABwAAAAB3BAAAAAB4cQB+AMJxAH4A03NxAH4AAnNxAH4ABwAAAAB3BAAAAAB4c3EAfgARdAACeDRxAH4A03hxAH4AJ3EAfgDPeHEAfgAncQB+AMt4cQB+ACdxAH4Ax3hxAH4AJ3EAfgDDeHEAfgAnc3EAfgACc3EAfgAHAAAAAncEAAAAAnNxAH4AAnNxAH4ABwAAAAB3BAAAAAB4cQB+ALtxAH4A23EAfgDDeHEAfgAnc3EAfgACc3EAfgAHAAAAAncEAAAAAnNxAH4AAnNxAH4ABwAAAAB3BAAAAAB4cQB+ALtxAH4A33EAfgDbeHEAfgB5cHhxAH4AJ3EAfgC3eHEAfgB5cHg=";
    "rO0ABXNyABFqYXZhLnV0aWwuQ29sbFNlcleOq7Y6G6gRAwABSQADdGFneHAAAAAEdwQAAAAEc3IAN2lvLmdpdGh1Yi5lcmljbWVkdmV0LmpnZWEuY29yZS5yZXByZXNlbnRhdGlvbi50cmVlLlRyZWUKs7/qnQrEZQIAA0wACGNoaWxkcmVudAAQTGphdmEvdXRpbC9MaXN0O0wAB2NvbnRlbnR0ABJMamF2YS9sYW5nL09iamVjdDtMAAZwYXJlbnR0ADlMaW8vZ2l0aHViL2VyaWNtZWR2ZXQvamdlYS9jb3JlL3JlcHJlc2VudGF0aW9uL3RyZWUvVHJlZTt4cHNyABNqYXZhLnV0aWwuQXJyYXlMaXN0eIHSHZnHYZ0DAAFJAARzaXpleHAAAAAAdwQAAAAAeHNyAEtpby5naXRodWIuZXJpY21lZHZldC5qZ2VhLmNvcmUucmVwcmVzZW50YXRpb24udHJlZS5udW1lcmljLkVsZW1lbnQkVmFyaWFibGUAAAAAAAAAAAIAAUwABG5hbWV0ABJMamF2YS9sYW5nL1N0cmluZzt4cHQAAng2cHNxAH4AAnNxAH4ABwAAAAJ3BAAAAAJzcQB+AAJzcQB+AAcAAAACdwQAAAACc3EAfgACc3EAfgAHAAAAAncEAAAAAnNxAH4AAnNxAH4ABwAAAAJ3BAAAAAJzcQB+AAJzcQB+AAcAAAACdwQAAAACc3EAfgACc3EAfgAHAAAAAncEAAAAAnNxAH4AAnNxAH4ABwAAAAB3BAAAAAB4c3EAfgAJdAACeDhxAH4AF3NxAH4AAnNxAH4ABwAAAAJ3BAAAAAJzcQB+AAJzcQB+AAcAAAAAdwQAAAAAeHEAfgAbcQB+AB1zcQB+AAJzcQB+AAcAAAAAdwQAAAAAeHNxAH4ACXQAA3gxMnEAfgAdeH5yAEtpby5naXRodWIuZXJpY21lZHZldC5qZ2VhLmNvcmUucmVwcmVzZW50YXRpb24udHJlZS5udW1lcmljLkVsZW1lbnQkT3BlcmF0b3IAAAAAAAAAABIAAHhyAA5qYXZhLmxhbmcuRW51bQAAAAAAAAAAEgAAeHB0AAhBRERJVElPTnNxAH4AAnNxAH4ABwAAAAJ3BAAAAAJzcQB+AAJzcQB+AAcAAAACdwQAAAACc3EAfgACc3EAfgAHAAAAAHcEAAAAAHhxAH4AG3EAfgArc3EAfgACc3EAfgAHAAAAAHcEAAAAAHhxAH4AI3EAfgAreHEAfgAncQB+AClxAH4AHXhxAH4AJ3NxAH4AAnNxAH4ABwAAAAJ3BAAAAAJxAH4AKXNxAH4AAnNxAH4ABwAAAAB3BAAAAAB4cQB+ACNzcQB+AAJzcQB+AAcAAAACdwQAAAACc3EAfgACc3EAfgAHAAAAAncEAAAAAnNxAH4AAnNxAH4ABwAAAAB3BAAAAAB4cQB+ABtxAH4AN3NxAH4AAnNxAH4ABwAAAAB3BAAAAAB4cQB+ACNxAH4AN3hxAH4AJ3EAfgA1cQB+ADN4fnEAfgAldAALU1VCVFJBQ1RJT05zcQB+AAJzcQB+AAcAAAACdwQAAAACcQB+ADVzcQB+AAJzcQB+AAcAAAACdwQAAAACc3EAfgACc3EAfgAHAAAAAHcEAAAAAHhxAH4AI3EAfgBBc3EAfgACc3EAfgAHAAAAAHcEAAAAAHhxAH4AI3NxAH4AAnNxAH4ABwAAAAJ3BAAAAAJzcQB+AAJzcQB+AAcAAAAAdwQAAAAAeHEAfgALcQB+AEdxAH4ARXhxAH4AJ3NxAH4AAnNxAH4ABwAAAAJ3BAAAAAJzcQB+AAJzcQB+AAcAAAACdwQAAAACc3EAfgACc3EAfgAHAAAAAncEAAAAAnNxAH4AAnNxAH4ABwAAAAB3BAAAAAB4cQB+ABtxAH4AT3NxAH4AAnNxAH4ABwAAAAJ3BAAAAAJzcQB+AAJzcQB+AAcAAAACdwQAAAACc3EAfgACc3EAfgAHAAAAAHcEAAAAAHhxAH4AG3EAfgBVc3EAfgACc3EAfgAHAAAAAHcEAAAAAHhxAH4AI3EAfgBVeHEAfgAncQB+AFNzcQB+AAJzcQB+AAcAAAAAdwQAAAAAeHEAfgAjcQB+AFN4cQB+AD1xAH4AT3hxAH4AJ3EAfgBNc3EAfgACc3EAfgAHAAAAAHcEAAAAAHhxAH4AI3EAfgBNeHEAfgA9cQB+AEtxAH4AR3h+cQB+ACV0AA5NVUxUSVBMSUNBVElPTnNxAH4AAnNxAH4ABwAAAAJ3BAAAAAJxAH4AS3NxAH4AAnNxAH4ABwAAAAB3BAAAAAB4cQB+AAtzcQB+AAJzcQB+AAcAAAACdwQAAAACcQB+AD9xAH4AY3h+cQB+ACV0AA1QUk9UX0RJVklTSU9Oc3EAfgACc3EAfgAHAAAAAncEAAAAAnEAfgBlc3EAfgACc3EAfgAHAAAAAHcEAAAAAHhxAH4AC3EAfgBpeHEAfgBnc3EAfgACc3EAfgAHAAAAAncEAAAAAnEAfgBpc3EAfgACc3EAfgAHAAAAAHcEAAAAAHhxAH4AC3EAfgBteHEAfgA9cHhxAH4AZ3NxAH4AAnNxAH4ABwAAAAJ3BAAAAAJxAH4AYXEAfgBreHEAfgBnc3EAfgACc3EAfgAHAAAAAncEAAAAAnEAfgBxcQB+AG94cQB+AD1weHEAfgAncQB+AD94cQB+AF9xAH4AZXhxAH4APXNxAH4AAnNxAH4ABwAAAAJ3BAAAAAJxAH4AMXEAfgBBeHEAfgBfc3EAfgACc3EAfgAHAAAAAncEAAAAAnEAfgB1cQB+AGN4cQB+AGdzcQB+AAJzcQB+AAcAAAACdwQAAAACcQB+AHdxAH4Aa3hxAH4AZ3NxAH4AAnNxAH4ABwAAAAJ3BAAAAAJxAH4AeXEAfgBveHEAfgA9cHhxAH4AJ3EAfgAVcQB+ADN4cQB+AD1xAH4AE3EAfgBBeHEAfgBfcQB+ABFxAH4AY3hxAH4AZ3EAfgAPcQB+AGt4cQB+AGdxAH4ADXEAfgBveHEAfgA9cHNxAH4AAnNxAH4ABwAAAAB3BAAAAAB4cQB+AAtwc3EAfgACc3EAfgAHAAAAAncEAAAAAnNxAH4AAnNxAH4ABwAAAAB3BAAAAAB4c3EAfgAJdAACeDlxAH4Af3NxAH4AAnNxAH4ABwAAAAJ3BAAAAAJzcQB+AAJzcQB+AAcAAAAAdwQAAAAAeHNyAEtpby5naXRodWIuZXJpY21lZHZldC5qZ2VhLmNvcmUucmVwcmVzZW50YXRpb24udHJlZS5udW1lcmljLkVsZW1lbnQkQ29uc3RhbnQAAAAAAAAAAAIAAUQABXZhbHVleHA/8AAAAAAAAHEAfgCFc3EAfgACc3EAfgAHAAAAAHcEAAAAAHhzcQB+AAl0AAJ4NHNxAH4AAnNxAH4ABwAAAAJ3BAAAAAJzcQB+AAJzcQB+AAcAAAACdwQAAAACc3EAfgACc3EAfgAHAAAAAHcEAAAAAHhxAH4Ag3EAfgCRc3EAfgACc3EAfgAHAAAAAncEAAAAAnNxAH4AAnNxAH4ABwAAAAB3BAAAAAB4cQB+AIpxAH4AlXNxAH4AAnNxAH4ABwAAAAJ3BAAAAAJzcQB+AAJzcQB+AAcAAAAAdwQAAAAAeHEAfgCKcQB+AJlzcQB+AAJzcQB+AAcAAAACdwQAAAACc3EAfgACc3EAfgAHAAAAAHcEAAAAAHhxAH4AinEAfgCdc3EAfgACc3EAfgAHAAAAAncEAAAAAnNxAH4AAnNxAH4ABwAAAAB3BAAAAAB4cQB+AIpxAH4AoXNxAH4AAnNxAH4ABwAAAAB3BAAAAAB4cQB+AI1xAH4AoXhxAH4AX3EAfgCdeHEAfgBfcQB+AJl4cQB+AF9xAH4AlXhxAH4AX3EAfgCReHEAfgA9cQB+AI9xAH4Ai3hxAH4AX3NxAH4AAnNxAH4ABwAAAAJ3BAAAAAJzcQB+AAJzcQB+AAcAAAAAdwQAAAAAeHEAfgCDcQB+AKdxAH4Aj3hxAH4APXB4cQB+AF9zcQB+AAJzcQB+AAcAAAACdwQAAAACc3EAfgACc3EAfgAHAAAAAncEAAAAAnNxAH4AAnNxAH4ABwAAAAB3BAAAAAB4cQB+AINxAH4ArXNxAH4AAnNxAH4ABwAAAAJ3BAAAAAJzcQB+AAJzcQB+AAcAAAAAdwQAAAAAeHEAfgCKcQB+ALFzcQB+AAJzcQB+AAcAAAAAdwQAAAAAeHEAfgCNcQB+ALF4cQB+AF9xAH4ArXhxAH4APXEAfgCrcQB+AIV4cQB+AD1weHEAfgA9cHg=";
    "rO0ABXNyABFqYXZhLnV0aWwuQ29sbFNlcleOq7Y6G6gRAwABSQADdGFneHAAAAAEdwQAAAAEc3IAN2lvLmdpdGh1Yi5lcmljbWVkdmV0LmpnZWEuY29yZS5yZXByZXNlbnRhdGlvbi50cmVlLlRyZWUKs7/qnQrEZQIAA0wACGNoaWxkcmVudAAQTGphdmEvdXRpbC9MaXN0O0wAB2NvbnRlbnR0ABJMamF2YS9sYW5nL09iamVjdDtMAAZwYXJlbnR0ADlMaW8vZ2l0aHViL2VyaWNtZWR2ZXQvamdlYS9jb3JlL3JlcHJlc2VudGF0aW9uL3RyZWUvVHJlZTt4cHNyABNqYXZhLnV0aWwuQXJyYXlMaXN0eIHSHZnHYZ0DAAFJAARzaXpleHAAAAAAdwQAAAAAeHNyAEtpby5naXRodWIuZXJpY21lZHZldC5qZ2VhLmNvcmUucmVwcmVzZW50YXRpb24udHJlZS5udW1lcmljLkVsZW1lbnQkVmFyaWFibGUAAAAAAAAAAAIAAUwABG5hbWV0ABJMamF2YS9sYW5nL1N0cmluZzt4cHQAAng2cHNxAH4AAnNxAH4ABwAAAAJ3BAAAAAJzcQB+AAJzcQB+AAcAAAACdwQAAAACc3EAfgACc3EAfgAHAAAAAncEAAAAAnNxAH4AAnNxAH4ABwAAAAJ3BAAAAAJzcQB+AAJzcQB+AAcAAAACdwQAAAACc3EAfgACc3EAfgAHAAAAAncEAAAAAnNxAH4AAnNxAH4ABwAAAAB3BAAAAAB4c3EAfgAJdAACeDhxAH4AF3NxAH4AAnNxAH4ABwAAAAJ3BAAAAAJzcQB+AAJzcQB+AAcAAAAAdwQAAAAAeHEAfgAbcQB+AB1zcQB+AAJzcQB+AAcAAAAAdwQAAAAAeHNxAH4ACXQAA3gxMnEAfgAdeH5yAEtpby5naXRodWIuZXJpY21lZHZldC5qZ2VhLmNvcmUucmVwcmVzZW50YXRpb24udHJlZS5udW1lcmljLkVsZW1lbnQkT3BlcmF0b3IAAAAAAAAAABIAAHhyAA5qYXZhLmxhbmcuRW51bQAAAAAAAAAAEgAAeHB0AAhBRERJVElPTnNxAH4AAnNxAH4ABwAAAAJ3BAAAAAJzcQB+AAJzcQB+AAcAAAACdwQAAAACc3EAfgACc3EAfgAHAAAAAHcEAAAAAHhxAH4AG3EAfgArc3EAfgACc3EAfgAHAAAAAHcEAAAAAHhxAH4AI3EAfgAreHEAfgAncQB+AClxAH4AHXhxAH4AJ3NxAH4AAnNxAH4ABwAAAAJ3BAAAAAJxAH4AKXNxAH4AAnNxAH4ABwAAAAB3BAAAAAB4cQB+ACNzcQB+AAJzcQB+AAcAAAACdwQAAAACc3EAfgACc3EAfgAHAAAAAncEAAAAAnNxAH4AAnNxAH4ABwAAAAB3BAAAAAB4cQB+ABtxAH4AN3NxAH4AAnNxAH4ABwAAAAB3BAAAAAB4cQB+ACNxAH4AN3hxAH4AJ3EAfgA1cQB+ADN4fnEAfgAldAALU1VCVFJBQ1RJT05zcQB+AAJzcQB+AAcAAAACdwQAAAACcQB+ADVzcQB+AAJzcQB+AAcAAAACdwQAAAACc3EAfgACc3EAfgAHAAAAAHcEAAAAAHhxAH4AI3EAfgBBc3EAfgACc3EAfgAHAAAAAHcEAAAAAHhxAH4AI3NxAH4AAnNxAH4ABwAAAAJ3BAAAAAJzcQB+AAJzcQB+AAcAAAAAdwQAAAAAeHEAfgALcQB+AEdxAH4ARXhxAH4AJ3NxAH4AAnNxAH4ABwAAAAJ3BAAAAAJzcQB+AAJzcQB+AAcAAAACdwQAAAACc3EAfgACc3EAfgAHAAAAAncEAAAAAnNxAH4AAnNxAH4ABwAAAAB3BAAAAAB4cQB+ABtxAH4AT3NxAH4AAnNxAH4ABwAAAAJ3BAAAAAJzcQB+AAJzcQB+AAcAAAACdwQAAAACc3EAfgACc3EAfgAHAAAAAHcEAAAAAHhxAH4AG3EAfgBVc3EAfgACc3EAfgAHAAAAAHcEAAAAAHhxAH4AI3EAfgBVeHEAfgAncQB+AFNzcQB+AAJzcQB+AAcAAAAAdwQAAAAAeHEAfgAjcQB+AFN4cQB+AD1xAH4AT3hxAH4AJ3EAfgBNc3EAfgACc3EAfgAHAAAAAHcEAAAAAHhxAH4AI3EAfgBNeHEAfgA9cQB+AEtxAH4AR3h+cQB+ACV0AA5NVUxUSVBMSUNBVElPTnNxAH4AAnNxAH4ABwAAAAJ3BAAAAAJxAH4AS3NxAH4AAnNxAH4ABwAAAAB3BAAAAAB4cQB+AAtzcQB+AAJzcQB+AAcAAAACdwQAAAACcQB+AD9xAH4AY3h+cQB+ACV0AA1QUk9UX0RJVklTSU9Oc3EAfgACc3EAfgAHAAAAAncEAAAAAnEAfgBlc3EAfgACc3EAfgAHAAAAAHcEAAAAAHhxAH4AC3EAfgBpeHEAfgBnc3EAfgACc3EAfgAHAAAAAncEAAAAAnEAfgBpc3EAfgACc3EAfgAHAAAAAHcEAAAAAHhxAH4AC3EAfgBteHEAfgA9cHhxAH4AZ3NxAH4AAnNxAH4ABwAAAAJ3BAAAAAJxAH4AYXEAfgBreHEAfgBnc3EAfgACc3EAfgAHAAAAAncEAAAAAnEAfgBxcQB+AG94cQB+AD1weHEAfgAncQB+AD94cQB+AF9xAH4AZXhxAH4APXNxAH4AAnNxAH4ABwAAAAJ3BAAAAAJxAH4AMXEAfgBBeHEAfgBfc3EAfgACc3EAfgAHAAAAAncEAAAAAnEAfgB1cQB+AGN4cQB+AGdzcQB+AAJzcQB+AAcAAAACdwQAAAACcQB+AHdxAH4Aa3hxAH4AZ3NxAH4AAnNxAH4ABwAAAAJ3BAAAAAJxAH4AeXEAfgBveHEAfgA9cHhxAH4AJ3EAfgAVcQB+ADN4cQB+AD1xAH4AE3EAfgBBeHEAfgBfcQB+ABFxAH4AY3hxAH4AZ3EAfgAPcQB+AGt4cQB+AGdxAH4ADXEAfgBveHEAfgA9cHNxAH4AAnNxAH4ABwAAAAB3BAAAAAB4cQB+AAtwc3EAfgACc3EAfgAHAAAAAncEAAAAAnNxAH4AAnNxAH4ABwAAAAB3BAAAAAB4c3EAfgAJdAACeDlxAH4Af3NxAH4AAnNxAH4ABwAAAAJ3BAAAAAJzcQB+AAJzcQB+AAcAAAAAdwQAAAAAeHNyAEtpby5naXRodWIuZXJpY21lZHZldC5qZ2VhLmNvcmUucmVwcmVzZW50YXRpb24udHJlZS5udW1lcmljLkVsZW1lbnQkQ29uc3RhbnQAAAAAAAAAAAIAAUQABXZhbHVleHA/8AAAAAAAAHEAfgCFc3EAfgACc3EAfgAHAAAAAncEAAAAAnNxAH4AAnNxAH4ABwAAAAB3BAAAAAB4cQB+AIpxAH4Ai3NxAH4AAnNxAH4ABwAAAAJ3BAAAAAJzcQB+AAJzcQB+AAcAAAAAdwQAAAAAeHEAfgCKcQB+AI9zcQB+AAJzcQB+AAcAAAAAdwQAAAAAeHNxAH4ACXQAAng0cQB+AI94cQB+AF9xAH4Ai3hxAH4AX3NxAH4AAnNxAH4ABwAAAAJ3BAAAAAJzcQB+AAJzcQB+AAcAAAACdwQAAAACc3EAfgACc3EAfgAHAAAAAHcEAAAAAHhxAH4Ag3EAfgCZc3EAfgACc3EAfgAHAAAAAncEAAAAAnNxAH4AAnNxAH4ABwAAAAB3BAAAAAB4cQB+AIpxAH4AnXNxAH4AAnNxAH4ABwAAAAJ3BAAAAAJzcQB+AAJzcQB+AAcAAAAAdwQAAAAAeHEAfgCKcQB+AKFzcQB+AAJzcQB+AAcAAAAAdwQAAAAAeHEAfgCVcQB+AKF4cQB+AF9xAH4AnXhxAH4AX3EAfgCZeHEAfgA9cQB+AJdxAH4Ai3hxAH4AX3NxAH4AAnNxAH4ABwAAAAJ3BAAAAAJzcQB+AAJzcQB+AAcAAAAAdwQAAAAAeHEAfgCDcQB+AKdxAH4Al3hxAH4APXB4cQB+AF9zcQB+AAJzcQB+AAcAAAACdwQAAAACc3EAfgACc3EAfgAHAAAAAHcEAAAAAHhxAH4AlXEAfgCrcQB+AIV4cQB+AD1weHEAfgA9cHg=";
    "rO0ABXNyABFqYXZhLnV0aWwuQ29sbFNlcleOq7Y6G6gRAwABSQADdGFneHAAAAAEdwQAAAAEc3IAN2lvLmdpdGh1Yi5lcmljbWVkdmV0LmpnZWEuY29yZS5yZXByZXNlbnRhdGlvbi50cmVlLlRyZWUKs7/qnQrEZQIAA0wACGNoaWxkcmVudAAQTGphdmEvdXRpbC9MaXN0O0wAB2NvbnRlbnR0ABJMamF2YS9sYW5nL09iamVjdDtMAAZwYXJlbnR0ADlMaW8vZ2l0aHViL2VyaWNtZWR2ZXQvamdlYS9jb3JlL3JlcHJlc2VudGF0aW9uL3RyZWUvVHJlZTt4cHNyABNqYXZhLnV0aWwuQXJyYXlMaXN0eIHSHZnHYZ0DAAFJAARzaXpleHAAAAACdwQAAAACc3EAfgACc3EAfgAHAAAAAncEAAAAAnNxAH4AAnNxAH4ABwAAAAJ3BAAAAAJzcQB+AAJzcQB+AAcAAAACdwQAAAACc3EAfgACc3EAfgAHAAAAAHcEAAAAAHhzcgBLaW8uZ2l0aHViLmVyaWNtZWR2ZXQuamdlYS5jb3JlLnJlcHJlc2VudGF0aW9uLnRyZWUubnVtZXJpYy5FbGVtZW50JFZhcmlhYmxlAAAAAAAAAAACAAFMAARuYW1ldAASTGphdmEvbGFuZy9TdHJpbmc7eHB0AAJ4NnEAfgANc3EAfgACc3EAfgAHAAAAAHcEAAAAAHhzcQB+ABF0AAJ4MXNxAH4AAnNxAH4ABwAAAAJ3BAAAAAJzcQB+AAJzcQB+AAcAAAACdwQAAAACc3EAfgACc3EAfgAHAAAAAncEAAAAAnNxAH4AAnNxAH4ABwAAAAJ3BAAAAAJzcQB+AAJzcQB+AAcAAAAAdwQAAAAAeHEAfgATcQB+AB9zcQB+AAJzcQB+AAcAAAAAdwQAAAAAeHEAfgAXcQB+AB94fnIAS2lvLmdpdGh1Yi5lcmljbWVkdmV0LmpnZWEuY29yZS5yZXByZXNlbnRhdGlvbi50cmVlLm51bWVyaWMuRWxlbWVudCRPcGVyYXRvcgAAAAAAAAAAEgAAeHIADmphdmEubGFuZy5FbnVtAAAAAAAAAAASAAB4cHQADk1VTFRJUExJQ0FUSU9OcQB+AB1zcQB+AAJzcQB+AAcAAAAAdwQAAAAAeHEAfgAXcQB+AB14fnEAfgAldAANUFJPVF9ESVZJU0lPTnEAfgAbc3EAfgACc3EAfgAHAAAAAHcEAAAAAHhxAH4AF3EAfgAbeHEAfgAncQB+ABlxAH4AFXhxAH4AJ3NxAH4AAnNxAH4ABwAAAAJ3BAAAAAJxAH4AGXNxAH4AAnNxAH4ABwAAAAB3BAAAAAB4cQB+ABdzcQB+AAJzcQB+AAcAAAACdwQAAAACc3EAfgACc3EAfgAHAAAAAncEAAAAAnNxAH4AAnNxAH4ABwAAAAB3BAAAAAB4cQB+ABNxAH4ANXNxAH4AAnNxAH4ABwAAAAJ3BAAAAAJzcQB+AAJzcQB+AAcAAAAAdwQAAAAAeHEAfgATcQB+ADlzcQB+AAJzcQB+AAcAAAAAdwQAAAAAeHEAfgAXcQB+ADl4cQB+ACdxAH4ANXhxAH4AJ3EAfgAzcQB+ADF4cQB+ACtzcQB+AAJzcQB+AAcAAAACdwQAAAACcQB+ADNzcQB+AAJzcQB+AAcAAAAAdwQAAAAAeHEAfgAXcQB+AD94cQB+ACdzcQB+AAJzcQB+AAcAAAACdwQAAAACcQB+AD9zcQB+AAJzcQB+AAcAAAAAdwQAAAAAeHEAfgAXcQB+AEN4cQB+ACtweHEAfgArc3EAfgACc3EAfgAHAAAAAncEAAAAAnEAfgAvcQB+AEF4cQB+ACdzcQB+AAJzcQB+AAcAAAACdwQAAAACcQB+AEdxAH4ARXhxAH4AK3B4cQB+ACdxAH4AC3EAfgAxeHEAfgArcQB+AAlxAH4AQXhxAH4AJ3EAfgAGcQB+AEV4cQB+ACtwc3EAfgACc3EAfgAHAAAAAncEAAAAAnNxAH4AAnNxAH4ABwAAAAJ3BAAAAAJzcQB+AAJzcQB+AAcAAAACdwQAAAACc3EAfgACc3EAfgAHAAAAAncEAAAAAnNxAH4AAnNxAH4ABwAAAAJ3BAAAAAJzcQB+AAJzcQB+AAcAAAACdwQAAAACc3EAfgACc3EAfgAHAAAAAHcEAAAAAHhzcQB+ABF0AAJ4OHEAfgBVc3EAfgACc3EAfgAHAAAAAncEAAAAAnNxAH4AAnNxAH4ABwAAAAB3BAAAAAB4cQB+AFlxAH4AW3NxAH4AAnNxAH4ABwAAAAB3BAAAAAB4c3EAfgARdAADeDEycQB+AFt4fnEAfgAldAAIQURESVRJT05zcQB+AAJzcQB+AAcAAAACdwQAAAACc3EAfgACc3EAfgAHAAAAAncEAAAAAnNxAH4AAnNxAH4ABwAAAAB3BAAAAAB4cQB+AFlxAH4AZ3NxAH4AAnNxAH4ABwAAAAB3BAAAAAB4cQB+AGFxAH4AZ3hxAH4AY3EAfgBlcQB+AFt4cQB+AGNzcQB+AAJzcQB+AAcAAAACdwQAAAACcQB+AGVzcQB+AAJzcQB+AAcAAAAAdwQAAAAAeHEAfgBhc3EAfgACc3EAfgAHAAAAAncEAAAAAnNxAH4AAnNxAH4ABwAAAAJ3BAAAAAJzcQB+AAJzcQB+AAcAAAAAdwQAAAAAeHEAfgBZcQB+AHNzcQB+AAJzcQB+AAcAAAAAdwQAAAAAeHEAfgBhcQB+AHN4cQB+AGNxAH4AcXEAfgBveH5xAH4AJXQAC1NVQlRSQUNUSU9Oc3EAfgACc3EAfgAHAAAAAncEAAAAAnEAfgBxc3EAfgACc3EAfgAHAAAAAncEAAAAAnNxAH4AAnNxAH4ABwAAAAB3BAAAAAB4cQB+AGFxAH4AfXNxAH4AAnNxAH4ABwAAAAB3BAAAAAB4cQB+AGFzcQB+AAJzcQB+AAcAAAACdwQAAAACc3EAfgACc3EAfgAHAAAAAHcEAAAAAHhxAH4AE3EAfgCDcQB+AIF4cQB+AGNzcQB+AAJzcQB+AAcAAAACdwQAAAACc3EAfgACc3EAfgAHAAAAAncEAAAAAnNxAH4AAnNxAH4ABwAAAAJ3BAAAAAJzcQB+AAJzcQB+AAcAAAAAdwQAAAAAeHEAfgBZcQB+AItzcQB+AAJzcQB+AAcAAAACdwQAAAACc3EAfgACc3EAfgAHAAAAAncEAAAAAnNxAH4AAnNxAH4ABwAAAAB3BAAAAAB4cQB+AFlxAH4AkXNxAH4AAnNxAH4ABwAAAAB3BAAAAAB4cQB+AGFxAH4AkXhxAH4AY3EAfgCPc3EAfgACc3EAfgAHAAAAAHcEAAAAAHhxAH4AYXEAfgCPeHEAfgB5cQB+AIt4cQB+AGNxAH4AiXNxAH4AAnNxAH4ABwAAAAB3BAAAAAB4cQB+AGFxAH4AiXhxAH4AeXEAfgCHcQB+AIN4cQB+ACdzcQB+AAJzcQB+AAcAAAACdwQAAAACcQB+AIdzcQB+AAJzcQB+AAcAAAAAdwQAAAAAeHEAfgATc3EAfgACc3EAfgAHAAAAAncEAAAAAnEAfgB7cQB+AJ14cQB+ACtzcQB+AAJzcQB+AAcAAAACdwQAAAACcQB+AJ9zcQB+AAJzcQB+AAcAAAAAdwQAAAAAeHEAfgATcQB+AKF4cQB+ACtzcQB+AAJzcQB+AAcAAAACdwQAAAACcQB+AKFzcQB+AAJzcQB+AAcAAAAAdwQAAAAAeHEAfgATcQB+AKV4cQB+AHlweHEAfgArc3EAfgACc3EAfgAHAAAAAncEAAAAAnEAfgCbcQB+AKN4cQB+ACtzcQB+AAJzcQB+AAcAAAACdwQAAAACcQB+AKlxAH4Ap3hxAH4AeXB4cQB+AGNxAH4Ae3hxAH4AJ3EAfgCfeHEAfgB5c3EAfgACc3EAfgAHAAAAAncEAAAAAnEAfgBtcQB+AH14cQB+ACdzcQB+AAJzcQB+AAcAAAACdwQAAAACcQB+AK1xAH4AnXhxAH4AK3NxAH4AAnNxAH4ABwAAAAJ3BAAAAAJxAH4Ar3EAfgCjeHEAfgArc3EAfgACc3EAfgAHAAAAAncEAAAAAnEAfgCxcQB+AKd4cQB+AHlweHEAfgBjcQB+AFNxAH4Ab3hxAH4AeXEAfgBRcQB+AH14cQB+ACdxAH4AT3EAfgCdeHEAfgArcQB+AE1xAH4Ao3hxAH4AK3EAfgBLcQB+AKd4cQB+AHlwc3EAfgACc3EAfgAHAAAAAHcEAAAAAHhxAH4AE3BzcQB+AAJzcQB+AAcAAAACdwQAAAACc3EAfgACc3EAfgAHAAAAAHcEAAAAAHhzcQB+ABF0AAJ4OXEAfgC3c3EAfgACc3EAfgAHAAAAAncEAAAAAnNxAH4AAnNxAH4ABwAAAAB3BAAAAAB4c3IAS2lvLmdpdGh1Yi5lcmljbWVkdmV0LmpnZWEuY29yZS5yZXByZXNlbnRhdGlvbi50cmVlLm51bWVyaWMuRWxlbWVudCRDb25zdGFudAAAAAAAAAAAAgABRAAFdmFsdWV4cD/wAAAAAAAAcQB+AL1zcQB+AAJzcQB+AAcAAAACdwQAAAACc3EAfgACc3EAfgAHAAAAAHcEAAAAAHhxAH4AwnEAfgDDc3EAfgACc3EAfgAHAAAAAncEAAAAAnNxAH4AAnNxAH4ABwAAAAB3BAAAAAB4cQB+AMJxAH4Ax3NxAH4AAnNxAH4ABwAAAAB3BAAAAAB4c3EAfgARdAACeDRxAH4Ax3hxAH4AJ3EAfgDDeHEAfgAnc3EAfgACc3EAfgAHAAAAAncEAAAAAnNxAH4AAnNxAH4ABwAAAAJ3BAAAAAJzcQB+AAJzcQB+AAcAAAAAdwQAAAAAeHEAfgC7cQB+ANFzcQB+AAJzcQB+AAcAAAACdwQAAAACc3EAfgACc3EAfgAHAAAAAHcEAAAAAHhxAH4AwnEAfgDVc3EAfgACc3EAfgAHAAAAAncEAAAAAnNxAH4AAnNxAH4ABwAAAAB3BAAAAAB4cQB+AMJxAH4A2XNxAH4AAnNxAH4ABwAAAAB3BAAAAAB4cQB+AM1xAH4A2XhxAH4AJ3EAfgDVeHEAfgAncQB+ANF4cQB+AHlxAH4Az3EAfgDDeHEAfgAnc3EAfgACc3EAfgAHAAAAAncEAAAAAnNxAH4AAnNxAH4ABwAAAAB3BAAAAAB4cQB+ALtxAH4A33EAfgDPeHEAfgB5cHhxAH4AJ3NxAH4AAnNxAH4ABwAAAAJ3BAAAAAJzcQB+AAJzcQB+AAcAAAAAdwQAAAAAeHEAfgDNcQB+AONxAH4AvXhxAH4AeXB4cQB+AHlweA==";
    "rO0ABXNyABFqYXZhLnV0aWwuQ29sbFNlcleOq7Y6G6gRAwABSQADdGFneHAAAAAEdwQAAAAEc3IAN2lvLmdpdGh1Yi5lcmljbWVkdmV0LmpnZWEuY29yZS5yZXByZXNlbnRhdGlvbi50cmVlLlRyZWUKs7/qnQrEZQIAA0wACGNoaWxkcmVudAAQTGphdmEvdXRpbC9MaXN0O0wAB2NvbnRlbnR0ABJMamF2YS9sYW5nL09iamVjdDtMAAZwYXJlbnR0ADlMaW8vZ2l0aHViL2VyaWNtZWR2ZXQvamdlYS9jb3JlL3JlcHJlc2VudGF0aW9uL3RyZWUvVHJlZTt4cHNyABNqYXZhLnV0aWwuQXJyYXlMaXN0eIHSHZnHYZ0DAAFJAARzaXpleHAAAAACdwQAAAACc3EAfgACc3EAfgAHAAAAAncEAAAAAnNxAH4AAnNxAH4ABwAAAAJ3BAAAAAJzcQB+AAJzcQB+AAcAAAACdwQAAAACc3EAfgACc3EAfgAHAAAAAHcEAAAAAHhzcgBLaW8uZ2l0aHViLmVyaWNtZWR2ZXQuamdlYS5jb3JlLnJlcHJlc2VudGF0aW9uLnRyZWUubnVtZXJpYy5FbGVtZW50JFZhcmlhYmxlAAAAAAAAAAACAAFMAARuYW1ldAASTGphdmEvbGFuZy9TdHJpbmc7eHB0AAJ4NnEAfgANc3EAfgACc3EAfgAHAAAAAHcEAAAAAHhzcQB+ABF0AAJ4MXNxAH4AAnNxAH4ABwAAAAJ3BAAAAAJzcQB+AAJzcQB+AAcAAAACdwQAAAACc3EAfgACc3EAfgAHAAAAAncEAAAAAnNxAH4AAnNxAH4ABwAAAAJ3BAAAAAJzcQB+AAJzcQB+AAcAAAAAdwQAAAAAeHEAfgATcQB+AB9zcQB+AAJzcQB+AAcAAAAAdwQAAAAAeHEAfgAXcQB+AB94fnIAS2lvLmdpdGh1Yi5lcmljbWVkdmV0LmpnZWEuY29yZS5yZXByZXNlbnRhdGlvbi50cmVlLm51bWVyaWMuRWxlbWVudCRPcGVyYXRvcgAAAAAAAAAAEgAAeHIADmphdmEubGFuZy5FbnVtAAAAAAAAAAASAAB4cHQADk1VTFRJUExJQ0FUSU9OcQB+AB1zcQB+AAJzcQB+AAcAAAAAdwQAAAAAeHEAfgAXcQB+AB14fnEAfgAldAANUFJPVF9ESVZJU0lPTnEAfgAbc3EAfgACc3EAfgAHAAAAAHcEAAAAAHhxAH4AF3EAfgAbeHEAfgAncQB+ABlxAH4AFXhxAH4AJ3NxAH4AAnNxAH4ABwAAAAJ3BAAAAAJxAH4AGXNxAH4AAnNxAH4ABwAAAAB3BAAAAAB4cQB+ABdzcQB+AAJzcQB+AAcAAAACdwQAAAACc3EAfgACc3EAfgAHAAAAAncEAAAAAnNxAH4AAnNxAH4ABwAAAAB3BAAAAAB4cQB+ABNxAH4ANXNxAH4AAnNxAH4ABwAAAAJ3BAAAAAJzcQB+AAJzcQB+AAcAAAAAdwQAAAAAeHEAfgATcQB+ADlzcQB+AAJzcQB+AAcAAAAAdwQAAAAAeHEAfgAXcQB+ADl4cQB+ACdxAH4ANXhxAH4AJ3EAfgAzcQB+ADF4cQB+ACtzcQB+AAJzcQB+AAcAAAACdwQAAAACcQB+ADNzcQB+AAJzcQB+AAcAAAAAdwQAAAAAeHEAfgAXcQB+AD94cQB+ACdzcQB+AAJzcQB+AAcAAAACdwQAAAACcQB+AD9zcQB+AAJzcQB+AAcAAAAAdwQAAAAAeHEAfgAXcQB+AEN4cQB+ACtweHEAfgArc3EAfgACc3EAfgAHAAAAAncEAAAAAnEAfgAvcQB+AEF4cQB+ACdzcQB+AAJzcQB+AAcAAAACdwQAAAACcQB+AEdxAH4ARXhxAH4AK3B4cQB+ACdxAH4AC3EAfgAxeHEAfgArcQB+AAlxAH4AQXhxAH4AJ3EAfgAGcQB+AEV4cQB+ACtwc3EAfgACc3EAfgAHAAAAAncEAAAAAnNxAH4AAnNxAH4ABwAAAAJ3BAAAAAJzcQB+AAJzcQB+AAcAAAACdwQAAAACc3EAfgACc3EAfgAHAAAAAncEAAAAAnNxAH4AAnNxAH4ABwAAAAJ3BAAAAAJzcQB+AAJzcQB+AAcAAAACdwQAAAACc3EAfgACc3EAfgAHAAAAAHcEAAAAAHhzcQB+ABF0AAJ4OHEAfgBVc3EAfgACc3EAfgAHAAAAAncEAAAAAnNxAH4AAnNxAH4ABwAAAAB3BAAAAAB4cQB+AFlxAH4AW3NxAH4AAnNxAH4ABwAAAAB3BAAAAAB4c3EAfgARdAADeDEycQB+AFt4fnEAfgAldAAIQURESVRJT05zcQB+AAJzcQB+AAcAAAACdwQAAAACc3EAfgACc3EAfgAHAAAAAncEAAAAAnNxAH4AAnNxAH4ABwAAAAB3BAAAAAB4cQB+AFlxAH4AZ3NxAH4AAnNxAH4ABwAAAAB3BAAAAAB4cQB+AGFxAH4AZ3hxAH4AY3EAfgBlcQB+AFt4cQB+AGNzcQB+AAJzcQB+AAcAAAACdwQAAAACcQB+AGVzcQB+AAJzcQB+AAcAAAAAdwQAAAAAeHEAfgBhc3EAfgACc3EAfgAHAAAAAncEAAAAAnNxAH4AAnNxAH4ABwAAAAJ3BAAAAAJzcQB+AAJzcQB+AAcAAAAAdwQAAAAAeHEAfgBZcQB+AHNzcQB+AAJzcQB+AAcAAAAAdwQAAAAAeHEAfgBhcQB+AHN4cQB+AGNxAH4AcXEAfgBveH5xAH4AJXQAC1NVQlRSQUNUSU9Oc3EAfgACc3EAfgAHAAAAAncEAAAAAnEAfgBxc3EAfgACc3EAfgAHAAAAAncEAAAAAnNxAH4AAnNxAH4ABwAAAAB3BAAAAAB4cQB+AGFxAH4AfXNxAH4AAnNxAH4ABwAAAAB3BAAAAAB4cQB+AGFzcQB+AAJzcQB+AAcAAAACdwQAAAACc3EAfgACc3EAfgAHAAAAAHcEAAAAAHhxAH4AE3EAfgCDcQB+AIF4cQB+AGNzcQB+AAJzcQB+AAcAAAACdwQAAAACc3EAfgACc3EAfgAHAAAAAncEAAAAAnNxAH4AAnNxAH4ABwAAAAJ3BAAAAAJzcQB+AAJzcQB+AAcAAAAAdwQAAAAAeHEAfgBZcQB+AItzcQB+AAJzcQB+AAcAAAACdwQAAAACc3EAfgACc3EAfgAHAAAAAncEAAAAAnNxAH4AAnNxAH4ABwAAAAB3BAAAAAB4cQB+AFlxAH4AkXNxAH4AAnNxAH4ABwAAAAB3BAAAAAB4cQB+AGFxAH4AkXhxAH4AY3EAfgCPc3EAfgACc3EAfgAHAAAAAHcEAAAAAHhxAH4AYXEAfgCPeHEAfgB5cQB+AIt4cQB+AGNxAH4AiXNxAH4AAnNxAH4ABwAAAAB3BAAAAAB4cQB+AGFxAH4AiXhxAH4AeXEAfgCHcQB+AIN4cQB+ACdzcQB+AAJzcQB+AAcAAAACdwQAAAACcQB+AIdzcQB+AAJzcQB+AAcAAAAAdwQAAAAAeHEAfgATc3EAfgACc3EAfgAHAAAAAncEAAAAAnEAfgB7cQB+AJ14cQB+ACtzcQB+AAJzcQB+AAcAAAACdwQAAAACcQB+AJ9zcQB+AAJzcQB+AAcAAAAAdwQAAAAAeHEAfgATcQB+AKF4cQB+ACtzcQB+AAJzcQB+AAcAAAACdwQAAAACcQB+AKFzcQB+AAJzcQB+AAcAAAAAdwQAAAAAeHEAfgATcQB+AKV4cQB+AHlweHEAfgArc3EAfgACc3EAfgAHAAAAAncEAAAAAnEAfgCbcQB+AKN4cQB+ACtzcQB+AAJzcQB+AAcAAAACdwQAAAACcQB+AKlxAH4Ap3hxAH4AeXB4cQB+AGNxAH4Ae3hxAH4AJ3EAfgCfeHEAfgB5c3EAfgACc3EAfgAHAAAAAncEAAAAAnEAfgBtcQB+AH14cQB+ACdzcQB+AAJzcQB+AAcAAAACdwQAAAACcQB+AK1xAH4AnXhxAH4AK3NxAH4AAnNxAH4ABwAAAAJ3BAAAAAJxAH4Ar3EAfgCjeHEAfgArc3EAfgACc3EAfgAHAAAAAncEAAAAAnEAfgCxcQB+AKd4cQB+AHlweHEAfgBjcQB+AFNxAH4Ab3hxAH4AeXEAfgBRcQB+AH14cQB+ACdxAH4AT3EAfgCdeHEAfgArcQB+AE1xAH4Ao3hxAH4AK3EAfgBLcQB+AKd4cQB+AHlwc3EAfgACc3EAfgAHAAAAAHcEAAAAAHhxAH4AE3BzcQB+AAJzcQB+AAcAAAACdwQAAAACc3EAfgACc3EAfgAHAAAAAHcEAAAAAHhzcQB+ABF0AAJ4OXEAfgC3c3EAfgACc3EAfgAHAAAAAncEAAAAAnNxAH4AAnNxAH4ABwAAAAB3BAAAAAB4c3IAS2lvLmdpdGh1Yi5lcmljbWVkdmV0LmpnZWEuY29yZS5yZXByZXNlbnRhdGlvbi50cmVlLm51bWVyaWMuRWxlbWVudCRDb25zdGFudAAAAAAAAAAAAgABRAAFdmFsdWV4cD/wAAAAAAAAcQB+AL1zcQB+AAJzcQB+AAcAAAACdwQAAAACc3EAfgACc3EAfgAHAAAAAHcEAAAAAHhxAH4AwnEAfgDDc3EAfgACc3EAfgAHAAAAAHcEAAAAAHhzcQB+ABF0AAJ4NHEAfgDDeHEAfgAnc3EAfgACc3EAfgAHAAAAAncEAAAAAnNxAH4AAnNxAH4ABwAAAAJ3BAAAAAJzcQB+AAJzcQB+AAcAAAAAdwQAAAAAeHEAfgDCcQB+AM1zcQB+AAJzcQB+AAcAAAACdwQAAAACc3EAfgACc3EAfgAHAAAAAHcEAAAAAHhxAH4AwnEAfgDRc3EAfgACc3EAfgAHAAAAAncEAAAAAnNxAH4AAnNxAH4ABwAAAAB3BAAAAAB4cQB+AMJxAH4A1XNxAH4AAnNxAH4ABwAAAAJ3BAAAAAJzcQB+AAJzcQB+AAcAAAAAdwQAAAAAeHEAfgDCcQB+ANlzcQB+AAJzcQB+AAcAAAAAdwQAAAAAeHEAfgDJcQB+ANl4cQB+ACdxAH4A1XhxAH4AJ3EAfgDReHEAfgAncQB+AM14cQB+ACdxAH4Ay3EAfgDDeHEAfgAnc3EAfgACc3EAfgAHAAAAAncEAAAAAnNxAH4AAnNxAH4ABwAAAAB3BAAAAAB4cQB+ALtxAH4A33EAfgDLeHEAfgB5cHhxAH4AJ3NxAH4AAnNxAH4ABwAAAAJ3BAAAAAJzcQB+AAJzcQB+AAcAAAAAdwQAAAAAeHEAfgDCcQB+AONxAH4AvXhxAH4AeXB4cQB+AHlweA==";
    "rO0ABXNyABFqYXZhLnV0aWwuQ29sbFNlcleOq7Y6G6gRAwABSQADdGFneHAAAAAEdwQAAAAEc3IAN2lvLmdpdGh1Yi5lcmljbWVkdmV0LmpnZWEuY29yZS5yZXByZXNlbnRhdGlvbi50cmVlLlRyZWUKs7/qnQrEZQIAA0wACGNoaWxkcmVudAAQTGphdmEvdXRpbC9MaXN0O0wAB2NvbnRlbnR0ABJMamF2YS9sYW5nL09iamVjdDtMAAZwYXJlbnR0ADlMaW8vZ2l0aHViL2VyaWNtZWR2ZXQvamdlYS9jb3JlL3JlcHJlc2VudGF0aW9uL3RyZWUvVHJlZTt4cHNyABNqYXZhLnV0aWwuQXJyYXlMaXN0eIHSHZnHYZ0DAAFJAARzaXpleHAAAAAAdwQAAAAAeHNyAEtpby5naXRodWIuZXJpY21lZHZldC5qZ2VhLmNvcmUucmVwcmVzZW50YXRpb24udHJlZS5udW1lcmljLkVsZW1lbnQkVmFyaWFibGUAAAAAAAAAAAIAAUwABG5hbWV0ABJMamF2YS9sYW5nL1N0cmluZzt4cHQAAng2cHNxAH4AAnNxAH4ABwAAAAJ3BAAAAAJzcQB+AAJzcQB+AAcAAAACdwQAAAACc3EAfgACc3EAfgAHAAAAAncEAAAAAnNxAH4AAnNxAH4ABwAAAAJ3BAAAAAJzcQB+AAJzcQB+AAcAAAACdwQAAAACc3EAfgACc3EAfgAHAAAAAncEAAAAAnNxAH4AAnNxAH4ABwAAAAB3BAAAAAB4c3EAfgAJdAACeDhxAH4AF3NxAH4AAnNxAH4ABwAAAAJ3BAAAAAJzcQB+AAJzcQB+AAcAAAAAdwQAAAAAeHEAfgAbcQB+AB1zcQB+AAJzcQB+AAcAAAAAdwQAAAAAeHNxAH4ACXQAA3gxMnEAfgAdeH5yAEtpby5naXRodWIuZXJpY21lZHZldC5qZ2VhLmNvcmUucmVwcmVzZW50YXRpb24udHJlZS5udW1lcmljLkVsZW1lbnQkT3BlcmF0b3IAAAAAAAAAABIAAHhyAA5qYXZhLmxhbmcuRW51bQAAAAAAAAAAEgAAeHB0AAhBRERJVElPTnNxAH4AAnNxAH4ABwAAAAJ3BAAAAAJzcQB+AAJzcQB+AAcAAAACdwQAAAACc3EAfgACc3EAfgAHAAAAAHcEAAAAAHhxAH4AG3EAfgArc3EAfgACc3EAfgAHAAAAAHcEAAAAAHhxAH4AI3EAfgAreHEAfgAncQB+AClxAH4AHXhxAH4AJ3NxAH4AAnNxAH4ABwAAAAJ3BAAAAAJxAH4AKXNxAH4AAnNxAH4ABwAAAAB3BAAAAAB4cQB+ACNzcQB+AAJzcQB+AAcAAAACdwQAAAACc3EAfgACc3EAfgAHAAAAAncEAAAAAnNxAH4AAnNxAH4ABwAAAAB3BAAAAAB4cQB+ABtxAH4AN3NxAH4AAnNxAH4ABwAAAAB3BAAAAAB4cQB+ACNxAH4AN3hxAH4AJ3EAfgA1cQB+ADN4fnEAfgAldAALU1VCVFJBQ1RJT05zcQB+AAJzcQB+AAcAAAACdwQAAAACcQB+ADVzcQB+AAJzcQB+AAcAAAACdwQAAAACc3EAfgACc3EAfgAHAAAAAHcEAAAAAHhxAH4AI3EAfgBBc3EAfgACc3EAfgAHAAAAAHcEAAAAAHhxAH4AI3NxAH4AAnNxAH4ABwAAAAJ3BAAAAAJzcQB+AAJzcQB+AAcAAAAAdwQAAAAAeHEAfgALcQB+AEdxAH4ARXhxAH4AJ3NxAH4AAnNxAH4ABwAAAAJ3BAAAAAJzcQB+AAJzcQB+AAcAAAACdwQAAAACc3EAfgACc3EAfgAHAAAAAncEAAAAAnNxAH4AAnNxAH4ABwAAAAB3BAAAAAB4cQB+ABtxAH4AT3NxAH4AAnNxAH4ABwAAAAJ3BAAAAAJzcQB+AAJzcQB+AAcAAAACdwQAAAACc3EAfgACc3EAfgAHAAAAAHcEAAAAAHhxAH4AG3EAfgBVc3EAfgACc3EAfgAHAAAAAHcEAAAAAHhxAH4AI3EAfgBVeHEAfgAncQB+AFNzcQB+AAJzcQB+AAcAAAAAdwQAAAAAeHEAfgAjcQB+AFN4cQB+AD1xAH4AT3hxAH4AJ3EAfgBNc3EAfgACc3EAfgAHAAAAAHcEAAAAAHhxAH4AI3EAfgBNeHEAfgA9cQB+AEtxAH4AR3h+cQB+ACV0AA5NVUxUSVBMSUNBVElPTnNxAH4AAnNxAH4ABwAAAAJ3BAAAAAJxAH4AS3NxAH4AAnNxAH4ABwAAAAB3BAAAAAB4cQB+AAtzcQB+AAJzcQB+AAcAAAACdwQAAAACcQB+AD9xAH4AY3h+cQB+ACV0AA1QUk9UX0RJVklTSU9Oc3EAfgACc3EAfgAHAAAAAncEAAAAAnEAfgBlc3EAfgACc3EAfgAHAAAAAHcEAAAAAHhxAH4AC3EAfgBpeHEAfgBnc3EAfgACc3EAfgAHAAAAAncEAAAAAnEAfgBpc3EAfgACc3EAfgAHAAAAAHcEAAAAAHhxAH4AC3EAfgBteHEAfgA9cHhxAH4AZ3NxAH4AAnNxAH4ABwAAAAJ3BAAAAAJxAH4AYXEAfgBreHEAfgBnc3EAfgACc3EAfgAHAAAAAncEAAAAAnEAfgBxcQB+AG94cQB+AD1weHEAfgAncQB+AD94cQB+AF9xAH4AZXhxAH4APXNxAH4AAnNxAH4ABwAAAAJ3BAAAAAJxAH4AMXEAfgBBeHEAfgBfc3EAfgACc3EAfgAHAAAAAncEAAAAAnEAfgB1cQB+AGN4cQB+AGdzcQB+AAJzcQB+AAcAAAACdwQAAAACcQB+AHdxAH4Aa3hxAH4AZ3NxAH4AAnNxAH4ABwAAAAJ3BAAAAAJxAH4AeXEAfgBveHEAfgA9cHhxAH4AJ3EAfgAVcQB+ADN4cQB+AD1xAH4AE3EAfgBBeHEAfgBfcQB+ABFxAH4AY3hxAH4AZ3EAfgAPcQB+AGt4cQB+AGdxAH4ADXEAfgBveHEAfgA9cHNxAH4AAnNxAH4ABwAAAAB3BAAAAAB4cQB+AAtwc3EAfgACc3EAfgAHAAAAAncEAAAAAnNxAH4AAnNxAH4ABwAAAAB3BAAAAAB4c3EAfgAJdAACeDlxAH4Af3NxAH4AAnNxAH4ABwAAAAJ3BAAAAAJzcQB+AAJzcQB+AAcAAAAAdwQAAAAAeHNyAEtpby5naXRodWIuZXJpY21lZHZldC5qZ2VhLmNvcmUucmVwcmVzZW50YXRpb24udHJlZS5udW1lcmljLkVsZW1lbnQkQ29uc3RhbnQAAAAAAAAAAAIAAUQABXZhbHVleHA/8AAAAAAAAHEAfgCFc3EAfgACc3EAfgAHAAAAAncEAAAAAnNxAH4AAnNxAH4ABwAAAAB3BAAAAAB4cQB+AIpxAH4Ai3NxAH4AAnNxAH4ABwAAAAB3BAAAAAB4c3EAfgAJdAACeDRxAH4Ai3hxAH4AX3NxAH4AAnNxAH4ABwAAAAJ3BAAAAAJzcQB+AAJzcQB+AAcAAAACdwQAAAACc3EAfgACc3EAfgAHAAAAAHcEAAAAAHhxAH4AinEAfgCVc3EAfgACc3EAfgAHAAAAAncEAAAAAnNxAH4AAnNxAH4ABwAAAAB3BAAAAAB4cQB+AIpxAH4AmXNxAH4AAnNxAH4ABwAAAAJ3BAAAAAJzcQB+AAJzcQB+AAcAAAAAdwQAAAAAeHEAfgCKcQB+AJ1zcQB+AAJzcQB+AAcAAAACdwQAAAACc3EAfgACc3EAfgAHAAAAAHcEAAAAAHhxAH4AinEAfgChc3EAfgACc3EAfgAHAAAAAHcEAAAAAHhxAH4AkXEAfgCheHEAfgBfcQB+AJ14cQB+AF9xAH4AmXhxAH4AX3EAfgCVeHEAfgBfcQB+AJNxAH4Ai3hxAH4AX3NxAH4AAnNxAH4ABwAAAAJ3BAAAAAJzcQB+AAJzcQB+AAcAAAAAdwQAAAAAeHEAfgCDcQB+AKdxAH4Ak3hxAH4APXB4cQB+AF9zcQB+AAJzcQB+AAcAAAACdwQAAAACc3EAfgACc3EAfgAHAAAAAHcEAAAAAHhxAH4AinEAfgCrcQB+AIV4cQB+AD1weHEAfgA9cHg=";
    "rO0ABXNyABFqYXZhLnV0aWwuQ29sbFNlcleOq7Y6G6gRAwABSQADdGFneHAAAAAEdwQAAAAEc3IAN2lvLmdpdGh1Yi5lcmljbWVkdmV0LmpnZWEuY29yZS5yZXByZXNlbnRhdGlvbi50cmVlLlRyZWUKs7/qnQrEZQIAA0wACGNoaWxkcmVudAAQTGphdmEvdXRpbC9MaXN0O0wAB2NvbnRlbnR0ABJMamF2YS9sYW5nL09iamVjdDtMAAZwYXJlbnR0ADlMaW8vZ2l0aHViL2VyaWNtZWR2ZXQvamdlYS9jb3JlL3JlcHJlc2VudGF0aW9uL3RyZWUvVHJlZTt4cHNyABNqYXZhLnV0aWwuQXJyYXlMaXN0eIHSHZnHYZ0DAAFJAARzaXpleHAAAAAAdwQAAAAAeHNyAEtpby5naXRodWIuZXJpY21lZHZldC5qZ2VhLmNvcmUucmVwcmVzZW50YXRpb24udHJlZS5udW1lcmljLkVsZW1lbnQkVmFyaWFibGUAAAAAAAAAAAIAAUwABG5hbWV0ABJMamF2YS9sYW5nL1N0cmluZzt4cHQAAng2cHNxAH4AAnNxAH4ABwAAAAJ3BAAAAAJzcQB+AAJzcQB+AAcAAAACdwQAAAACc3EAfgACc3EAfgAHAAAAAncEAAAAAnNxAH4AAnNxAH4ABwAAAAJ3BAAAAAJzcQB+AAJzcQB+AAcAAAACdwQAAAACc3EAfgACc3EAfgAHAAAAAncEAAAAAnNxAH4AAnNxAH4ABwAAAAB3BAAAAAB4c3EAfgAJdAACeDhxAH4AF3NxAH4AAnNxAH4ABwAAAAJ3BAAAAAJzcQB+AAJzcQB+AAcAAAAAdwQAAAAAeHEAfgAbcQB+AB1zcQB+AAJzcQB+AAcAAAAAdwQAAAAAeHNxAH4ACXQAA3gxMnEAfgAdeH5yAEtpby5naXRodWIuZXJpY21lZHZldC5qZ2VhLmNvcmUucmVwcmVzZW50YXRpb24udHJlZS5udW1lcmljLkVsZW1lbnQkT3BlcmF0b3IAAAAAAAAAABIAAHhyAA5qYXZhLmxhbmcuRW51bQAAAAAAAAAAEgAAeHB0AAhBRERJVElPTnNxAH4AAnNxAH4ABwAAAAJ3BAAAAAJzcQB+AAJzcQB+AAcAAAACdwQAAAACc3EAfgACc3EAfgAHAAAAAHcEAAAAAHhxAH4AG3EAfgArc3EAfgACc3EAfgAHAAAAAHcEAAAAAHhxAH4AI3EAfgAreHEAfgAncQB+AClxAH4AHXhxAH4AJ3NxAH4AAnNxAH4ABwAAAAJ3BAAAAAJxAH4AKXNxAH4AAnNxAH4ABwAAAAB3BAAAAAB4cQB+ACNzcQB+AAJzcQB+AAcAAAACdwQAAAACc3EAfgACc3EAfgAHAAAAAncEAAAAAnNxAH4AAnNxAH4ABwAAAAB3BAAAAAB4cQB+ABtxAH4AN3NxAH4AAnNxAH4ABwAAAAB3BAAAAAB4cQB+ACNxAH4AN3hxAH4AJ3EAfgA1cQB+ADN4fnEAfgAldAALU1VCVFJBQ1RJT05zcQB+AAJzcQB+AAcAAAACdwQAAAACcQB+ADVzcQB+AAJzcQB+AAcAAAACdwQAAAACc3EAfgACc3EAfgAHAAAAAHcEAAAAAHhxAH4AI3EAfgBBc3EAfgACc3EAfgAHAAAAAHcEAAAAAHhxAH4AI3NxAH4AAnNxAH4ABwAAAAJ3BAAAAAJzcQB+AAJzcQB+AAcAAAAAdwQAAAAAeHEAfgALcQB+AEdxAH4ARXhxAH4AJ3NxAH4AAnNxAH4ABwAAAAJ3BAAAAAJzcQB+AAJzcQB+AAcAAAACdwQAAAACc3EAfgACc3EAfgAHAAAAAncEAAAAAnNxAH4AAnNxAH4ABwAAAAB3BAAAAAB4cQB+ABtxAH4AT3NxAH4AAnNxAH4ABwAAAAJ3BAAAAAJzcQB+AAJzcQB+AAcAAAACdwQAAAACc3EAfgACc3EAfgAHAAAAAHcEAAAAAHhxAH4AG3EAfgBVc3EAfgACc3EAfgAHAAAAAHcEAAAAAHhxAH4AI3EAfgBVeHEAfgAncQB+AFNzcQB+AAJzcQB+AAcAAAAAdwQAAAAAeHEAfgAjcQB+AFN4cQB+AD1xAH4AT3hxAH4AJ3EAfgBNc3EAfgACc3EAfgAHAAAAAHcEAAAAAHhxAH4AI3EAfgBNeHEAfgA9cQB+AEtxAH4AR3h+cQB+ACV0AA5NVUxUSVBMSUNBVElPTnNxAH4AAnNxAH4ABwAAAAJ3BAAAAAJxAH4AS3NxAH4AAnNxAH4ABwAAAAB3BAAAAAB4cQB+AAtzcQB+AAJzcQB+AAcAAAACdwQAAAACcQB+AD9xAH4AY3h+cQB+ACV0AA1QUk9UX0RJVklTSU9Oc3EAfgACc3EAfgAHAAAAAncEAAAAAnEAfgBlc3EAfgACc3EAfgAHAAAAAHcEAAAAAHhxAH4AC3EAfgBpeHEAfgBnc3EAfgACc3EAfgAHAAAAAncEAAAAAnEAfgBpc3EAfgACc3EAfgAHAAAAAHcEAAAAAHhxAH4AC3EAfgBteHEAfgA9cHhxAH4AZ3NxAH4AAnNxAH4ABwAAAAJ3BAAAAAJxAH4AYXEAfgBreHEAfgBnc3EAfgACc3EAfgAHAAAAAncEAAAAAnEAfgBxcQB+AG94cQB+AD1weHEAfgAncQB+AD94cQB+AF9xAH4AZXhxAH4APXNxAH4AAnNxAH4ABwAAAAJ3BAAAAAJxAH4AMXEAfgBBeHEAfgBfc3EAfgACc3EAfgAHAAAAAncEAAAAAnEAfgB1cQB+AGN4cQB+AGdzcQB+AAJzcQB+AAcAAAACdwQAAAACcQB+AHdxAH4Aa3hxAH4AZ3NxAH4AAnNxAH4ABwAAAAJ3BAAAAAJxAH4AeXEAfgBveHEAfgA9cHhxAH4AJ3EAfgAVcQB+ADN4cQB+AD1xAH4AE3EAfgBBeHEAfgBfcQB+ABFxAH4AY3hxAH4AZ3EAfgAPcQB+AGt4cQB+AGdxAH4ADXEAfgBveHEAfgA9cHNxAH4AAnNxAH4ABwAAAAB3BAAAAAB4cQB+AAtwc3EAfgACc3EAfgAHAAAAAncEAAAAAnNxAH4AAnNxAH4ABwAAAAB3BAAAAAB4c3EAfgAJdAACeDlxAH4Af3NxAH4AAnNxAH4ABwAAAAJ3BAAAAAJzcQB+AAJzcQB+AAcAAAAAdwQAAAAAeHNyAEtpby5naXRodWIuZXJpY21lZHZldC5qZ2VhLmNvcmUucmVwcmVzZW50YXRpb24udHJlZS5udW1lcmljLkVsZW1lbnQkQ29uc3RhbnQAAAAAAAAAAAIAAUQABXZhbHVleHA/8AAAAAAAAHEAfgCFc3EAfgACc3EAfgAHAAAAAHcEAAAAAHhzcQB+AAl0AAJ4NHNxAH4AAnNxAH4ABwAAAAJ3BAAAAAJzcQB+AAJzcQB+AAcAAAACdwQAAAACc3EAfgACc3EAfgAHAAAAAHcEAAAAAHhxAH4Ag3EAfgCRc3EAfgACc3EAfgAHAAAAAncEAAAAAnNxAH4AAnNxAH4ABwAAAAB3BAAAAAB4cQB+AIpxAH4AlXNxAH4AAnNxAH4ABwAAAAJ3BAAAAAJzcQB+AAJzcQB+AAcAAAAAdwQAAAAAeHEAfgCKcQB+AJlzcQB+AAJzcQB+AAcAAAACdwQAAAACc3EAfgACc3EAfgAHAAAAAHcEAAAAAHhxAH4AinEAfgCdc3EAfgACc3EAfgAHAAAAAncEAAAAAnNxAH4AAnNxAH4ABwAAAAB3BAAAAAB4cQB+AIpxAH4AoXNxAH4AAnNxAH4ABwAAAAB3BAAAAAB4cQB+AI1xAH4AoXhxAH4AX3EAfgCdeHEAfgBfcQB+AJl4cQB+AF9xAH4AlXhxAH4AX3EAfgCReHEAfgA9cQB+AI9xAH4Ai3hxAH4AX3NxAH4AAnNxAH4ABwAAAAJ3BAAAAAJzcQB+AAJzcQB+AAcAAAAAdwQAAAAAeHEAfgCDcQB+AKdxAH4Aj3hxAH4APXB4cQB+AF9zcQB+AAJzcQB+AAcAAAACdwQAAAACc3EAfgACc3EAfgAHAAAAAncEAAAAAnNxAH4AAnNxAH4ABwAAAAB3BAAAAAB4cQB+AINxAH4ArXNxAH4AAnNxAH4ABwAAAAJ3BAAAAAJzcQB+AAJzcQB+AAcAAAAAdwQAAAAAeHEAfgCKcQB+ALFzcQB+AAJzcQB+AAcAAAAAdwQAAAAAeHEAfgCNcQB+ALF4cQB+AF9xAH4ArXhxAH4APXEAfgCrcQB+AIV4cQB+AD1weHEAfgA9cHg=";
    "rO0ABXNyABFqYXZhLnV0aWwuQ29sbFNlcleOq7Y6G6gRAwABSQADdGFneHAAAAAEdwQAAAAEc3IAN2lvLmdpdGh1Yi5lcmljbWVkdmV0LmpnZWEuY29yZS5yZXByZXNlbnRhdGlvbi50cmVlLlRyZWUKs7/qnQrEZQIAA0wACGNoaWxkcmVudAAQTGphdmEvdXRpbC9MaXN0O0wAB2NvbnRlbnR0ABJMamF2YS9sYW5nL09iamVjdDtMAAZwYXJlbnR0ADlMaW8vZ2l0aHViL2VyaWNtZWR2ZXQvamdlYS9jb3JlL3JlcHJlc2VudGF0aW9uL3RyZWUvVHJlZTt4cHNyABNqYXZhLnV0aWwuQXJyYXlMaXN0eIHSHZnHYZ0DAAFJAARzaXpleHAAAAAAdwQAAAAAeHNyAEtpby5naXRodWIuZXJpY21lZHZldC5qZ2VhLmNvcmUucmVwcmVzZW50YXRpb24udHJlZS5udW1lcmljLkVsZW1lbnQkVmFyaWFibGUAAAAAAAAAAAIAAUwABG5hbWV0ABJMamF2YS9sYW5nL1N0cmluZzt4cHQAAng2cHNxAH4AAnNxAH4ABwAAAAJ3BAAAAAJzcQB+AAJzcQB+AAcAAAACdwQAAAACc3EAfgACc3EAfgAHAAAAAncEAAAAAnNxAH4AAnNxAH4ABwAAAAJ3BAAAAAJzcQB+AAJzcQB+AAcAAAACdwQAAAACc3EAfgACc3EAfgAHAAAAAncEAAAAAnNxAH4AAnNxAH4ABwAAAAB3BAAAAAB4c3EAfgAJdAACeDhxAH4AF3NxAH4AAnNxAH4ABwAAAAJ3BAAAAAJzcQB+AAJzcQB+AAcAAAAAdwQAAAAAeHEAfgAbcQB+AB1zcQB+AAJzcQB+AAcAAAAAdwQAAAAAeHNxAH4ACXQAA3gxMnEAfgAdeH5yAEtpby5naXRodWIuZXJpY21lZHZldC5qZ2VhLmNvcmUucmVwcmVzZW50YXRpb24udHJlZS5udW1lcmljLkVsZW1lbnQkT3BlcmF0b3IAAAAAAAAAABIAAHhyAA5qYXZhLmxhbmcuRW51bQAAAAAAAAAAEgAAeHB0AAhBRERJVElPTnNxAH4AAnNxAH4ABwAAAAJ3BAAAAAJzcQB+AAJzcQB+AAcAAAACdwQAAAACc3EAfgACc3EAfgAHAAAAAHcEAAAAAHhxAH4AG3EAfgArc3EAfgACc3EAfgAHAAAAAHcEAAAAAHhxAH4AI3EAfgAreHEAfgAncQB+AClxAH4AHXhxAH4AJ3NxAH4AAnNxAH4ABwAAAAJ3BAAAAAJxAH4AKXNxAH4AAnNxAH4ABwAAAAB3BAAAAAB4cQB+ACNzcQB+AAJzcQB+AAcAAAACdwQAAAACc3EAfgACc3EAfgAHAAAAAncEAAAAAnNxAH4AAnNxAH4ABwAAAAB3BAAAAAB4cQB+ABtxAH4AN3NxAH4AAnNxAH4ABwAAAAB3BAAAAAB4cQB+ACNxAH4AN3hxAH4AJ3EAfgA1cQB+ADN4fnEAfgAldAALU1VCVFJBQ1RJT05zcQB+AAJzcQB+AAcAAAACdwQAAAACcQB+ADVzcQB+AAJzcQB+AAcAAAACdwQAAAACc3EAfgACc3EAfgAHAAAAAHcEAAAAAHhxAH4AI3EAfgBBc3EAfgACc3EAfgAHAAAAAHcEAAAAAHhxAH4AI3NxAH4AAnNxAH4ABwAAAAJ3BAAAAAJzcQB+AAJzcQB+AAcAAAAAdwQAAAAAeHEAfgALcQB+AEdxAH4ARXhxAH4AJ3NxAH4AAnNxAH4ABwAAAAJ3BAAAAAJzcQB+AAJzcQB+AAcAAAACdwQAAAACc3EAfgACc3EAfgAHAAAAAncEAAAAAnNxAH4AAnNxAH4ABwAAAAB3BAAAAAB4cQB+ABtxAH4AT3NxAH4AAnNxAH4ABwAAAAJ3BAAAAAJzcQB+AAJzcQB+AAcAAAACdwQAAAACc3EAfgACc3EAfgAHAAAAAHcEAAAAAHhxAH4AG3EAfgBVc3EAfgACc3EAfgAHAAAAAHcEAAAAAHhxAH4AI3EAfgBVeHEAfgAncQB+AFNzcQB+AAJzcQB+AAcAAAAAdwQAAAAAeHEAfgAjcQB+AFN4cQB+AD1xAH4AT3hxAH4AJ3EAfgBNc3EAfgACc3EAfgAHAAAAAHcEAAAAAHhxAH4AI3EAfgBNeHEAfgA9cQB+AEtxAH4AR3h+cQB+ACV0AA5NVUxUSVBMSUNBVElPTnNxAH4AAnNxAH4ABwAAAAJ3BAAAAAJxAH4AS3NxAH4AAnNxAH4ABwAAAAB3BAAAAAB4cQB+AAtzcQB+AAJzcQB+AAcAAAACdwQAAAACcQB+AD9xAH4AY3h+cQB+ACV0AA1QUk9UX0RJVklTSU9Oc3EAfgACc3EAfgAHAAAAAncEAAAAAnEAfgBlc3EAfgACc3EAfgAHAAAAAHcEAAAAAHhxAH4AC3EAfgBpeHEAfgBnc3EAfgACc3EAfgAHAAAAAncEAAAAAnEAfgBpc3EAfgACc3EAfgAHAAAAAHcEAAAAAHhxAH4AC3EAfgBteHEAfgA9cHhxAH4AZ3NxAH4AAnNxAH4ABwAAAAJ3BAAAAAJxAH4AYXEAfgBreHEAfgBnc3EAfgACc3EAfgAHAAAAAncEAAAAAnEAfgBxcQB+AG94cQB+AD1weHEAfgAncQB+AD94cQB+AF9xAH4AZXhxAH4APXNxAH4AAnNxAH4ABwAAAAJ3BAAAAAJxAH4AMXEAfgBBeHEAfgBfc3EAfgACc3EAfgAHAAAAAncEAAAAAnEAfgB1cQB+AGN4cQB+AGdzcQB+AAJzcQB+AAcAAAACdwQAAAACcQB+AHdxAH4Aa3hxAH4AZ3NxAH4AAnNxAH4ABwAAAAJ3BAAAAAJxAH4AeXEAfgBveHEAfgA9cHhxAH4AJ3EAfgAVcQB+ADN4cQB+AD1xAH4AE3EAfgBBeHEAfgBfcQB+ABFxAH4AY3hxAH4AZ3EAfgAPcQB+AGt4cQB+AGdxAH4ADXEAfgBveHEAfgA9cHNxAH4AAnNxAH4ABwAAAAB3BAAAAAB4cQB+AAtwc3EAfgACc3EAfgAHAAAAAncEAAAAAnNxAH4AAnNxAH4ABwAAAAB3BAAAAAB4c3EAfgAJdAACeDlxAH4Af3NxAH4AAnNxAH4ABwAAAAB3BAAAAAB4c3EAfgAJdAACeDRzcQB+AAJzcQB+AAcAAAACdwQAAAACc3EAfgACc3EAfgAHAAAAAHcEAAAAAHhxAH4Ah3EAfgCJcQB+AIV4cQB+AD1weHEAfgA9cHg=";
    "rO0ABXNyABFqYXZhLnV0aWwuQ29sbFNlcleOq7Y6G6gRAwABSQADdGFneHAAAAAEdwQAAAAEc3IAN2lvLmdpdGh1Yi5lcmljbWVkdmV0LmpnZWEuY29yZS5yZXByZXNlbnRhdGlvbi50cmVlLlRyZWUKs7/qnQrEZQIAA0wACGNoaWxkcmVudAAQTGphdmEvdXRpbC9MaXN0O0wAB2NvbnRlbnR0ABJMamF2YS9sYW5nL09iamVjdDtMAAZwYXJlbnR0ADlMaW8vZ2l0aHViL2VyaWNtZWR2ZXQvamdlYS9jb3JlL3JlcHJlc2VudGF0aW9uL3RyZWUvVHJlZTt4cHNyABNqYXZhLnV0aWwuQXJyYXlMaXN0eIHSHZnHYZ0DAAFJAARzaXpleHAAAAAAdwQAAAAAeHNyAEtpby5naXRodWIuZXJpY21lZHZldC5qZ2VhLmNvcmUucmVwcmVzZW50YXRpb24udHJlZS5udW1lcmljLkVsZW1lbnQkVmFyaWFibGUAAAAAAAAAAAIAAUwABG5hbWV0ABJMamF2YS9sYW5nL1N0cmluZzt4cHQAAng2cHNxAH4AAnNxAH4ABwAAAAJ3BAAAAAJzcQB+AAJzcQB+AAcAAAACdwQAAAACc3EAfgACc3EAfgAHAAAAAncEAAAAAnNxAH4AAnNxAH4ABwAAAAJ3BAAAAAJzcQB+AAJzcQB+AAcAAAACdwQAAAACc3EAfgACc3EAfgAHAAAAAncEAAAAAnNxAH4AAnNxAH4ABwAAAAB3BAAAAAB4c3EAfgAJdAACeDhxAH4AF3NxAH4AAnNxAH4ABwAAAAJ3BAAAAAJzcQB+AAJzcQB+AAcAAAAAdwQAAAAAeHEAfgAbcQB+AB1zcQB+AAJzcQB+AAcAAAAAdwQAAAAAeHNxAH4ACXQAA3gxMnEAfgAdeH5yAEtpby5naXRodWIuZXJpY21lZHZldC5qZ2VhLmNvcmUucmVwcmVzZW50YXRpb24udHJlZS5udW1lcmljLkVsZW1lbnQkT3BlcmF0b3IAAAAAAAAAABIAAHhyAA5qYXZhLmxhbmcuRW51bQAAAAAAAAAAEgAAeHB0AAhBRERJVElPTnNxAH4AAnNxAH4ABwAAAAJ3BAAAAAJzcQB+AAJzcQB+AAcAAAACdwQAAAACc3EAfgACc3EAfgAHAAAAAHcEAAAAAHhxAH4AG3EAfgArc3EAfgACc3EAfgAHAAAAAHcEAAAAAHhxAH4AI3EAfgAreHEAfgAncQB+AClxAH4AHXhxAH4AJ3NxAH4AAnNxAH4ABwAAAAJ3BAAAAAJxAH4AKXNxAH4AAnNxAH4ABwAAAAB3BAAAAAB4cQB+ACNzcQB+AAJzcQB+AAcAAAACdwQAAAACc3EAfgACc3EAfgAHAAAAAncEAAAAAnNxAH4AAnNxAH4ABwAAAAB3BAAAAAB4cQB+ABtxAH4AN3NxAH4AAnNxAH4ABwAAAAB3BAAAAAB4cQB+ACNxAH4AN3hxAH4AJ3EAfgA1cQB+ADN4fnEAfgAldAALU1VCVFJBQ1RJT05zcQB+AAJzcQB+AAcAAAACdwQAAAACcQB+ADVzcQB+AAJzcQB+AAcAAAACdwQAAAACc3EAfgACc3EAfgAHAAAAAHcEAAAAAHhxAH4AI3EAfgBBc3EAfgACc3EAfgAHAAAAAHcEAAAAAHhxAH4AI3NxAH4AAnNxAH4ABwAAAAJ3BAAAAAJzcQB+AAJzcQB+AAcAAAAAdwQAAAAAeHEAfgALcQB+AEdxAH4ARXhxAH4AJ3NxAH4AAnNxAH4ABwAAAAJ3BAAAAAJzcQB+AAJzcQB+AAcAAAACdwQAAAACc3EAfgACc3EAfgAHAAAAAncEAAAAAnNxAH4AAnNxAH4ABwAAAAB3BAAAAAB4cQB+ABtxAH4AT3NxAH4AAnNxAH4ABwAAAAJ3BAAAAAJzcQB+AAJzcQB+AAcAAAACdwQAAAACc3EAfgACc3EAfgAHAAAAAHcEAAAAAHhxAH4AG3EAfgBVc3EAfgACc3EAfgAHAAAAAHcEAAAAAHhxAH4AI3EAfgBVeHEAfgAncQB+AFNzcQB+AAJzcQB+AAcAAAAAdwQAAAAAeHEAfgAjcQB+AFN4cQB+AD1xAH4AT3hxAH4AJ3EAfgBNc3EAfgACc3EAfgAHAAAAAHcEAAAAAHhxAH4AI3EAfgBNeHEAfgA9cQB+AEtxAH4AR3h+cQB+ACV0AA5NVUxUSVBMSUNBVElPTnNxAH4AAnNxAH4ABwAAAAJ3BAAAAAJxAH4AS3NxAH4AAnNxAH4ABwAAAAB3BAAAAAB4cQB+AAtzcQB+AAJzcQB+AAcAAAACdwQAAAACcQB+AD9xAH4AY3h+cQB+ACV0AA1QUk9UX0RJVklTSU9Oc3EAfgACc3EAfgAHAAAAAncEAAAAAnEAfgBlc3EAfgACc3EAfgAHAAAAAHcEAAAAAHhxAH4AC3EAfgBpeHEAfgBnc3EAfgACc3EAfgAHAAAAAncEAAAAAnEAfgBpc3EAfgACc3EAfgAHAAAAAHcEAAAAAHhxAH4AC3EAfgBteHEAfgA9cHhxAH4AZ3NxAH4AAnNxAH4ABwAAAAJ3BAAAAAJxAH4AYXEAfgBreHEAfgBnc3EAfgACc3EAfgAHAAAAAncEAAAAAnEAfgBxcQB+AG94cQB+AD1weHEAfgAncQB+AD94cQB+AF9xAH4AZXhxAH4APXNxAH4AAnNxAH4ABwAAAAJ3BAAAAAJxAH4AMXEAfgBBeHEAfgBfc3EAfgACc3EAfgAHAAAAAncEAAAAAnEAfgB1cQB+AGN4cQB+AGdzcQB+AAJzcQB+AAcAAAACdwQAAAACcQB+AHdxAH4Aa3hxAH4AZ3NxAH4AAnNxAH4ABwAAAAJ3BAAAAAJxAH4AeXEAfgBveHEAfgA9cHhxAH4AJ3EAfgAVcQB+ADN4cQB+AD1xAH4AE3EAfgBBeHEAfgBfcQB+ABFxAH4AY3hxAH4AZ3EAfgAPcQB+AGt4cQB+AGdxAH4ADXEAfgBveHEAfgA9cHNxAH4AAnNxAH4ABwAAAAB3BAAAAAB4cQB+AAtwc3EAfgACc3EAfgAHAAAAAncEAAAAAnNxAH4AAnNxAH4ABwAAAAB3BAAAAAB4c3EAfgAJdAACeDlxAH4Af3NxAH4AAnNxAH4ABwAAAAJ3BAAAAAJzcQB+AAJzcQB+AAcAAAAAdwQAAAAAeHNyAEtpby5naXRodWIuZXJpY21lZHZldC5qZ2VhLmNvcmUucmVwcmVzZW50YXRpb24udHJlZS5udW1lcmljLkVsZW1lbnQkQ29uc3RhbnQAAAAAAAAAAAIAAUQABXZhbHVleHA/8AAAAAAAAHEAfgCFc3EAfgACc3EAfgAHAAAAAHcEAAAAAHhzcQB+AAl0AAJ4NHNxAH4AAnNxAH4ABwAAAAJ3BAAAAAJzcQB+AAJzcQB+AAcAAAACdwQAAAACc3EAfgACc3EAfgAHAAAAAHcEAAAAAHhxAH4Ag3EAfgCRc3EAfgACc3EAfgAHAAAAAncEAAAAAnNxAH4AAnNxAH4ABwAAAAB3BAAAAAB4cQB+AIpxAH4AlXNxAH4AAnNxAH4ABwAAAAJ3BAAAAAJzcQB+AAJzcQB+AAcAAAAAdwQAAAAAeHEAfgCKcQB+AJlzcQB+AAJzcQB+AAcAAAACdwQAAAACc3EAfgACc3EAfgAHAAAAAHcEAAAAAHhxAH4AinEAfgCdc3EAfgACc3EAfgAHAAAAAncEAAAAAnNxAH4AAnNxAH4ABwAAAAB3BAAAAAB4cQB+AIpxAH4AoXNxAH4AAnNxAH4ABwAAAAB3BAAAAAB4cQB+AI1xAH4AoXhxAH4AX3EAfgCdeHEAfgBfcQB+AJl4cQB+AF9xAH4AlXhxAH4AX3EAfgCReHEAfgA9cQB+AI9xAH4Ai3hxAH4AX3NxAH4AAnNxAH4ABwAAAAJ3BAAAAAJzcQB+AAJzcQB+AAcAAAAAdwQAAAAAeHEAfgCDcQB+AKdxAH4Aj3hxAH4APXB4cQB+AF9zcQB+AAJzcQB+AAcAAAACdwQAAAACc3EAfgACc3EAfgAHAAAAAncEAAAAAnNxAH4AAnNxAH4ABwAAAAB3BAAAAAB4cQB+AINxAH4ArXNxAH4AAnNxAH4ABwAAAAJ3BAAAAAJzcQB+AAJzcQB+AAcAAAAAdwQAAAAAeHEAfgCKcQB+ALFzcQB+AAJzcQB+AAcAAAAAdwQAAAAAeHEAfgCNcQB+ALF4cQB+AF9xAH4ArXhxAH4APXEAfgCrcQB+AIV4cQB+AD1weHEAfgA9cHg=";
    "rO0ABXNyABFqYXZhLnV0aWwuQ29sbFNlcleOq7Y6G6gRAwABSQADdGFneHAAAAAEdwQAAAAEc3IAN2lvLmdpdGh1Yi5lcmljbWVkdmV0LmpnZWEuY29yZS5yZXByZXNlbnRhdGlvbi50cmVlLlRyZWUKs7/qnQrEZQIAA0wACGNoaWxkcmVudAAQTGphdmEvdXRpbC9MaXN0O0wAB2NvbnRlbnR0ABJMamF2YS9sYW5nL09iamVjdDtMAAZwYXJlbnR0ADlMaW8vZ2l0aHViL2VyaWNtZWR2ZXQvamdlYS9jb3JlL3JlcHJlc2VudGF0aW9uL3RyZWUvVHJlZTt4cHNyABNqYXZhLnV0aWwuQXJyYXlMaXN0eIHSHZnHYZ0DAAFJAARzaXpleHAAAAAAdwQAAAAAeHNyAEtpby5naXRodWIuZXJpY21lZHZldC5qZ2VhLmNvcmUucmVwcmVzZW50YXRpb24udHJlZS5udW1lcmljLkVsZW1lbnQkVmFyaWFibGUAAAAAAAAAAAIAAUwABG5hbWV0ABJMamF2YS9sYW5nL1N0cmluZzt4cHQAAng2cHNxAH4AAnNxAH4ABwAAAAJ3BAAAAAJzcQB+AAJzcQB+AAcAAAACdwQAAAACc3EAfgACc3EAfgAHAAAAAncEAAAAAnNxAH4AAnNxAH4ABwAAAAJ3BAAAAAJzcQB+AAJzcQB+AAcAAAACdwQAAAACc3EAfgACc3EAfgAHAAAAAncEAAAAAnNxAH4AAnNxAH4ABwAAAAB3BAAAAAB4c3EAfgAJdAACeDhxAH4AF3NxAH4AAnNxAH4ABwAAAAJ3BAAAAAJzcQB+AAJzcQB+AAcAAAAAdwQAAAAAeHEAfgAbcQB+AB1zcQB+AAJzcQB+AAcAAAAAdwQAAAAAeHNxAH4ACXQAA3gxMnEAfgAdeH5yAEtpby5naXRodWIuZXJpY21lZHZldC5qZ2VhLmNvcmUucmVwcmVzZW50YXRpb24udHJlZS5udW1lcmljLkVsZW1lbnQkT3BlcmF0b3IAAAAAAAAAABIAAHhyAA5qYXZhLmxhbmcuRW51bQAAAAAAAAAAEgAAeHB0AAhBRERJVElPTnNxAH4AAnNxAH4ABwAAAAJ3BAAAAAJzcQB+AAJzcQB+AAcAAAACdwQAAAACc3EAfgACc3EAfgAHAAAAAHcEAAAAAHhxAH4AG3EAfgArc3EAfgACc3EAfgAHAAAAAHcEAAAAAHhxAH4AI3EAfgAreHEAfgAncQB+AClxAH4AHXhxAH4AJ3NxAH4AAnNxAH4ABwAAAAJ3BAAAAAJxAH4AKXNxAH4AAnNxAH4ABwAAAAB3BAAAAAB4cQB+ACNzcQB+AAJzcQB+AAcAAAACdwQAAAACc3EAfgACc3EAfgAHAAAAAncEAAAAAnNxAH4AAnNxAH4ABwAAAAB3BAAAAAB4cQB+ABtxAH4AN3NxAH4AAnNxAH4ABwAAAAB3BAAAAAB4cQB+ACNxAH4AN3hxAH4AJ3EAfgA1cQB+ADN4fnEAfgAldAALU1VCVFJBQ1RJT05zcQB+AAJzcQB+AAcAAAACdwQAAAACcQB+ADVzcQB+AAJzcQB+AAcAAAACdwQAAAACc3EAfgACc3EAfgAHAAAAAHcEAAAAAHhxAH4AI3EAfgBBc3EAfgACc3EAfgAHAAAAAHcEAAAAAHhxAH4AI3NxAH4AAnNxAH4ABwAAAAJ3BAAAAAJzcQB+AAJzcQB+AAcAAAAAdwQAAAAAeHEAfgALcQB+AEdxAH4ARXhxAH4AJ3NxAH4AAnNxAH4ABwAAAAJ3BAAAAAJzcQB+AAJzcQB+AAcAAAACdwQAAAACc3EAfgACc3EAfgAHAAAAAncEAAAAAnNxAH4AAnNxAH4ABwAAAAB3BAAAAAB4cQB+ABtxAH4AT3NxAH4AAnNxAH4ABwAAAAJ3BAAAAAJzcQB+AAJzcQB+AAcAAAACdwQAAAACc3EAfgACc3EAfgAHAAAAAHcEAAAAAHhxAH4AG3EAfgBVc3EAfgACc3EAfgAHAAAAAHcEAAAAAHhxAH4AI3EAfgBVeHEAfgAncQB+AFNzcQB+AAJzcQB+AAcAAAAAdwQAAAAAeHEAfgAjcQB+AFN4cQB+AD1xAH4AT3hxAH4AJ3EAfgBNc3EAfgACc3EAfgAHAAAAAHcEAAAAAHhxAH4AI3EAfgBNeHEAfgA9cQB+AEtxAH4AR3h+cQB+ACV0AA5NVUxUSVBMSUNBVElPTnNxAH4AAnNxAH4ABwAAAAJ3BAAAAAJxAH4AS3NxAH4AAnNxAH4ABwAAAAB3BAAAAAB4cQB+AAtzcQB+AAJzcQB+AAcAAAACdwQAAAACcQB+AD9xAH4AY3h+cQB+ACV0AA1QUk9UX0RJVklTSU9Oc3EAfgACc3EAfgAHAAAAAncEAAAAAnEAfgBlc3EAfgACc3EAfgAHAAAAAHcEAAAAAHhxAH4AC3EAfgBpeHEAfgBnc3EAfgACc3EAfgAHAAAAAncEAAAAAnEAfgBpc3EAfgACc3EAfgAHAAAAAHcEAAAAAHhxAH4AC3EAfgBteHEAfgA9cHhxAH4AZ3NxAH4AAnNxAH4ABwAAAAJ3BAAAAAJxAH4AYXEAfgBreHEAfgBnc3EAfgACc3EAfgAHAAAAAncEAAAAAnEAfgBxcQB+AG94cQB+AD1weHEAfgAncQB+AD94cQB+AF9xAH4AZXhxAH4APXNxAH4AAnNxAH4ABwAAAAJ3BAAAAAJxAH4AMXEAfgBBeHEAfgBfc3EAfgACc3EAfgAHAAAAAncEAAAAAnEAfgB1cQB+AGN4cQB+AGdzcQB+AAJzcQB+AAcAAAACdwQAAAACcQB+AHdxAH4Aa3hxAH4AZ3NxAH4AAnNxAH4ABwAAAAJ3BAAAAAJxAH4AeXEAfgBveHEAfgA9cHhxAH4AJ3EAfgAVcQB+ADN4cQB+AD1xAH4AE3EAfgBBeHEAfgBfcQB+ABFxAH4AY3hxAH4AZ3EAfgAPcQB+AGt4cQB+AGdxAH4ADXEAfgBveHEAfgA9cHNxAH4AAnNxAH4ABwAAAAB3BAAAAAB4cQB+AAtwc3EAfgACc3EAfgAHAAAAAncEAAAAAnNxAH4AAnNxAH4ABwAAAAB3BAAAAAB4c3EAfgAJdAACeDlxAH4Af3NxAH4AAnNxAH4ABwAAAAJ3BAAAAAJzcQB+AAJzcQB+AAcAAAAAdwQAAAAAeHNyAEtpby5naXRodWIuZXJpY21lZHZldC5qZ2VhLmNvcmUucmVwcmVzZW50YXRpb24udHJlZS5udW1lcmljLkVsZW1lbnQkQ29uc3RhbnQAAAAAAAAAAAIAAUQABXZhbHVleHA/8AAAAAAAAHEAfgCFc3EAfgACc3EAfgAHAAAAAHcEAAAAAHhzcQB+AAl0AAJ4NHNxAH4AAnNxAH4ABwAAAAJ3BAAAAAJzcQB+AAJzcQB+AAcAAAACdwQAAAACc3EAfgACc3EAfgAHAAAAAHcEAAAAAHhxAH4Ag3EAfgCRc3EAfgACc3EAfgAHAAAAAncEAAAAAnNxAH4AAnNxAH4ABwAAAAB3BAAAAAB4cQB+AIpxAH4AlXNxAH4AAnNxAH4ABwAAAAJ3BAAAAAJzcQB+AAJzcQB+AAcAAAAAdwQAAAAAeHEAfgCKcQB+AJlzcQB+AAJzcQB+AAcAAAACdwQAAAACc3EAfgACc3EAfgAHAAAAAHcEAAAAAHhxAH4AinEAfgCdc3EAfgACc3EAfgAHAAAAAncEAAAAAnNxAH4AAnNxAH4ABwAAAAB3BAAAAAB4cQB+AIpxAH4AoXNxAH4AAnNxAH4ABwAAAAB3BAAAAAB4cQB+AI1xAH4AoXhxAH4AX3EAfgCdeHEAfgBfcQB+AJl4cQB+AF9xAH4AlXhxAH4AX3EAfgCReHEAfgA9cQB+AI9xAH4Ai3hxAH4AX3NxAH4AAnNxAH4ABwAAAAJ3BAAAAAJzcQB+AAJzcQB+AAcAAAAAdwQAAAAAeHEAfgCDcQB+AKdxAH4Aj3hxAH4APXB4cQB+AF9zcQB+AAJzcQB+AAcAAAACdwQAAAACc3EAfgACc3EAfgAHAAAAAncEAAAAAnNxAH4AAnNxAH4ABwAAAAB3BAAAAAB4cQB+AINxAH4ArXNxAH4AAnNxAH4ABwAAAAJ3BAAAAAJzcQB+AAJzcQB+AAcAAAAAdwQAAAAAeHEAfgCKcQB+ALFzcQB+AAJzcQB+AAcAAAAAdwQAAAAAeHEAfgCNcQB+ALF4cQB+AF9xAH4ArXhxAH4APXEAfgCrcQB+AIV4cQB+AD1weHEAfgA9cHg=";
    "rO0ABXNyABFqYXZhLnV0aWwuQ29sbFNlcleOq7Y6G6gRAwABSQADdGFneHAAAAAEdwQAAAAEc3IAN2lvLmdpdGh1Yi5lcmljbWVkdmV0LmpnZWEuY29yZS5yZXByZXNlbnRhdGlvbi50cmVlLlRyZWUKs7/qnQrEZQIAA0wACGNoaWxkcmVudAAQTGphdmEvdXRpbC9MaXN0O0wAB2NvbnRlbnR0ABJMamF2YS9sYW5nL09iamVjdDtMAAZwYXJlbnR0ADlMaW8vZ2l0aHViL2VyaWNtZWR2ZXQvamdlYS9jb3JlL3JlcHJlc2VudGF0aW9uL3RyZWUvVHJlZTt4cHNyABNqYXZhLnV0aWwuQXJyYXlMaXN0eIHSHZnHYZ0DAAFJAARzaXpleHAAAAACdwQAAAACc3EAfgACc3EAfgAHAAAAAncEAAAAAnNxAH4AAnNxAH4ABwAAAAB3BAAAAAB4c3IAS2lvLmdpdGh1Yi5lcmljbWVkdmV0LmpnZWEuY29yZS5yZXByZXNlbnRhdGlvbi50cmVlLm51bWVyaWMuRWxlbWVudCRWYXJpYWJsZQAAAAAAAAAAAgABTAAEbmFtZXQAEkxqYXZhL2xhbmcvU3RyaW5nO3hwdAACeDZxAH4ACXNxAH4AAnNxAH4ABwAAAAB3BAAAAAB4c3EAfgANdAACeDFzcQB+AAJzcQB+AAcAAAACdwQAAAACc3EAfgACc3EAfgAHAAAAAHcEAAAAAHhxAH4AE3EAfgAVcQB+ABF4fnIAS2lvLmdpdGh1Yi5lcmljbWVkdmV0LmpnZWEuY29yZS5yZXByZXNlbnRhdGlvbi50cmVlLm51bWVyaWMuRWxlbWVudCRPcGVyYXRvcgAAAAAAAAAAEgAAeHIADmphdmEubGFuZy5FbnVtAAAAAAAAAAASAAB4cHQADk1VTFRJUExJQ0FUSU9Oc3EAfgACc3EAfgAHAAAAAncEAAAAAnEAfgAVc3EAfgACc3EAfgAHAAAAAHcEAAAAAHhxAH4AE3NxAH4AAnNxAH4ABwAAAAJ3BAAAAAJzcQB+AAJzcQB+AAcAAAAAdwQAAAAAeHEAfgAPcQB+ACFxAH4AH3h+cQB+ABl0AA1QUk9UX0RJVklTSU9OcHhxAH4AJXB4cQB+ABtxAH4ABnEAfgAfeHEAfgAlcHNxAH4AAnNxAH4ABwAAAAJ3BAAAAAJzcQB+AAJzcQB+AAcAAAACdwQAAAACc3EAfgACc3EAfgAHAAAAAncEAAAAAnNxAH4AAnNxAH4ABwAAAAJ3BAAAAAJzcQB+AAJzcQB+AAcAAAACdwQAAAACc3EAfgACc3EAfgAHAAAAAncEAAAAAnNxAH4AAnNxAH4ABwAAAAB3BAAAAAB4c3EAfgANdAACeDhxAH4AMXNxAH4AAnNxAH4ABwAAAAJ3BAAAAAJzcQB+AAJzcQB+AAcAAAAAdwQAAAAAeHEAfgA1cQB+ADdzcQB+AAJzcQB+AAcAAAAAdwQAAAAAeHNxAH4ADXQAA3gxMnEAfgA3eH5xAH4AGXQACEFERElUSU9Oc3EAfgACc3EAfgAHAAAAAncEAAAAAnNxAH4AAnNxAH4ABwAAAAJ3BAAAAAJzcQB+AAJzcQB+AAcAAAAAdwQAAAAAeHEAfgA1cQB+AENzcQB+AAJzcQB+AAcAAAAAdwQAAAAAeHEAfgA9cQB+AEN4cQB+AD9xAH4AQXEAfgA3eHEAfgA/c3EAfgACc3EAfgAHAAAAAncEAAAAAnEAfgBBc3EAfgACc3EAfgAHAAAAAHcEAAAAAHhxAH4APXNxAH4AAnNxAH4ABwAAAAJ3BAAAAAJzcQB+AAJzcQB+AAcAAAACdwQAAAACc3EAfgACc3EAfgAHAAAAAHcEAAAAAHhxAH4ANXEAfgBPc3EAfgACc3EAfgAHAAAAAHcEAAAAAHhxAH4APXEAfgBPeHEAfgA/cQB+AE1xAH4AS3h+cQB+ABl0AAtTVUJUUkFDVElPTnNxAH4AAnNxAH4ABwAAAAJ3BAAAAAJxAH4ATXNxAH4AAnNxAH4ABwAAAAJ3BAAAAAJzcQB+AAJzcQB+AAcAAAAAdwQAAAAAeHEAfgA9cQB+AFlzcQB+AAJzcQB+AAcAAAAAdwQAAAAAeHEAfgA9c3EAfgACc3EAfgAHAAAAAncEAAAAAnNxAH4AAnNxAH4ABwAAAAB3BAAAAAB4cQB+AA9xAH4AX3EAfgBdeHEAfgA/c3EAfgACc3EAfgAHAAAAAncEAAAAAnNxAH4AAnNxAH4ABwAAAAJ3BAAAAAJzcQB+AAJzcQB+AAcAAAACdwQAAAACc3EAfgACc3EAfgAHAAAAAHcEAAAAAHhxAH4ANXEAfgBnc3EAfgACc3EAfgAHAAAAAncEAAAAAnNxAH4AAnNxAH4ABwAAAAJ3BAAAAAJzcQB+AAJzcQB+AAcAAAAAdwQAAAAAeHEAfgA1cQB+AG1zcQB+AAJzcQB+AAcAAAAAdwQAAAAAeHEAfgA9cQB+AG14cQB+AD9xAH4Aa3NxAH4AAnNxAH4ABwAAAAB3BAAAAAB4cQB+AD1xAH4Aa3hxAH4AVXEAfgBneHEAfgA/cQB+AGVzcQB+AAJzcQB+AAcAAAAAdwQAAAAAeHEAfgA9cQB+AGV4cQB+AFVxAH4AY3EAfgBfeHEAfgAbc3EAfgACc3EAfgAHAAAAAncEAAAAAnEAfgBjc3EAfgACc3EAfgAHAAAAAHcEAAAAAHhxAH4AD3NxAH4AAnNxAH4ABwAAAAJ3BAAAAAJxAH4AV3EAfgB5eHEAfgAlc3EAfgACc3EAfgAHAAAAAncEAAAAAnEAfgB7c3EAfgACc3EAfgAHAAAAAHcEAAAAAHhxAH4AD3EAfgB9eHEAfgAlc3EAfgACc3EAfgAHAAAAAncEAAAAAnEAfgB9c3EAfgACc3EAfgAHAAAAAHcEAAAAAHhxAH4AD3EAfgCBeHEAfgBVcHhxAH4AJXNxAH4AAnNxAH4ABwAAAAJ3BAAAAAJxAH4Ad3EAfgB/eHEAfgAlc3EAfgACc3EAfgAHAAAAAncEAAAAAnEAfgCFcQB+AIN4cQB+AFVweHEAfgA/cQB+AFd4cQB+ABtxAH4Ae3hxAH4AVXNxAH4AAnNxAH4ABwAAAAJ3BAAAAAJxAH4ASXEAfgBZeHEAfgAbc3EAfgACc3EAfgAHAAAAAncEAAAAAnEAfgCJcQB+AHl4cQB+ACVzcQB+AAJzcQB+AAcAAAACdwQAAAACcQB+AItxAH4Af3hxAH4AJXNxAH4AAnNxAH4ABwAAAAJ3BAAAAAJxAH4AjXEAfgCDeHEAfgBVcHhxAH4AP3EAfgAvcQB+AEt4cQB+AFVxAH4ALXEAfgBZeHEAfgAbcQB+ACtxAH4AeXhxAH4AJXEAfgApcQB+AH94cQB+ACVxAH4AJ3EAfgCDeHEAfgBVcHNxAH4AAnNxAH4ABwAAAAB3BAAAAAB4cQB+AA9wc3EAfgACc3EAfgAHAAAAAncEAAAAAnNxAH4AAnNxAH4ABwAAAAB3BAAAAAB4c3EAfgANdAACeDlxAH4Ak3NxAH4AAnNxAH4ABwAAAAB3BAAAAAB4c3EAfgANdAACeDRzcQB+AAJzcQB+AAcAAAACdwQAAAACc3EAfgACc3EAfgAHAAAAAHcEAAAAAHhxAH4Am3EAfgCdcQB+AJl4cQB+AFVweHEAfgBVcHg=";
    "rO0ABXNyABFqYXZhLnV0aWwuQ29sbFNlcleOq7Y6G6gRAwABSQADdGFneHAAAAAEdwQAAAAEc3IAN2lvLmdpdGh1Yi5lcmljbWVkdmV0LmpnZWEuY29yZS5yZXByZXNlbnRhdGlvbi50cmVlLlRyZWUKs7/qnQrEZQIAA0wACGNoaWxkcmVudAAQTGphdmEvdXRpbC9MaXN0O0wAB2NvbnRlbnR0ABJMamF2YS9sYW5nL09iamVjdDtMAAZwYXJlbnR0ADlMaW8vZ2l0aHViL2VyaWNtZWR2ZXQvamdlYS9jb3JlL3JlcHJlc2VudGF0aW9uL3RyZWUvVHJlZTt4cHNyABNqYXZhLnV0aWwuQXJyYXlMaXN0eIHSHZnHYZ0DAAFJAARzaXpleHAAAAAAdwQAAAAAeHNyAEtpby5naXRodWIuZXJpY21lZHZldC5qZ2VhLmNvcmUucmVwcmVzZW50YXRpb24udHJlZS5udW1lcmljLkVsZW1lbnQkVmFyaWFibGUAAAAAAAAAAAIAAUwABG5hbWV0ABJMamF2YS9sYW5nL1N0cmluZzt4cHQAAng2cHNxAH4AAnNxAH4ABwAAAAJ3BAAAAAJzcQB+AAJzcQB+AAcAAAACdwQAAAACc3EAfgACc3EAfgAHAAAAAncEAAAAAnNxAH4AAnNxAH4ABwAAAAJ3BAAAAAJzcQB+AAJzcQB+AAcAAAACdwQAAAACc3EAfgACc3EAfgAHAAAAAncEAAAAAnNxAH4AAnNxAH4ABwAAAAB3BAAAAAB4c3EAfgAJdAACeDhxAH4AF3NxAH4AAnNxAH4ABwAAAAJ3BAAAAAJzcQB+AAJzcQB+AAcAAAAAdwQAAAAAeHEAfgAbcQB+AB1zcQB+AAJzcQB+AAcAAAAAdwQAAAAAeHNxAH4ACXQAA3gxMnEAfgAdeH5yAEtpby5naXRodWIuZXJpY21lZHZldC5qZ2VhLmNvcmUucmVwcmVzZW50YXRpb24udHJlZS5udW1lcmljLkVsZW1lbnQkT3BlcmF0b3IAAAAAAAAAABIAAHhyAA5qYXZhLmxhbmcuRW51bQAAAAAAAAAAEgAAeHB0AAhBRERJVElPTnNxAH4AAnNxAH4ABwAAAAJ3BAAAAAJzcQB+AAJzcQB+AAcAAAACdwQAAAACc3EAfgACc3EAfgAHAAAAAHcEAAAAAHhxAH4AG3EAfgArc3EAfgACc3EAfgAHAAAAAHcEAAAAAHhxAH4AI3EAfgAreHEAfgAncQB+AClxAH4AHXhxAH4AJ3NxAH4AAnNxAH4ABwAAAAJ3BAAAAAJxAH4AKXNxAH4AAnNxAH4ABwAAAAB3BAAAAAB4cQB+ACNzcQB+AAJzcQB+AAcAAAACdwQAAAACc3EAfgACc3EAfgAHAAAAAncEAAAAAnNxAH4AAnNxAH4ABwAAAAB3BAAAAAB4cQB+ABtxAH4AN3NxAH4AAnNxAH4ABwAAAAB3BAAAAAB4cQB+ACNxAH4AN3hxAH4AJ3EAfgA1cQB+ADN4fnEAfgAldAALU1VCVFJBQ1RJT05zcQB+AAJzcQB+AAcAAAACdwQAAAACcQB+ADVzcQB+AAJzcQB+AAcAAAACdwQAAAACc3EAfgACc3EAfgAHAAAAAHcEAAAAAHhxAH4AI3EAfgBBc3EAfgACc3EAfgAHAAAAAHcEAAAAAHhxAH4AI3NxAH4AAnNxAH4ABwAAAAJ3BAAAAAJzcQB+AAJzcQB+AAcAAAAAdwQAAAAAeHEAfgALcQB+AEdxAH4ARXhxAH4AJ3NxAH4AAnNxAH4ABwAAAAJ3BAAAAAJzcQB+AAJzcQB+AAcAAAACdwQAAAACc3EAfgACc3EAfgAHAAAAAncEAAAAAnNxAH4AAnNxAH4ABwAAAAB3BAAAAAB4cQB+ABtxAH4AT3NxAH4AAnNxAH4ABwAAAAJ3BAAAAAJzcQB+AAJzcQB+AAcAAAACdwQAAAACc3EAfgACc3EAfgAHAAAAAHcEAAAAAHhxAH4AG3EAfgBVc3EAfgACc3EAfgAHAAAAAHcEAAAAAHhxAH4AI3EAfgBVeHEAfgAncQB+AFNzcQB+AAJzcQB+AAcAAAAAdwQAAAAAeHEAfgAjcQB+AFN4cQB+AD1xAH4AT3hxAH4AJ3EAfgBNc3EAfgACc3EAfgAHAAAAAHcEAAAAAHhxAH4AI3EAfgBNeHEAfgA9cQB+AEtxAH4AR3h+cQB+ACV0AA5NVUxUSVBMSUNBVElPTnNxAH4AAnNxAH4ABwAAAAJ3BAAAAAJxAH4AS3NxAH4AAnNxAH4ABwAAAAB3BAAAAAB4cQB+AAtzcQB+AAJzcQB+AAcAAAACdwQAAAACcQB+AD9xAH4AY3h+cQB+ACV0AA1QUk9UX0RJVklTSU9Oc3EAfgACc3EAfgAHAAAAAncEAAAAAnEAfgBlc3EAfgACc3EAfgAHAAAAAHcEAAAAAHhxAH4AC3EAfgBpeHEAfgBnc3EAfgACc3EAfgAHAAAAAncEAAAAAnEAfgBpc3EAfgACc3EAfgAHAAAAAHcEAAAAAHhxAH4AC3EAfgBteHEAfgA9cHhxAH4AZ3NxAH4AAnNxAH4ABwAAAAJ3BAAAAAJxAH4AYXEAfgBreHEAfgBnc3EAfgACc3EAfgAHAAAAAncEAAAAAnEAfgBxcQB+AG94cQB+AD1weHEAfgAncQB+AD94cQB+AF9xAH4AZXhxAH4APXNxAH4AAnNxAH4ABwAAAAJ3BAAAAAJxAH4AMXEAfgBBeHEAfgBfc3EAfgACc3EAfgAHAAAAAncEAAAAAnEAfgB1cQB+AGN4cQB+AGdzcQB+AAJzcQB+AAcAAAACdwQAAAACcQB+AHdxAH4Aa3hxAH4AZ3NxAH4AAnNxAH4ABwAAAAJ3BAAAAAJxAH4AeXEAfgBveHEAfgA9cHhxAH4AJ3EAfgAVcQB+ADN4cQB+AD1xAH4AE3EAfgBBeHEAfgBfcQB+ABFxAH4AY3hxAH4AZ3EAfgAPcQB+AGt4cQB+AGdxAH4ADXEAfgBveHEAfgA9cHNxAH4AAnNxAH4ABwAAAAB3BAAAAAB4cQB+AAtwc3EAfgACc3EAfgAHAAAAAncEAAAAAnNxAH4AAnNxAH4ABwAAAAB3BAAAAAB4c3EAfgAJdAACeDlxAH4Af3NxAH4AAnNxAH4ABwAAAAJ3BAAAAAJzcQB+AAJzcQB+AAcAAAAAdwQAAAAAeHNyAEtpby5naXRodWIuZXJpY21lZHZldC5qZ2VhLmNvcmUucmVwcmVzZW50YXRpb24udHJlZS5udW1lcmljLkVsZW1lbnQkQ29uc3RhbnQAAAAAAAAAAAIAAUQABXZhbHVleHA/8AAAAAAAAHEAfgCFc3EAfgACc3EAfgAHAAAAAncEAAAAAnNxAH4AAnNxAH4ABwAAAAB3BAAAAAB4cQB+AIpxAH4Ai3NxAH4AAnNxAH4ABwAAAAB3BAAAAAB4c3EAfgAJdAACeDRxAH4Ai3hxAH4AX3NxAH4AAnNxAH4ABwAAAAJ3BAAAAAJzcQB+AAJzcQB+AAcAAAACdwQAAAACc3EAfgACc3EAfgAHAAAAAHcEAAAAAHhxAH4AinEAfgCVc3EAfgACc3EAfgAHAAAAAncEAAAAAnNxAH4AAnNxAH4ABwAAAAB3BAAAAAB4cQB+AIpxAH4AmXNxAH4AAnNxAH4ABwAAAAJ3BAAAAAJzcQB+AAJzcQB+AAcAAAAAdwQAAAAAeHEAfgCKcQB+AJ1zcQB+AAJzcQB+AAcAAAACdwQAAAACc3EAfgACc3EAfgAHAAAAAHcEAAAAAHhxAH4AinEAfgChc3EAfgACc3EAfgAHAAAAAHcEAAAAAHhxAH4AkXEAfgCheHEAfgBfcQB+AJ14cQB+AF9xAH4AmXhxAH4AX3EAfgCVeHEAfgBfcQB+AJNxAH4Ai3hxAH4AX3NxAH4AAnNxAH4ABwAAAAJ3BAAAAAJzcQB+AAJzcQB+AAcAAAAAdwQAAAAAeHEAfgCDcQB+AKdxAH4Ak3hxAH4APXB4cQB+AF9zcQB+AAJzcQB+AAcAAAACdwQAAAACc3EAfgACc3EAfgAHAAAAAHcEAAAAAHhxAH4AinEAfgCrcQB+AIV4cQB+AD1weHEAfgA9cHg=";
    "rO0ABXNyABFqYXZhLnV0aWwuQ29sbFNlcleOq7Y6G6gRAwABSQADdGFneHAAAAAEdwQAAAAEc3IAN2lvLmdpdGh1Yi5lcmljbWVkdmV0LmpnZWEuY29yZS5yZXByZXNlbnRhdGlvbi50cmVlLlRyZWUKs7/qnQrEZQIAA0wACGNoaWxkcmVudAAQTGphdmEvdXRpbC9MaXN0O0wAB2NvbnRlbnR0ABJMamF2YS9sYW5nL09iamVjdDtMAAZwYXJlbnR0ADlMaW8vZ2l0aHViL2VyaWNtZWR2ZXQvamdlYS9jb3JlL3JlcHJlc2VudGF0aW9uL3RyZWUvVHJlZTt4cHNyABNqYXZhLnV0aWwuQXJyYXlMaXN0eIHSHZnHYZ0DAAFJAARzaXpleHAAAAAAdwQAAAAAeHNyAEtpby5naXRodWIuZXJpY21lZHZldC5qZ2VhLmNvcmUucmVwcmVzZW50YXRpb24udHJlZS5udW1lcmljLkVsZW1lbnQkVmFyaWFibGUAAAAAAAAAAAIAAUwABG5hbWV0ABJMamF2YS9sYW5nL1N0cmluZzt4cHQAAng2cHNxAH4AAnNxAH4ABwAAAAJ3BAAAAAJzcQB+AAJzcQB+AAcAAAACdwQAAAACc3EAfgACc3EAfgAHAAAAAncEAAAAAnNxAH4AAnNxAH4ABwAAAAJ3BAAAAAJzcQB+AAJzcQB+AAcAAAACdwQAAAACc3EAfgACc3EAfgAHAAAAAncEAAAAAnNxAH4AAnNxAH4ABwAAAAB3BAAAAAB4c3EAfgAJdAACeDhxAH4AF3NxAH4AAnNxAH4ABwAAAAJ3BAAAAAJzcQB+AAJzcQB+AAcAAAAAdwQAAAAAeHEAfgAbcQB+AB1zcQB+AAJzcQB+AAcAAAAAdwQAAAAAeHNxAH4ACXQAA3gxMnEAfgAdeH5yAEtpby5naXRodWIuZXJpY21lZHZldC5qZ2VhLmNvcmUucmVwcmVzZW50YXRpb24udHJlZS5udW1lcmljLkVsZW1lbnQkT3BlcmF0b3IAAAAAAAAAABIAAHhyAA5qYXZhLmxhbmcuRW51bQAAAAAAAAAAEgAAeHB0AAhBRERJVElPTnNxAH4AAnNxAH4ABwAAAAJ3BAAAAAJzcQB+AAJzcQB+AAcAAAACdwQAAAACc3EAfgACc3EAfgAHAAAAAHcEAAAAAHhxAH4AG3EAfgArc3EAfgACc3EAfgAHAAAAAHcEAAAAAHhxAH4AI3EAfgAreHEAfgAncQB+AClxAH4AHXhxAH4AJ3NxAH4AAnNxAH4ABwAAAAJ3BAAAAAJxAH4AKXNxAH4AAnNxAH4ABwAAAAB3BAAAAAB4cQB+ACNzcQB+AAJzcQB+AAcAAAACdwQAAAACc3EAfgACc3EAfgAHAAAAAncEAAAAAnNxAH4AAnNxAH4ABwAAAAB3BAAAAAB4cQB+ABtxAH4AN3NxAH4AAnNxAH4ABwAAAAB3BAAAAAB4cQB+ACNxAH4AN3hxAH4AJ3EAfgA1cQB+ADN4fnEAfgAldAALU1VCVFJBQ1RJT05zcQB+AAJzcQB+AAcAAAACdwQAAAACcQB+ADVzcQB+AAJzcQB+AAcAAAACdwQAAAACc3EAfgACc3EAfgAHAAAAAHcEAAAAAHhxAH4AI3EAfgBBc3EAfgACc3EAfgAHAAAAAHcEAAAAAHhxAH4AI3NxAH4AAnNxAH4ABwAAAAJ3BAAAAAJzcQB+AAJzcQB+AAcAAAAAdwQAAAAAeHEAfgALcQB+AEdxAH4ARXhxAH4AJ3NxAH4AAnNxAH4ABwAAAAJ3BAAAAAJzcQB+AAJzcQB+AAcAAAACdwQAAAACc3EAfgACc3EAfgAHAAAAAncEAAAAAnNxAH4AAnNxAH4ABwAAAAB3BAAAAAB4cQB+ABtxAH4AT3NxAH4AAnNxAH4ABwAAAAJ3BAAAAAJzcQB+AAJzcQB+AAcAAAACdwQAAAACc3EAfgACc3EAfgAHAAAAAHcEAAAAAHhxAH4AG3EAfgBVc3EAfgACc3EAfgAHAAAAAHcEAAAAAHhxAH4AI3EAfgBVeHEAfgAncQB+AFNzcQB+AAJzcQB+AAcAAAAAdwQAAAAAeHEAfgAjcQB+AFN4cQB+AD1xAH4AT3hxAH4AJ3EAfgBNc3EAfgACc3EAfgAHAAAAAHcEAAAAAHhxAH4AI3EAfgBNeHEAfgA9cQB+AEtxAH4AR3h+cQB+ACV0AA5NVUxUSVBMSUNBVElPTnNxAH4AAnNxAH4ABwAAAAJ3BAAAAAJxAH4AS3NxAH4AAnNxAH4ABwAAAAB3BAAAAAB4cQB+AAtzcQB+AAJzcQB+AAcAAAACdwQAAAACcQB+AD9xAH4AY3h+cQB+ACV0AA1QUk9UX0RJVklTSU9Oc3EAfgACc3EAfgAHAAAAAncEAAAAAnEAfgBlc3EAfgACc3EAfgAHAAAAAHcEAAAAAHhxAH4AC3EAfgBpeHEAfgBnc3EAfgACc3EAfgAHAAAAAncEAAAAAnEAfgBpc3EAfgACc3EAfgAHAAAAAHcEAAAAAHhxAH4AC3EAfgBteHEAfgA9cHhxAH4AZ3NxAH4AAnNxAH4ABwAAAAJ3BAAAAAJxAH4AYXEAfgBreHEAfgBnc3EAfgACc3EAfgAHAAAAAncEAAAAAnEAfgBxcQB+AG94cQB+AD1weHEAfgAncQB+AD94cQB+AF9xAH4AZXhxAH4APXNxAH4AAnNxAH4ABwAAAAJ3BAAAAAJxAH4AMXEAfgBBeHEAfgBfc3EAfgACc3EAfgAHAAAAAncEAAAAAnEAfgB1cQB+AGN4cQB+AGdzcQB+AAJzcQB+AAcAAAACdwQAAAACcQB+AHdxAH4Aa3hxAH4AZ3NxAH4AAnNxAH4ABwAAAAJ3BAAAAAJxAH4AeXEAfgBveHEAfgA9cHhxAH4AJ3EAfgAVcQB+ADN4cQB+AD1xAH4AE3EAfgBBeHEAfgBfcQB+ABFxAH4AY3hxAH4AZ3EAfgAPcQB+AGt4cQB+AGdxAH4ADXEAfgBveHEAfgA9cHNxAH4AAnNxAH4ABwAAAAB3BAAAAAB4cQB+AAtwc3EAfgACc3EAfgAHAAAAAncEAAAAAnNxAH4AAnNxAH4ABwAAAAB3BAAAAAB4c3EAfgAJdAACeDlxAH4Af3NxAH4AAnNxAH4ABwAAAAJ3BAAAAAJzcQB+AAJzcQB+AAcAAAAAdwQAAAAAeHNyAEtpby5naXRodWIuZXJpY21lZHZldC5qZ2VhLmNvcmUucmVwcmVzZW50YXRpb24udHJlZS5udW1lcmljLkVsZW1lbnQkQ29uc3RhbnQAAAAAAAAAAAIAAUQABXZhbHVleHA/8AAAAAAAAHEAfgCFc3EAfgACc3EAfgAHAAAAAHcEAAAAAHhzcQB+AAl0AAJ4NHNxAH4AAnNxAH4ABwAAAAJ3BAAAAAJzcQB+AAJzcQB+AAcAAAACdwQAAAACc3EAfgACc3EAfgAHAAAAAHcEAAAAAHhxAH4Ag3EAfgCRc3EAfgACc3EAfgAHAAAAAncEAAAAAnNxAH4AAnNxAH4ABwAAAAB3BAAAAAB4cQB+AIpxAH4AlXNxAH4AAnNxAH4ABwAAAAJ3BAAAAAJzcQB+AAJzcQB+AAcAAAAAdwQAAAAAeHEAfgCKcQB+AJlzcQB+AAJzcQB+AAcAAAACdwQAAAACc3EAfgACc3EAfgAHAAAAAHcEAAAAAHhxAH4AinEAfgCdc3EAfgACc3EAfgAHAAAAAncEAAAAAnNxAH4AAnNxAH4ABwAAAAB3BAAAAAB4cQB+AIpxAH4AoXNxAH4AAnNxAH4ABwAAAAB3BAAAAAB4cQB+AI1xAH4AoXhxAH4AX3EAfgCdeHEAfgBfcQB+AJl4cQB+AF9xAH4AlXhxAH4AX3EAfgCReHEAfgA9cQB+AI9xAH4Ai3hxAH4AX3NxAH4AAnNxAH4ABwAAAAJ3BAAAAAJzcQB+AAJzcQB+AAcAAAAAdwQAAAAAeHEAfgCDcQB+AKdxAH4Aj3hxAH4APXB4cQB+AF9zcQB+AAJzcQB+AAcAAAACdwQAAAACc3EAfgACc3EAfgAHAAAAAncEAAAAAnNxAH4AAnNxAH4ABwAAAAB3BAAAAAB4cQB+AINxAH4ArXNxAH4AAnNxAH4ABwAAAAJ3BAAAAAJzcQB+AAJzcQB+AAcAAAAAdwQAAAAAeHEAfgCKcQB+ALFzcQB+AAJzcQB+AAcAAAAAdwQAAAAAeHEAfgCNcQB+ALF4cQB+AF9xAH4ArXhxAH4APXEAfgCrcQB+AIV4cQB+AD1weHEAfgA9cHg=";
    "rO0ABXNyABFqYXZhLnV0aWwuQ29sbFNlcleOq7Y6G6gRAwABSQADdGFneHAAAAAEdwQAAAAEc3IAN2lvLmdpdGh1Yi5lcmljbWVkdmV0LmpnZWEuY29yZS5yZXByZXNlbnRhdGlvbi50cmVlLlRyZWUKs7/qnQrEZQIAA0wACGNoaWxkcmVudAAQTGphdmEvdXRpbC9MaXN0O0wAB2NvbnRlbnR0ABJMamF2YS9sYW5nL09iamVjdDtMAAZwYXJlbnR0ADlMaW8vZ2l0aHViL2VyaWNtZWR2ZXQvamdlYS9jb3JlL3JlcHJlc2VudGF0aW9uL3RyZWUvVHJlZTt4cHNyABNqYXZhLnV0aWwuQXJyYXlMaXN0eIHSHZnHYZ0DAAFJAARzaXpleHAAAAAAdwQAAAAAeHNyAEtpby5naXRodWIuZXJpY21lZHZldC5qZ2VhLmNvcmUucmVwcmVzZW50YXRpb24udHJlZS5udW1lcmljLkVsZW1lbnQkVmFyaWFibGUAAAAAAAAAAAIAAUwABG5hbWV0ABJMamF2YS9sYW5nL1N0cmluZzt4cHQAAng2cHNxAH4AAnNxAH4ABwAAAAJ3BAAAAAJzcQB+AAJzcQB+AAcAAAACdwQAAAACc3EAfgACc3EAfgAHAAAAAncEAAAAAnNxAH4AAnNxAH4ABwAAAAJ3BAAAAAJzcQB+AAJzcQB+AAcAAAACdwQAAAACc3EAfgACc3EAfgAHAAAAAncEAAAAAnNxAH4AAnNxAH4ABwAAAAB3BAAAAAB4c3EAfgAJdAACeDhxAH4AF3NxAH4AAnNxAH4ABwAAAAJ3BAAAAAJzcQB+AAJzcQB+AAcAAAAAdwQAAAAAeHEAfgAbcQB+AB1zcQB+AAJzcQB+AAcAAAAAdwQAAAAAeHNxAH4ACXQAA3gxMnEAfgAdeH5yAEtpby5naXRodWIuZXJpY21lZHZldC5qZ2VhLmNvcmUucmVwcmVzZW50YXRpb24udHJlZS5udW1lcmljLkVsZW1lbnQkT3BlcmF0b3IAAAAAAAAAABIAAHhyAA5qYXZhLmxhbmcuRW51bQAAAAAAAAAAEgAAeHB0AAhBRERJVElPTnNxAH4AAnNxAH4ABwAAAAJ3BAAAAAJzcQB+AAJzcQB+AAcAAAACdwQAAAACc3EAfgACc3EAfgAHAAAAAHcEAAAAAHhxAH4AG3EAfgArc3EAfgACc3EAfgAHAAAAAHcEAAAAAHhxAH4AI3EAfgAreHEAfgAncQB+AClxAH4AHXhxAH4AJ3NxAH4AAnNxAH4ABwAAAAJ3BAAAAAJxAH4AKXNxAH4AAnNxAH4ABwAAAAB3BAAAAAB4cQB+ACNzcQB+AAJzcQB+AAcAAAACdwQAAAACc3EAfgACc3EAfgAHAAAAAncEAAAAAnNxAH4AAnNxAH4ABwAAAAB3BAAAAAB4cQB+ABtxAH4AN3NxAH4AAnNxAH4ABwAAAAB3BAAAAAB4cQB+ACNxAH4AN3hxAH4AJ3EAfgA1cQB+ADN4fnEAfgAldAALU1VCVFJBQ1RJT05zcQB+AAJzcQB+AAcAAAACdwQAAAACcQB+ADVzcQB+AAJzcQB+AAcAAAACdwQAAAACc3EAfgACc3EAfgAHAAAAAHcEAAAAAHhxAH4AI3EAfgBBc3EAfgACc3EAfgAHAAAAAHcEAAAAAHhxAH4AI3NxAH4AAnNxAH4ABwAAAAJ3BAAAAAJzcQB+AAJzcQB+AAcAAAAAdwQAAAAAeHEAfgALcQB+AEdxAH4ARXhxAH4AJ3NxAH4AAnNxAH4ABwAAAAJ3BAAAAAJzcQB+AAJzcQB+AAcAAAACdwQAAAACc3EAfgACc3EAfgAHAAAAAncEAAAAAnNxAH4AAnNxAH4ABwAAAAB3BAAAAAB4cQB+ABtxAH4AT3NxAH4AAnNxAH4ABwAAAAJ3BAAAAAJzcQB+AAJzcQB+AAcAAAACdwQAAAACc3EAfgACc3EAfgAHAAAAAHcEAAAAAHhxAH4AG3EAfgBVc3EAfgACc3EAfgAHAAAAAHcEAAAAAHhxAH4AI3EAfgBVeHEAfgAncQB+AFNzcQB+AAJzcQB+AAcAAAAAdwQAAAAAeHEAfgAjcQB+AFN4cQB+AD1xAH4AT3hxAH4AJ3EAfgBNc3EAfgACc3EAfgAHAAAAAHcEAAAAAHhxAH4AI3EAfgBNeHEAfgA9cQB+AEtxAH4AR3h+cQB+ACV0AA5NVUxUSVBMSUNBVElPTnNxAH4AAnNxAH4ABwAAAAJ3BAAAAAJxAH4AS3NxAH4AAnNxAH4ABwAAAAB3BAAAAAB4cQB+AAtzcQB+AAJzcQB+AAcAAAACdwQAAAACcQB+AD9xAH4AY3h+cQB+ACV0AA1QUk9UX0RJVklTSU9Oc3EAfgACc3EAfgAHAAAAAncEAAAAAnEAfgBlc3EAfgACc3EAfgAHAAAAAHcEAAAAAHhxAH4AC3EAfgBpeHEAfgBnc3EAfgACc3EAfgAHAAAAAncEAAAAAnEAfgBpc3EAfgACc3EAfgAHAAAAAHcEAAAAAHhxAH4AC3EAfgBteHEAfgA9cHhxAH4AZ3NxAH4AAnNxAH4ABwAAAAJ3BAAAAAJxAH4AYXEAfgBreHEAfgBnc3EAfgACc3EAfgAHAAAAAncEAAAAAnEAfgBxcQB+AG94cQB+AD1weHEAfgAncQB+AD94cQB+AF9xAH4AZXhxAH4APXNxAH4AAnNxAH4ABwAAAAJ3BAAAAAJxAH4AMXEAfgBBeHEAfgBfc3EAfgACc3EAfgAHAAAAAncEAAAAAnEAfgB1cQB+AGN4cQB+AGdzcQB+AAJzcQB+AAcAAAACdwQAAAACcQB+AHdxAH4Aa3hxAH4AZ3NxAH4AAnNxAH4ABwAAAAJ3BAAAAAJxAH4AeXEAfgBveHEAfgA9cHhxAH4AJ3EAfgAVcQB+ADN4cQB+AD1xAH4AE3EAfgBBeHEAfgBfcQB+ABFxAH4AY3hxAH4AZ3EAfgAPcQB+AGt4cQB+AGdxAH4ADXEAfgBveHEAfgA9cHNxAH4AAnNxAH4ABwAAAAB3BAAAAAB4cQB+AAtwc3EAfgACc3EAfgAHAAAAAncEAAAAAnNxAH4AAnNxAH4ABwAAAAB3BAAAAAB4c3EAfgAJdAACeDlxAH4Af3NxAH4AAnNxAH4ABwAAAAJ3BAAAAAJzcQB+AAJzcQB+AAcAAAAAdwQAAAAAeHNyAEtpby5naXRodWIuZXJpY21lZHZldC5qZ2VhLmNvcmUucmVwcmVzZW50YXRpb24udHJlZS5udW1lcmljLkVsZW1lbnQkQ29uc3RhbnQAAAAAAAAAAAIAAUQABXZhbHVleHA/8AAAAAAAAHEAfgCFc3EAfgACc3EAfgAHAAAAAHcEAAAAAHhzcQB+AAl0AAJ4NHNxAH4AAnNxAH4ABwAAAAJ3BAAAAAJzcQB+AAJzcQB+AAcAAAACdwQAAAACc3EAfgACc3EAfgAHAAAAAHcEAAAAAHhxAH4Ag3EAfgCRc3EAfgACc3EAfgAHAAAAAncEAAAAAnNxAH4AAnNxAH4ABwAAAAB3BAAAAAB4cQB+AIpxAH4AlXNxAH4AAnNxAH4ABwAAAAJ3BAAAAAJzcQB+AAJzcQB+AAcAAAAAdwQAAAAAeHEAfgCKcQB+AJlzcQB+AAJzcQB+AAcAAAACdwQAAAACc3EAfgACc3EAfgAHAAAAAHcEAAAAAHhxAH4AinEAfgCdc3EAfgACc3EAfgAHAAAAAncEAAAAAnNxAH4AAnNxAH4ABwAAAAB3BAAAAAB4cQB+AIpxAH4AoXNxAH4AAnNxAH4ABwAAAAB3BAAAAAB4cQB+AI1xAH4AoXhxAH4AX3EAfgCdeHEAfgBfcQB+AJl4cQB+AF9xAH4AlXhxAH4AX3EAfgCReHEAfgA9cQB+AI9xAH4Ai3hxAH4AX3NxAH4AAnNxAH4ABwAAAAJ3BAAAAAJzcQB+AAJzcQB+AAcAAAAAdwQAAAAAeHEAfgCDcQB+AKdxAH4Aj3hxAH4APXB4cQB+AF9zcQB+AAJzcQB+AAcAAAACdwQAAAACc3EAfgACc3EAfgAHAAAAAncEAAAAAnNxAH4AAnNxAH4ABwAAAAB3BAAAAAB4cQB+AINxAH4ArXNxAH4AAnNxAH4ABwAAAAJ3BAAAAAJzcQB+AAJzcQB+AAcAAAAAdwQAAAAAeHEAfgCKcQB+ALFzcQB+AAJzcQB+AAcAAAAAdwQAAAAAeHEAfgCNcQB+ALF4cQB+AF9xAH4ArXhxAH4APXEAfgCrcQB+AIV4cQB+AD1weHEAfgA9cHg=";
    "rO0ABXNyABFqYXZhLnV0aWwuQ29sbFNlcleOq7Y6G6gRAwABSQADdGFneHAAAAAEdwQAAAAEc3IAN2lvLmdpdGh1Yi5lcmljbWVkdmV0LmpnZWEuY29yZS5yZXByZXNlbnRhdGlvbi50cmVlLlRyZWUKs7/qnQrEZQIAA0wACGNoaWxkcmVudAAQTGphdmEvdXRpbC9MaXN0O0wAB2NvbnRlbnR0ABJMamF2YS9sYW5nL09iamVjdDtMAAZwYXJlbnR0ADlMaW8vZ2l0aHViL2VyaWNtZWR2ZXQvamdlYS9jb3JlL3JlcHJlc2VudGF0aW9uL3RyZWUvVHJlZTt4cHNyABNqYXZhLnV0aWwuQXJyYXlMaXN0eIHSHZnHYZ0DAAFJAARzaXpleHAAAAAAdwQAAAAAeHNyAEtpby5naXRodWIuZXJpY21lZHZldC5qZ2VhLmNvcmUucmVwcmVzZW50YXRpb24udHJlZS5udW1lcmljLkVsZW1lbnQkVmFyaWFibGUAAAAAAAAAAAIAAUwABG5hbWV0ABJMamF2YS9sYW5nL1N0cmluZzt4cHQAAng2cHNxAH4AAnNxAH4ABwAAAAJ3BAAAAAJzcQB+AAJzcQB+AAcAAAACdwQAAAACc3EAfgACc3EAfgAHAAAAAncEAAAAAnNxAH4AAnNxAH4ABwAAAAJ3BAAAAAJzcQB+AAJzcQB+AAcAAAACdwQAAAACc3EAfgACc3EAfgAHAAAAAncEAAAAAnNxAH4AAnNxAH4ABwAAAAB3BAAAAAB4c3EAfgAJdAACeDhxAH4AF3NxAH4AAnNxAH4ABwAAAAJ3BAAAAAJzcQB+AAJzcQB+AAcAAAAAdwQAAAAAeHEAfgAbcQB+AB1zcQB+AAJzcQB+AAcAAAAAdwQAAAAAeHNxAH4ACXQAA3gxMnEAfgAdeH5yAEtpby5naXRodWIuZXJpY21lZHZldC5qZ2VhLmNvcmUucmVwcmVzZW50YXRpb24udHJlZS5udW1lcmljLkVsZW1lbnQkT3BlcmF0b3IAAAAAAAAAABIAAHhyAA5qYXZhLmxhbmcuRW51bQAAAAAAAAAAEgAAeHB0AAhBRERJVElPTnNxAH4AAnNxAH4ABwAAAAJ3BAAAAAJzcQB+AAJzcQB+AAcAAAACdwQAAAACc3EAfgACc3EAfgAHAAAAAHcEAAAAAHhxAH4AG3EAfgArc3EAfgACc3EAfgAHAAAAAHcEAAAAAHhxAH4AI3EAfgAreHEAfgAncQB+AClxAH4AHXhxAH4AJ3NxAH4AAnNxAH4ABwAAAAJ3BAAAAAJxAH4AKXNxAH4AAnNxAH4ABwAAAAB3BAAAAAB4cQB+ACNzcQB+AAJzcQB+AAcAAAACdwQAAAACc3EAfgACc3EAfgAHAAAAAncEAAAAAnNxAH4AAnNxAH4ABwAAAAB3BAAAAAB4cQB+ABtxAH4AN3NxAH4AAnNxAH4ABwAAAAB3BAAAAAB4cQB+ACNxAH4AN3hxAH4AJ3EAfgA1cQB+ADN4fnEAfgAldAALU1VCVFJBQ1RJT05zcQB+AAJzcQB+AAcAAAACdwQAAAACcQB+ADVzcQB+AAJzcQB+AAcAAAACdwQAAAACc3EAfgACc3EAfgAHAAAAAHcEAAAAAHhxAH4AI3EAfgBBc3EAfgACc3EAfgAHAAAAAHcEAAAAAHhxAH4AI3NxAH4AAnNxAH4ABwAAAAJ3BAAAAAJzcQB+AAJzcQB+AAcAAAAAdwQAAAAAeHEAfgALcQB+AEdxAH4ARXhxAH4AJ3NxAH4AAnNxAH4ABwAAAAJ3BAAAAAJzcQB+AAJzcQB+AAcAAAACdwQAAAACc3EAfgACc3EAfgAHAAAAAncEAAAAAnNxAH4AAnNxAH4ABwAAAAB3BAAAAAB4cQB+ABtxAH4AT3NxAH4AAnNxAH4ABwAAAAJ3BAAAAAJzcQB+AAJzcQB+AAcAAAACdwQAAAACc3EAfgACc3EAfgAHAAAAAHcEAAAAAHhxAH4AG3EAfgBVc3EAfgACc3EAfgAHAAAAAHcEAAAAAHhxAH4AI3EAfgBVeHEAfgAncQB+AFNzcQB+AAJzcQB+AAcAAAAAdwQAAAAAeHEAfgAjcQB+AFN4cQB+AD1xAH4AT3hxAH4AJ3EAfgBNc3EAfgACc3EAfgAHAAAAAHcEAAAAAHhxAH4AI3EAfgBNeHEAfgA9cQB+AEtxAH4AR3h+cQB+ACV0AA5NVUxUSVBMSUNBVElPTnNxAH4AAnNxAH4ABwAAAAJ3BAAAAAJxAH4AS3NxAH4AAnNxAH4ABwAAAAB3BAAAAAB4cQB+AAtzcQB+AAJzcQB+AAcAAAACdwQAAAACcQB+AD9xAH4AY3h+cQB+ACV0AA1QUk9UX0RJVklTSU9Oc3EAfgACc3EAfgAHAAAAAncEAAAAAnEAfgBlc3EAfgACc3EAfgAHAAAAAHcEAAAAAHhxAH4AC3EAfgBpeHEAfgBnc3EAfgACc3EAfgAHAAAAAncEAAAAAnEAfgBpc3EAfgACc3EAfgAHAAAAAHcEAAAAAHhxAH4AC3EAfgBteHEAfgA9cHhxAH4AZ3NxAH4AAnNxAH4ABwAAAAJ3BAAAAAJxAH4AYXEAfgBreHEAfgBnc3EAfgACc3EAfgAHAAAAAncEAAAAAnEAfgBxcQB+AG94cQB+AD1weHEAfgAncQB+AD94cQB+AF9xAH4AZXhxAH4APXNxAH4AAnNxAH4ABwAAAAJ3BAAAAAJxAH4AMXEAfgBBeHEAfgBfc3EAfgACc3EAfgAHAAAAAncEAAAAAnEAfgB1cQB+AGN4cQB+AGdzcQB+AAJzcQB+AAcAAAACdwQAAAACcQB+AHdxAH4Aa3hxAH4AZ3NxAH4AAnNxAH4ABwAAAAJ3BAAAAAJxAH4AeXEAfgBveHEAfgA9cHhxAH4AJ3EAfgAVcQB+ADN4cQB+AD1xAH4AE3EAfgBBeHEAfgBfcQB+ABFxAH4AY3hxAH4AZ3EAfgAPcQB+AGt4cQB+AGdxAH4ADXEAfgBveHEAfgA9cHNxAH4AAnNxAH4ABwAAAAB3BAAAAAB4cQB+AAtwc3EAfgACc3EAfgAHAAAAAncEAAAAAnNxAH4AAnNxAH4ABwAAAAB3BAAAAAB4c3EAfgAJdAACeDlxAH4Af3NxAH4AAnNxAH4ABwAAAAJ3BAAAAAJzcQB+AAJzcQB+AAcAAAAAdwQAAAAAeHNyAEtpby5naXRodWIuZXJpY21lZHZldC5qZ2VhLmNvcmUucmVwcmVzZW50YXRpb24udHJlZS5udW1lcmljLkVsZW1lbnQkQ29uc3RhbnQAAAAAAAAAAAIAAUQABXZhbHVleHA/8AAAAAAAAHEAfgCFc3EAfgACc3EAfgAHAAAAAncEAAAAAnNxAH4AAnNxAH4ABwAAAAB3BAAAAAB4cQB+AIpxAH4Ai3NxAH4AAnNxAH4ABwAAAAB3BAAAAAB4c3EAfgAJdAACeDRxAH4Ai3hxAH4AX3NxAH4AAnNxAH4ABwAAAAJ3BAAAAAJzcQB+AAJzcQB+AAcAAAACdwQAAAACc3EAfgACc3EAfgAHAAAAAHcEAAAAAHhxAH4AinEAfgCVc3EAfgACc3EAfgAHAAAAAncEAAAAAnNxAH4AAnNxAH4ABwAAAAB3BAAAAAB4cQB+AIpxAH4AmXNxAH4AAnNxAH4ABwAAAAJ3BAAAAAJzcQB+AAJzcQB+AAcAAAAAdwQAAAAAeHEAfgCKcQB+AJ1zcQB+AAJzcQB+AAcAAAACdwQAAAACc3EAfgACc3EAfgAHAAAAAHcEAAAAAHhxAH4AinEAfgChc3EAfgACc3EAfgAHAAAAAHcEAAAAAHhxAH4AkXEAfgCheHEAfgBfcQB+AJ14cQB+AF9xAH4AmXhxAH4AX3EAfgCVeHEAfgBfcQB+AJNxAH4Ai3hxAH4AX3NxAH4AAnNxAH4ABwAAAAJ3BAAAAAJzcQB+AAJzcQB+AAcAAAAAdwQAAAAAeHEAfgCDcQB+AKdxAH4Ak3hxAH4APXB4cQB+AF9zcQB+AAJzcQB+AAcAAAACdwQAAAACc3EAfgACc3EAfgAHAAAAAHcEAAAAAHhxAH4AinEAfgCrcQB+AIV4cQB+AD1weHEAfgA9cHg=";
    "rO0ABXNyABFqYXZhLnV0aWwuQ29sbFNlcleOq7Y6G6gRAwABSQADdGFneHAAAAAEdwQAAAAEc3IAN2lvLmdpdGh1Yi5lcmljbWVkdmV0LmpnZWEuY29yZS5yZXByZXNlbnRhdGlvbi50cmVlLlRyZWUKs7/qnQrEZQIAA0wACGNoaWxkcmVudAAQTGphdmEvdXRpbC9MaXN0O0wAB2NvbnRlbnR0ABJMamF2YS9sYW5nL09iamVjdDtMAAZwYXJlbnR0ADlMaW8vZ2l0aHViL2VyaWNtZWR2ZXQvamdlYS9jb3JlL3JlcHJlc2VudGF0aW9uL3RyZWUvVHJlZTt4cHNyABNqYXZhLnV0aWwuQXJyYXlMaXN0eIHSHZnHYZ0DAAFJAARzaXpleHAAAAAAdwQAAAAAeHNyAEtpby5naXRodWIuZXJpY21lZHZldC5qZ2VhLmNvcmUucmVwcmVzZW50YXRpb24udHJlZS5udW1lcmljLkVsZW1lbnQkVmFyaWFibGUAAAAAAAAAAAIAAUwABG5hbWV0ABJMamF2YS9sYW5nL1N0cmluZzt4cHQAAng2cHNxAH4AAnNxAH4ABwAAAAJ3BAAAAAJzcQB+AAJzcQB+AAcAAAACdwQAAAACc3EAfgACc3EAfgAHAAAAAncEAAAAAnNxAH4AAnNxAH4ABwAAAAJ3BAAAAAJzcQB+AAJzcQB+AAcAAAACdwQAAAACc3EAfgACc3EAfgAHAAAAAncEAAAAAnNxAH4AAnNxAH4ABwAAAAB3BAAAAAB4c3EAfgAJdAACeDhxAH4AF3NxAH4AAnNxAH4ABwAAAAJ3BAAAAAJzcQB+AAJzcQB+AAcAAAAAdwQAAAAAeHEAfgAbcQB+AB1zcQB+AAJzcQB+AAcAAAAAdwQAAAAAeHNxAH4ACXQAA3gxMnEAfgAdeH5yAEtpby5naXRodWIuZXJpY21lZHZldC5qZ2VhLmNvcmUucmVwcmVzZW50YXRpb24udHJlZS5udW1lcmljLkVsZW1lbnQkT3BlcmF0b3IAAAAAAAAAABIAAHhyAA5qYXZhLmxhbmcuRW51bQAAAAAAAAAAEgAAeHB0AAhBRERJVElPTnNxAH4AAnNxAH4ABwAAAAJ3BAAAAAJzcQB+AAJzcQB+AAcAAAACdwQAAAACc3EAfgACc3EAfgAHAAAAAHcEAAAAAHhxAH4AG3EAfgArc3EAfgACc3EAfgAHAAAAAHcEAAAAAHhxAH4AI3EAfgAreHEAfgAncQB+AClxAH4AHXhxAH4AJ3NxAH4AAnNxAH4ABwAAAAJ3BAAAAAJxAH4AKXNxAH4AAnNxAH4ABwAAAAB3BAAAAAB4cQB+ACNzcQB+AAJzcQB+AAcAAAACdwQAAAACc3EAfgACc3EAfgAHAAAAAncEAAAAAnNxAH4AAnNxAH4ABwAAAAB3BAAAAAB4cQB+ABtxAH4AN3NxAH4AAnNxAH4ABwAAAAB3BAAAAAB4cQB+ACNxAH4AN3hxAH4AJ3EAfgA1cQB+ADN4fnEAfgAldAALU1VCVFJBQ1RJT05zcQB+AAJzcQB+AAcAAAACdwQAAAACcQB+ADVzcQB+AAJzcQB+AAcAAAACdwQAAAACc3EAfgACc3EAfgAHAAAAAHcEAAAAAHhxAH4AI3EAfgBBc3EAfgACc3EAfgAHAAAAAHcEAAAAAHhxAH4AI3NxAH4AAnNxAH4ABwAAAAJ3BAAAAAJzcQB+AAJzcQB+AAcAAAAAdwQAAAAAeHEAfgALcQB+AEdxAH4ARXhxAH4AJ3NxAH4AAnNxAH4ABwAAAAJ3BAAAAAJzcQB+AAJzcQB+AAcAAAACdwQAAAACc3EAfgACc3EAfgAHAAAAAncEAAAAAnNxAH4AAnNxAH4ABwAAAAB3BAAAAAB4cQB+ABtxAH4AT3NxAH4AAnNxAH4ABwAAAAJ3BAAAAAJzcQB+AAJzcQB+AAcAAAACdwQAAAACc3EAfgACc3EAfgAHAAAAAHcEAAAAAHhxAH4AG3EAfgBVc3EAfgACc3EAfgAHAAAAAHcEAAAAAHhxAH4AI3EAfgBVeHEAfgAncQB+AFNzcQB+AAJzcQB+AAcAAAAAdwQAAAAAeHEAfgAjcQB+AFN4cQB+AD1xAH4AT3hxAH4AJ3EAfgBNc3EAfgACc3EAfgAHAAAAAHcEAAAAAHhxAH4AI3EAfgBNeHEAfgA9cQB+AEtxAH4AR3h+cQB+ACV0AA5NVUxUSVBMSUNBVElPTnNxAH4AAnNxAH4ABwAAAAJ3BAAAAAJxAH4AS3NxAH4AAnNxAH4ABwAAAAB3BAAAAAB4cQB+AAtzcQB+AAJzcQB+AAcAAAACdwQAAAACcQB+AD9xAH4AY3h+cQB+ACV0AA1QUk9UX0RJVklTSU9Oc3EAfgACc3EAfgAHAAAAAncEAAAAAnEAfgBlc3EAfgACc3EAfgAHAAAAAHcEAAAAAHhxAH4AC3EAfgBpeHEAfgBnc3EAfgACc3EAfgAHAAAAAncEAAAAAnEAfgBpc3EAfgACc3EAfgAHAAAAAHcEAAAAAHhxAH4AC3EAfgBteHEAfgA9cHhxAH4AZ3NxAH4AAnNxAH4ABwAAAAJ3BAAAAAJxAH4AYXEAfgBreHEAfgBnc3EAfgACc3EAfgAHAAAAAncEAAAAAnEAfgBxcQB+AG94cQB+AD1weHEAfgAncQB+AD94cQB+AF9xAH4AZXhxAH4APXNxAH4AAnNxAH4ABwAAAAJ3BAAAAAJxAH4AMXEAfgBBeHEAfgBfc3EAfgACc3EAfgAHAAAAAncEAAAAAnEAfgB1cQB+AGN4cQB+AGdzcQB+AAJzcQB+AAcAAAACdwQAAAACcQB+AHdxAH4Aa3hxAH4AZ3NxAH4AAnNxAH4ABwAAAAJ3BAAAAAJxAH4AeXEAfgBveHEAfgA9cHhxAH4AJ3EAfgAVcQB+ADN4cQB+AD1xAH4AE3EAfgBBeHEAfgBfcQB+ABFxAH4AY3hxAH4AZ3EAfgAPcQB+AGt4cQB+AGdxAH4ADXEAfgBveHEAfgA9cHNxAH4AAnNxAH4ABwAAAAB3BAAAAAB4cQB+AAtwc3EAfgACc3EAfgAHAAAAAncEAAAAAnNxAH4AAnNxAH4ABwAAAAB3BAAAAAB4c3EAfgAJdAACeDlxAH4Af3NxAH4AAnNxAH4ABwAAAAJ3BAAAAAJzcQB+AAJzcQB+AAcAAAAAdwQAAAAAeHNyAEtpby5naXRodWIuZXJpY21lZHZldC5qZ2VhLmNvcmUucmVwcmVzZW50YXRpb24udHJlZS5udW1lcmljLkVsZW1lbnQkQ29uc3RhbnQAAAAAAAAAAAIAAUQABXZhbHVleHA/8AAAAAAAAHEAfgCFc3EAfgACc3EAfgAHAAAAAHcEAAAAAHhzcQB+AAl0AAJ4NHNxAH4AAnNxAH4ABwAAAAJ3BAAAAAJzcQB+AAJzcQB+AAcAAAAAdwQAAAAAeHEAfgCDcQB+AI9xAH4Ai3hxAH4AX3NxAH4AAnNxAH4ABwAAAAJ3BAAAAAJzcQB+AAJzcQB+AAcAAAAAdwQAAAAAeHEAfgCDcQB+AJNxAH4Aj3hxAH4APXB4cQB+AF9zcQB+AAJzcQB+AAcAAAACdwQAAAACc3EAfgACc3EAfgAHAAAAAHcEAAAAAHhxAH4AjXEAfgCXcQB+AIV4cQB+AD1weHEAfgA9cHg=";
