ea.runOutcome(
  index = 375;
  run = ea.run(
    problem = ea.p.mr.fromData(
      trainingDataset = ea.dataset.numerical.fromFile(
        filePath = "../phase2/data-ro-ographea-3-006.txt";
        folds = [0];
        nFolds = 50;
        xVarNamePattern = "x.*";
        yVarNamePattern = "y.*"
      )
    );
    randomGenerator = ea.rg.defaultRG(seed = 1);
    solver = ea.s.multiSRTreeGP(
      crossoverP = 0.8;
      diversity = true;
      mapper = ea.m.treeMRF(
        dataset = ea.d.num.empty(
          xVars = [
            x01;
            x02;
            x03;
            x04;
            x05;
            x06;
            x07;
            x08;
            x09;
            x10;
            x11;
            x12;
            x13;
            x14;
            x15;
            x16
          ];
          yVars = [y1; y2; y3; y4]
        );
        postOperator = tanh
      );
      maxConst = 5;
      maxTreeH = 8;
      minConst = 0;
      minNTournament = 3;
      minTreeH = 3;
      nAttemptsDiversity = 100;
      nConst = 10;
      nEval = 10000;
      nPop = 100;
      operators = [
        addition;
        subtraction;
        multiplication;
        prot_division;
        prot_log
      ];
      tournamentRate = 0.05
    )
  );
  serializedGenotypes = [
    "rO0ABXNyABFqYXZhLnV0aWwuQ29sbFNlcleOq7Y6G6gRAwABSQADdGFneHAAAAAEdwQAAAAEc3IAN2lvLmdpdGh1Yi5lcmljbWVkdmV0LmpnZWEuY29yZS5yZXByZXNlbnRhdGlvbi50cmVlLlRyZWUKs7/qnQrEZQIAA0wACGNoaWxkcmVudAAQTGphdmEvdXRpbC9MaXN0O0wAB2NvbnRlbnR0ABJMamF2YS9sYW5nL09iamVjdDtMAAZwYXJlbnR0ADlMaW8vZ2l0aHViL2VyaWNtZWR2ZXQvamdlYS9jb3JlL3JlcHJlc2VudGF0aW9uL3RyZWUvVHJlZTt4cHNyABNqYXZhLnV0aWwuQXJyYXlMaXN0eIHSHZnHYZ0DAAFJAARzaXpleHAAAAACdwQAAAACc3EAfgACc3EAfgAHAAAAAncEAAAAAnNxAH4AAnNxAH4ABwAAAAB3BAAAAAB4c3IAS2lvLmdpdGh1Yi5lcmljbWVkdmV0LmpnZWEuY29yZS5yZXByZXNlbnRhdGlvbi50cmVlLm51bWVyaWMuRWxlbWVudCRWYXJpYWJsZQAAAAAAAAAAAgABTAAEbmFtZXQAEkxqYXZhL2xhbmcvU3RyaW5nO3hwdAADeDAxcQB+AAlzcQB+AAJzcQB+AAcAAAAAdwQAAAAAeHEAfgAPc3EAfgACc3EAfgAHAAAAAncEAAAAAnNxAH4AAnNxAH4ABwAAAAJ3BAAAAAJzcQB+AAJzcQB+AAcAAAAAdwQAAAAAeHEAfgAPcQB+ABVzcQB+AAJzcQB+AAcAAAAAdwQAAAAAeHEAfgAPcQB+ABV4fnIAS2lvLmdpdGh1Yi5lcmljbWVkdmV0LmpnZWEuY29yZS5yZXByZXNlbnRhdGlvbi50cmVlLm51bWVyaWMuRWxlbWVudCRPcGVyYXRvcgAAAAAAAAAAEgAAeHIADmphdmEubGFuZy5FbnVtAAAAAAAAAAASAAB4cHQACEFERElUSU9OcQB+ABNxAH4AEXhxAH4AHXNxAH4AAnNxAH4ABwAAAAJ3BAAAAAJxAH4AE3NxAH4AAnNxAH4ABwAAAAB3BAAAAAB4cQB+AA9xAH4AH3hxAH4AHXB4cQB+AB1xAH4ABnEAfgAheHEAfgAdcHNxAH4AAnNxAH4ABwAAAAJ3BAAAAAJzcQB+AAJzcQB+AAcAAAACdwQAAAACc3EAfgACc3EAfgAHAAAAAHcEAAAAAHhzcgBLaW8uZ2l0aHViLmVyaWNtZWR2ZXQuamdlYS5jb3JlLnJlcHJlc2VudGF0aW9uLnRyZWUubnVtZXJpYy5FbGVtZW50JENvbnN0YW50AAAAAAAAAAACAAFEAAV2YWx1ZXhwAAAAAAAAAABxAH4AJXNxAH4AAnNxAH4ABwAAAAJ3BAAAAAJzcQB+AAJzcQB+AAcAAAACdwQAAAACc3EAfgACc3EAfgAHAAAAAncEAAAAAnNxAH4AAnNxAH4ABwAAAAB3BAAAAAB4cQB+ACpxAH4AL3NxAH4AAnNxAH4ABwAAAAJ3BAAAAAJzcQB+AAJzcQB+AAcAAAAAdwQAAAAAeHNxAH4ADXQAA3gwNXEAfgAzc3EAfgACc3EAfgAHAAAAAHcEAAAAAHhxAH4AKnEAfgAzeH5xAH4AG3QACFBST1RfTE9HcQB+AC94fnEAfgAbdAALU1VCVFJBQ1RJT05xAH4ALXNxAH4AAnNxAH4ABwAAAAB3BAAAAAB4cQB+ACpzcQB+AAJzcQB+AAcAAAACdwQAAAACc3EAfgACc3EAfgAHAAAAAHcEAAAAAHhzcQB+ACk/4AAAAAAAAHEAfgBBcQB+AD94fnEAfgAbdAAOTVVMVElQTElDQVRJT05zcQB+AAJzcQB+AAcAAAACdwQAAAACcQB+AEFzcQB+AAJzcQB+AAcAAAAAdwQAAAAAeHEAfgAqc3EAfgACc3EAfgAHAAAAAncEAAAAAnNxAH4AAnNxAH4ABwAAAAJ3BAAAAAJzcQB+AAJzcQB+AAcAAAACdwQAAAACc3EAfgACc3EAfgAHAAAAAHcEAAAAAHhzcQB+AA10AAN4MTRxAH4AUHNxAH4AAnNxAH4ABwAAAAB3BAAAAAB4cQB+AFRxAH4AUHhxAH4AO3EAfgBOc3EAfgACc3EAfgAHAAAAAncEAAAAAnNxAH4AAnNxAH4ABwAAAAB3BAAAAAB4c3EAfgApP/AAAAAAAABxAH4AWHNxAH4AAnNxAH4ABwAAAAJ3BAAAAAJzcQB+AAJzcQB+AAcAAAAAdwQAAAAAeHEAfgAqcQB+AF1zcQB+AAJzcQB+AAcAAAAAdwQAAAAAeHEAfgAqcQB+AF14cQB+AD1xAH4AWHhxAH4ARnEAfgBOeHEAfgBGcQB+AExxAH4ASnhxAH4ARnNxAH4AAnNxAH4ABwAAAAJ3BAAAAAJzcQB+AAJzcQB+AAcAAAAAdwQAAAAAeHEAfgAqcQB+AGNxAH4ATHh+cQB+ABt0AA1QUk9UX0RJVklTSU9Oc3EAfgACc3EAfgAHAAAAAncEAAAAAnEAfgBjc3EAfgACc3EAfgAHAAAAAHcEAAAAAHhxAH4ARXEAfgBpeHEAfgA7cHhxAH4ARnNxAH4AAnNxAH4ABwAAAAJ3BAAAAAJzcQB+AAJzcQB+AAcAAAAAdwQAAAAAeHEAfgAqcQB+AG1xAH4ASHhxAH4AZ3NxAH4AAnNxAH4ABwAAAAJ3BAAAAAJxAH4AbXEAfgBreHEAfgA7cHhxAH4ARnEAfgArcQB+AEp4cQB+AEZzcQB+AAJzcQB+AAcAAAACdwQAAAACc3EAfgACc3EAfgAHAAAAAncEAAAAAnNxAH4AAnNxAH4ABwAAAAB3BAAAAAB4cQB+AFRxAH4AdXNxAH4AAnNxAH4ABwAAAAB3BAAAAAB4cQB+AFRxAH4AdXhxAH4AO3EAfgBzcQB+ACt4cQB+AGdzcQB+AAJzcQB+AAcAAAACdwQAAAACcQB+AHNxAH4Aa3hxAH4AO3B4cQB+AGdxAH4AI3EAfgBreHEAfgA7cHNxAH4AAnNxAH4ABwAAAAJ3BAAAAAJzcQB+AAJzcQB+AAcAAAACdwQAAAACc3EAfgACc3EAfgAHAAAAAncEAAAAAnNxAH4AAnNxAH4ABwAAAAJ3BAAAAAJzcQB+AAJzcQB+AAcAAAACdwQAAAACc3EAfgACc3EAfgAHAAAAAHcEAAAAAHhzcQB+AA10AAN4MTVxAH4AhXNxAH4AAnNxAH4ABwAAAAB3BAAAAAB4cQB+AIlzcQB+AAJzcQB+AAcAAAACdwQAAAACc3EAfgACc3EAfgAHAAAAAHcEAAAAAHhzcQB+AA10AAN4MDJxAH4AjXEAfgCLeHEAfgBGc3EAfgACc3EAfgAHAAAAAncEAAAAAnEAfgCNc3EAfgACc3EAfgAHAAAAAHcEAAAAAHhxAH4AkXEAfgCTeHEAfgBGc3EAfgACc3EAfgAHAAAAAncEAAAAAnEAfgCTc3EAfgACc3EAfgAHAAAAAncEAAAAAnNxAH4AAnNxAH4ABwAAAAB3BAAAAAB4cQB+AIlxAH4AmXNxAH4AAnNxAH4ABwAAAAJ3BAAAAAJzcQB+AAJzcQB+AAcAAAACdwQAAAACc3EAfgACc3EAfgAHAAAAAHcEAAAAAHhxAH4AiXEAfgCfc3EAfgACc3EAfgAHAAAAAHcEAAAAAHhzcQB+AA10AAN4MDRxAH4An3hxAH4ARnEAfgCdc3EAfgACc3EAfgAHAAAAAHcEAAAAAHhzcQB+AA10AAN4MTBzcQB+AAJzcQB+AAcAAAACdwQAAAACc3EAfgACc3EAfgAHAAAAAHcEAAAAAHhxAH4AkXEAfgCrcQB+AKd4cQB+AEZzcQB+AAJzcQB+AAcAAAACdwQAAAACc3EAfgACc3EAfgAHAAAAAHcEAAAAAHhxAH4AiXEAfgCvcQB+AKt4cQB+AEZzcQB+AAJzcQB+AAcAAAACdwQAAAACc3EAfgACc3EAfgAHAAAAAncEAAAAAnNxAH4AAnNxAH4ABwAAAAJ3BAAAAAJzcQB+AAJzcQB+AAcAAAAAdwQAAAAAeHEAfgCJcQB+ALdzcQB+AAJzcQB+AAcAAAAAdwQAAAAAeHEAfgCJcQB+ALd4cQB+AEZxAH4AtXNxAH4AAnNxAH4ABwAAAAB3BAAAAAB4cQB+AJFxAH4AtXhxAH4ARnEAfgCzcQB+AK94cQB+AEZzcQB+AAJzcQB+AAcAAAACdwQAAAACcQB+ALNzcQB+AAJzcQB+AAcAAAAAdwQAAAAAeHEAfgCRc3EAfgACc3EAfgAHAAAAAncEAAAAAnNxAH4AAnNxAH4ABwAAAAJ3BAAAAAJzcQB+AAJzcQB+AAcAAAACdwQAAAACc3EAfgACc3EAfgAHAAAAAHcEAAAAAHhxAH4AiXEAfgDHc3EAfgACc3EAfgAHAAAAAHcEAAAAAHhxAH4AqXEAfgDHeHEAfgBGcQB+AMVzcQB+AAJzcQB+AAcAAAAAdwQAAAAAeHEAfgCRcQB+AMV4cQB+AEZxAH4Aw3EAfgDBeHEAfgBGc3EAfgACc3EAfgAHAAAAAncEAAAAAnEAfgDDc3EAfgACc3EAfgAHAAAAAHcEAAAAAHhxAH4AqXEAfgDPeHEAfgBGcHhxAH4ARnNxAH4AAnNxAH4ABwAAAAJ3BAAAAAJxAH4Av3EAfgDReHEAfgBGcHhxAH4ARnEAfgCZeHEAfgBGcQB+AJd4cQB+AEZzcQB+AAJzcQB+AAcAAAACdwQAAAACcQB+AJdxAH4AwXhxAH4ARnNxAH4AAnNxAH4ABwAAAAJ3BAAAAAJxAH4A1XEAfgDReHEAfgBGcHhxAH4ARnEAfgCDcQB+AJV4cQB+AEZxAH4AgXEAfgCZeHEAfgBGcQB+AH9xAH4AwXhxAH4ARnEAfgB9cQB+ANF4cQB+AEZwc3EAfgACc3EAfgAHAAAAAncEAAAAAnNxAH4AAnNxAH4ABwAAAAB3BAAAAAB4cQB+AKVxAH4A2XNxAH4AAnNxAH4ABwAAAAB3BAAAAAB4c3EAfgApQAAAAAAAAABzcQB+AAJzcQB+AAcAAAACdwQAAAACc3EAfgACc3EAfgAHAAAAAncEAAAAAnNxAH4AAnNxAH4ABwAAAAB3BAAAAAB4cQB+AKVxAH4A4nNxAH4AAnNxAH4ABwAAAAB3BAAAAAB4cQB+AN9xAH4A4nhxAH4AZ3EAfgDgcQB+AN14cQB+AGdweHEAfgBncHg=";
    "rO0ABXNyABFqYXZhLnV0aWwuQ29sbFNlcleOq7Y6G6gRAwABSQADdGFneHAAAAAEdwQAAAAEc3IAN2lvLmdpdGh1Yi5lcmljbWVkdmV0LmpnZWEuY29yZS5yZXByZXNlbnRhdGlvbi50cmVlLlRyZWUKs7/qnQrEZQIAA0wACGNoaWxkcmVudAAQTGphdmEvdXRpbC9MaXN0O0wAB2NvbnRlbnR0ABJMamF2YS9sYW5nL09iamVjdDtMAAZwYXJlbnR0ADlMaW8vZ2l0aHViL2VyaWNtZWR2ZXQvamdlYS9jb3JlL3JlcHJlc2VudGF0aW9uL3RyZWUvVHJlZTt4cHNyABNqYXZhLnV0aWwuQXJyYXlMaXN0eIHSHZnHYZ0DAAFJAARzaXpleHAAAAACdwQAAAACc3EAfgACc3EAfgAHAAAAAncEAAAAAnNxAH4AAnNxAH4ABwAAAAB3BAAAAAB4c3IAS2lvLmdpdGh1Yi5lcmljbWVkdmV0LmpnZWEuY29yZS5yZXByZXNlbnRhdGlvbi50cmVlLm51bWVyaWMuRWxlbWVudCRWYXJpYWJsZQAAAAAAAAAAAgABTAAEbmFtZXQAEkxqYXZhL2xhbmcvU3RyaW5nO3hwdAADeDAxcQB+AAlzcQB+AAJzcQB+AAcAAAAAdwQAAAAAeHEAfgAPc3EAfgACc3EAfgAHAAAAAncEAAAAAnNxAH4AAnNxAH4ABwAAAAJ3BAAAAAJzcQB+AAJzcQB+AAcAAAACdwQAAAACc3EAfgACc3EAfgAHAAAAAHcEAAAAAHhxAH4AD3EAfgAXc3EAfgACc3EAfgAHAAAAAHcEAAAAAHhxAH4AD3EAfgAXeH5yAEtpby5naXRodWIuZXJpY21lZHZldC5qZ2VhLmNvcmUucmVwcmVzZW50YXRpb24udHJlZS5udW1lcmljLkVsZW1lbnQkT3BlcmF0b3IAAAAAAAAAABIAAHhyAA5qYXZhLmxhbmcuRW51bQAAAAAAAAAAEgAAeHB0AAhBRERJVElPTnEAfgAVc3EAfgACc3EAfgAHAAAAAHcEAAAAAHhxAH4AD3EAfgAVeHEAfgAfcQB+ABNxAH4AEXhxAH4AH3NxAH4AAnNxAH4ABwAAAAJ3BAAAAAJxAH4AE3NxAH4AAnNxAH4ABwAAAAB3BAAAAAB4cQB+AA9xAH4AI3hxAH4AH3B4cQB+AB9xAH4ABnEAfgAleHEAfgAfcHNxAH4AAnNxAH4ABwAAAAJ3BAAAAAJzcQB+AAJzcQB+AAcAAAACdwQAAAACc3EAfgACc3EAfgAHAAAAAncEAAAAAnNxAH4AAnNxAH4ABwAAAAB3BAAAAAB4c3IAS2lvLmdpdGh1Yi5lcmljbWVkdmV0LmpnZWEuY29yZS5yZXByZXNlbnRhdGlvbi50cmVlLm51bWVyaWMuRWxlbWVudCRDb25zdGFudAAAAAAAAAAAAgABRAAFdmFsdWV4cAAAAAAAAAAAcQB+ACtzcQB+AAJzcQB+AAcAAAAAdwQAAAAAeHNxAH4ALz/gAAAAAAAAc3EAfgACc3EAfgAHAAAAAncEAAAAAnNxAH4AAnNxAH4ABwAAAAB3BAAAAAB4c3EAfgAvP/AAAAAAAABxAH4ANHEAfgAxeH5xAH4AHXQAC1NVQlRSQUNUSU9Oc3EAfgACc3EAfgAHAAAAAncEAAAAAnEAfgA0c3EAfgACc3EAfgAHAAAAAHcEAAAAAHhxAH4AMHNxAH4AAnNxAH4ABwAAAAJ3BAAAAAJzcQB+AAJzcQB+AAcAAAACdwQAAAACc3EAfgACc3EAfgAHAAAAAncEAAAAAnNxAH4AAnNxAH4ABwAAAAB3BAAAAAB4cQB+ADBxAH4AQ3NxAH4AAnNxAH4ABwAAAAJ3BAAAAAJzcQB+AAJzcQB+AAcAAAAAdwQAAAAAeHNxAH4AL0ASAAAAAAAAcQB+AEdzcQB+AAJzcQB+AAcAAAAAdwQAAAAAeHEAfgAzcQB+AEd4fnEAfgAddAAIUFJPVF9MT0dxAH4AQ3hxAH4AOXEAfgBBc3EAfgACc3EAfgAHAAAAAHcEAAAAAHhxAH4AMHEAfgBBeH5xAH4AHXQADk1VTFRJUExJQ0FUSU9OcQB+AD9xAH4APXhxAH4AUnNxAH4AAnNxAH4ABwAAAAJ3BAAAAAJxAH4AP3NxAH4AAnNxAH4ABwAAAAB3BAAAAAB4cQB+ADBxAH4AVHhxAH4AUnB4cQB+AFJzcQB+AAJzcQB+AAcAAAACdwQAAAACcQB+ADtxAH4AVnhxAH4AUnB4cQB+ADlxAH4AKXEAfgA9eHEAfgBScQB+ACdxAH4AVnhxAH4AUnBzcQB+AAJzcQB+AAcAAAACdwQAAAACc3EAfgACc3EAfgAHAAAAAncEAAAAAnNxAH4AAnNxAH4ABwAAAAJ3BAAAAAJzcQB+AAJzcQB+AAcAAAACdwQAAAACc3EAfgACc3EAfgAHAAAAAHcEAAAAAHhzcQB+AA10AAN4MDNxAH4AYHNxAH4AAnNxAH4ABwAAAAB3BAAAAAB4c3EAfgANdAADeDEzcQB+AGB4cQB+AFJxAH4AXnNxAH4AAnNxAH4ABwAAAAJ3BAAAAAJzcQB+AAJzcQB+AAcAAAAAdwQAAAAAeHNxAH4ADXQAA3gxNXEAfgBqc3EAfgACc3EAfgAHAAAAAncEAAAAAnNxAH4AAnNxAH4ABwAAAAJ3BAAAAAJzcQB+AAJzcQB+AAcAAAAAdwQAAAAAeHEAfgBucQB+AHJzcQB+AAJzcQB+AAcAAAAAdwQAAAAAeHEAfgBuc3EAfgACc3EAfgAHAAAAAncEAAAAAnNxAH4AAnNxAH4ABwAAAAB3BAAAAAB4cQB+AGhxAH4AeHEAfgB2eHEAfgBSc3EAfgACc3EAfgAHAAAAAncEAAAAAnEAfgB4c3EAfgACc3EAfgAHAAAAAncEAAAAAnNxAH4AAnNxAH4ABwAAAAJ3BAAAAAJzcQB+AAJzcQB+AAcAAAACdwQAAAACc3EAfgACc3EAfgAHAAAAAHcEAAAAAHhxAH4AbnEAfgCCc3EAfgACc3EAfgAHAAAAAHcEAAAAAHhzcQB+AA10AAN4MDJxAH4AgnhxAH4AUnEAfgCAc3EAfgACc3EAfgAHAAAAAncEAAAAAnNxAH4AAnNxAH4ABwAAAAB3BAAAAAB4cQB+AGhxAH4AinNxAH4AAnNxAH4ABwAAAAB3BAAAAAB4cQB+AGRxAH4AinhxAH4AUnNxAH4AAnNxAH4ABwAAAAJ3BAAAAAJzcQB+AAJzcQB+AAcAAAAAdwQAAAAAeHEAfgBucQB+AJBxAH4AinhxAH4AUnNxAH4AAnNxAH4ABwAAAAJ3BAAAAAJxAH4AkHNxAH4AAnNxAH4ABwAAAAB3BAAAAAB4cQB+AGRzcQB+AAJzcQB+AAcAAAACdwQAAAACc3EAfgACc3EAfgAHAAAAAncEAAAAAnNxAH4AAnNxAH4ABwAAAAJ3BAAAAAJzcQB+AAJzcQB+AAcAAAAAdwQAAAAAeHEAfgBucQB+AJxzcQB+AAJzcQB+AAcAAAAAdwQAAAAAeHEAfgCIcQB+AJx4cQB+AFJxAH4AmnNxAH4AAnNxAH4ABwAAAAB3BAAAAAB4cQB+AGRxAH4AmnhxAH4AUnEAfgCYcQB+AJZ4cQB+AFJzcQB+AAJzcQB+AAcAAAACdwQAAAACc3EAfgACc3EAfgAHAAAAAncEAAAAAnNxAH4AAnNxAH4ABwAAAAB3BAAAAAB4cQB+AG5xAH4ApnNxAH4AAnNxAH4ABwAAAAB3BAAAAAB4cQB+AG5xAH4ApnhxAH4AUnEAfgCkcQB+AJh4cQB+AFJzcQB+AAJzcQB+AAcAAAACdwQAAAACc3EAfgACc3EAfgAHAAAAAncEAAAAAnNxAH4AAnNxAH4ABwAAAAB3BAAAAAB4cQB+AG5xAH4ArnNxAH4AAnNxAH4ABwAAAAB3BAAAAAB4cQB+AIhxAH4ArnhxAH4AUnEAfgCscQB+AKR4cQB+AFJzcQB+AAJzcQB+AAcAAAACdwQAAAACc3EAfgACc3EAfgAHAAAAAncEAAAAAnNxAH4AAnNxAH4ABwAAAAB3BAAAAAB4cQB+AGRxAH4AtnNxAH4AAnNxAH4ABwAAAAB3BAAAAAB4cQB+AGhxAH4AtnhxAH4AUnEAfgC0cQB+AKx4cQB+AFJzcQB+AAJzcQB+AAcAAAACdwQAAAACcQB+ALRzcQB+AAJzcQB+AAcAAAAAdwQAAAAAeHEAfgCIc3EAfgACc3EAfgAHAAAAAncEAAAAAnNxAH4AAnNxAH4ABwAAAAJ3BAAAAAJzcQB+AAJzcQB+AAcAAAACdwQAAAACc3EAfgACc3EAfgAHAAAAAHcEAAAAAHhxAH4AbnEAfgDEc3EAfgACc3EAfgAHAAAAAHcEAAAAAHhzcQB+AA10AAN4MTBxAH4AxHhxAH4AUnEAfgDCc3EAfgACc3EAfgAHAAAAAHcEAAAAAHhxAH4AiHEAfgDCeHEAfgBScQB+AMBxAH4AvnhxAH4AUnNxAH4AAnNxAH4ABwAAAAJ3BAAAAAJxAH4AwHNxAH4AAnNxAH4ABwAAAAB3BAAAAAB4cQB+AMpxAH4AznhxAH4AUnB4cQB+AFJzcQB+AAJzcQB+AAcAAAACdwQAAAACcQB+ALxxAH4A0HhxAH4AUnB4cQB+AFJzcQB+AAJzcQB+AAcAAAACdwQAAAACc3EAfgACc3EAfgAHAAAAAncEAAAAAnNxAH4AAnNxAH4ABwAAAAB3BAAAAAB4cQB+AG5xAH4A1nNxAH4AAnNxAH4ABwAAAAB3BAAAAAB4cQB+AG5xAH4A1nhxAH4AUnEAfgDUcQB+AJR4cQB+AFJzcQB+AAJzcQB+AAcAAAACdwQAAAACc3EAfgACc3EAfgAHAAAAAHcEAAAAAHhxAH4AiHEAfgDccQB+ANR4cQB+AFJzcQB+AAJzcQB+AAcAAAACdwQAAAACc3EAfgACc3EAfgAHAAAAAncEAAAAAnNxAH4AAnNxAH4ABwAAAAB3BAAAAAB4cQB+AGRxAH4A4nNxAH4AAnNxAH4ABwAAAAB3BAAAAAB4cQB+AGhxAH4A4nhxAH4AUnEAfgDgcQB+ANx4cQB+AFJzcQB+AAJzcQB+AAcAAAACdwQAAAACcQB+AOBxAH4AvnhxAH4AUnNxAH4AAnNxAH4ABwAAAAJ3BAAAAAJxAH4A6HEAfgDQeHEAfgBScHhxAH4AUnEAfgB+cQB+AJZ4cQB+AFJzcQB+AAJzcQB+AAcAAAACdwQAAAACc3EAfgACc3EAfgAHAAAAAHcEAAAAAHhxAH4AZHEAfgDscQB+AH54cQB+AFJzcQB+AAJzcQB+AAcAAAACdwQAAAACc3EAfgACc3EAfgAHAAAAAncEAAAAAnNxAH4AAnNxAH4ABwAAAAB3BAAAAAB4cQB+AG5xAH4A8nNxAH4AAnNxAH4ABwAAAAB3BAAAAAB4cQB+AIhxAH4A8nhxAH4AUnEAfgDwcQB+AOx4cQB+AFJzcQB+AAJzcQB+AAcAAAACdwQAAAACc3EAfgACc3EAfgAHAAAAAncEAAAAAnNxAH4AAnNxAH4ABwAAAAB3BAAAAAB4cQB+AGRxAH4A+nNxAH4AAnNxAH4ABwAAAAB3BAAAAAB4cQB+AGhxAH4A+nhxAH4AUnEAfgD4cQB+APB4cQB+AFJzcQB+AAJzcQB+AAcAAAACdwQAAAACcQB+APhxAH4AvnhxAH4AUnNxAH4AAnNxAH4ABwAAAAJ3BAAAAAJxAH4BAHEAfgDQeHEAfgBScHhxAH4AUnNxAH4AAnNxAH4ABwAAAAJ3BAAAAAJzcQB+AAJzcQB+AAcAAAAAdwQAAAAAeHEAfgCIcQB+AQRxAH4AfHhxAH4AUnNxAH4AAnNxAH4ABwAAAAJ3BAAAAAJzcQB+AAJzcQB+AAcAAAACdwQAAAACc3EAfgACc3EAfgAHAAAAAHcEAAAAAHhxAH4AZHEAfgEKc3EAfgACc3EAfgAHAAAAAHcEAAAAAHhxAH4AynEAfgEKeHEAfgBScQB+AQhxAH4BBHhxAH4AUnNxAH4AAnNxAH4ABwAAAAJ3BAAAAAJxAH4BCHEAfgC+eHEAfgBSc3EAfgACc3EAfgAHAAAAAncEAAAAAnEAfgEQcQB+ANB4cQB+AFJweHEAfgBScQB+AHBxAH4AfnhxAH4AUnNxAH4AAnNxAH4ABwAAAAJ3BAAAAAJzcQB+AAJzcQB+AAcAAAAAdwQAAAAAeHEAfgCIcQB+ARRxAH4AcHhxAH4AUnNxAH4AAnNxAH4ABwAAAAJ3BAAAAAJzcQB+AAJzcQB+AAcAAAACdwQAAAACc3EAfgACc3EAfgAHAAAAAHcEAAAAAHhxAH4AZHEAfgEac3EAfgACc3EAfgAHAAAAAHcEAAAAAHhxAH4AaHEAfgEaeHEAfgBScQB+ARhxAH4BFHhxAH4AUnNxAH4AAnNxAH4ABwAAAAJ3BAAAAAJxAH4BGHEAfgC+eHEAfgBSc3EAfgACc3EAfgAHAAAAAncEAAAAAnEAfgEgcQB+ANB4cQB+AFJweHEAfgBScQB+AF54cQB+AFJxAH4AXHEAfgC+eHEAfgBScQB+AFpxAH4A0HhxAH4AUnBzcQB+AAJzcQB+AAcAAAACdwQAAAACc3EAfgACc3EAfgAHAAAAAHcEAAAAAHhzcQB+AA10AAN4MDRxAH4BJHNxAH4AAnNxAH4ABwAAAAB3BAAAAAB4c3EAfgAvQAAAAAAAAABzcQB+AAJzcQB+AAcAAAACdwQAAAACc3EAfgACc3EAfgAHAAAAAHcEAAAAAHhxAH4BLHEAfgEtcQB+ASp4fnEAfgAddAANUFJPVF9ESVZJU0lPTnB4cQB+ATFweA==";
    "rO0ABXNyABFqYXZhLnV0aWwuQ29sbFNlcleOq7Y6G6gRAwABSQADdGFneHAAAAAEdwQAAAAEc3IAN2lvLmdpdGh1Yi5lcmljbWVkdmV0LmpnZWEuY29yZS5yZXByZXNlbnRhdGlvbi50cmVlLlRyZWUKs7/qnQrEZQIAA0wACGNoaWxkcmVudAAQTGphdmEvdXRpbC9MaXN0O0wAB2NvbnRlbnR0ABJMamF2YS9sYW5nL09iamVjdDtMAAZwYXJlbnR0ADlMaW8vZ2l0aHViL2VyaWNtZWR2ZXQvamdlYS9jb3JlL3JlcHJlc2VudGF0aW9uL3RyZWUvVHJlZTt4cHNyABNqYXZhLnV0aWwuQXJyYXlMaXN0eIHSHZnHYZ0DAAFJAARzaXpleHAAAAACdwQAAAACc3EAfgACc3EAfgAHAAAAAncEAAAAAnNxAH4AAnNxAH4ABwAAAAB3BAAAAAB4c3IAS2lvLmdpdGh1Yi5lcmljbWVkdmV0LmpnZWEuY29yZS5yZXByZXNlbnRhdGlvbi50cmVlLm51bWVyaWMuRWxlbWVudCRWYXJpYWJsZQAAAAAAAAAAAgABTAAEbmFtZXQAEkxqYXZhL2xhbmcvU3RyaW5nO3hwdAADeDAxcQB+AAlzcQB+AAJzcQB+AAcAAAAAdwQAAAAAeHEAfgAPc3EAfgACc3EAfgAHAAAAAncEAAAAAnNxAH4AAnNxAH4ABwAAAAJ3BAAAAAJzcQB+AAJzcQB+AAcAAAAAdwQAAAAAeHEAfgAPcQB+ABVzcQB+AAJzcQB+AAcAAAAAdwQAAAAAeHEAfgAPcQB+ABV4fnIAS2lvLmdpdGh1Yi5lcmljbWVkdmV0LmpnZWEuY29yZS5yZXByZXNlbnRhdGlvbi50cmVlLm51bWVyaWMuRWxlbWVudCRPcGVyYXRvcgAAAAAAAAAAEgAAeHIADmphdmEubGFuZy5FbnVtAAAAAAAAAAASAAB4cHQACEFERElUSU9OcQB+ABNxAH4AEXhxAH4AHXNxAH4AAnNxAH4ABwAAAAJ3BAAAAAJxAH4AE3NxAH4AAnNxAH4ABwAAAAB3BAAAAAB4cQB+AA9xAH4AH3hxAH4AHXB4cQB+AB1xAH4ABnEAfgAheHEAfgAdcHNxAH4AAnNxAH4ABwAAAAJ3BAAAAAJzcQB+AAJzcQB+AAcAAAACdwQAAAACc3EAfgACc3EAfgAHAAAAAncEAAAAAnNxAH4AAnNxAH4ABwAAAAJ3BAAAAAJzcQB+AAJzcQB+AAcAAAACdwQAAAACc3EAfgACc3EAfgAHAAAAAHcEAAAAAHhzcgBLaW8uZ2l0aHViLmVyaWNtZWR2ZXQuamdlYS5jb3JlLnJlcHJlc2VudGF0aW9uLnRyZWUubnVtZXJpYy5FbGVtZW50JENvbnN0YW50AAAAAAAAAAACAAFEAAV2YWx1ZXhwP+AAAAAAAABxAH4AK3NxAH4AAnNxAH4ABwAAAAB3BAAAAAB4cQB+ADBzcQB+AAJzcQB+AAcAAAACdwQAAAACc3EAfgACc3EAfgAHAAAAAHcEAAAAAHhzcQB+AC9AEgAAAAAAAHEAfgAzcQB+ADF4fnEAfgAbdAAIUFJPVF9MT0dzcQB+AAJzcQB+AAcAAAACdwQAAAACcQB+ADNzcQB+AAJzcQB+AAcAAAAAdwQAAAAAeHEAfgAwc3EAfgACc3EAfgAHAAAAAncEAAAAAnNxAH4AAnNxAH4ABwAAAAJ3BAAAAAJzcQB+AAJzcQB+AAcAAAAAdwQAAAAAeHNxAH4ALwAAAAAAAAAAcQB+AEBzcQB+AAJzcQB+AAcAAAACdwQAAAACc3EAfgACc3EAfgAHAAAAAHcEAAAAAHhzcQB+AA10AAN4MDVxAH4ARXNxAH4AAnNxAH4ABwAAAAB3BAAAAAB4cQB+ADBxAH4ARXhxAH4AOHEAfgBAeH5xAH4AG3QAC1NVQlRSQUNUSU9OcQB+AD5xAH4APHhxAH4AOHNxAH4AAnNxAH4ABwAAAAJ3BAAAAAJxAH4APnNxAH4AAnNxAH4ABwAAAAB3BAAAAAB4cQB+ADBzcQB+AAJzcQB+AAcAAAACdwQAAAACc3EAfgACc3EAfgAHAAAAAHcEAAAAAHhzcQB+AA10AAN4MTRxAH4AU3EAfgBReHEAfgA4c3EAfgACc3EAfgAHAAAAAncEAAAAAnEAfgBTc3EAfgACc3EAfgAHAAAAAHcEAAAAAHhxAH4ARHEAfgBZeH5xAH4AG3QADVBST1RfRElWSVNJT05zcQB+AAJzcQB+AAcAAAACdwQAAAACcQB+AFlzcQB+AAJzcQB+AAcAAAAAdwQAAAAAeHEAfgAwc3EAfgACc3EAfgAHAAAAAncEAAAAAnNxAH4AAnNxAH4ABwAAAAJ3BAAAAAJzcQB+AAJzcQB+AAcAAAACdwQAAAACc3EAfgACc3EAfgAHAAAAAncEAAAAAnNxAH4AAnNxAH4ABwAAAAJ3BAAAAAJzcQB+AAJzcQB+AAcAAAAAdwQAAAAAeHEAfgBXcQB+AGtzcQB+AAJzcQB+AAcAAAAAdwQAAAAAeHEAfgBXcQB+AGt4cQB+ADhxAH4AaXNxAH4AAnNxAH4ABwAAAAB3BAAAAAB4cQB+AFdxAH4AaXhxAH4AOHEAfgBnc3EAfgACc3EAfgAHAAAAAncEAAAAAnNxAH4AAnNxAH4ABwAAAAB3BAAAAAB4c3EAfgAvP/AAAAAAAABxAH4Ac3NxAH4AAnNxAH4ABwAAAAJ3BAAAAAJzcQB+AAJzcQB+AAcAAAAAdwQAAAAAeHEAfgBEcQB+AHhzcQB+AAJzcQB+AAcAAAACdwQAAAACc3EAfgACc3EAfgAHAAAAAHcEAAAAAHhxAH4AN3EAfgB8c3EAfgACc3EAfgAHAAAAAHcEAAAAAHhxAH4AMHNxAH4AAnNxAH4ABwAAAAJ3BAAAAAJzcQB+AAJzcQB+AAcAAAAAdwQAAAAAeHEAfgB3cQB+AIJxAH4AgHhxAH4AOHNxAH4AAnNxAH4ABwAAAAJ3BAAAAAJzcQB+AAJzcQB+AAcAAAAAdwQAAAAAeHEAfgBEcQB+AIZxAH4AgnhxAH4ATXNxAH4AAnNxAH4ABwAAAAJ3BAAAAAJzcQB+AAJzcQB+AAcAAAAAdwQAAAAAeHEAfgB3cQB+AIpxAH4Ahnh+cQB+ABt0AA5NVUxUSVBMSUNBVElPTnNxAH4AAnNxAH4ABwAAAAJ3BAAAAAJzcQB+AAJzcQB+AAcAAAACdwQAAAACc3EAfgACc3EAfgAHAAAAAHcEAAAAAHhxAH4AV3EAfgCSc3EAfgACc3EAfgAHAAAAAHcEAAAAAHhxAH4AV3EAfgCSeHEAfgA4cQB+AJBxAH4AinhxAH4AjnNxAH4AAnNxAH4ABwAAAAJ3BAAAAAJxAH4AkHNxAH4AAnNxAH4ABwAAAAB3BAAAAAB4cQB+AERxAH4AZXhxAH4AjnNxAH4AAnNxAH4ABwAAAAJ3BAAAAAJxAH4AmHEAfgBheHEAfgA4cHhxAH4AOHNxAH4AAnNxAH4ABwAAAAJ3BAAAAAJzcQB+AAJzcQB+AAcAAAACdwQAAAACc3EAfgACc3EAfgAHAAAAAHcEAAAAAHhxAH4ARHEAfgCgc3EAfgACc3EAfgAHAAAAAHcEAAAAAHhxAH4ARHEAfgCgeHEAfgBNcQB+AJ5xAH4AfHhxAH4ATXNxAH4AAnNxAH4ABwAAAAJ3BAAAAAJzcQB+AAJzcQB+AAcAAAAAdwQAAAAAeHEAfgB3cQB+AKZxAH4AnnhxAH4AjnNxAH4AAnNxAH4ABwAAAAJ3BAAAAAJzcQB+AAJzcQB+AAcAAAACdwQAAAACc3EAfgACc3EAfgAHAAAAAncEAAAAAnNxAH4AAnNxAH4ABwAAAAB3BAAAAAB4cQB+ADdxAH4ArnNxAH4AAnNxAH4ABwAAAAB3BAAAAAB4cQB+ADBxAH4ArnhxAH4AOHEAfgCsc3EAfgACc3EAfgAHAAAAAHcEAAAAAHhxAH4AV3EAfgCseHEAfgA4cQB+AKpxAH4ApnhxAH4AjnNxAH4AAnNxAH4ABwAAAAJ3BAAAAAJxAH4AqnEAfgCaeHEAfgCOc3EAfgACc3EAfgAHAAAAAncEAAAAAnEAfgC2cQB+AGF4cQB+ADhweHEAfgBNc3EAfgACc3EAfgAHAAAAAncEAAAAAnNxAH4AAnNxAH4ABwAAAAB3BAAAAAB4cQB+ADdxAH4AunEAfgB4eHEAfgCOc3EAfgACc3EAfgAHAAAAAncEAAAAAnNxAH4AAnNxAH4ABwAAAAJ3BAAAAAJzcQB+AAJzcQB+AAcAAAACdwQAAAACc3EAfgACc3EAfgAHAAAAAHcEAAAAAHhxAH4AN3EAfgDCc3EAfgACc3EAfgAHAAAAAHcEAAAAAHhxAH4AMHEAfgDCeHEAfgA4cQB+AMBzcQB+AAJzcQB+AAcAAAAAdwQAAAAAeHEAfgBXcQB+AMB4cQB+ADhxAH4AvnEAfgC6eHEAfgCOc3EAfgACc3EAfgAHAAAAAncEAAAAAnEAfgC+cQB+AJp4cQB+AI5zcQB+AAJzcQB+AAcAAAACdwQAAAACcQB+AMpxAH4AYXhxAH4AOHB4cQB+AI5xAH4AZ3hxAH4AjnEAfgBlcQB+AJp4cQB+AI5xAH4AY3EAfgBheHEAfgA4cHhxAH4AOHB4cQB+ADhzcQB+AAJzcQB+AAcAAAACdwQAAAACcQB+AE9xAH4AW3hxAH4AXXNxAH4AAnNxAH4ABwAAAAJ3BAAAAAJxAH4AznEAfgBheHEAfgA4cHhxAH4AOHNxAH4AAnNxAH4ABwAAAAJ3BAAAAAJxAH4AOnEAfgBReHEAfgA4c3EAfgACc3EAfgAHAAAAAncEAAAAAnEAfgDScQB+AFt4cQB+AF1zcQB+AAJzcQB+AAcAAAACdwQAAAACcQB+ANRxAH4AYXhxAH4AOHB4cQB+ADhxAH4AKXEAfgA8eHEAfgA4cQB+ACdxAH4AUXhxAH4AOHEAfgAlcQB+AFt4cQB+AF1xAH4AI3EAfgBheHEAfgA4cHNxAH4AAnNxAH4ABwAAAAJ3BAAAAAJzcQB+AAJzcQB+AAcAAAACdwQAAAACc3EAfgACc3EAfgAHAAAAAncEAAAAAnNxAH4AAnNxAH4ABwAAAAJ3BAAAAAJzcQB+AAJzcQB+AAcAAAACdwQAAAACc3EAfgACc3EAfgAHAAAAAncEAAAAAnNxAH4AAnNxAH4ABwAAAAJ3BAAAAAJzcQB+AAJzcQB+AAcAAAAAdwQAAAAAeHNxAH4ADXQAA3gxNXEAfgDkc3EAfgACc3EAfgAHAAAAAHcEAAAAAHhzcQB+AA10AAN4MDJzcQB+AAJzcQB+AAcAAAACdwQAAAACc3EAfgACc3EAfgAHAAAAAHcEAAAAAHhzcQB+AA10AAN4MTBxAH4A7nEAfgDqeHEAfgCOc3EAfgACc3EAfgAHAAAAAncEAAAAAnEAfgDuc3EAfgACc3EAfgAHAAAAAncEAAAAAnNxAH4AAnNxAH4ABwAAAAB3BAAAAAB4c3EAfgANdAADeDEzcQB+APZzcQB+AAJzcQB+AAcAAAAAdwQAAAAAeHEAfgDsc3EAfgACc3EAfgAHAAAAAncEAAAAAnNxAH4AAnNxAH4ABwAAAAB3BAAAAAB4cQB+AOxxAH4A/nEAfgD8eHEAfgCOc3EAfgACc3EAfgAHAAAAAncEAAAAAnNxAH4AAnNxAH4ABwAAAAJ3BAAAAAJzcQB+AAJzcQB+AAcAAAAAdwQAAAAAeHEAfgDocQB+AQRzcQB+AAJzcQB+AAcAAAAAdwQAAAAAeHEAfgDscQB+AQR4cQB+AI5xAH4BAnEAfgD+eHEAfgCOc3EAfgACc3EAfgAHAAAAAncEAAAAAnEAfgECc3EAfgACc3EAfgAHAAAAAHcEAAAAAHhxAH4A7HNxAH4AAnNxAH4ABwAAAAJ3BAAAAAJzcQB+AAJzcQB+AAcAAAACdwQAAAACc3EAfgACc3EAfgAHAAAAAHcEAAAAAHhxAH4A6HEAfgEQcQB+APZ4cQB+AI5xAH4BDnEAfgEMeHEAfgCOc3EAfgACc3EAfgAHAAAAAncEAAAAAnEAfgEOc3EAfgACc3EAfgAHAAAAAHcEAAAAAHhxAH4A7HEAfgEUeHEAfgCOc3EAfgACc3EAfgAHAAAAAncEAAAAAnEAfgEUc3EAfgACc3EAfgAHAAAAAncEAAAAAnNxAH4AAnNxAH4ABwAAAAJ3BAAAAAJzcQB+AAJzcQB+AAcAAAAAdwQAAAAAeHEAfgDocQB+ARxzcQB+AAJzcQB+AAcAAAAAdwQAAAAAeHEAfgDscQB+ARx4cQB+AI5xAH4BGnNxAH4AAnNxAH4ABwAAAAJ3BAAAAAJzcQB+AAJzcQB+AAcAAAACdwQAAAACc3EAfgACc3EAfgAHAAAAAHcEAAAAAHhxAH4A6HEAfgEkc3EAfgACc3EAfgAHAAAAAHcEAAAAAHhxAH4A6HEAfgEkeHEAfgCOcQB+ASJzcQB+AAJzcQB+AAcAAAACdwQAAAACc3EAfgACc3EAfgAHAAAAAncEAAAAAnNxAH4AAnNxAH4ABwAAAAJ3BAAAAAJzcQB+AAJzcQB+AAcAAAAAdwQAAAAAeHEAfgDocQB+AS5zcQB+AAJzcQB+AAcAAAAAdwQAAAAAeHEAfgDscQB+AS54cQB+AI5xAH4BLHNxAH4AAnNxAH4ABwAAAAB3BAAAAAB4cQB+AOxxAH4BLHhxAH4AjnEAfgEqc3EAfgACc3EAfgAHAAAAAHcEAAAAAHhzcQB+AA10AAN4MDNzcQB+AAJzcQB+AAcAAAACdwQAAAACc3EAfgACc3EAfgAHAAAAAncEAAAAAnNxAH4AAnNxAH4ABwAAAAJ3BAAAAAJzcQB+AAJzcQB+AAcAAAAAdwQAAAAAeHEAfgDocQB+AT5zcQB+AAJzcQB+AAcAAAAAdwQAAAAAeHEAfgDscQB+AT54cQB+AI5xAH4BPHNxAH4AAnNxAH4ABwAAAAB3BAAAAAB4cQB+AThxAH4BPHhxAH4AjnEAfgE6cQB+ATZ4cQB+AI5zcQB+AAJzcQB+AAcAAAACdwQAAAACc3EAfgACc3EAfgAHAAAAAncEAAAAAnNxAH4AAnNxAH4ABwAAAAB3BAAAAAB4cQB+AOhxAH4BSHNxAH4AAnNxAH4ABwAAAAB3BAAAAAB4cQB+AOhxAH4BSHhxAH4AjnEAfgFGcQB+ATp4cQB+AI5zcQB+AAJzcQB+AAcAAAACdwQAAAACc3EAfgACc3EAfgAHAAAAAncEAAAAAnNxAH4AAnNxAH4ABwAAAAB3BAAAAAB4cQB+AOhxAH4BUHNxAH4AAnNxAH4ABwAAAAB3BAAAAAB4cQB+AOxxAH4BUHhxAH4AjnEAfgFOcQB+AUZ4cQB+AI5zcQB+AAJzcQB+AAcAAAACdwQAAAACc3EAfgACc3EAfgAHAAAAAncEAAAAAnNxAH4AAnNxAH4ABwAAAAB3BAAAAAB4cQB+AThxAH4BWHNxAH4AAnNxAH4ABwAAAAB3BAAAAAB4cQB+APpxAH4BWHhxAH4AjnEAfgFWcQB+AU54cQB+AI5zcQB+AAJzcQB+AAcAAAACdwQAAAACcQB+AVZzcQB+AAJzcQB+AAcAAAAAdwQAAAAAeHEAfgDsc3EAfgACc3EAfgAHAAAAAncEAAAAAnNxAH4AAnNxAH4ABwAAAAJ3BAAAAAJzcQB+AAJzcQB+AAcAAAACdwQAAAACc3EAfgACc3EAfgAHAAAAAHcEAAAAAHhxAH4A6HEAfgFmc3EAfgACc3EAfgAHAAAAAHcEAAAAAHhxAH4A8nEAfgFmeHEAfgCOcQB+AWRzcQB+AAJzcQB+AAcAAAAAdwQAAAAAeHEAfgDscQB+AWR4cQB+AI5xAH4BYnEAfgFgeHEAfgCOc3EAfgACc3EAfgAHAAAAAncEAAAAAnEAfgFic3EAfgACc3EAfgAHAAAAAHcEAAAAAHhxAH4A8nEAfgFueHEAfgCOcHhxAH4AjnNxAH4AAnNxAH4ABwAAAAJ3BAAAAAJxAH4BXnEAfgFweHEAfgCOcHhxAH4AjnNxAH4AAnNxAH4ABwAAAAJ3BAAAAAJzcQB+AAJzcQB+AAcAAAAAdwQAAAAAeHEAfgDscQB+AXRxAH4BKnhxAH4AjnNxAH4AAnNxAH4ABwAAAAJ3BAAAAAJzcQB+AAJzcQB+AAcAAAACdwQAAAACc3EAfgACc3EAfgAHAAAAAHcEAAAAAHhxAH4A6HEAfgF6c3EAfgACc3EAfgAHAAAAAHcEAAAAAHhxAH4A7HEAfgF6eHEAfgCOcQB+AXhxAH4BdHhxAH4AjnNxAH4AAnNxAH4ABwAAAAJ3BAAAAAJzcQB+AAJzcQB+AAcAAAACdwQAAAACc3EAfgACc3EAfgAHAAAAAncEAAAAAnNxAH4AAnNxAH4ABwAAAAJ3BAAAAAJzcQB+AAJzcQB+AAcAAAACdwQAAAACc3EAfgACc3EAfgAHAAAAAHcEAAAAAHhxAH4A6HEAfgGIc3EAfgACc3EAfgAHAAAAAHcEAAAAAHhxAH4A7HEAfgGIeHEAfgCOcQB+AYZzcQB+AAJzcQB+AAcAAAACdwQAAAACc3EAfgACc3EAfgAHAAAAAHcEAAAAAHhxAH4A+nEAfgGOc3EAfgACc3EAfgAHAAAAAHcEAAAAAHhxAH4A7HEAfgGOeHEAfgCOcQB+AYZ4cQB+AI5xAH4BhHNxAH4AAnNxAH4ABwAAAAB3BAAAAAB4cQB+AOxxAH4BhHhxAH4AjnEAfgGCc3EAfgACc3EAfgAHAAAAAHcEAAAAAHhxAH4A7HEAfgGCeHEAfgCOcQB+AYBxAH4BeHhxAH4AjnNxAH4AAnNxAH4ABwAAAAJ3BAAAAAJxAH4BgHEAfgFgeHEAfgCOc3EAfgACc3EAfgAHAAAAAncEAAAAAnEAfgGYcQB+AXB4cQB+AI5weHEAfgCOcQB+ARp4cQB+AI5xAH4BGHhxAH4AjnNxAH4AAnNxAH4ABwAAAAJ3BAAAAAJxAH4BGHEAfgFgeHEAfgCOc3EAfgACc3EAfgAHAAAAAncEAAAAAnEAfgGccQB+AXB4cQB+AI5weHEAfgCOc3EAfgACc3EAfgAHAAAAAncEAAAAAnEAfgEKcQB+ARZ4cQB+AI5zcQB+AAJzcQB+AAcAAAACdwQAAAACcQB+AaBxAH4BGnhxAH4AjnNxAH4AAnNxAH4ABwAAAAJ3BAAAAAJxAH4BonEAfgFgeHEAfgCOc3EAfgACc3EAfgAHAAAAAncEAAAAAnEAfgGkcQB+AXB4cQB+AI5weHEAfgCOcQB+ARB4cQB+AI5zcQB+AAJzcQB+AAcAAAACdwQAAAACcQB+APRxAH4BDHhxAH4AjnNxAH4AAnNxAH4ABwAAAAJ3BAAAAAJxAH4BqHEAfgEWeHEAfgCOc3EAfgACc3EAfgAHAAAAAncEAAAAAnEAfgGqcQB+ARp4cQB+AI5zcQB+AAJzcQB+AAcAAAACdwQAAAACcQB+AaxxAH4BYHhxAH4AjnNxAH4AAnNxAH4ABwAAAAJ3BAAAAAJxAH4BrnEAfgFweHEAfgCOcHhxAH4AjnEAfgDicQB+APZ4cQB+AI5xAH4A4HEAfgEMeHEAfgCOcQB+AN5xAH4BFnhxAH4AjnEAfgDccQB+ARp4cQB+AI5xAH4A2nEAfgFgeHEAfgCOcQB+ANhxAH4BcHhxAH4AjnBzcQB+AAJzcQB+AAcAAAACdwQAAAACc3EAfgACc3EAfgAHAAAAAHcEAAAAAHhzcQB+AA10AAN4MDRxAH4BsnNxAH4AAnNxAH4ABwAAAAB3BAAAAAB4c3EAfgAvQAAAAAAAAABzcQB+AAJzcQB+AAcAAAACdwQAAAACc3EAfgACc3EAfgAHAAAAAHcEAAAAAHhxAH4BunEAfgG7cQB+Abh4cQB+AF1weHEAfgBdcHg=";
    "rO0ABXNyABFqYXZhLnV0aWwuQ29sbFNlcleOq7Y6G6gRAwABSQADdGFneHAAAAAEdwQAAAAEc3IAN2lvLmdpdGh1Yi5lcmljbWVkdmV0LmpnZWEuY29yZS5yZXByZXNlbnRhdGlvbi50cmVlLlRyZWUKs7/qnQrEZQIAA0wACGNoaWxkcmVudAAQTGphdmEvdXRpbC9MaXN0O0wAB2NvbnRlbnR0ABJMamF2YS9sYW5nL09iamVjdDtMAAZwYXJlbnR0ADlMaW8vZ2l0aHViL2VyaWNtZWR2ZXQvamdlYS9jb3JlL3JlcHJlc2VudGF0aW9uL3RyZWUvVHJlZTt4cHNyABNqYXZhLnV0aWwuQXJyYXlMaXN0eIHSHZnHYZ0DAAFJAARzaXpleHAAAAACdwQAAAACc3EAfgACc3EAfgAHAAAAAncEAAAAAnNxAH4AAnNxAH4ABwAAAAB3BAAAAAB4c3IAS2lvLmdpdGh1Yi5lcmljbWVkdmV0LmpnZWEuY29yZS5yZXByZXNlbnRhdGlvbi50cmVlLm51bWVyaWMuRWxlbWVudCRWYXJpYWJsZQAAAAAAAAAAAgABTAAEbmFtZXQAEkxqYXZhL2xhbmcvU3RyaW5nO3hwdAADeDAxcQB+AAlzcQB+AAJzcQB+AAcAAAAAdwQAAAAAeHEAfgAPc3EAfgACc3EAfgAHAAAAAncEAAAAAnNxAH4AAnNxAH4ABwAAAAJ3BAAAAAJzcQB+AAJzcQB+AAcAAAAAdwQAAAAAeHEAfgAPcQB+ABVzcQB+AAJzcQB+AAcAAAAAdwQAAAAAeHEAfgAPcQB+ABV4fnIAS2lvLmdpdGh1Yi5lcmljbWVkdmV0LmpnZWEuY29yZS5yZXByZXNlbnRhdGlvbi50cmVlLm51bWVyaWMuRWxlbWVudCRPcGVyYXRvcgAAAAAAAAAAEgAAeHIADmphdmEubGFuZy5FbnVtAAAAAAAAAAASAAB4cHQACEFERElUSU9OcQB+ABNxAH4AEXhxAH4AHXNxAH4AAnNxAH4ABwAAAAJ3BAAAAAJxAH4AE3NxAH4AAnNxAH4ABwAAAAB3BAAAAAB4cQB+AA9xAH4AH3hxAH4AHXB4cQB+AB1xAH4ABnEAfgAheHEAfgAdcHNxAH4AAnNxAH4ABwAAAAB3BAAAAAB4c3IAS2lvLmdpdGh1Yi5lcmljbWVkdmV0LmpnZWEuY29yZS5yZXByZXNlbnRhdGlvbi50cmVlLm51bWVyaWMuRWxlbWVudCRDb25zdGFudAAAAAAAAAAAAgABRAAFdmFsdWV4cAAAAAAAAAAAcHNxAH4AAnNxAH4ABwAAAAJ3BAAAAAJzcQB+AAJzcQB+AAcAAAACdwQAAAACc3EAfgACc3EAfgAHAAAAAncEAAAAAnNxAH4AAnNxAH4ABwAAAAB3BAAAAAB4c3EAfgAlQAgAAAAAAABxAH4AK3NxAH4AAnNxAH4ABwAAAAB3BAAAAAB4cQB+AC9zcQB+AAJzcQB+AAcAAAACdwQAAAACc3EAfgACc3EAfgAHAAAAAncEAAAAAnNxAH4AAnNxAH4ABwAAAAJ3BAAAAAJzcQB+AAJzcQB+AAcAAAACdwQAAAACc3EAfgACc3EAfgAHAAAAAHcEAAAAAHhzcQB+AA10AAN4MTVxAH4AOHNxAH4AAnNxAH4ABwAAAAB3BAAAAAB4c3EAfgANdAADeDAycQB+ADh4fnEAfgAbdAAOTVVMVElQTElDQVRJT05xAH4ANnNxAH4AAnNxAH4ABwAAAAB3BAAAAAB4cQB+AEBxAH4ANnhxAH4AQnEAfgA0c3EAfgACc3EAfgAHAAAAAHcEAAAAAHhzcQB+AA10AAN4MDNxAH4ANHhxAH4AQnEAfgAycQB+ADB4fnEAfgAbdAALU1VCVFJBQ1RJT05zcQB+AAJzcQB+AAcAAAACdwQAAAACcQB+ADJzcQB+AAJzcQB+AAcAAAACdwQAAAACc3EAfgACc3EAfgAHAAAAAHcEAAAAAHhxAH4AL3EAfgBOc3EAfgACc3EAfgAHAAAAAHcEAAAAAHhzcQB+AA10AAN4MDRxAH4ATnhxAH4ASnNxAH4AAnNxAH4ABwAAAAJ3BAAAAAJzcQB+AAJzcQB+AAcAAAAAdwQAAAAAeHEAfgA8cQB+AFZxAH4ATnhxAH4AQnNxAH4AAnNxAH4ABwAAAAJ3BAAAAAJxAH4AVnNxAH4AAnNxAH4ABwAAAAJ3BAAAAAJzcQB+AAJzcQB+AAcAAAACdwQAAAACc3EAfgACc3EAfgAHAAAAAHcEAAAAAHhxAH4AL3EAfgBec3EAfgACc3EAfgAHAAAAAHcEAAAAAHhxAH4AL3EAfgBeeHEAfgBKcQB+AFxzcQB+AAJzcQB+AAcAAAACdwQAAAACc3EAfgACc3EAfgAHAAAAAHcEAAAAAHhxAH4AL3EAfgBkc3EAfgACc3EAfgAHAAAAAHcEAAAAAHhxAH4AVHEAfgBkeHEAfgBKcQB+AFx4cQB+AEJxAH4AWnhxAH4AQnB4cQB+AEJzcQB+AAJzcQB+AAcAAAACdwQAAAACcQB+AExxAH4AXHhxAH4AQnB4cQB+AEpxAH4AKXEAfgBOeHEAfgBCcQB+ACdxAH4AXHhxAH4AQnBzcQB+AAJzcQB+AAcAAAACdwQAAAACc3EAfgACc3EAfgAHAAAAAHcEAAAAAHhxAH4AVHEAfgBsc3EAfgACc3EAfgAHAAAAAHcEAAAAAHhzcQB+ACVAAAAAAAAAAHNxAH4AAnNxAH4ABwAAAAJ3BAAAAAJzcQB+AAJzcQB+AAcAAAAAdwQAAAAAeHEAfgBycQB+AHNxAH4AcHh+cQB+ABt0AA1QUk9UX0RJVklTSU9OcHhxAH4Ad3B4";
    "rO0ABXNyABFqYXZhLnV0aWwuQ29sbFNlcleOq7Y6G6gRAwABSQADdGFneHAAAAAEdwQAAAAEc3IAN2lvLmdpdGh1Yi5lcmljbWVkdmV0LmpnZWEuY29yZS5yZXByZXNlbnRhdGlvbi50cmVlLlRyZWUKs7/qnQrEZQIAA0wACGNoaWxkcmVudAAQTGphdmEvdXRpbC9MaXN0O0wAB2NvbnRlbnR0ABJMamF2YS9sYW5nL09iamVjdDtMAAZwYXJlbnR0ADlMaW8vZ2l0aHViL2VyaWNtZWR2ZXQvamdlYS9jb3JlL3JlcHJlc2VudGF0aW9uL3RyZWUvVHJlZTt4cHNyABNqYXZhLnV0aWwuQXJyYXlMaXN0eIHSHZnHYZ0DAAFJAARzaXpleHAAAAACdwQAAAACc3EAfgACc3EAfgAHAAAAAncEAAAAAnNxAH4AAnNxAH4ABwAAAAB3BAAAAAB4c3IAS2lvLmdpdGh1Yi5lcmljbWVkdmV0LmpnZWEuY29yZS5yZXByZXNlbnRhdGlvbi50cmVlLm51bWVyaWMuRWxlbWVudCRWYXJpYWJsZQAAAAAAAAAAAgABTAAEbmFtZXQAEkxqYXZhL2xhbmcvU3RyaW5nO3hwdAADeDAxcQB+AAlzcQB+AAJzcQB+AAcAAAAAdwQAAAAAeHEAfgAPc3EAfgACc3EAfgAHAAAAAncEAAAAAnNxAH4AAnNxAH4ABwAAAAJ3BAAAAAJzcQB+AAJzcQB+AAcAAAACdwQAAAACc3EAfgACc3EAfgAHAAAAAHcEAAAAAHhxAH4AD3EAfgAXc3EAfgACc3EAfgAHAAAAAHcEAAAAAHhxAH4AD3EAfgAXeH5yAEtpby5naXRodWIuZXJpY21lZHZldC5qZ2VhLmNvcmUucmVwcmVzZW50YXRpb24udHJlZS5udW1lcmljLkVsZW1lbnQkT3BlcmF0b3IAAAAAAAAAABIAAHhyAA5qYXZhLmxhbmcuRW51bQAAAAAAAAAAEgAAeHB0AAhBRERJVElPTnEAfgAVc3EAfgACc3EAfgAHAAAAAHcEAAAAAHhxAH4AD3EAfgAVeHEAfgAfcQB+ABNxAH4AEXhxAH4AH3NxAH4AAnNxAH4ABwAAAAJ3BAAAAAJxAH4AE3NxAH4AAnNxAH4ABwAAAAB3BAAAAAB4cQB+AA9xAH4AI3hxAH4AH3B4cQB+AB9xAH4ABnEAfgAleHEAfgAfcHNxAH4AAnNxAH4ABwAAAAJ3BAAAAAJzcQB+AAJzcQB+AAcAAAACdwQAAAACc3EAfgACc3EAfgAHAAAAAHcEAAAAAHhzcgBLaW8uZ2l0aHViLmVyaWNtZWR2ZXQuamdlYS5jb3JlLnJlcHJlc2VudGF0aW9uLnRyZWUubnVtZXJpYy5FbGVtZW50JENvbnN0YW50AAAAAAAAAAACAAFEAAV2YWx1ZXhwAAAAAAAAAABxAH4AKXNxAH4AAnNxAH4ABwAAAAB3BAAAAAB4c3EAfgANdAADeDE0c3EAfgACc3EAfgAHAAAAAncEAAAAAnNxAH4AAnNxAH4ABwAAAAB3BAAAAAB4c3EAfgAtP+AAAAAAAABxAH4AM3EAfgAveH5xAH4AHXQACFBST1RfTE9Hc3EAfgACc3EAfgAHAAAAAncEAAAAAnEAfgAzc3EAfgACc3EAfgAHAAAAAncEAAAAAnNxAH4AAnNxAH4ABwAAAAJ3BAAAAAJzcQB+AAJzcQB+AAcAAAACdwQAAAACc3EAfgACc3EAfgAHAAAAAncEAAAAAnNxAH4AAnNxAH4ABwAAAAB3BAAAAAB4cQB+ADFxAH4AQnNxAH4AAnNxAH4ABwAAAAB3BAAAAAB4cQB+ADFxAH4AQnhxAH4AOHEAfgBAc3EAfgACc3EAfgAHAAAAAncEAAAAAnNxAH4AAnNxAH4ABwAAAAB3BAAAAAB4c3EAfgAtP/AAAAAAAABxAH4ASHNxAH4AAnNxAH4ABwAAAAJ3BAAAAAJzcQB+AAJzcQB+AAcAAAAAdwQAAAAAeHEAfgAucQB+AE1zcQB+AAJzcQB+AAcAAAACdwQAAAACc3EAfgACc3EAfgAHAAAAAHcEAAAAAHhzcQB+AC1AEgAAAAAAAHEAfgBRc3EAfgACc3EAfgAHAAAAAHcEAAAAAHhxAH4AN3EAfgBReHEAfgA4cQB+AE14fnEAfgAddAALU1VCVFJBQ1RJT05xAH4ASHh+cQB+AB10AA5NVUxUSVBMSUNBVElPTnNxAH4AAnNxAH4ABwAAAAJ3BAAAAAJzcQB+AAJzcQB+AAcAAAACdwQAAAACc3EAfgACc3EAfgAHAAAAAHcEAAAAAHhxAH4ALnEAfgBec3EAfgACc3EAfgAHAAAAAHcEAAAAAHhxAH4AMXEAfgBeeHEAfgA4cQB+AFxxAH4ASHhxAH4AWnNxAH4AAnNxAH4ABwAAAAJ3BAAAAAJxAH4AXHNxAH4AAnNxAH4ABwAAAAB3BAAAAAB4cQB+AC5zcQB+AAJzcQB+AAcAAAACdwQAAAACc3EAfgACc3EAfgAHAAAAAHcEAAAAAHhxAH4ATHEAfgBocQB+AGZ4cQB+AFpzcQB+AAJzcQB+AAcAAAACdwQAAAACcQB+AGhzcQB+AAJzcQB+AAcAAAAAdwQAAAAAeHEAfgAucQB+AGx4cQB+AFpzcQB+AAJzcQB+AAcAAAACdwQAAAACc3EAfgACc3EAfgAHAAAAAncEAAAAAnNxAH4AAnNxAH4ABwAAAAB3BAAAAAB4cQB+AC5xAH4AcnNxAH4AAnNxAH4ABwAAAAB3BAAAAAB4cQB+ADFxAH4AcnhxAH4AOHEAfgBwcQB+AGx4cQB+ADhweHEAfgBac3EAfgACc3EAfgAHAAAAAncEAAAAAnEAfgBkcQB+AG54cQB+AFpzcQB+AAJzcQB+AAcAAAACdwQAAAACc3EAfgACc3EAfgAHAAAAAncEAAAAAnNxAH4AAnNxAH4ABwAAAAB3BAAAAAB4cQB+AC5xAH4AfHNxAH4AAnNxAH4ABwAAAAB3BAAAAAB4cQB+ADFxAH4AfHhxAH4AOHEAfgB6cQB+AHh4cQB+ADhweHEAfgBacQB+AD5xAH4AZnhxAH4AWnEAfgA8cQB+AG54cQB+AFpzcQB+AAJzcQB+AAcAAAACdwQAAAACc3EAfgACc3EAfgAHAAAAAncEAAAAAnNxAH4AAnNxAH4ABwAAAAB3BAAAAAB4cQB+AC5xAH4AhHNxAH4AAnNxAH4ABwAAAAJ3BAAAAAJzcQB+AAJzcQB+AAcAAAAAdwQAAAAAeHEAfgBVcQB+AIhzcQB+AAJzcQB+AAcAAAAAdwQAAAAAeHEAfgA3cQB+AIh4cQB+ADhxAH4AhHhxAH4AOHEAfgCCcQB+ADx4cQB+ADhweHEAfgA4cHhxAH4AOHEAfgAncQB+ADx4cQB+ADhwc3EAfgACc3EAfgAHAAAAAncEAAAAAnNxAH4AAnNxAH4ABwAAAAJ3BAAAAAJzcQB+AAJzcQB+AAcAAAACdwQAAAACc3EAfgACc3EAfgAHAAAAAncEAAAAAnNxAH4AAnNxAH4ABwAAAAJ3BAAAAAJzcQB+AAJzcQB+AAcAAAAAdwQAAAAAeHNxAH4ADXQAA3gxNXEAfgCWc3EAfgACc3EAfgAHAAAAAHcEAAAAAHhxAH4AmnNxAH4AAnNxAH4ABwAAAAJ3BAAAAAJzcQB+AAJzcQB+AAcAAAAAdwQAAAAAeHNxAH4ADXQAA3gwMnEAfgCecQB+AJx4cQB+AFpzcQB+AAJzcQB+AAcAAAACdwQAAAACcQB+AJ5zcQB+AAJzcQB+AAcAAAAAdwQAAAAAeHEAfgCicQB+AKR4cQB+AFpzcQB+AAJzcQB+AAcAAAACdwQAAAACcQB+AKRzcQB+AAJzcQB+AAcAAAACdwQAAAACc3EAfgACc3EAfgAHAAAAAncEAAAAAnNxAH4AAnNxAH4ABwAAAAJ3BAAAAAJzcQB+AAJzcQB+AAcAAAAAdwQAAAAAeHEAfgCacQB+AK5zcQB+AAJzcQB+AAcAAAAAdwQAAAAAeHEAfgCicQB+AK54cQB+AFpxAH4ArHNxAH4AAnNxAH4ABwAAAAB3BAAAAAB4cQB+AJpzcQB+AAJzcQB+AAcAAAACdwQAAAACc3EAfgACc3EAfgAHAAAAAHcEAAAAAHhzcQB+AA10AAN4MDNxAH4AtnEAfgC0eHEAfgBac3EAfgACc3EAfgAHAAAAAncEAAAAAnEAfgC2c3EAfgACc3EAfgAHAAAAAncEAAAAAnNxAH4AAnNxAH4ABwAAAAJ3BAAAAAJzcQB+AAJzcQB+AAcAAAAAdwQAAAAAeHEAfgCacQB+AMBzcQB+AAJzcQB+AAcAAAAAdwQAAAAAeHEAfgCicQB+AMB4cQB+AFpxAH4AvnNxAH4AAnNxAH4ABwAAAAB3BAAAAAB4c3EAfgANdAADeDEwcQB+AL54cQB+AFpxAH4AvHhxAH4AWnNxAH4AAnNxAH4ABwAAAAJ3BAAAAAJzcQB+AAJzcQB+AAcAAAACdwQAAAACc3EAfgACc3EAfgAHAAAAAncEAAAAAnNxAH4AAnNxAH4ABwAAAAB3BAAAAAB4cQB+AJpxAH4AznNxAH4AAnNxAH4ABwAAAAB3BAAAAAB4cQB+AJpxAH4AznhxAH4AWnEAfgDMc3EAfgACc3EAfgAHAAAAAHcEAAAAAHhxAH4AonEAfgDMeHEAfgBacQB+AMpxAH4AvHhxAH4AWnNxAH4AAnNxAH4ABwAAAAJ3BAAAAAJxAH4AynNxAH4AAnNxAH4ABwAAAAB3BAAAAAB4cQB+AKJzcQB+AAJzcQB+AAcAAAACdwQAAAACc3EAfgACc3EAfgAHAAAAAncEAAAAAnNxAH4AAnNxAH4ABwAAAAJ3BAAAAAJzcQB+AAJzcQB+AAcAAAACdwQAAAACc3EAfgACc3EAfgAHAAAAAHcEAAAAAHhxAH4AmnEAfgDgc3EAfgACc3EAfgAHAAAAAHcEAAAAAHhxAH4AmnEAfgDgeHEAfgBacQB+AN5zcQB+AAJzcQB+AAcAAAACdwQAAAACc3EAfgACc3EAfgAHAAAAAHcEAAAAAHhxAH4AmnEAfgDmc3EAfgACc3EAfgAHAAAAAHcEAAAAAHhxAH4AonEAfgDmeHEAfgBacQB+AN54cQB+AFpxAH4A3HNxAH4AAnNxAH4ABwAAAAJ3BAAAAAJzcQB+AAJzcQB+AAcAAAACdwQAAAACc3EAfgACc3EAfgAHAAAAAncEAAAAAnNxAH4AAnNxAH4ABwAAAAB3BAAAAAB4cQB+AJpxAH4A8HNxAH4AAnNxAH4ABwAAAAB3BAAAAAB4cQB+AKJxAH4A8HhxAH4AWnEAfgDuc3EAfgACc3EAfgAHAAAAAHcEAAAAAHhxAH4AmnEAfgDueHEAfgBacQB+AOxzcQB+AAJzcQB+AAcAAAAAdwQAAAAAeHEAfgDIcQB+AOx4cQB+AFpxAH4A3HhxAH4AWnEAfgDacQB+ANh4cQB+AFpzcQB+AAJzcQB+AAcAAAACdwQAAAACcQB+ANpzcQB+AAJzcQB+AAcAAAAAdwQAAAAAeHEAfgDIcQB+APp4cQB+AFpweHEAfgBac3EAfgACc3EAfgAHAAAAAncEAAAAAnEAfgDWcQB+APx4cQB+AFpweHEAfgBacQB+AKpxAH4AvnhxAH4AWnNxAH4AAnNxAH4ABwAAAAJ3BAAAAAJzcQB+AAJzcQB+AAcAAAACdwQAAAACc3EAfgACc3EAfgAHAAAAAncEAAAAAnNxAH4AAnNxAH4ABwAAAAB3BAAAAAB4cQB+AJpxAH4BBHNxAH4AAnNxAH4ABwAAAAB3BAAAAAB4cQB+AJpxAH4BBHhxAH4AWnEAfgECc3EAfgACc3EAfgAHAAAAAncEAAAAAnNxAH4AAnNxAH4ABwAAAAB3BAAAAAB4cQB+AJpxAH4BCnNxAH4AAnNxAH4ABwAAAAJ3BAAAAAJzcQB+AAJzcQB+AAcAAAAAdwQAAAAAeHEAfgCacQB+AQ5zcQB+AAJzcQB+AAcAAAAAdwQAAAAAeHEAfgCicQB+AQ54cQB+AFpxAH4BCnhxAH4AWnEAfgECeHEAfgBacQB+AQBxAH4AqnhxAH4AWnNxAH4AAnNxAH4ABwAAAAJ3BAAAAAJxAH4BAHEAfgDYeHEAfgBac3EAfgACc3EAfgAHAAAAAncEAAAAAnEAfgEUcQB+APx4cQB+AFpweHEAfgBac3EAfgACc3EAfgAHAAAAAncEAAAAAnEAfgCocQB+ANh4cQB+AFpzcQB+AAJzcQB+AAcAAAACdwQAAAACcQB+ARhxAH4A/HhxAH4AWnB4cQB+AFpxAH4AlHEAfgCmeHEAfgBacQB+AJJxAH4AqnhxAH4AWnEAfgCQcQB+ANh4cQB+AFpxAH4AjnEAfgD8eHEAfgBacHNxAH4AAnNxAH4ABwAAAAJ3BAAAAAJzcQB+AAJzcQB+AAcAAAAAdwQAAAAAeHNxAH4ADXQAA3gwNHEAfgEcc3EAfgACc3EAfgAHAAAAAHcEAAAAAHhzcQB+AC1AAAAAAAAAAHNxAH4AAnNxAH4ABwAAAAJ3BAAAAAJzcQB+AAJzcQB+AAcAAAACdwQAAAACc3EAfgACc3EAfgAHAAAAAHcEAAAAAHhxAH4BIHEAfgEnc3EAfgACc3EAfgAHAAAAAHcEAAAAAHhxAH4BJHEAfgEneH5xAH4AHXQADVBST1RfRElWSVNJT05xAH4BJXEAfgEieHEAfgEtcHhxAH4BLXB4";
    "rO0ABXNyABFqYXZhLnV0aWwuQ29sbFNlcleOq7Y6G6gRAwABSQADdGFneHAAAAAEdwQAAAAEc3IAN2lvLmdpdGh1Yi5lcmljbWVkdmV0LmpnZWEuY29yZS5yZXByZXNlbnRhdGlvbi50cmVlLlRyZWUKs7/qnQrEZQIAA0wACGNoaWxkcmVudAAQTGphdmEvdXRpbC9MaXN0O0wAB2NvbnRlbnR0ABJMamF2YS9sYW5nL09iamVjdDtMAAZwYXJlbnR0ADlMaW8vZ2l0aHViL2VyaWNtZWR2ZXQvamdlYS9jb3JlL3JlcHJlc2VudGF0aW9uL3RyZWUvVHJlZTt4cHNyABNqYXZhLnV0aWwuQXJyYXlMaXN0eIHSHZnHYZ0DAAFJAARzaXpleHAAAAACdwQAAAACc3EAfgACc3EAfgAHAAAAAncEAAAAAnNxAH4AAnNxAH4ABwAAAAB3BAAAAAB4c3IAS2lvLmdpdGh1Yi5lcmljbWVkdmV0LmpnZWEuY29yZS5yZXByZXNlbnRhdGlvbi50cmVlLm51bWVyaWMuRWxlbWVudCRWYXJpYWJsZQAAAAAAAAAAAgABTAAEbmFtZXQAEkxqYXZhL2xhbmcvU3RyaW5nO3hwdAADeDAxcQB+AAlzcQB+AAJzcQB+AAcAAAAAdwQAAAAAeHEAfgAPc3EAfgACc3EAfgAHAAAAAncEAAAAAnNxAH4AAnNxAH4ABwAAAAJ3BAAAAAJzcQB+AAJzcQB+AAcAAAAAdwQAAAAAeHEAfgAPcQB+ABVzcQB+AAJzcQB+AAcAAAAAdwQAAAAAeHEAfgAPcQB+ABV4fnIAS2lvLmdpdGh1Yi5lcmljbWVkdmV0LmpnZWEuY29yZS5yZXByZXNlbnRhdGlvbi50cmVlLm51bWVyaWMuRWxlbWVudCRPcGVyYXRvcgAAAAAAAAAAEgAAeHIADmphdmEubGFuZy5FbnVtAAAAAAAAAAASAAB4cHQACEFERElUSU9OcQB+ABNxAH4AEXhxAH4AHXNxAH4AAnNxAH4ABwAAAAJ3BAAAAAJxAH4AE3NxAH4AAnNxAH4ABwAAAAB3BAAAAAB4cQB+AA9xAH4AH3hxAH4AHXB4cQB+AB1xAH4ABnEAfgAheHEAfgAdcHNxAH4AAnNxAH4ABwAAAAJ3BAAAAAJzcQB+AAJzcQB+AAcAAAACdwQAAAACc3EAfgACc3EAfgAHAAAAAncEAAAAAnNxAH4AAnNxAH4ABwAAAAB3BAAAAAB4c3IAS2lvLmdpdGh1Yi5lcmljbWVkdmV0LmpnZWEuY29yZS5yZXByZXNlbnRhdGlvbi50cmVlLm51bWVyaWMuRWxlbWVudCRDb25zdGFudAAAAAAAAAAAAgABRAAFdmFsdWV4cAAAAAAAAAAAcQB+ACdzcQB+AAJzcQB+AAcAAAAAdwQAAAAAeHNxAH4AKz/gAAAAAAAAc3EAfgACc3EAfgAHAAAAAncEAAAAAnNxAH4AAnNxAH4ABwAAAAB3BAAAAAB4c3EAfgArP/AAAAAAAABxAH4AMHEAfgAteH5xAH4AG3QAC1NVQlRSQUNUSU9Oc3EAfgACc3EAfgAHAAAAAncEAAAAAnEAfgAwc3EAfgACc3EAfgAHAAAAAHcEAAAAAHhxAH4ALHNxAH4AAnNxAH4ABwAAAAJ3BAAAAAJzcQB+AAJzcQB+AAcAAAACdwQAAAACc3EAfgACc3EAfgAHAAAAAncEAAAAAnNxAH4AAnNxAH4ABwAAAAB3BAAAAAB4cQB+ACxxAH4AP3NxAH4AAnNxAH4ABwAAAAJ3BAAAAAJzcQB+AAJzcQB+AAcAAAAAdwQAAAAAeHNxAH4AK0ASAAAAAAAAcQB+AENzcQB+AAJzcQB+AAcAAAAAdwQAAAAAeHEAfgAvcQB+AEN4fnEAfgAbdAAIUFJPVF9MT0dxAH4AP3hxAH4ANXEAfgA9c3EAfgACc3EAfgAHAAAAAHcEAAAAAHhxAH4ALHEAfgA9eH5xAH4AG3QADk1VTFRJUExJQ0FUSU9OcQB+ADtxAH4AOXhxAH4ATnNxAH4AAnNxAH4ABwAAAAJ3BAAAAAJxAH4AO3NxAH4AAnNxAH4ABwAAAAB3BAAAAAB4cQB+ACxxAH4AUHhxAH4ATnB4cQB+AE5zcQB+AAJzcQB+AAcAAAACdwQAAAACcQB+ADdxAH4AUnhxAH4ATnB4cQB+ADVxAH4AJXEAfgA5eHEAfgBOcQB+ACNxAH4AUnhxAH4ATnBzcQB+AAJzcQB+AAcAAAACdwQAAAACc3EAfgACc3EAfgAHAAAAAncEAAAAAnNxAH4AAnNxAH4ABwAAAAJ3BAAAAAJzcQB+AAJzcQB+AAcAAAACdwQAAAACc3EAfgACc3EAfgAHAAAAAHcEAAAAAHhzcQB+ACtACAAAAAAAAHEAfgBcc3EAfgACc3EAfgAHAAAAAHcEAAAAAHhxAH4AYHNxAH4AAnNxAH4ABwAAAAJ3BAAAAAJzcQB+AAJzcQB+AAcAAAAAdwQAAAAAeHNxAH4ADXQAA3gwMnEAfgBjcQB+AGF4cQB+ADVzcQB+AAJzcQB+AAcAAAACdwQAAAACcQB+AGNzcQB+AAJzcQB+AAcAAAAAdwQAAAAAeHEAfgBnc3EAfgACc3EAfgAHAAAAAncEAAAAAnNxAH4AAnNxAH4ABwAAAAJ3BAAAAAJzcQB+AAJzcQB+AAcAAAAAdwQAAAAAeHNxAH4ADXQAA3gxNXEAfgBvc3EAfgACc3EAfgAHAAAAAHcEAAAAAHhzcQB+AA10AAN4MTBxAH4Ab3hxAH4ATnEAfgBtcQB+AGt4cQB+AE5zcQB+AAJzcQB+AAcAAAACdwQAAAACcQB+AG1zcQB+AAJzcQB+AAcAAAAAdwQAAAAAeHEAfgBncQB+AHl4cQB+AE5zcQB+AAJzcQB+AAcAAAACdwQAAAACcQB+AHlzcQB+AAJzcQB+AAcAAAAAdwQAAAAAeHEAfgB3cQB+AH14cQB+AE5weHEAfgBOc3EAfgACc3EAfgAHAAAAAncEAAAAAnEAfgBpcQB+AHt4cQB+AE5zcQB+AAJzcQB+AAcAAAACdwQAAAACcQB+AIFxAH4Af3hxAH4ATnB4cQB+ADVxAH4AWnEAfgBreHEAfgBOcQB+AFhxAH4Ae3hxAH4ATnEAfgBWcQB+AH94cQB+AE5wc3EAfgACc3EAfgAHAAAAAncEAAAAAnNxAH4AAnNxAH4ABwAAAAB3BAAAAAB4c3EAfgANdAADeDA0cQB+AIVzcQB+AAJzcQB+AAcAAAAAdwQAAAAAeHNxAH4AK0AAAAAAAAAAc3EAfgACc3EAfgAHAAAAAncEAAAAAnNxAH4AAnNxAH4ABwAAAAB3BAAAAAB4cQB+AI1xAH4AjnEAfgCLeH5xAH4AG3QADVBST1RfRElWSVNJT05weHEAfgCScHg=";
    "rO0ABXNyABFqYXZhLnV0aWwuQ29sbFNlcleOq7Y6G6gRAwABSQADdGFneHAAAAAEdwQAAAAEc3IAN2lvLmdpdGh1Yi5lcmljbWVkdmV0LmpnZWEuY29yZS5yZXByZXNlbnRhdGlvbi50cmVlLlRyZWUKs7/qnQrEZQIAA0wACGNoaWxkcmVudAAQTGphdmEvdXRpbC9MaXN0O0wAB2NvbnRlbnR0ABJMamF2YS9sYW5nL09iamVjdDtMAAZwYXJlbnR0ADlMaW8vZ2l0aHViL2VyaWNtZWR2ZXQvamdlYS9jb3JlL3JlcHJlc2VudGF0aW9uL3RyZWUvVHJlZTt4cHNyABNqYXZhLnV0aWwuQXJyYXlMaXN0eIHSHZnHYZ0DAAFJAARzaXpleHAAAAACdwQAAAACc3EAfgACc3EAfgAHAAAAAncEAAAAAnNxAH4AAnNxAH4ABwAAAAB3BAAAAAB4c3IAS2lvLmdpdGh1Yi5lcmljbWVkdmV0LmpnZWEuY29yZS5yZXByZXNlbnRhdGlvbi50cmVlLm51bWVyaWMuRWxlbWVudCRWYXJpYWJsZQAAAAAAAAAAAgABTAAEbmFtZXQAEkxqYXZhL2xhbmcvU3RyaW5nO3hwdAADeDAxcQB+AAlzcQB+AAJzcQB+AAcAAAAAdwQAAAAAeHEAfgAPc3EAfgACc3EAfgAHAAAAAncEAAAAAnNxAH4AAnNxAH4ABwAAAAJ3BAAAAAJzcQB+AAJzcQB+AAcAAAAAdwQAAAAAeHEAfgAPcQB+ABVzcQB+AAJzcQB+AAcAAAAAdwQAAAAAeHEAfgAPcQB+ABV4fnIAS2lvLmdpdGh1Yi5lcmljbWVkdmV0LmpnZWEuY29yZS5yZXByZXNlbnRhdGlvbi50cmVlLm51bWVyaWMuRWxlbWVudCRPcGVyYXRvcgAAAAAAAAAAEgAAeHIADmphdmEubGFuZy5FbnVtAAAAAAAAAAASAAB4cHQACEFERElUSU9OcQB+ABNxAH4AEXhxAH4AHXNxAH4AAnNxAH4ABwAAAAJ3BAAAAAJxAH4AE3NxAH4AAnNxAH4ABwAAAAB3BAAAAAB4cQB+AA9xAH4AH3hxAH4AHXB4cQB+AB1xAH4ABnEAfgAheHEAfgAdcHNxAH4AAnNxAH4ABwAAAAJ3BAAAAAJzcQB+AAJzcQB+AAcAAAACdwQAAAACc3EAfgACc3EAfgAHAAAAAncEAAAAAnNxAH4AAnNxAH4ABwAAAAJ3BAAAAAJzcQB+AAJzcQB+AAcAAAAAdwQAAAAAeHNxAH4ADXQAA3gxNHEAfgApc3EAfgACc3EAfgAHAAAAAHcEAAAAAHhxAH4ALXNxAH4AAnNxAH4ABwAAAAJ3BAAAAAJzcQB+AAJzcQB+AAcAAAACdwQAAAACc3EAfgACc3EAfgAHAAAAAHcEAAAAAHhzcgBLaW8uZ2l0aHViLmVyaWNtZWR2ZXQuamdlYS5jb3JlLnJlcHJlc2VudGF0aW9uLnRyZWUubnVtZXJpYy5FbGVtZW50JENvbnN0YW50AAAAAAAAAAACAAFEAAV2YWx1ZXhwAAAAAAAAAABxAH4AM3NxAH4AAnNxAH4ABwAAAAB3BAAAAAB4cQB+ADhxAH4AM3h+cQB+ABt0AAtTVUJUUkFDVElPTnEAfgAxcQB+AC94fnEAfgAbdAAIUFJPVF9MT0dzcQB+AAJzcQB+AAcAAAACdwQAAAACcQB+ADFzcQB+AAJzcQB+AAcAAAACdwQAAAACc3EAfgACc3EAfgAHAAAAAHcEAAAAAHhzcQB+ADc/8AAAAAAAAHEAfgBBc3EAfgACc3EAfgAHAAAAAncEAAAAAnNxAH4AAnNxAH4ABwAAAAB3BAAAAAB4cQB+ADhxAH4ARnNxAH4AAnNxAH4ABwAAAAB3BAAAAAB4cQB+ADhzcQB+AAJzcQB+AAcAAAACdwQAAAACc3EAfgACc3EAfgAHAAAAAncEAAAAAnNxAH4AAnNxAH4ABwAAAAB3BAAAAAB4c3EAfgA3QBIAAAAAAABxAH4ATnNxAH4AAnNxAH4ABwAAAAB3BAAAAAB4c3EAfgA3P+AAAAAAAABxAH4ATnhxAH4APXEAfgBMcQB+AEp4cQB+ADtzcQB+AAJzcQB+AAcAAAACdwQAAAACc3EAfgACc3EAfgAHAAAAAHcEAAAAAHhxAH4ARXEAfgBWcQB+AEx4fnEAfgAbdAAOTVVMVElQTElDQVRJT05zcQB+AAJzcQB+AAcAAAACdwQAAAACc3EAfgACc3EAfgAHAAAAAncEAAAAAnNxAH4AAnNxAH4ABwAAAAB3BAAAAAB4cQB+AC1xAH4AXnNxAH4AAnNxAH4ABwAAAAB3BAAAAAB4cQB+AC1xAH4AXnhxAH4APXEAfgBccQB+AFZ4cQB+AFpzcQB+AAJzcQB+AAcAAAACdwQAAAACcQB+AFxzcQB+AAJzcQB+AAcAAAAAdwQAAAAAeHEAfgA4c3EAfgACc3EAfgAHAAAAAncEAAAAAnNxAH4AAnNxAH4ABwAAAAJ3BAAAAAJzcQB+AAJzcQB+AAcAAAACdwQAAAACc3EAfgACc3EAfgAHAAAAAncEAAAAAnNxAH4AAnNxAH4ABwAAAAB3BAAAAAB4cQB+AC1xAH4AbnNxAH4AAnNxAH4ABwAAAAB3BAAAAAB4cQB+AC1xAH4AbnhxAH4APXEAfgBsc3EAfgACc3EAfgAHAAAAAHcEAAAAAHhxAH4ALXEAfgBseHEAfgA9cQB+AGpzcQB+AAJzcQB+AAcAAAACdwQAAAACc3EAfgACc3EAfgAHAAAAAHcEAAAAAHhxAH4ARXEAfgB2c3EAfgACc3EAfgAHAAAAAncEAAAAAnNxAH4AAnNxAH4ABwAAAAB3BAAAAAB4cQB+ADhxAH4AenNxAH4AAnNxAH4ABwAAAAJ3BAAAAAJzcQB+AAJzcQB+AAcAAAAAdwQAAAAAeHEAfgBScQB+AH5zcQB+AAJzcQB+AAcAAAAAdwQAAAAAeHEAfgBVc3EAfgACc3EAfgAHAAAAAncEAAAAAnNxAH4AAnNxAH4ABwAAAAB3BAAAAAB4cQB+AEVxAH4AhHEAfgCCeHEAfgA9c3EAfgACc3EAfgAHAAAAAncEAAAAAnNxAH4AAnNxAH4ABwAAAAB3BAAAAAB4cQB+ADhxAH4AiHEAfgCEeHEAfgA7c3EAfgACc3EAfgAHAAAAAncEAAAAAnNxAH4AAnNxAH4ABwAAAAB3BAAAAAB4cQB+AEVxAH4AjHEAfgCIeHEAfgBac3EAfgACc3EAfgAHAAAAAncEAAAAAnNxAH4AAnNxAH4ABwAAAAJ3BAAAAAJzcQB+AAJzcQB+AAcAAAAAdwQAAAAAeHEAfgAtcQB+AJJzcQB+AAJzcQB+AAcAAAAAdwQAAAAAeHEAfgAtcQB+AJJ4cQB+AD1xAH4AkHEAfgCMeHEAfgBac3EAfgACc3EAfgAHAAAAAncEAAAAAnEAfgCQcQB+AGZ4cQB+AFpzcQB+AAJzcQB+AAcAAAACdwQAAAACcQB+AJhzcQB+AAJzcQB+AAcAAAAAdwQAAAAAeHEAfgBVc3EAfgACc3EAfgAHAAAAAncEAAAAAnEAfgBocQB+AJx4cQB+AD1weHEAfgA9cHhxAH4APXNxAH4AAnNxAH4ABwAAAAJ3BAAAAAJzcQB+AAJzcQB+AAcAAAACdwQAAAACc3EAfgACc3EAfgAHAAAAAHcEAAAAAHhxAH4AOHEAfgCic3EAfgACc3EAfgAHAAAAAHcEAAAAAHhxAH4AOHEAfgCieHEAfgA7cQB+AKBxAH4AfnhxAH4AO3NxAH4AAnNxAH4ABwAAAAJ3BAAAAAJzcQB+AAJzcQB+AAcAAAAAdwQAAAAAeHEAfgBFcQB+AKhxAH4AoHhxAH4AWnNxAH4AAnNxAH4ABwAAAAJ3BAAAAAJzcQB+AAJzcQB+AAcAAAACdwQAAAACc3EAfgACc3EAfgAHAAAAAncEAAAAAnNxAH4AAnNxAH4ABwAAAAB3BAAAAAB4cQB+AFJxAH4AsHNxAH4AAnNxAH4ABwAAAAB3BAAAAAB4cQB+AFVxAH4AsHhxAH4APXEAfgCuc3EAfgACc3EAfgAHAAAAAHcEAAAAAHhxAH4ALXEAfgCueHEAfgA9cQB+AKxxAH4AqHhxAH4AWnNxAH4AAnNxAH4ABwAAAAJ3BAAAAAJxAH4ArHEAfgBmeHEAfgBac3EAfgACc3EAfgAHAAAAAncEAAAAAnEAfgC4cQB+AJx4cQB+AD1weHEAfgA7c3EAfgACc3EAfgAHAAAAAncEAAAAAnNxAH4AAnNxAH4ABwAAAAB3BAAAAAB4cQB+AFJxAH4AvHEAfgB6eHEAfgBac3EAfgACc3EAfgAHAAAAAncEAAAAAnNxAH4AAnNxAH4ABwAAAAJ3BAAAAAJzcQB+AAJzcQB+AAcAAAACdwQAAAACc3EAfgACc3EAfgAHAAAAAHcEAAAAAHhxAH4AUnEAfgDEc3EAfgACc3EAfgAHAAAAAHcEAAAAAHhxAH4AVXEAfgDEeHEAfgA9cQB+AMJzcQB+AAJzcQB+AAcAAAAAdwQAAAAAeHEAfgAtcQB+AMJ4cQB+AD1xAH4AwHEAfgC8eHEAfgBac3EAfgACc3EAfgAHAAAAAncEAAAAAnEAfgDAcQB+AGZ4cQB+AFpzcQB+AAJzcQB+AAcAAAACdwQAAAACcQB+AMxxAH4AnHhxAH4APXB4cQB+AFpxAH4AanhxAH4AWnEAfgBocQB+AGZ4cQB+AFpxAH4AnnhxAH4AWnNxAH4AAnNxAH4ABwAAAAJ3BAAAAAJxAH4AZHEAfgCceHEAfgA9cHhxAH4AO3NxAH4AAnNxAH4ABwAAAAJ3BAAAAAJzcQB+AAJzcQB+AAcAAAAAdwQAAAAAeHEAfgBVcQB+ANJxAH4ARnhxAH4AWnNxAH4AAnNxAH4ABwAAAAJ3BAAAAAJzcQB+AAJzcQB+AAcAAAACdwQAAAACc3EAfgACc3EAfgAHAAAAAHcEAAAAAHhxAH4ALXEAfgDYc3EAfgACc3EAfgAHAAAAAHcEAAAAAHhxAH4ALXEAfgDYeHEAfgA9cQB+ANZxAH4A0nhxAH4AWnNxAH4AAnNxAH4ABwAAAAJ3BAAAAAJxAH4A1nEAfgBmeHEAfgBac3EAfgACc3EAfgAHAAAAAncEAAAAAnEAfgDecQB+AJx4cQB+AD1weHEAfgBacQB+AD94cQB+AFpzcQB+AAJzcQB+AAcAAAACdwQAAAACcQB+AD9xAH4AZnhxAH4AWnNxAH4AAnNxAH4ABwAAAAJ3BAAAAAJxAH4A4nEAfgCceHEAfgA9cHhxAH4APXEAfgAncQB+AEF4cQB+AFpxAH4AJXEAfgBmeHEAfgBacQB+ACNxAH4AnHhxAH4APXBzcQB+AAJzcQB+AAcAAAACdwQAAAACc3EAfgACc3EAfgAHAAAAAncEAAAAAnNxAH4AAnNxAH4ABwAAAAJ3BAAAAAJzcQB+AAJzcQB+AAcAAAACdwQAAAACc3EAfgACc3EAfgAHAAAAAHcEAAAAAHhzcQB+AA10AAN4MDNxAH4A7HNxAH4AAnNxAH4ABwAAAAB3BAAAAAB4c3EAfgANdAADeDEzc3EAfgACc3EAfgAHAAAAAncEAAAAAnNxAH4AAnNxAH4ABwAAAAJ3BAAAAAJzcQB+AAJzcQB+AAcAAAAAdwQAAAAAeHNxAH4AN0AIAAAAAAAAcQB+APhzcQB+AAJzcQB+AAcAAAAAdwQAAAAAeHEAfgD8cQB+APh4cQB+ADtxAH4A9nEAfgDyeHEAfgBac3EAfgACc3EAfgAHAAAAAncEAAAAAnEAfgD2c3EAfgACc3EAfgAHAAAAAncEAAAAAnNxAH4AAnNxAH4ABwAAAAJ3BAAAAAJzcQB+AAJzcQB+AAcAAAAAdwQAAAAAeHNxAH4ADXQAA3gxNXEAfgEDc3EAfgACc3EAfgAHAAAAAHcEAAAAAHhzcQB+AA10AAN4MDJxAH4BA3hxAH4AWnEAfgEBc3EAfgACc3EAfgAHAAAAAncEAAAAAnNxAH4AAnNxAH4ABwAAAAJ3BAAAAAJzcQB+AAJzcQB+AAcAAAAAdwQAAAAAeHEAfgEHcQB+AQ9zcQB+AAJzcQB+AAcAAAAAdwQAAAAAeHEAfgEHcQB+AQ94cQB+AFpxAH4BDXNxAH4AAnNxAH4ABwAAAAJ3BAAAAAJzcQB+AAJzcQB+AAcAAAAAdwQAAAAAeHEAfgELcQB+ARVzcQB+AAJzcQB+AAcAAAAAdwQAAAAAeHEAfgDwc3EAfgACc3EAfgAHAAAAAncEAAAAAnNxAH4AAnNxAH4ABwAAAAJ3BAAAAAJzcQB+AAJzcQB+AAcAAAACdwQAAAACc3EAfgACc3EAfgAHAAAAAHcEAAAAAHhxAH4BB3EAfgEfc3EAfgACc3EAfgAHAAAAAHcEAAAAAHhxAH4BC3EAfgEfeHEAfgBacQB+AR1zcQB+AAJzcQB+AAcAAAAAdwQAAAAAeHEAfgDwcQB+AR14cQB+AFpxAH4BG3EAfgEZeHEAfgBac3EAfgACc3EAfgAHAAAAAncEAAAAAnNxAH4AAnNxAH4ABwAAAAJ3BAAAAAJzcQB+AAJzcQB+AAcAAAAAdwQAAAAAeHEAfgEHcQB+ASlzcQB+AAJzcQB+AAcAAAAAdwQAAAAAeHEAfgEHcQB+ASl4cQB+AFpxAH4BJ3EAfgEbeHEAfgBac3EAfgACc3EAfgAHAAAAAncEAAAAAnNxAH4AAnNxAH4ABwAAAAJ3BAAAAAJzcQB+AAJzcQB+AAcAAAAAdwQAAAAAeHEAfgEHcQB+ATFzcQB+AAJzcQB+AAcAAAAAdwQAAAAAeHEAfgELcQB+ATF4cQB+AFpxAH4BL3EAfgEneHEAfgBac3EAfgACc3EAfgAHAAAAAncEAAAAAnNxAH4AAnNxAH4ABwAAAAJ3BAAAAAJzcQB+AAJzcQB+AAcAAAAAdwQAAAAAeHEAfgDwcQB+ATlzcQB+AAJzcQB+AAcAAAAAdwQAAAAAeHEAfgD0cQB+ATl4cQB+AFpxAH4BN3EAfgEveHEAfgBac3EAfgACc3EAfgAHAAAAAncEAAAAAnEAfgE3c3EAfgACc3EAfgAHAAAAAHcEAAAAAHhxAH4BC3NxAH4AAnNxAH4ABwAAAAJ3BAAAAAJzcQB+AAJzcQB+AAcAAAACdwQAAAACc3EAfgACc3EAfgAHAAAAAncEAAAAAnNxAH4AAnNxAH4ABwAAAAB3BAAAAAB4cQB+AQdxAH4BR3NxAH4AAnNxAH4ABwAAAAB3BAAAAAB4c3EAfgANdAADeDEwcQB+AUd4cQB+AFpxAH4BRXNxAH4AAnNxAH4ABwAAAAB3BAAAAAB4cQB+AQtxAH4BRXhxAH4AWnEAfgFDcQB+AUF4cQB+AFpzcQB+AAJzcQB+AAcAAAACdwQAAAACcQB+AUNzcQB+AAJzcQB+AAcAAAAAdwQAAAAAeHEAfgFNcQB+AVF4cQB+AFpweHEAfgBac3EAfgACc3EAfgAHAAAAAncEAAAAAnEAfgE/cQB+AVN4cQB+AFpweHEAfgBac3EAfgACc3EAfgAHAAAAAncEAAAAAnNxAH4AAnNxAH4ABwAAAAB3BAAAAAB4cQB+AQdxAH4BV3EAfgEVeHEAfgBac3EAfgACc3EAfgAHAAAAAncEAAAAAnNxAH4AAnNxAH4ABwAAAAJ3BAAAAAJzcQB+AAJzcQB+AAcAAAAAdwQAAAAAeHEAfgEHcQB+AV1zcQB+AAJzcQB+AAcAAAAAdwQAAAAAeHEAfgELcQB+AV14cQB+AFpxAH4BW3EAfgFXeHEAfgBac3EAfgACc3EAfgAHAAAAAncEAAAAAnNxAH4AAnNxAH4ABwAAAAJ3BAAAAAJzcQB+AAJzcQB+AAcAAAAAdwQAAAAAeHEAfgDwcQB+AWVzcQB+AAJzcQB+AAcAAAAAdwQAAAAAeHEAfgD0cQB+AWV4cQB+AFpxAH4BY3EAfgFbeHEAfgBac3EAfgACc3EAfgAHAAAAAncEAAAAAnEAfgFjcQB+AUF4cQB+AFpzcQB+AAJzcQB+AAcAAAACdwQAAAACcQB+AWtxAH4BU3hxAH4AWnB4cQB+AFpzcQB+AAJzcQB+AAcAAAACdwQAAAACc3EAfgACc3EAfgAHAAAAAncEAAAAAnNxAH4AAnNxAH4ABwAAAAB3BAAAAAB4cQB+AQdxAH4BcXNxAH4AAnNxAH4ABwAAAAJ3BAAAAAJzcQB+AAJzcQB+AAcAAAACdwQAAAACc3EAfgACc3EAfgAHAAAAAHcEAAAAAHhxAH4BB3EAfgF3c3EAfgACc3EAfgAHAAAAAHcEAAAAAHhxAH4BC3EAfgF3eHEAfgBacQB+AXVzcQB+AAJzcQB+AAcAAAAAdwQAAAAAeHEAfgEHcQB+AXV4cQB+AFpxAH4BcXhxAH4AWnEAfgFvcQB+AQ14cQB+AFpzcQB+AAJzcQB+AAcAAAACdwQAAAACc3EAfgACc3EAfgAHAAAAAncEAAAAAnNxAH4AAnNxAH4ABwAAAAB3BAAAAAB4cQB+APBxAH4BgXNxAH4AAnNxAH4ABwAAAAB3BAAAAAB4cQB+APRxAH4BgXhxAH4AWnEAfgF/cQB+AW94cQB+AFpzcQB+AAJzcQB+AAcAAAACdwQAAAACcQB+AX9xAH4BQXhxAH4AWnNxAH4AAnNxAH4ABwAAAAJ3BAAAAAJxAH4Bh3EAfgFTeHEAfgBacHhxAH4AWnEAfgD/eHEAfgBac3EAfgACc3EAfgAHAAAAAncEAAAAAnEAfgD/cQB+AUF4cQB+AFpzcQB+AAJzcQB+AAcAAAACdwQAAAACcQB+AYtxAH4BU3hxAH4AWnB4cQB+AFpxAH4A6nEAfgEBeHEAfgBacQB+AOhxAH4BQXhxAH4AWnEAfgDmcQB+AVN4cQB+AFpwc3EAfgACc3EAfgAHAAAAAncEAAAAAnNxAH4AAnNxAH4ABwAAAAB3BAAAAAB4c3EAfgANdAADeDA0cQB+AY9zcQB+AAJzcQB+AAcAAAAAdwQAAAAAeHNxAH4AN0AAAAAAAAAAc3EAfgACc3EAfgAHAAAAAncEAAAAAnNxAH4AAnNxAH4ABwAAAAB3BAAAAAB4cQB+AZdxAH4BmHEAfgGVeH5xAH4AG3QADVBST1RfRElWSVNJT05weHEAfgGccHg=";
    "rO0ABXNyABFqYXZhLnV0aWwuQ29sbFNlcleOq7Y6G6gRAwABSQADdGFneHAAAAAEdwQAAAAEc3IAN2lvLmdpdGh1Yi5lcmljbWVkdmV0LmpnZWEuY29yZS5yZXByZXNlbnRhdGlvbi50cmVlLlRyZWUKs7/qnQrEZQIAA0wACGNoaWxkcmVudAAQTGphdmEvdXRpbC9MaXN0O0wAB2NvbnRlbnR0ABJMamF2YS9sYW5nL09iamVjdDtMAAZwYXJlbnR0ADlMaW8vZ2l0aHViL2VyaWNtZWR2ZXQvamdlYS9jb3JlL3JlcHJlc2VudGF0aW9uL3RyZWUvVHJlZTt4cHNyABNqYXZhLnV0aWwuQXJyYXlMaXN0eIHSHZnHYZ0DAAFJAARzaXpleHAAAAACdwQAAAACc3EAfgACc3EAfgAHAAAAAncEAAAAAnNxAH4AAnNxAH4ABwAAAAB3BAAAAAB4c3IAS2lvLmdpdGh1Yi5lcmljbWVkdmV0LmpnZWEuY29yZS5yZXByZXNlbnRhdGlvbi50cmVlLm51bWVyaWMuRWxlbWVudCRWYXJpYWJsZQAAAAAAAAAAAgABTAAEbmFtZXQAEkxqYXZhL2xhbmcvU3RyaW5nO3hwdAADeDAxcQB+AAlzcQB+AAJzcQB+AAcAAAAAdwQAAAAAeHEAfgAPc3EAfgACc3EAfgAHAAAAAncEAAAAAnNxAH4AAnNxAH4ABwAAAAJ3BAAAAAJzcQB+AAJzcQB+AAcAAAACdwQAAAACc3EAfgACc3EAfgAHAAAAAHcEAAAAAHhxAH4AD3EAfgAXc3EAfgACc3EAfgAHAAAAAHcEAAAAAHhxAH4AD3EAfgAXeH5yAEtpby5naXRodWIuZXJpY21lZHZldC5qZ2VhLmNvcmUucmVwcmVzZW50YXRpb24udHJlZS5udW1lcmljLkVsZW1lbnQkT3BlcmF0b3IAAAAAAAAAABIAAHhyAA5qYXZhLmxhbmcuRW51bQAAAAAAAAAAEgAAeHB0AAhBRERJVElPTnEAfgAVc3EAfgACc3EAfgAHAAAAAHcEAAAAAHhxAH4AD3EAfgAVeHEAfgAfcQB+ABNxAH4AEXhxAH4AH3NxAH4AAnNxAH4ABwAAAAJ3BAAAAAJxAH4AE3NxAH4AAnNxAH4ABwAAAAB3BAAAAAB4cQB+AA9xAH4AI3hxAH4AH3B4cQB+AB9xAH4ABnEAfgAleHEAfgAfcHNxAH4AAnNxAH4ABwAAAAJ3BAAAAAJzcQB+AAJzcQB+AAcAAAACdwQAAAACc3EAfgACc3EAfgAHAAAAAHcEAAAAAHhzcgBLaW8uZ2l0aHViLmVyaWNtZWR2ZXQuamdlYS5jb3JlLnJlcHJlc2VudGF0aW9uLnRyZWUubnVtZXJpYy5FbGVtZW50JENvbnN0YW50AAAAAAAAAAACAAFEAAV2YWx1ZXhwAAAAAAAAAABxAH4AKXNxAH4AAnNxAH4ABwAAAAJ3BAAAAAJzcQB+AAJzcQB+AAcAAAAAdwQAAAAAeHNxAH4ALUASAAAAAAAAcQB+AC9zcQB+AAJzcQB+AAcAAAAAdwQAAAAAeHNxAH4ALT/gAAAAAAAAc3EAfgACc3EAfgAHAAAAAncEAAAAAnNxAH4AAnNxAH4ABwAAAAB3BAAAAAB4cQB+ADZxAH4AN3EAfgA0eH5xAH4AHXQACFBST1RfTE9Hc3EAfgACc3EAfgAHAAAAAncEAAAAAnNxAH4AAnNxAH4ABwAAAAB3BAAAAAB4cQB+AC5xAH4APXEAfgA3eH5xAH4AHXQAC1NVQlRSQUNUSU9Oc3EAfgACc3EAfgAHAAAAAncEAAAAAnEAfgA9c3EAfgACc3EAfgAHAAAAAHcEAAAAAHhxAH4ALnNxAH4AAnNxAH4ABwAAAAJ3BAAAAAJzcQB+AAJzcQB+AAcAAAACdwQAAAACc3EAfgACc3EAfgAHAAAAAHcEAAAAAHhxAH4ANnEAfgBJcQB+AC94cQB+AEFxAH4AR3EAfgBFeH5xAH4AHXQADk1VTFRJUExJQ0FUSU9OcHhxAH4ATXB4cQB+ADtxAH4ASXhxAH4AQXEAfgAncQB+AEV4cQB+AE1wc3EAfgACc3EAfgAHAAAAAncEAAAAAnNxAH4AAnNxAH4ABwAAAAJ3BAAAAAJzcQB+AAJzcQB+AAcAAAACdwQAAAACc3EAfgACc3EAfgAHAAAAAncEAAAAAnNxAH4AAnNxAH4ABwAAAAJ3BAAAAAJzcQB+AAJzcQB+AAcAAAAAdwQAAAAAeHNxAH4ADXQAA3gxNXEAfgBXc3EAfgACc3EAfgAHAAAAAHcEAAAAAHhxAH4AW3NxAH4AAnNxAH4ABwAAAAJ3BAAAAAJzcQB+AAJzcQB+AAcAAAAAdwQAAAAAeHNxAH4ADXQAA3gwMnEAfgBfcQB+AF14cQB+AE1zcQB+AAJzcQB+AAcAAAACdwQAAAACcQB+AF9zcQB+AAJzcQB+AAcAAAACdwQAAAACc3EAfgACc3EAfgAHAAAAAHcEAAAAAHhxAH4AW3EAfgBnc3EAfgACc3EAfgAHAAAAAHcEAAAAAHhxAH4AY3EAfgBneHEAfgBNc3EAfgACc3EAfgAHAAAAAncEAAAAAnNxAH4AAnNxAH4ABwAAAAB3BAAAAAB4cQB+AFtxAH4AbXEAfgBneHEAfgBNc3EAfgACc3EAfgAHAAAAAncEAAAAAnEAfgBtc3EAfgACc3EAfgAHAAAAAncEAAAAAnNxAH4AAnNxAH4ABwAAAAJ3BAAAAAJzcQB+AAJzcQB+AAcAAAACdwQAAAACc3EAfgACc3EAfgAHAAAAAHcEAAAAAHhxAH4AW3EAfgB3c3EAfgACc3EAfgAHAAAAAHcEAAAAAHhxAH4AY3EAfgB3eHEAfgBNcQB+AHVzcQB+AAJzcQB+AAcAAAAAdwQAAAAAeHEAfgBbc3EAfgACc3EAfgAHAAAAAncEAAAAAnNxAH4AAnNxAH4ABwAAAAB3BAAAAAB4c3EAfgANdAADeDAzcQB+AH9xAH4AfXhxAH4ATXNxAH4AAnNxAH4ABwAAAAJ3BAAAAAJxAH4Af3NxAH4AAnNxAH4ABwAAAAJ3BAAAAAJzcQB+AAJzcQB+AAcAAAACdwQAAAACc3EAfgACc3EAfgAHAAAAAHcEAAAAAHhxAH4AW3EAfgCJc3EAfgACc3EAfgAHAAAAAHcEAAAAAHhxAH4AY3EAfgCJeHEAfgBNcQB+AIdzcQB+AAJzcQB+AAcAAAAAdwQAAAAAeHNxAH4ADXQAA3gxMHEAfgCHeHEAfgBNcQB+AIV4cQB+AE1zcQB+AAJzcQB+AAcAAAACdwQAAAACc3EAfgACc3EAfgAHAAAAAncEAAAAAnNxAH4AAnNxAH4ABwAAAAJ3BAAAAAJzcQB+AAJzcQB+AAcAAAAAdwQAAAAAeHEAfgBbcQB+AJdzcQB+AAJzcQB+AAcAAAAAdwQAAAAAeHEAfgBbcQB+AJd4cQB+AE1xAH4AlXNxAH4AAnNxAH4ABwAAAAB3BAAAAAB4cQB+AGNxAH4AlXhxAH4ATXEAfgCTcQB+AIV4cQB+AE1zcQB+AAJzcQB+AAcAAAACdwQAAAACcQB+AJNzcQB+AAJzcQB+AAcAAAAAdwQAAAAAeHEAfgBjc3EAfgACc3EAfgAHAAAAAncEAAAAAnNxAH4AAnNxAH4ABwAAAAJ3BAAAAAJzcQB+AAJzcQB+AAcAAAACdwQAAAACc3EAfgACc3EAfgAHAAAAAncEAAAAAnNxAH4AAnNxAH4ABwAAAAB3BAAAAAB4cQB+AFtxAH4AqXNxAH4AAnNxAH4ABwAAAAB3BAAAAAB4cQB+AFtxAH4AqXhxAH4ATXEAfgCnc3EAfgACc3EAfgAHAAAAAncEAAAAAnNxAH4AAnNxAH4ABwAAAAB3BAAAAAB4cQB+AFtxAH4Ar3NxAH4AAnNxAH4ABwAAAAB3BAAAAAB4cQB+AGNxAH4Ar3hxAH4ATXEAfgCneHEAfgBNcQB+AKVzcQB+AAJzcQB+AAcAAAACdwQAAAACc3EAfgACc3EAfgAHAAAAAncEAAAAAnNxAH4AAnNxAH4ABwAAAAJ3BAAAAAJzcQB+AAJzcQB+AAcAAAAAdwQAAAAAeHEAfgBbcQB+ALlzcQB+AAJzcQB+AAcAAAAAdwQAAAAAeHEAfgBjcQB+ALl4cQB+AE1xAH4At3NxAH4AAnNxAH4ABwAAAAB3BAAAAAB4cQB+AFtxAH4At3hxAH4ATXEAfgC1c3EAfgACc3EAfgAHAAAAAHcEAAAAAHhxAH4AkXEAfgC1eHEAfgBNcQB+AKV4cQB+AE1xAH4Ao3EAfgCheHEAfgBNc3EAfgACc3EAfgAHAAAAAncEAAAAAnEAfgCjc3EAfgACc3EAfgAHAAAAAHcEAAAAAHhxAH4AkXEAfgDDeHEAfgBNcHhxAH4ATXNxAH4AAnNxAH4ABwAAAAJ3BAAAAAJxAH4An3EAfgDFeHEAfgBNcHhxAH4ATXEAfgBzcQB+AId4cQB+AE1zcQB+AAJzcQB+AAcAAAACdwQAAAACc3EAfgACc3EAfgAHAAAAAncEAAAAAnNxAH4AAnNxAH4ABwAAAAJ3BAAAAAJzcQB+AAJzcQB+AAcAAAAAdwQAAAAAeHEAfgBbcQB+AM1zcQB+AAJzcQB+AAcAAAAAdwQAAAAAeHEAfgBbcQB+AM14cQB+AE1xAH4Ay3NxAH4AAnNxAH4ABwAAAAJ3BAAAAAJzcQB+AAJzcQB+AAcAAAAAdwQAAAAAeHEAfgBbcQB+ANNzcQB+AAJzcQB+AAcAAAACdwQAAAACc3EAfgACc3EAfgAHAAAAAHcEAAAAAHhxAH4AW3EAfgDXc3EAfgACc3EAfgAHAAAAAHcEAAAAAHhxAH4AY3EAfgDXeHEAfgBNcQB+ANN4cQB+AE1xAH4Ay3hxAH4ATXEAfgDJcQB+AHN4cQB+AE1zcQB+AAJzcQB+AAcAAAACdwQAAAACcQB+AMlxAH4AoXhxAH4ATXNxAH4AAnNxAH4ABwAAAAJ3BAAAAAJxAH4A3XEAfgDFeHEAfgBNcHhxAH4ATXNxAH4AAnNxAH4ABwAAAAJ3BAAAAAJxAH4AcXEAfgCheHEAfgBNc3EAfgACc3EAfgAHAAAAAncEAAAAAnEAfgDhcQB+AMV4cQB+AE1weHEAfgBNc3EAfgACc3EAfgAHAAAAAncEAAAAAnEAfgBlcQB+AHN4cQB+AE1zcQB+AAJzcQB+AAcAAAACdwQAAAACcQB+AOVxAH4AoXhxAH4ATXNxAH4AAnNxAH4ABwAAAAJ3BAAAAAJxAH4A53EAfgDFeHEAfgBNcHhxAH4ATXEAfgBVcQB+AGd4cQB+AE1xAH4AU3EAfgBzeHEAfgBNcQB+AFFxAH4AoXhxAH4ATXEAfgBPcQB+AMV4cQB+AE1wc3EAfgACc3EAfgAHAAAAAncEAAAAAnNxAH4AAnNxAH4ABwAAAAB3BAAAAAB4c3EAfgANdAADeDA0cQB+AOtzcQB+AAJzcQB+AAcAAAAAdwQAAAAAeHNxAH4ALUAAAAAAAAAAc3EAfgACc3EAfgAHAAAAAncEAAAAAnNxAH4AAnNxAH4ABwAAAAB3BAAAAAB4cQB+APNxAH4A9HEAfgDxeH5xAH4AHXQADVBST1RfRElWSVNJT05weHEAfgD4cHg=";
    "rO0ABXNyABFqYXZhLnV0aWwuQ29sbFNlcleOq7Y6G6gRAwABSQADdGFneHAAAAAEdwQAAAAEc3IAN2lvLmdpdGh1Yi5lcmljbWVkdmV0LmpnZWEuY29yZS5yZXByZXNlbnRhdGlvbi50cmVlLlRyZWUKs7/qnQrEZQIAA0wACGNoaWxkcmVudAAQTGphdmEvdXRpbC9MaXN0O0wAB2NvbnRlbnR0ABJMamF2YS9sYW5nL09iamVjdDtMAAZwYXJlbnR0ADlMaW8vZ2l0aHViL2VyaWNtZWR2ZXQvamdlYS9jb3JlL3JlcHJlc2VudGF0aW9uL3RyZWUvVHJlZTt4cHNyABNqYXZhLnV0aWwuQXJyYXlMaXN0eIHSHZnHYZ0DAAFJAARzaXpleHAAAAACdwQAAAACc3EAfgACc3EAfgAHAAAAAncEAAAAAnNxAH4AAnNxAH4ABwAAAAB3BAAAAAB4c3IAS2lvLmdpdGh1Yi5lcmljbWVkdmV0LmpnZWEuY29yZS5yZXByZXNlbnRhdGlvbi50cmVlLm51bWVyaWMuRWxlbWVudCRWYXJpYWJsZQAAAAAAAAAAAgABTAAEbmFtZXQAEkxqYXZhL2xhbmcvU3RyaW5nO3hwdAADeDAxcQB+AAlzcQB+AAJzcQB+AAcAAAAAdwQAAAAAeHEAfgAPc3EAfgACc3EAfgAHAAAAAncEAAAAAnNxAH4AAnNxAH4ABwAAAAJ3BAAAAAJzcQB+AAJzcQB+AAcAAAACdwQAAAACc3EAfgACc3EAfgAHAAAAAHcEAAAAAHhxAH4AD3EAfgAXc3EAfgACc3EAfgAHAAAAAHcEAAAAAHhxAH4AD3EAfgAXeH5yAEtpby5naXRodWIuZXJpY21lZHZldC5qZ2VhLmNvcmUucmVwcmVzZW50YXRpb24udHJlZS5udW1lcmljLkVsZW1lbnQkT3BlcmF0b3IAAAAAAAAAABIAAHhyAA5qYXZhLmxhbmcuRW51bQAAAAAAAAAAEgAAeHB0AAhBRERJVElPTnEAfgAVc3EAfgACc3EAfgAHAAAAAHcEAAAAAHhxAH4AD3EAfgAVeHEAfgAfcQB+ABNxAH4AEXhxAH4AH3NxAH4AAnNxAH4ABwAAAAJ3BAAAAAJxAH4AE3NxAH4AAnNxAH4ABwAAAAB3BAAAAAB4cQB+AA9zcQB+AAJzcQB+AAcAAAACdwQAAAACc3EAfgACc3EAfgAHAAAAAHcEAAAAAHhxAH4AD3EAfgAncQB+ACV4cQB+AB9weHEAfgAfcHhxAH4AH3EAfgAGcQB+ACV4cQB+AB9wc3EAfgACc3EAfgAHAAAAAncEAAAAAnNxAH4AAnNxAH4ABwAAAAJ3BAAAAAJzcQB+AAJzcQB+AAcAAAACdwQAAAACc3EAfgACc3EAfgAHAAAAAHcEAAAAAHhzcgBLaW8uZ2l0aHViLmVyaWNtZWR2ZXQuamdlYS5jb3JlLnJlcHJlc2VudGF0aW9uLnRyZWUubnVtZXJpYy5FbGVtZW50JENvbnN0YW50AAAAAAAAAAACAAFEAAV2YWx1ZXhwAAAAAAAAAABxAH4AL3NxAH4AAnNxAH4ABwAAAAB3BAAAAAB4c3EAfgAzP+AAAAAAAABzcQB+AAJzcQB+AAcAAAACdwQAAAACc3EAfgACc3EAfgAHAAAAAHcEAAAAAHhzcQB+ADM/8AAAAAAAAHEAfgA4cQB+ADV4fnEAfgAddAALU1VCVFJBQ1RJT05zcQB+AAJzcQB+AAcAAAACdwQAAAACcQB+ADhzcQB+AAJzcQB+AAcAAAAAdwQAAAAAeHEAfgA0c3EAfgACc3EAfgAHAAAAAncEAAAAAnNxAH4AAnNxAH4ABwAAAAJ3BAAAAAJzcQB+AAJzcQB+AAcAAAACdwQAAAACc3EAfgACc3EAfgAHAAAAAHcEAAAAAHhxAH4ANHEAfgBHc3EAfgACc3EAfgAHAAAAAncEAAAAAnNxAH4AAnNxAH4ABwAAAAB3BAAAAAB4c3EAfgAzQBIAAAAAAABxAH4AS3NxAH4AAnNxAH4ABwAAAAB3BAAAAAB4cQB+ADdxAH4AS3h+cQB+AB10AAhQUk9UX0xPR3EAfgBHeHEAfgA9cQB+AEVzcQB+AAJzcQB+AAcAAAAAdwQAAAAAeHEAfgA0cQB+AEV4fnEAfgAddAAOTVVMVElQTElDQVRJT05xAH4AQ3EAfgBBeHEAfgBWc3EAfgACc3EAfgAHAAAAAncEAAAAAnEAfgBDc3EAfgACc3EAfgAHAAAAAHcEAAAAAHhxAH4ANHEAfgBYeHEAfgBWcHhxAH4AVnNxAH4AAnNxAH4ABwAAAAJ3BAAAAAJxAH4AP3EAfgBaeHEAfgBWcHhxAH4APXEAfgAtcQB+AEF4cQB+AFZxAH4AK3EAfgBaeHEAfgBWcHNxAH4AAnNxAH4ABwAAAAJ3BAAAAAJzcQB+AAJzcQB+AAcAAAACdwQAAAACc3EAfgACc3EAfgAHAAAAAncEAAAAAnNxAH4AAnNxAH4ABwAAAAJ3BAAAAAJzcQB+AAJzcQB+AAcAAAACdwQAAAACc3EAfgACc3EAfgAHAAAAAncEAAAAAnNxAH4AAnNxAH4ABwAAAAJ3BAAAAAJzcQB+AAJzcQB+AAcAAAAAdwQAAAAAeHNxAH4ADXQAA3gxNXEAfgBqc3EAfgACc3EAfgAHAAAAAHcEAAAAAHhzcQB+AA10AAN4MDJzcQB+AAJzcQB+AAcAAAACdwQAAAACc3EAfgACc3EAfgAHAAAAAHcEAAAAAHhzcQB+AA10AAN4MTBxAH4AdHEAfgBweHEAfgBWc3EAfgACc3EAfgAHAAAAAncEAAAAAnEAfgB0c3EAfgACc3EAfgAHAAAAAncEAAAAAnNxAH4AAnNxAH4ABwAAAAB3BAAAAAB4c3EAfgANdAADeDEzcQB+AHxzcQB+AAJzcQB+AAcAAAAAdwQAAAAAeHEAfgByc3EAfgACc3EAfgAHAAAAAncEAAAAAnNxAH4AAnNxAH4ABwAAAAB3BAAAAAB4cQB+AHJxAH4AhHEAfgCCeHEAfgBWc3EAfgACc3EAfgAHAAAAAncEAAAAAnNxAH4AAnNxAH4ABwAAAAJ3BAAAAAJzcQB+AAJzcQB+AAcAAAAAdwQAAAAAeHEAfgBucQB+AIpzcQB+AAJzcQB+AAcAAAAAdwQAAAAAeHEAfgBycQB+AIp4cQB+AFZxAH4AiHEAfgCEeHEAfgBWc3EAfgACc3EAfgAHAAAAAncEAAAAAnEAfgCIc3EAfgACc3EAfgAHAAAAAHcEAAAAAHhxAH4AcnNxAH4AAnNxAH4ABwAAAAJ3BAAAAAJzcQB+AAJzcQB+AAcAAAACdwQAAAACc3EAfgACc3EAfgAHAAAAAHcEAAAAAHhxAH4AbnEAfgCWcQB+AHx4cQB+AFZxAH4AlHEAfgCSeHEAfgBWc3EAfgACc3EAfgAHAAAAAncEAAAAAnEAfgCUc3EAfgACc3EAfgAHAAAAAHcEAAAAAHhxAH4AcnEAfgCaeHEAfgBWc3EAfgACc3EAfgAHAAAAAncEAAAAAnEAfgCac3EAfgACc3EAfgAHAAAAAncEAAAAAnNxAH4AAnNxAH4ABwAAAAJ3BAAAAAJzcQB+AAJzcQB+AAcAAAAAdwQAAAAAeHEAfgBucQB+AKJzcQB+AAJzcQB+AAcAAAAAdwQAAAAAeHEAfgBycQB+AKJ4cQB+AFZxAH4AoHNxAH4AAnNxAH4ABwAAAAJ3BAAAAAJzcQB+AAJzcQB+AAcAAAACdwQAAAACc3EAfgACc3EAfgAHAAAAAHcEAAAAAHhxAH4AbnEAfgCqc3EAfgACc3EAfgAHAAAAAHcEAAAAAHhxAH4AbnEAfgCqeHEAfgBWcQB+AKhzcQB+AAJzcQB+AAcAAAACdwQAAAACc3EAfgACc3EAfgAHAAAAAncEAAAAAnNxAH4AAnNxAH4ABwAAAAJ3BAAAAAJzcQB+AAJzcQB+AAcAAAAAdwQAAAAAeHEAfgBucQB+ALRzcQB+AAJzcQB+AAcAAAAAdwQAAAAAeHEAfgBycQB+ALR4cQB+AFZxAH4AsnNxAH4AAnNxAH4ABwAAAAB3BAAAAAB4cQB+AHJxAH4AsnhxAH4AVnEAfgCwc3EAfgACc3EAfgAHAAAAAHcEAAAAAHhzcQB+AA10AAN4MDNzcQB+AAJzcQB+AAcAAAACdwQAAAACc3EAfgACc3EAfgAHAAAAAncEAAAAAnNxAH4AAnNxAH4ABwAAAAJ3BAAAAAJzcQB+AAJzcQB+AAcAAAAAdwQAAAAAeHEAfgBucQB+AMRzcQB+AAJzcQB+AAcAAAAAdwQAAAAAeHEAfgBycQB+AMR4cQB+AFZxAH4AwnNxAH4AAnNxAH4ABwAAAAB3BAAAAAB4cQB+AL5xAH4AwnhxAH4AVnEAfgDAcQB+ALx4cQB+AFZzcQB+AAJzcQB+AAcAAAACdwQAAAACc3EAfgACc3EAfgAHAAAAAncEAAAAAnNxAH4AAnNxAH4ABwAAAAB3BAAAAAB4cQB+AG5xAH4AznNxAH4AAnNxAH4ABwAAAAB3BAAAAAB4cQB+AG5xAH4AznhxAH4AVnEAfgDMcQB+AMB4cQB+AFZzcQB+AAJzcQB+AAcAAAACdwQAAAACc3EAfgACc3EAfgAHAAAAAncEAAAAAnNxAH4AAnNxAH4ABwAAAAB3BAAAAAB4cQB+AG5xAH4A1nNxAH4AAnNxAH4ABwAAAAB3BAAAAAB4cQB+AHJxAH4A1nhxAH4AVnEAfgDUcQB+AMx4cQB+AFZzcQB+AAJzcQB+AAcAAAACdwQAAAACc3EAfgACc3EAfgAHAAAAAncEAAAAAnNxAH4AAnNxAH4ABwAAAAB3BAAAAAB4cQB+AL5xAH4A3nNxAH4AAnNxAH4ABwAAAAB3BAAAAAB4cQB+AIBxAH4A3nhxAH4AVnEAfgDccQB+ANR4cQB+AFZzcQB+AAJzcQB+AAcAAAACdwQAAAACcQB+ANxzcQB+AAJzcQB+AAcAAAAAdwQAAAAAeHEAfgByc3EAfgACc3EAfgAHAAAAAncEAAAAAnNxAH4AAnNxAH4ABwAAAAJ3BAAAAAJzcQB+AAJzcQB+AAcAAAACdwQAAAACc3EAfgACc3EAfgAHAAAAAHcEAAAAAHhxAH4AbnEAfgDsc3EAfgACc3EAfgAHAAAAAHcEAAAAAHhxAH4AeHEAfgDseHEAfgBWcQB+AOpzcQB+AAJzcQB+AAcAAAAAdwQAAAAAeHEAfgBycQB+AOp4cQB+AFZxAH4A6HEAfgDmeHEAfgBWc3EAfgACc3EAfgAHAAAAAncEAAAAAnEAfgDoc3EAfgACc3EAfgAHAAAAAHcEAAAAAHhxAH4AeHEAfgD0eHEAfgBWcHhxAH4AVnNxAH4AAnNxAH4ABwAAAAJ3BAAAAAJxAH4A5HEAfgD2eHEAfgBWcHhxAH4AVnNxAH4AAnNxAH4ABwAAAAJ3BAAAAAJzcQB+AAJzcQB+AAcAAAAAdwQAAAAAeHEAfgBycQB+APpxAH4AsHhxAH4AVnNxAH4AAnNxAH4ABwAAAAJ3BAAAAAJzcQB+AAJzcQB+AAcAAAACdwQAAAACc3EAfgACc3EAfgAHAAAAAHcEAAAAAHhxAH4AbnEAfgEAc3EAfgACc3EAfgAHAAAAAHcEAAAAAHhxAH4AcnEAfgEAeHEAfgBWcQB+AP5xAH4A+nhxAH4AVnNxAH4AAnNxAH4ABwAAAAJ3BAAAAAJzcQB+AAJzcQB+AAcAAAACdwQAAAACc3EAfgACc3EAfgAHAAAAAncEAAAAAnNxAH4AAnNxAH4ABwAAAAJ3BAAAAAJzcQB+AAJzcQB+AAcAAAACdwQAAAACc3EAfgACc3EAfgAHAAAAAHcEAAAAAHhxAH4AbnEAfgEOc3EAfgACc3EAfgAHAAAAAHcEAAAAAHhxAH4AcnEAfgEOeHEAfgBWcQB+AQxzcQB+AAJzcQB+AAcAAAACdwQAAAACc3EAfgACc3EAfgAHAAAAAHcEAAAAAHhxAH4AgHEAfgEUc3EAfgACc3EAfgAHAAAAAHcEAAAAAHhxAH4AcnEAfgEUeHEAfgBWcQB+AQx4cQB+AFZxAH4BCnNxAH4AAnNxAH4ABwAAAAB3BAAAAAB4cQB+AHJxAH4BCnhxAH4AVnEAfgEIc3EAfgACc3EAfgAHAAAAAHcEAAAAAHhxAH4AcnEAfgEIeHEAfgBWcQB+AQZxAH4A/nhxAH4AVnNxAH4AAnNxAH4ABwAAAAJ3BAAAAAJxAH4BBnEAfgDmeHEAfgBWc3EAfgACc3EAfgAHAAAAAncEAAAAAnEAfgEecQB+APZ4cQB+AFZweHEAfgBWcQB+AKB4cQB+AFZxAH4AnnhxAH4AVnNxAH4AAnNxAH4ABwAAAAJ3BAAAAAJxAH4AnnEAfgDmeHEAfgBWc3EAfgACc3EAfgAHAAAAAncEAAAAAnEAfgEicQB+APZ4cQB+AFZweHEAfgBWc3EAfgACc3EAfgAHAAAAAncEAAAAAnEAfgCQcQB+AJx4cQB+AFZzcQB+AAJzcQB+AAcAAAACdwQAAAACcQB+ASZxAH4AoHhxAH4AVnNxAH4AAnNxAH4ABwAAAAJ3BAAAAAJxAH4BKHEAfgDmeHEAfgBWc3EAfgACc3EAfgAHAAAAAncEAAAAAnEAfgEqcQB+APZ4cQB+AFZweHEAfgBWcQB+AJZ4cQB+AFZzcQB+AAJzcQB+AAcAAAACdwQAAAACcQB+AHpxAH4AknhxAH4AVnNxAH4AAnNxAH4ABwAAAAJ3BAAAAAJxAH4BLnEAfgCceHEAfgBWc3EAfgACc3EAfgAHAAAAAncEAAAAAnEAfgEwcQB+AKB4cQB+AFZzcQB+AAJzcQB+AAcAAAACdwQAAAACcQB+ATJxAH4A5nhxAH4AVnNxAH4AAnNxAH4ABwAAAAJ3BAAAAAJxAH4BNHEAfgD2eHEAfgBWcHhxAH4AVnEAfgBocQB+AHx4cQB+AFZxAH4AZnEAfgCSeHEAfgBWcQB+AGRxAH4AnHhxAH4AVnEAfgBicQB+AKB4cQB+AFZxAH4AYHEAfgDmeHEAfgBWcQB+AF5xAH4A9nhxAH4AVnBzcQB+AAJzcQB+AAcAAAACdwQAAAACc3EAfgACc3EAfgAHAAAAAHcEAAAAAHhzcQB+AA10AAN4MDRxAH4BOHNxAH4AAnNxAH4ABwAAAAB3BAAAAAB4c3EAfgAzQAAAAAAAAABzcQB+AAJzcQB+AAcAAAACdwQAAAACc3EAfgACc3EAfgAHAAAAAHcEAAAAAHhxAH4BQHEAfgFBcQB+AT54fnEAfgAddAANUFJPVF9ESVZJU0lPTnB4cQB+AUVweA==";
    "rO0ABXNyABFqYXZhLnV0aWwuQ29sbFNlcleOq7Y6G6gRAwABSQADdGFneHAAAAAEdwQAAAAEc3IAN2lvLmdpdGh1Yi5lcmljbWVkdmV0LmpnZWEuY29yZS5yZXByZXNlbnRhdGlvbi50cmVlLlRyZWUKs7/qnQrEZQIAA0wACGNoaWxkcmVudAAQTGphdmEvdXRpbC9MaXN0O0wAB2NvbnRlbnR0ABJMamF2YS9sYW5nL09iamVjdDtMAAZwYXJlbnR0ADlMaW8vZ2l0aHViL2VyaWNtZWR2ZXQvamdlYS9jb3JlL3JlcHJlc2VudGF0aW9uL3RyZWUvVHJlZTt4cHNyABNqYXZhLnV0aWwuQXJyYXlMaXN0eIHSHZnHYZ0DAAFJAARzaXpleHAAAAACdwQAAAACc3EAfgACc3EAfgAHAAAAAncEAAAAAnNxAH4AAnNxAH4ABwAAAAB3BAAAAAB4c3IAS2lvLmdpdGh1Yi5lcmljbWVkdmV0LmpnZWEuY29yZS5yZXByZXNlbnRhdGlvbi50cmVlLm51bWVyaWMuRWxlbWVudCRWYXJpYWJsZQAAAAAAAAAAAgABTAAEbmFtZXQAEkxqYXZhL2xhbmcvU3RyaW5nO3hwdAADeDAxcQB+AAlzcQB+AAJzcQB+AAcAAAAAdwQAAAAAeHEAfgAPc3EAfgACc3EAfgAHAAAAAncEAAAAAnNxAH4AAnNxAH4ABwAAAAJ3BAAAAAJzcQB+AAJzcQB+AAcAAAAAdwQAAAAAeHEAfgAPcQB+ABVzcQB+AAJzcQB+AAcAAAAAdwQAAAAAeHEAfgAPcQB+ABV4fnIAS2lvLmdpdGh1Yi5lcmljbWVkdmV0LmpnZWEuY29yZS5yZXByZXNlbnRhdGlvbi50cmVlLm51bWVyaWMuRWxlbWVudCRPcGVyYXRvcgAAAAAAAAAAEgAAeHIADmphdmEubGFuZy5FbnVtAAAAAAAAAAASAAB4cHQACEFERElUSU9OcQB+ABNxAH4AEXhxAH4AHXNxAH4AAnNxAH4ABwAAAAJ3BAAAAAJxAH4AE3NxAH4AAnNxAH4ABwAAAAB3BAAAAAB4cQB+AA9xAH4AH3hxAH4AHXB4cQB+AB1xAH4ABnEAfgAheHEAfgAdcHNxAH4AAnNxAH4ABwAAAAJ3BAAAAAJzcQB+AAJzcQB+AAcAAAACdwQAAAACc3EAfgACc3EAfgAHAAAAAncEAAAAAnNxAH4AAnNxAH4ABwAAAAB3BAAAAAB4c3EAfgANdAADeDE0cQB+ACdzcQB+AAJzcQB+AAcAAAAAdwQAAAAAeHEAfgArc3EAfgACc3EAfgAHAAAAAncEAAAAAnNxAH4AAnNxAH4ABwAAAAB3BAAAAAB4c3IAS2lvLmdpdGh1Yi5lcmljbWVkdmV0LmpnZWEuY29yZS5yZXByZXNlbnRhdGlvbi50cmVlLm51bWVyaWMuRWxlbWVudCRDb25zdGFudAAAAAAAAAAAAgABRAAFdmFsdWV4cAAAAAAAAAAAcQB+AC9xAH4ALXh+cQB+ABt0AAhQUk9UX0xPR3NxAH4AAnNxAH4ABwAAAAJ3BAAAAAJxAH4AL3NxAH4AAnNxAH4ABwAAAAJ3BAAAAAJzcQB+AAJzcQB+AAcAAAAAdwQAAAAAeHNxAH4AMz/wAAAAAAAAcQB+ADlzcQB+AAJzcQB+AAcAAAACdwQAAAACc3EAfgACc3EAfgAHAAAAAHcEAAAAAHhxAH4ANHEAfgA+c3EAfgACc3EAfgAHAAAAAncEAAAAAnNxAH4AAnNxAH4ABwAAAAB3BAAAAAB4c3EAfgAzQBIAAAAAAABxAH4AQnNxAH4AAnNxAH4ABwAAAAB3BAAAAAB4c3EAfgAzP+AAAAAAAABzcQB+AAJzcQB+AAcAAAACdwQAAAACc3EAfgACc3EAfgAHAAAAAncEAAAAAnNxAH4AAnNxAH4ABwAAAAJ3BAAAAAJzcQB+AAJzcQB+AAcAAAAAdwQAAAAAeHEAfgA0cQB+AE5zcQB+AAJzcQB+AAcAAAAAdwQAAAAAeHEAfgBJcQB+AE54fnEAfgAbdAALU1VCVFJBQ1RJT05xAH4ATHNxAH4AAnNxAH4ABwAAAAB3BAAAAAB4cQB+ADRxAH4ATHh+cQB+ABt0AA5NVUxUSVBMSUNBVElPTnEAfgBKcQB+AEd4cQB+ADVzcQB+AAJzcQB+AAcAAAACdwQAAAACc3EAfgACc3EAfgAHAAAAAHcEAAAAAHhxAH4ANHEAfgBacQB+AEp4cQB+AFRzcQB+AAJzcQB+AAcAAAACdwQAAAACc3EAfgACc3EAfgAHAAAAAHcEAAAAAHhxAH4APXEAfgBecQB+AFp4cQB+AFhzcQB+AAJzcQB+AAcAAAACdwQAAAACc3EAfgACc3EAfgAHAAAAAncEAAAAAnNxAH4AAnNxAH4ABwAAAAB3BAAAAAB4cQB+ACtxAH4AZHNxAH4AAnNxAH4ABwAAAAB3BAAAAAB4cQB+ACtxAH4AZHhxAH4ANXEAfgBicQB+AF54cQB+AFhzcQB+AAJzcQB+AAcAAAACdwQAAAACcQB+AGJzcQB+AAJzcQB+AAcAAAAAdwQAAAAAeHEAfgA0c3EAfgACc3EAfgAHAAAAAncEAAAAAnNxAH4AAnNxAH4ABwAAAAJ3BAAAAAJzcQB+AAJzcQB+AAcAAAAAdwQAAAAAeHEAfgBJcQB+AHBzcQB+AAJzcQB+AAcAAAACdwQAAAACc3EAfgACc3EAfgAHAAAAAHcEAAAAAHhxAH4ARnEAfgB0c3EAfgACc3EAfgAHAAAAAHcEAAAAAHhxAH4ASXNxAH4AAnNxAH4ABwAAAAJ3BAAAAAJzcQB+AAJzcQB+AAcAAAAAdwQAAAAAeHEAfgBJcQB+AHpxAH4AeHhxAH4ANXNxAH4AAnNxAH4ABwAAAAJ3BAAAAAJzcQB+AAJzcQB+AAcAAAAAdwQAAAAAeHEAfgA0cQB+AH5xAH4AenhxAH4AVHNxAH4AAnNxAH4ABwAAAAJ3BAAAAAJxAH4AfnEAfgBseHEAfgBYcHhxAH4ANXEAfgBweHEAfgBUcQB+AG5xAH4AbHhxAH4AWHB4cQB+AFhweHEAfgA1c3EAfgACc3EAfgAHAAAAAncEAAAAAnNxAH4AAnNxAH4ABwAAAAB3BAAAAAB4cQB+AD1xAH4AhHEAfgBCeHEAfgBUc3EAfgACc3EAfgAHAAAAAncEAAAAAnNxAH4AAnNxAH4ABwAAAAB3BAAAAAB4cQB+AD1xAH4AiHEAfgCEeHEAfgBYc3EAfgACc3EAfgAHAAAAAncEAAAAAnNxAH4AAnNxAH4ABwAAAAJ3BAAAAAJzcQB+AAJzcQB+AAcAAAAAdwQAAAAAeHEAfgArcQB+AI5zcQB+AAJzcQB+AAcAAAAAdwQAAAAAeHEAfgArcQB+AI54cQB+ADVxAH4AjHEAfgCIeHEAfgBYc3EAfgACc3EAfgAHAAAAAncEAAAAAnEAfgCMcQB+AGx4cQB+AFhweHEAfgBUc3EAfgACc3EAfgAHAAAAAncEAAAAAnNxAH4AAnNxAH4ABwAAAAB3BAAAAAB4cQB+ADRxAH4AlnEAfgA+eHEAfgBYc3EAfgACc3EAfgAHAAAAAncEAAAAAnNxAH4AAnNxAH4ABwAAAAJ3BAAAAAJzcQB+AAJzcQB+AAcAAAAAdwQAAAAAeHEAfgArcQB+AJxzcQB+AAJzcQB+AAcAAAAAdwQAAAAAeHEAfgArcQB+AJx4cQB+ADVxAH4AmnEAfgCWeHEAfgBYc3EAfgACc3EAfgAHAAAAAncEAAAAAnEAfgCacQB+AGx4cQB+AFhweHEAfgBYc3EAfgACc3EAfgAHAAAAAncEAAAAAnNxAH4AAnNxAH4ABwAAAAJ3BAAAAAJzcQB+AAJzcQB+AAcAAAAAdwQAAAAAeHEAfgBGcQB+AKZzcQB+AAJzcQB+AAcAAAAAdwQAAAAAeHEAfgBJcQB+AKZ4cQB+ADVxAH4ApHEAfgA5eHEAfgBYc3EAfgACc3EAfgAHAAAAAncEAAAAAnEAfgCkcQB+AGx4cQB+AFhweHEAfgBYc3EAfgACc3EAfgAHAAAAAncEAAAAAnEAfgA3cQB+AGx4cQB+AFhweHEAfgA1cQB+ACVxAH4AOXhxAH4AWHEAfgAjcQB+AGx4cQB+AFhwc3EAfgACc3EAfgAHAAAAAncEAAAAAnNxAH4AAnNxAH4ABwAAAAJ3BAAAAAJzcQB+AAJzcQB+AAcAAAACdwQAAAACc3EAfgACc3EAfgAHAAAAAHcEAAAAAHhzcQB+ADNACAAAAAAAAHEAfgC0c3EAfgACc3EAfgAHAAAAAHcEAAAAAHhxAH4AuHNxAH4AAnNxAH4ABwAAAAJ3BAAAAAJzcQB+AAJzcQB+AAcAAAACdwQAAAACc3EAfgACc3EAfgAHAAAAAncEAAAAAnNxAH4AAnNxAH4ABwAAAAJ3BAAAAAJzcQB+AAJzcQB+AAcAAAAAdwQAAAAAeHNxAH4ADXQAA3gxNXEAfgDBc3EAfgACc3EAfgAHAAAAAHcEAAAAAHhzcQB+AA10AAN4MDJxAH4AwXhxAH4AWHEAfgC/c3EAfgACc3EAfgAHAAAAAHcEAAAAAHhxAH4AyXEAfgC/eHEAfgBYcQB+AL1zcQB+AAJzcQB+AAcAAAAAdwQAAAAAeHNxAH4ADXQAA3gwM3EAfgC9eHEAfgBYcQB+ALtxAH4AuXhxAH4AVHNxAH4AAnNxAH4ABwAAAAJ3BAAAAAJxAH4Au3NxAH4AAnNxAH4ABwAAAAJ3BAAAAAJzcQB+AAJzcQB+AAcAAAAAdwQAAAAAeHEAfgC4cQB+ANNzcQB+AAJzcQB+AAcAAAAAdwQAAAAAeHNxAH4ADXQAA3gwNHEAfgDTeHEAfgBUc3EAfgACc3EAfgAHAAAAAncEAAAAAnNxAH4AAnNxAH4ABwAAAAB3BAAAAAB4cQB+AMVxAH4A23EAfgDTeHEAfgBYc3EAfgACc3EAfgAHAAAAAncEAAAAAnEAfgDbc3EAfgACc3EAfgAHAAAAAncEAAAAAnNxAH4AAnNxAH4ABwAAAAJ3BAAAAAJzcQB+AAJzcQB+AAcAAAAAdwQAAAAAeHEAfgC4cQB+AONzcQB+AAJzcQB+AAcAAAAAdwQAAAAAeHEAfgC4cQB+AON4cQB+AFRxAH4A4XNxAH4AAnNxAH4ABwAAAAJ3BAAAAAJzcQB+AAJzcQB+AAcAAAAAdwQAAAAAeHEAfgC4cQB+AOlzcQB+AAJzcQB+AAcAAAAAdwQAAAAAeHEAfgDZcQB+AOl4cQB+AFRxAH4A4XhxAH4AWHEAfgDfeHEAfgBYcHhxAH4AWHNxAH4AAnNxAH4ABwAAAAJ3BAAAAAJxAH4A0XEAfgDheHEAfgBYcHhxAH4AVHEAfgCycQB+ANN4cQB+AFhxAH4AsHEAfgDheHEAfgBYcHNxAH4AAnNxAH4ABwAAAAJ3BAAAAAJzcQB+AAJzcQB+AAcAAAAAdwQAAAAAeHEAfgDZcQB+APFzcQB+AAJzcQB+AAcAAAAAdwQAAAAAeHNxAH4AM0AAAAAAAAAAc3EAfgACc3EAfgAHAAAAAncEAAAAAnNxAH4AAnNxAH4ABwAAAAJ3BAAAAAJzcQB+AAJzcQB+AAcAAAAAdwQAAAAAeHEAfgDZcQB+APpzcQB+AAJzcQB+AAcAAAAAdwQAAAAAeHEAfgD3cQB+APp4fnEAfgAbdAANUFJPVF9ESVZJU0lPTnEAfgD4cQB+APV4cQB+AQBweHEAfgEAcHg=";
    "rO0ABXNyABFqYXZhLnV0aWwuQ29sbFNlcleOq7Y6G6gRAwABSQADdGFneHAAAAAEdwQAAAAEc3IAN2lvLmdpdGh1Yi5lcmljbWVkdmV0LmpnZWEuY29yZS5yZXByZXNlbnRhdGlvbi50cmVlLlRyZWUKs7/qnQrEZQIAA0wACGNoaWxkcmVudAAQTGphdmEvdXRpbC9MaXN0O0wAB2NvbnRlbnR0ABJMamF2YS9sYW5nL09iamVjdDtMAAZwYXJlbnR0ADlMaW8vZ2l0aHViL2VyaWNtZWR2ZXQvamdlYS9jb3JlL3JlcHJlc2VudGF0aW9uL3RyZWUvVHJlZTt4cHNyABNqYXZhLnV0aWwuQXJyYXlMaXN0eIHSHZnHYZ0DAAFJAARzaXpleHAAAAACdwQAAAACc3EAfgACc3EAfgAHAAAAAncEAAAAAnNxAH4AAnNxAH4ABwAAAAB3BAAAAAB4c3IAS2lvLmdpdGh1Yi5lcmljbWVkdmV0LmpnZWEuY29yZS5yZXByZXNlbnRhdGlvbi50cmVlLm51bWVyaWMuRWxlbWVudCRWYXJpYWJsZQAAAAAAAAAAAgABTAAEbmFtZXQAEkxqYXZhL2xhbmcvU3RyaW5nO3hwdAADeDAxcQB+AAlzcQB+AAJzcQB+AAcAAAAAdwQAAAAAeHEAfgAPcQB+AAl4fnIAS2lvLmdpdGh1Yi5lcmljbWVkdmV0LmpnZWEuY29yZS5yZXByZXNlbnRhdGlvbi50cmVlLm51bWVyaWMuRWxlbWVudCRPcGVyYXRvcgAAAAAAAAAAEgAAeHIADmphdmEubGFuZy5FbnVtAAAAAAAAAAASAAB4cHQACEFERElUSU9OcQB+AAZzcQB+AAJzcQB+AAcAAAAAdwQAAAAAeHEAfgAPcQB+AAZ4cQB+ABVwc3EAfgACc3EAfgAHAAAAAncEAAAAAnNxAH4AAnNxAH4ABwAAAAJ3BAAAAAJzcQB+AAJzcQB+AAcAAAACdwQAAAACc3EAfgACc3EAfgAHAAAAAncEAAAAAnNxAH4AAnNxAH4ABwAAAAJ3BAAAAAJzcQB+AAJzcQB+AAcAAAACdwQAAAACc3EAfgACc3EAfgAHAAAAAncEAAAAAnNxAH4AAnNxAH4ABwAAAAB3BAAAAAB4c3EAfgANdAADeDE0cQB+ACVzcQB+AAJzcQB+AAcAAAAAdwQAAAAAeHEAfgApcQB+ACV4fnEAfgATdAAIUFJPVF9MT0dxAH4AI3NxAH4AAnNxAH4ABwAAAAJ3BAAAAAJzcQB+AAJzcQB+AAcAAAAAdwQAAAAAeHNyAEtpby5naXRodWIuZXJpY21lZHZldC5qZ2VhLmNvcmUucmVwcmVzZW50YXRpb24udHJlZS5udW1lcmljLkVsZW1lbnQkQ29uc3RhbnQAAAAAAAAAAAIAAUQABXZhbHVleHA/8AAAAAAAAHEAfgAvc3EAfgACc3EAfgAHAAAAAncEAAAAAnNxAH4AAnNxAH4ABwAAAAB3BAAAAAB4c3EAfgAzAAAAAAAAAABxAH4ANXNxAH4AAnNxAH4ABwAAAAB3BAAAAAB4cQB+ADlxAH4ANXh+cQB+ABN0AAtTVUJUUkFDVElPTnNxAH4AAnNxAH4ABwAAAAJ3BAAAAAJzcQB+AAJzcQB+AAcAAAAAdwQAAAAAeHEAfgA5cQB+AD5xAH4ANXh+cQB+ABN0AA5NVUxUSVBMSUNBVElPTnNxAH4AAnNxAH4ABwAAAAJ3BAAAAAJzcQB+AAJzcQB+AAcAAAACdwQAAAACc3EAfgACc3EAfgAHAAAAAHcEAAAAAHhxAH4AKXEAfgBGc3EAfgACc3EAfgAHAAAAAHcEAAAAAHhxAH4AKXEAfgBGeHEAfgAtcQB+AERxAH4APnhxAH4AQnNxAH4AAnNxAH4ABwAAAAJ3BAAAAAJxAH4ARHNxAH4AAnNxAH4ABwAAAAB3BAAAAAB4cQB+ADlxAH4ATHhxAH4AQnNxAH4AAnNxAH4ABwAAAAJ3BAAAAAJxAH4ATHNxAH4AAnNxAH4ABwAAAAJ3BAAAAAJzcQB+AAJzcQB+AAcAAAAAdwQAAAAAeHNxAH4AM0ASAAAAAAAAcQB+AFJzcQB+AAJzcQB+AAcAAAAAdwQAAAAAeHNxAH4AMz/gAAAAAAAAc3EAfgACc3EAfgAHAAAAAncEAAAAAnNxAH4AAnNxAH4ABwAAAAJ3BAAAAAJzcQB+AAJzcQB+AAcAAAAAdwQAAAAAeHEAfgBWcQB+AFxzcQB+AAJzcQB+AAcAAAAAdwQAAAAAeHEAfgBZcQB+AFx4cQB+AC1xAH4AWnEAfgBXeHEAfgAtc3EAfgACc3EAfgAHAAAAAncEAAAAAnNxAH4AAnNxAH4ABwAAAAB3BAAAAAB4cQB+ADlxAH4AYnEAfgBaeHEAfgA8c3EAfgACc3EAfgAHAAAAAncEAAAAAnEAfgBic3EAfgACc3EAfgAHAAAAAHcEAAAAAHhxAH4AKXNxAH4AAnNxAH4ABwAAAAJ3BAAAAAJxAH4AUHEAfgBoeHEAfgAtc3EAfgACc3EAfgAHAAAAAncEAAAAAnEAfgBqc3EAfgACc3EAfgAHAAAAAHcEAAAAAHhxAH4AOXEAfgBseHEAfgAtc3EAfgACc3EAfgAHAAAAAncEAAAAAnEAfgBsc3EAfgACc3EAfgAHAAAAAHcEAAAAAHhxAH4AOXEAfgBweHEAfgAtcHhxAH4ALXNxAH4AAnNxAH4ABwAAAAJ3BAAAAAJxAH4AZnEAfgBueHEAfgAtc3EAfgACc3EAfgAHAAAAAncEAAAAAnEAfgB0cQB+AHJ4cQB+AC1weHEAfgAtcQB+AFB4cQB+ADxxAH4AanhxAH4AQnEAfgAjeHEAfgBCcQB+ACFxAH4ATnhxAH4AQnEAfgAfcQB+AFJ4cQB+ADxxAH4AHXEAfgBoeHEAfgAtcQB+ABtxAH4AbnhxAH4ALXEAfgAZcQB+AHJ4cQB+AC1wc3EAfgACc3EAfgAHAAAAAncEAAAAAnNxAH4AAnNxAH4ABwAAAAJ3BAAAAAJzcQB+AAJzcQB+AAcAAAACdwQAAAACc3EAfgACc3EAfgAHAAAAAncEAAAAAnNxAH4AAnNxAH4ABwAAAAJ3BAAAAAJzcQB+AAJzcQB+AAcAAAAAdwQAAAAAeHNxAH4ADXQAA3gxNXEAfgCAc3EAfgACc3EAfgAHAAAAAHcEAAAAAHhxAH4AhHNxAH4AAnNxAH4ABwAAAAJ3BAAAAAJzcQB+AAJzcQB+AAcAAAAAdwQAAAAAeHNxAH4ADXQAA3gwMnEAfgCIcQB+AIZ4cQB+AEJzcQB+AAJzcQB+AAcAAAACdwQAAAACcQB+AIhzcQB+AAJzcQB+AAcAAAACdwQAAAACc3EAfgACc3EAfgAHAAAAAHcEAAAAAHhxAH4AhHEAfgCQc3EAfgACc3EAfgAHAAAAAHcEAAAAAHhxAH4AjHEAfgCQeHEAfgBCc3EAfgACc3EAfgAHAAAAAncEAAAAAnNxAH4AAnNxAH4ABwAAAAB3BAAAAAB4cQB+AIRxAH4AlnEAfgCQeHEAfgBCc3EAfgACc3EAfgAHAAAAAncEAAAAAnEAfgCWc3EAfgACc3EAfgAHAAAAAncEAAAAAnNxAH4AAnNxAH4ABwAAAAJ3BAAAAAJzcQB+AAJzcQB+AAcAAAACdwQAAAACc3EAfgACc3EAfgAHAAAAAHcEAAAAAHhxAH4AhHEAfgCgc3EAfgACc3EAfgAHAAAAAHcEAAAAAHhxAH4AjHEAfgCgeHEAfgBCcQB+AJ5zcQB+AAJzcQB+AAcAAAAAdwQAAAAAeHEAfgCEc3EAfgACc3EAfgAHAAAAAncEAAAAAnNxAH4AAnNxAH4ABwAAAAB3BAAAAAB4c3EAfgANdAADeDAzcQB+AKhxAH4ApnhxAH4AQnNxAH4AAnNxAH4ABwAAAAJ3BAAAAAJxAH4AqHNxAH4AAnNxAH4ABwAAAAJ3BAAAAAJzcQB+AAJzcQB+AAcAAAACdwQAAAACc3EAfgACc3EAfgAHAAAAAHcEAAAAAHhxAH4AhHEAfgCyc3EAfgACc3EAfgAHAAAAAHcEAAAAAHhxAH4AjHEAfgCyeHEAfgBCcQB+ALBzcQB+AAJzcQB+AAcAAAAAdwQAAAAAeHNxAH4ADXQAA3gxMHEAfgCweHEAfgBCcQB+AK54cQB+AEJzcQB+AAJzcQB+AAcAAAACdwQAAAACc3EAfgACc3EAfgAHAAAAAncEAAAAAnNxAH4AAnNxAH4ABwAAAAJ3BAAAAAJzcQB+AAJzcQB+AAcAAAAAdwQAAAAAeHEAfgCEcQB+AMBzcQB+AAJzcQB+AAcAAAAAdwQAAAAAeHEAfgCEcQB+AMB4cQB+AEJxAH4AvnNxAH4AAnNxAH4ABwAAAAB3BAAAAAB4cQB+AIxxAH4AvnhxAH4AQnEAfgC8cQB+AK54cQB+AEJzcQB+AAJzcQB+AAcAAAACdwQAAAACcQB+ALxzcQB+AAJzcQB+AAcAAAAAdwQAAAAAeHEAfgCMc3EAfgACc3EAfgAHAAAAAncEAAAAAnNxAH4AAnNxAH4ABwAAAAJ3BAAAAAJzcQB+AAJzcQB+AAcAAAACdwQAAAACc3EAfgACc3EAfgAHAAAAAncEAAAAAnNxAH4AAnNxAH4ABwAAAAB3BAAAAAB4cQB+AIRxAH4A0nNxAH4AAnNxAH4ABwAAAAB3BAAAAAB4cQB+AIRxAH4A0nhxAH4AQnEAfgDQc3EAfgACc3EAfgAHAAAAAncEAAAAAnNxAH4AAnNxAH4ABwAAAAB3BAAAAAB4cQB+AIRxAH4A2HNxAH4AAnNxAH4ABwAAAAB3BAAAAAB4cQB+AIxxAH4A2HhxAH4AQnEAfgDQeHEAfgBCcQB+AM5zcQB+AAJzcQB+AAcAAAACdwQAAAACc3EAfgACc3EAfgAHAAAAAncEAAAAAnNxAH4AAnNxAH4ABwAAAAJ3BAAAAAJzcQB+AAJzcQB+AAcAAAAAdwQAAAAAeHEAfgCEcQB+AOJzcQB+AAJzcQB+AAcAAAAAdwQAAAAAeHEAfgCMcQB+AOJ4cQB+AEJxAH4A4HNxAH4AAnNxAH4ABwAAAAB3BAAAAAB4cQB+AIRxAH4A4HhxAH4AQnEAfgDec3EAfgACc3EAfgAHAAAAAHcEAAAAAHhxAH4AunEAfgDeeHEAfgBCcQB+AM54cQB+AEJxAH4AzHEAfgDKeHEAfgBCc3EAfgACc3EAfgAHAAAAAncEAAAAAnEAfgDMc3EAfgACc3EAfgAHAAAAAHcEAAAAAHhxAH4AunEAfgDseHEAfgBCcHhxAH4AQnNxAH4AAnNxAH4ABwAAAAJ3BAAAAAJxAH4AyHEAfgDueHEAfgBCcHhxAH4AQnEAfgCccQB+ALB4cQB+AEJzcQB+AAJzcQB+AAcAAAACdwQAAAACc3EAfgACc3EAfgAHAAAAAncEAAAAAnNxAH4AAnNxAH4ABwAAAAJ3BAAAAAJzcQB+AAJzcQB+AAcAAAAAdwQAAAAAeHEAfgCEcQB+APZzcQB+AAJzcQB+AAcAAAAAdwQAAAAAeHEAfgCEcQB+APZ4cQB+AEJxAH4A9HNxAH4AAnNxAH4ABwAAAAJ3BAAAAAJzcQB+AAJzcQB+AAcAAAAAdwQAAAAAeHEAfgCEcQB+APxzcQB+AAJzcQB+AAcAAAACdwQAAAACc3EAfgACc3EAfgAHAAAAAHcEAAAAAHhxAH4AhHEAfgEAc3EAfgACc3EAfgAHAAAAAHcEAAAAAHhxAH4AjHEAfgEAeHEAfgBCcQB+APx4cQB+AEJxAH4A9HhxAH4AQnEAfgDycQB+AJx4cQB+AEJzcQB+AAJzcQB+AAcAAAACdwQAAAACcQB+APJxAH4AynhxAH4AQnNxAH4AAnNxAH4ABwAAAAJ3BAAAAAJxAH4BBnEAfgDueHEAfgBCcHhxAH4AQnNxAH4AAnNxAH4ABwAAAAJ3BAAAAAJxAH4AmnEAfgDKeHEAfgBCc3EAfgACc3EAfgAHAAAAAncEAAAAAnEAfgEKcQB+AO54cQB+AEJweHEAfgBCc3EAfgACc3EAfgAHAAAAAncEAAAAAnEAfgCOcQB+AJx4cQB+AEJzcQB+AAJzcQB+AAcAAAACdwQAAAACcQB+AQ5xAH4AynhxAH4AQnNxAH4AAnNxAH4ABwAAAAJ3BAAAAAJxAH4BEHEAfgDueHEAfgBCcHhxAH4AQnEAfgB+cQB+AJB4cQB+AEJxAH4AfHEAfgCceHEAfgBCcQB+AHpxAH4AynhxAH4AQnEAfgB4cQB+AO54cQB+AEJwc3EAfgACc3EAfgAHAAAAAncEAAAAAnNxAH4AAnNxAH4ABwAAAAB3BAAAAAB4c3EAfgANdAADeDA0cQB+ARRzcQB+AAJzcQB+AAcAAAAAdwQAAAAAeHNxAH4AM0AAAAAAAAAAcQB+ARR4fnEAfgATdAANUFJPVF9ESVZJU0lPTnB4";
    "rO0ABXNyABFqYXZhLnV0aWwuQ29sbFNlcleOq7Y6G6gRAwABSQADdGFneHAAAAAEdwQAAAAEc3IAN2lvLmdpdGh1Yi5lcmljbWVkdmV0LmpnZWEuY29yZS5yZXByZXNlbnRhdGlvbi50cmVlLlRyZWUKs7/qnQrEZQIAA0wACGNoaWxkcmVudAAQTGphdmEvdXRpbC9MaXN0O0wAB2NvbnRlbnR0ABJMamF2YS9sYW5nL09iamVjdDtMAAZwYXJlbnR0ADlMaW8vZ2l0aHViL2VyaWNtZWR2ZXQvamdlYS9jb3JlL3JlcHJlc2VudGF0aW9uL3RyZWUvVHJlZTt4cHNyABNqYXZhLnV0aWwuQXJyYXlMaXN0eIHSHZnHYZ0DAAFJAARzaXpleHAAAAACdwQAAAACc3EAfgACc3EAfgAHAAAAAncEAAAAAnNxAH4AAnNxAH4ABwAAAAB3BAAAAAB4c3IAS2lvLmdpdGh1Yi5lcmljbWVkdmV0LmpnZWEuY29yZS5yZXByZXNlbnRhdGlvbi50cmVlLm51bWVyaWMuRWxlbWVudCRWYXJpYWJsZQAAAAAAAAAAAgABTAAEbmFtZXQAEkxqYXZhL2xhbmcvU3RyaW5nO3hwdAADeDAxcQB+AAlzcQB+AAJzcQB+AAcAAAAAdwQAAAAAeHEAfgAPc3EAfgACc3EAfgAHAAAAAncEAAAAAnNxAH4AAnNxAH4ABwAAAAJ3BAAAAAJzcQB+AAJzcQB+AAcAAAAAdwQAAAAAeHEAfgAPcQB+ABVzcQB+AAJzcQB+AAcAAAAAdwQAAAAAeHEAfgAPcQB+ABV4fnIAS2lvLmdpdGh1Yi5lcmljbWVkdmV0LmpnZWEuY29yZS5yZXByZXNlbnRhdGlvbi50cmVlLm51bWVyaWMuRWxlbWVudCRPcGVyYXRvcgAAAAAAAAAAEgAAeHIADmphdmEubGFuZy5FbnVtAAAAAAAAAAASAAB4cHQACEFERElUSU9OcQB+ABNxAH4AEXhxAH4AHXNxAH4AAnNxAH4ABwAAAAJ3BAAAAAJxAH4AE3NxAH4AAnNxAH4ABwAAAAB3BAAAAAB4cQB+AA9xAH4AH3hxAH4AHXB4cQB+AB1xAH4ABnEAfgAheHEAfgAdcHNxAH4AAnNxAH4ABwAAAAJ3BAAAAAJzcQB+AAJzcQB+AAcAAAACdwQAAAACc3EAfgACc3EAfgAHAAAAAncEAAAAAnNxAH4AAnNxAH4ABwAAAAJ3BAAAAAJzcQB+AAJzcQB+AAcAAAACdwQAAAACc3EAfgACc3EAfgAHAAAAAHcEAAAAAHhzcgBLaW8uZ2l0aHViLmVyaWNtZWR2ZXQuamdlYS5jb3JlLnJlcHJlc2VudGF0aW9uLnRyZWUubnVtZXJpYy5FbGVtZW50JENvbnN0YW50AAAAAAAAAAACAAFEAAV2YWx1ZXhwP+AAAAAAAABxAH4AK3NxAH4AAnNxAH4ABwAAAAB3BAAAAAB4cQB+ADBzcQB+AAJzcQB+AAcAAAACdwQAAAACc3EAfgACc3EAfgAHAAAAAHcEAAAAAHhzcQB+AC9AEgAAAAAAAHEAfgAzcQB+ADF4fnEAfgAbdAAIUFJPVF9MT0dzcQB+AAJzcQB+AAcAAAACdwQAAAACcQB+ADNzcQB+AAJzcQB+AAcAAAAAdwQAAAAAeHEAfgAwc3EAfgACc3EAfgAHAAAAAncEAAAAAnNxAH4AAnNxAH4ABwAAAAJ3BAAAAAJzcQB+AAJzcQB+AAcAAAAAdwQAAAAAeHNxAH4ALwAAAAAAAAAAcQB+AEBzcQB+AAJzcQB+AAcAAAACdwQAAAACc3EAfgACc3EAfgAHAAAAAHcEAAAAAHhzcQB+AA10AAN4MDVxAH4ARXNxAH4AAnNxAH4ABwAAAAB3BAAAAAB4cQB+ADBxAH4ARXhxAH4AOHEAfgBAeH5xAH4AG3QAC1NVQlRSQUNUSU9OcQB+AD5xAH4APHhxAH4AOHNxAH4AAnNxAH4ABwAAAAJ3BAAAAAJxAH4APnNxAH4AAnNxAH4ABwAAAAB3BAAAAAB4cQB+ADBzcQB+AAJzcQB+AAcAAAACdwQAAAACc3EAfgACc3EAfgAHAAAAAHcEAAAAAHhzcQB+AA10AAN4MTRxAH4AU3EAfgBReHEAfgA4c3EAfgACc3EAfgAHAAAAAncEAAAAAnEAfgBTc3EAfgACc3EAfgAHAAAAAHcEAAAAAHhxAH4ARHEAfgBZeH5xAH4AG3QADVBST1RfRElWSVNJT05zcQB+AAJzcQB+AAcAAAACdwQAAAACcQB+AFlzcQB+AAJzcQB+AAcAAAAAdwQAAAAAeHEAfgAwc3EAfgACc3EAfgAHAAAAAncEAAAAAnNxAH4AAnNxAH4ABwAAAAJ3BAAAAAJzcQB+AAJzcQB+AAcAAAACdwQAAAACc3EAfgACc3EAfgAHAAAAAncEAAAAAnNxAH4AAnNxAH4ABwAAAAJ3BAAAAAJzcQB+AAJzcQB+AAcAAAAAdwQAAAAAeHEAfgBXcQB+AGtzcQB+AAJzcQB+AAcAAAAAdwQAAAAAeHEAfgBXcQB+AGt4cQB+ADhxAH4AaXNxAH4AAnNxAH4ABwAAAAB3BAAAAAB4cQB+AFdxAH4AaXhxAH4AOHEAfgBnc3EAfgACc3EAfgAHAAAAAncEAAAAAnNxAH4AAnNxAH4ABwAAAAB3BAAAAAB4c3EAfgAvP/AAAAAAAABxAH4Ac3NxAH4AAnNxAH4ABwAAAAJ3BAAAAAJzcQB+AAJzcQB+AAcAAAAAdwQAAAAAeHEAfgBEcQB+AHhzcQB+AAJzcQB+AAcAAAACdwQAAAACc3EAfgACc3EAfgAHAAAAAHcEAAAAAHhxAH4AN3EAfgB8c3EAfgACc3EAfgAHAAAAAHcEAAAAAHhxAH4AMHNxAH4AAnNxAH4ABwAAAAJ3BAAAAAJzcQB+AAJzcQB+AAcAAAAAdwQAAAAAeHEAfgB3cQB+AIJxAH4AgHhxAH4AOHNxAH4AAnNxAH4ABwAAAAJ3BAAAAAJzcQB+AAJzcQB+AAcAAAAAdwQAAAAAeHEAfgBEcQB+AIZxAH4AgnhxAH4ATXNxAH4AAnNxAH4ABwAAAAJ3BAAAAAJzcQB+AAJzcQB+AAcAAAAAdwQAAAAAeHEAfgB3cQB+AIpxAH4Ahnh+cQB+ABt0AA5NVUxUSVBMSUNBVElPTnNxAH4AAnNxAH4ABwAAAAJ3BAAAAAJzcQB+AAJzcQB+AAcAAAACdwQAAAACc3EAfgACc3EAfgAHAAAAAHcEAAAAAHhxAH4AV3EAfgCSc3EAfgACc3EAfgAHAAAAAHcEAAAAAHhxAH4AV3EAfgCSeHEAfgA4cQB+AJBxAH4AinhxAH4AjnNxAH4AAnNxAH4ABwAAAAJ3BAAAAAJxAH4AkHNxAH4AAnNxAH4ABwAAAAB3BAAAAAB4cQB+AERxAH4AZXhxAH4AjnNxAH4AAnNxAH4ABwAAAAJ3BAAAAAJxAH4AmHEAfgBheHEAfgA4cHhxAH4AOHNxAH4AAnNxAH4ABwAAAAJ3BAAAAAJzcQB+AAJzcQB+AAcAAAACdwQAAAACc3EAfgACc3EAfgAHAAAAAHcEAAAAAHhxAH4ARHEAfgCgc3EAfgACc3EAfgAHAAAAAHcEAAAAAHhxAH4ARHEAfgCgeHEAfgBNcQB+AJ5xAH4AfHhxAH4ATXNxAH4AAnNxAH4ABwAAAAJ3BAAAAAJzcQB+AAJzcQB+AAcAAAAAdwQAAAAAeHEAfgB3cQB+AKZxAH4AnnhxAH4AjnNxAH4AAnNxAH4ABwAAAAJ3BAAAAAJzcQB+AAJzcQB+AAcAAAACdwQAAAACc3EAfgACc3EAfgAHAAAAAncEAAAAAnNxAH4AAnNxAH4ABwAAAAB3BAAAAAB4cQB+ADdxAH4ArnNxAH4AAnNxAH4ABwAAAAB3BAAAAAB4cQB+ADBxAH4ArnhxAH4AOHEAfgCsc3EAfgACc3EAfgAHAAAAAHcEAAAAAHhxAH4AV3EAfgCseHEAfgA4cQB+AKpxAH4ApnhxAH4AjnNxAH4AAnNxAH4ABwAAAAJ3BAAAAAJxAH4AqnEAfgCaeHEAfgCOc3EAfgACc3EAfgAHAAAAAncEAAAAAnEAfgC2cQB+AGF4cQB+ADhweHEAfgBNc3EAfgACc3EAfgAHAAAAAncEAAAAAnNxAH4AAnNxAH4ABwAAAAB3BAAAAAB4cQB+ADdxAH4AunEAfgB4eHEAfgCOc3EAfgACc3EAfgAHAAAAAncEAAAAAnNxAH4AAnNxAH4ABwAAAAJ3BAAAAAJzcQB+AAJzcQB+AAcAAAACdwQAAAACc3EAfgACc3EAfgAHAAAAAHcEAAAAAHhxAH4AN3EAfgDCc3EAfgACc3EAfgAHAAAAAHcEAAAAAHhxAH4AMHEAfgDCeHEAfgA4cQB+AMBzcQB+AAJzcQB+AAcAAAAAdwQAAAAAeHEAfgBXcQB+AMB4cQB+ADhxAH4AvnEAfgC6eHEAfgCOc3EAfgACc3EAfgAHAAAAAncEAAAAAnEAfgC+cQB+AJp4cQB+AI5zcQB+AAJzcQB+AAcAAAACdwQAAAACcQB+AMpxAH4AYXhxAH4AOHB4cQB+AI5xAH4AZ3hxAH4AjnEAfgBlcQB+AJp4cQB+AI5xAH4AY3EAfgBheHEAfgA4cHhxAH4AOHB4cQB+ADhzcQB+AAJzcQB+AAcAAAACdwQAAAACcQB+AE9xAH4AW3hxAH4AXXNxAH4AAnNxAH4ABwAAAAJ3BAAAAAJxAH4AznEAfgBheHEAfgA4cHhxAH4AOHNxAH4AAnNxAH4ABwAAAAJ3BAAAAAJxAH4AOnEAfgBReHEAfgA4c3EAfgACc3EAfgAHAAAAAncEAAAAAnEAfgDScQB+AFt4cQB+AF1zcQB+AAJzcQB+AAcAAAACdwQAAAACcQB+ANRxAH4AYXhxAH4AOHB4cQB+ADhxAH4AKXEAfgA8eHEAfgA4cQB+ACdxAH4AUXhxAH4AOHEAfgAlcQB+AFt4cQB+AF1xAH4AI3EAfgBheHEAfgA4cHNxAH4AAnNxAH4ABwAAAAJ3BAAAAAJzcQB+AAJzcQB+AAcAAAACdwQAAAACc3EAfgACc3EAfgAHAAAAAncEAAAAAnNxAH4AAnNxAH4ABwAAAAJ3BAAAAAJzcQB+AAJzcQB+AAcAAAACdwQAAAACc3EAfgACc3EAfgAHAAAAAHcEAAAAAHhzcQB+AC9ACAAAAAAAAHEAfgDgc3EAfgACc3EAfgAHAAAAAHcEAAAAAHhxAH4A5HNxAH4AAnNxAH4ABwAAAAJ3BAAAAAJzcQB+AAJzcQB+AAcAAAAAdwQAAAAAeHNxAH4ADXQAA3gxMHEAfgDncQB+AOV4cQB+AE1zcQB+AAJzcQB+AAcAAAACdwQAAAACcQB+AOdzcQB+AAJzcQB+AAcAAAAAdwQAAAAAeHNxAH4ADXQAA3gwMnEAfgDteHEAfgCOc3EAfgACc3EAfgAHAAAAAncEAAAAAnEAfgDtc3EAfgACc3EAfgAHAAAAAHcEAAAAAHhxAH4A8XNxAH4AAnNxAH4ABwAAAAJ3BAAAAAJzcQB+AAJzcQB+AAcAAAACdwQAAAACc3EAfgACc3EAfgAHAAAAAncEAAAAAnNxAH4AAnNxAH4ABwAAAAB3BAAAAAB4cQB+AORxAH4A+3NxAH4AAnNxAH4ABwAAAAB3BAAAAAB4cQB+AORxAH4A+3hxAH4ATXEAfgD5c3EAfgACc3EAfgAHAAAAAncEAAAAAnNxAH4AAnNxAH4ABwAAAAJ3BAAAAAJzcQB+AAJzcQB+AAcAAAACdwQAAAACc3EAfgACc3EAfgAHAAAAAHcEAAAAAHhxAH4A5HEAfgEFc3EAfgACc3EAfgAHAAAAAHcEAAAAAHhxAH4A5HEAfgEFeHEAfgBNcQB+AQNzcQB+AAJzcQB+AAcAAAAAdwQAAAAAeHEAfgDxcQB+AQN4cQB+AI5xAH4BAXNxAH4AAnNxAH4ABwAAAAB3BAAAAAB4cQB+APFxAH4BAXhxAH4AjnEAfgD5eHEAfgCOcQB+APdxAH4A9XhxAH4AjnNxAH4AAnNxAH4ABwAAAAJ3BAAAAAJxAH4A93NxAH4AAnNxAH4ABwAAAAB3BAAAAAB4cQB+APFxAH4BD3hxAH4AjnNxAH4AAnNxAH4ABwAAAAJ3BAAAAAJxAH4BD3NxAH4AAnNxAH4ABwAAAAB3BAAAAAB4cQB+AOtxAH4BE3hxAH4AjnB4cQB+AI5zcQB+AAJzcQB+AAcAAAACdwQAAAACcQB+APNxAH4BEXhxAH4AjnNxAH4AAnNxAH4ABwAAAAJ3BAAAAAJxAH4BF3EAfgEVeHEAfgCOcHhxAH4ATXEAfgDecQB+AO94cQB+AI5xAH4A3HEAfgD1eHEAfgCOcQB+ANpxAH4BEXhxAH4AjnEAfgDYcQB+ARV4cQB+AI5wc3EAfgACc3EAfgAHAAAAAncEAAAAAnNxAH4AAnNxAH4ABwAAAAB3BAAAAAB4c3EAfgANdAADeDA0cQB+ARtzcQB+AAJzcQB+AAcAAAAAdwQAAAAAeHNxAH4AL0AAAAAAAAAAc3EAfgACc3EAfgAHAAAAAncEAAAAAnNxAH4AAnNxAH4ABwAAAAJ3BAAAAAJzcQB+AAJzcQB+AAcAAAAAdwQAAAAAeHEAfgEfcQB+ASZzcQB+AAJzcQB+AAcAAAAAdwQAAAAAeHEAfgEjcQB+ASZ4cQB+AF1xAH4BJHEAfgEheHEAfgBdcHhxAH4AXXB4";
    "rO0ABXNyABFqYXZhLnV0aWwuQ29sbFNlcleOq7Y6G6gRAwABSQADdGFneHAAAAAEdwQAAAAEc3IAN2lvLmdpdGh1Yi5lcmljbWVkdmV0LmpnZWEuY29yZS5yZXByZXNlbnRhdGlvbi50cmVlLlRyZWUKs7/qnQrEZQIAA0wACGNoaWxkcmVudAAQTGphdmEvdXRpbC9MaXN0O0wAB2NvbnRlbnR0ABJMamF2YS9sYW5nL09iamVjdDtMAAZwYXJlbnR0ADlMaW8vZ2l0aHViL2VyaWNtZWR2ZXQvamdlYS9jb3JlL3JlcHJlc2VudGF0aW9uL3RyZWUvVHJlZTt4cHNyABNqYXZhLnV0aWwuQXJyYXlMaXN0eIHSHZnHYZ0DAAFJAARzaXpleHAAAAACdwQAAAACc3EAfgACc3EAfgAHAAAAAncEAAAAAnNxAH4AAnNxAH4ABwAAAAB3BAAAAAB4c3IAS2lvLmdpdGh1Yi5lcmljbWVkdmV0LmpnZWEuY29yZS5yZXByZXNlbnRhdGlvbi50cmVlLm51bWVyaWMuRWxlbWVudCRWYXJpYWJsZQAAAAAAAAAAAgABTAAEbmFtZXQAEkxqYXZhL2xhbmcvU3RyaW5nO3hwdAADeDAxcQB+AAlzcQB+AAJzcQB+AAcAAAAAdwQAAAAAeHEAfgAPc3EAfgACc3EAfgAHAAAAAncEAAAAAnNxAH4AAnNxAH4ABwAAAAJ3BAAAAAJzcQB+AAJzcQB+AAcAAAACdwQAAAACc3EAfgACc3EAfgAHAAAAAHcEAAAAAHhxAH4AD3EAfgAXc3EAfgACc3EAfgAHAAAAAHcEAAAAAHhxAH4AD3EAfgAXeH5yAEtpby5naXRodWIuZXJpY21lZHZldC5qZ2VhLmNvcmUucmVwcmVzZW50YXRpb24udHJlZS5udW1lcmljLkVsZW1lbnQkT3BlcmF0b3IAAAAAAAAAABIAAHhyAA5qYXZhLmxhbmcuRW51bQAAAAAAAAAAEgAAeHB0AAhBRERJVElPTnEAfgAVc3EAfgACc3EAfgAHAAAAAHcEAAAAAHhxAH4AD3EAfgAVeHEAfgAfcQB+ABNxAH4AEXhxAH4AH3NxAH4AAnNxAH4ABwAAAAJ3BAAAAAJxAH4AE3NxAH4AAnNxAH4ABwAAAAB3BAAAAAB4cQB+AA9zcQB+AAJzcQB+AAcAAAACdwQAAAACc3EAfgACc3EAfgAHAAAAAHcEAAAAAHhxAH4AD3EAfgAncQB+ACV4cQB+AB9weHEAfgAfcHhxAH4AH3EAfgAGcQB+ACV4cQB+AB9wc3EAfgACc3EAfgAHAAAAAncEAAAAAnNxAH4AAnNxAH4ABwAAAAJ3BAAAAAJzcQB+AAJzcQB+AAcAAAAAdwQAAAAAeHNxAH4ADXQAA3gwNXEAfgAtc3EAfgACc3EAfgAHAAAAAHcEAAAAAHhzcgBLaW8uZ2l0aHViLmVyaWNtZWR2ZXQuamdlYS5jb3JlLnJlcHJlc2VudGF0aW9uLnRyZWUubnVtZXJpYy5FbGVtZW50JENvbnN0YW50AAAAAAAAAAACAAFEAAV2YWx1ZXhwP+AAAAAAAABzcQB+AAJzcQB+AAcAAAACdwQAAAACc3EAfgACc3EAfgAHAAAAAncEAAAAAnNxAH4AAnNxAH4ABwAAAAJ3BAAAAAJzcQB+AAJzcQB+AAcAAAAAdwQAAAAAeHNxAH4ANQAAAAAAAAAAcQB+ADtzcQB+AAJzcQB+AAcAAAACdwQAAAACc3EAfgACc3EAfgAHAAAAAncEAAAAAnNxAH4AAnNxAH4ABwAAAAB3BAAAAAB4c3EAfgA1P/AAAAAAAABxAH4AQnNxAH4AAnNxAH4ABwAAAAJ3BAAAAAJzcQB+AAJzcQB+AAcAAAAAdwQAAAAAeHNxAH4ANUASAAAAAAAAcQB+AEdzcQB+AAJzcQB+AAcAAAAAdwQAAAAAeHEAfgA2cQB+AEd4fnEAfgAddAAIUFJPVF9MT0dxAH4AQnh+cQB+AB10AAtTVUJUUkFDVElPTnEAfgBAc3EAfgACc3EAfgAHAAAAAHcEAAAAAHhxAH4ANnEAfgBAeHEAfgBOcQB+ADt4cQB+AFBxAH4AOXNxAH4AAnNxAH4ABwAAAAB3BAAAAAB4c3EAfgANdAADeDE0cQB+ADl4cQB+AE5xAH4AN3EAfgAzeHEAfgBOc3EAfgACc3EAfgAHAAAAAncEAAAAAnEAfgA3c3EAfgACc3EAfgAHAAAAAHcEAAAAAHhxAH4ANnNxAH4AAnNxAH4ABwAAAAJ3BAAAAAJzcQB+AAJzcQB+AAcAAAACdwQAAAACc3EAfgACc3EAfgAHAAAAAncEAAAAAnNxAH4AAnNxAH4ABwAAAAJ3BAAAAAJzcQB+AAJzcQB+AAcAAAACdwQAAAACc3EAfgACc3EAfgAHAAAAAHcEAAAAAHhxAH4AVnEAfgBkc3EAfgACc3EAfgAHAAAAAHcEAAAAAHhxAH4AVnEAfgBkeHEAfgBOcQB+AGJzcQB+AAJzcQB+AAcAAAAAdwQAAAAAeHEAfgBWcQB+AGJ4cQB+AE5xAH4AYHNxAH4AAnNxAH4ABwAAAAJ3BAAAAAJzcQB+AAJzcQB+AAcAAAAAdwQAAAAAeHEAfgBGcQB+AGxzcQB+AAJzcQB+AAcAAAACdwQAAAACc3EAfgACc3EAfgAHAAAAAHcEAAAAAHhxAH4AP3EAfgBwc3EAfgACc3EAfgAHAAAAAncEAAAAAnNxAH4AAnNxAH4ABwAAAAB3BAAAAAB4cQB+AEtxAH4AdHNxAH4AAnNxAH4ABwAAAAB3BAAAAAB4cQB+ADZzcQB+AAJzcQB+AAcAAAACdwQAAAACc3EAfgACc3EAfgAHAAAAAHcEAAAAAHhxAH4ARnEAfgB6cQB+AHh4cQB+AE5zcQB+AAJzcQB+AAcAAAACdwQAAAACc3EAfgACc3EAfgAHAAAAAHcEAAAAAHhxAH4AP3EAfgB+cQB+AHp4cQB+AFBzcQB+AAJzcQB+AAcAAAACdwQAAAACc3EAfgACc3EAfgAHAAAAAHcEAAAAAHhxAH4ARnEAfgCCcQB+AH54fnEAfgAddAAOTVVMVElQTElDQVRJT05zcQB+AAJzcQB+AAcAAAACdwQAAAACc3EAfgACc3EAfgAHAAAAAncEAAAAAnNxAH4AAnNxAH4ABwAAAAB3BAAAAAB4cQB+AFZxAH4AinNxAH4AAnNxAH4ABwAAAAB3BAAAAAB4cQB+AFZxAH4AinhxAH4ATnEAfgCIcQB+AIJ4cQB+AIZzcQB+AAJzcQB+AAcAAAACdwQAAAACcQB+AIhzcQB+AAJzcQB+AAcAAAAAdwQAAAAAeHEAfgA/cQB+AF54cQB+AIZzcQB+AAJzcQB+AAcAAAACdwQAAAACcQB+AJBxAH4AWnhxAH4ATnB4cQB+AE5zcQB+AAJzcQB+AAcAAAACdwQAAAACc3EAfgACc3EAfgAHAAAAAncEAAAAAnNxAH4AAnNxAH4ABwAAAAB3BAAAAAB4cQB+AD9xAH4AmHNxAH4AAnNxAH4ABwAAAAB3BAAAAAB4cQB+AD9xAH4AmHhxAH4AUHEAfgCWcQB+AHR4cQB+AFBzcQB+AAJzcQB+AAcAAAACdwQAAAACc3EAfgACc3EAfgAHAAAAAHcEAAAAAHhxAH4ARnEAfgCecQB+AJZ4cQB+AIZzcQB+AAJzcQB+AAcAAAACdwQAAAACc3EAfgACc3EAfgAHAAAAAncEAAAAAnNxAH4AAnNxAH4ABwAAAAJ3BAAAAAJzcQB+AAJzcQB+AAcAAAAAdwQAAAAAeHEAfgBLcQB+AKZzcQB+AAJzcQB+AAcAAAAAdwQAAAAAeHEAfgA2cQB+AKZ4cQB+AE5xAH4ApHNxAH4AAnNxAH4ABwAAAAB3BAAAAAB4cQB+AFZxAH4ApHhxAH4ATnEAfgCicQB+AJ54cQB+AIZzcQB+AAJzcQB+AAcAAAACdwQAAAACcQB+AKJxAH4AknhxAH4AhnNxAH4AAnNxAH4ABwAAAAJ3BAAAAAJxAH4ArnEAfgBaeHEAfgBOcHhxAH4AUHNxAH4AAnNxAH4ABwAAAAJ3BAAAAAJzcQB+AAJzcQB+AAcAAAAAdwQAAAAAeHEAfgBLcQB+ALJxAH4AcHhxAH4AhnNxAH4AAnNxAH4ABwAAAAJ3BAAAAAJzcQB+AAJzcQB+AAcAAAACdwQAAAACc3EAfgACc3EAfgAHAAAAAncEAAAAAnNxAH4AAnNxAH4ABwAAAAB3BAAAAAB4cQB+AEtxAH4AunNxAH4AAnNxAH4ABwAAAAB3BAAAAAB4cQB+ADZxAH4AunhxAH4ATnEAfgC4c3EAfgACc3EAfgAHAAAAAHcEAAAAAHhxAH4AVnEAfgC4eHEAfgBOcQB+ALZxAH4AsnhxAH4AhnNxAH4AAnNxAH4ABwAAAAJ3BAAAAAJxAH4AtnEAfgCSeHEAfgCGc3EAfgACc3EAfgAHAAAAAncEAAAAAnEAfgDCcQB+AFp4cQB+AE5weHEAfgCGcQB+AGB4cQB+AIZxAH4AXnEAfgCSeHEAfgCGcQB+AFxxAH4AWnhxAH4ATnB4cQB+AE5weHEAfgBOcQB+ACtxAH4AWnhxAH4ATnBzcQB+AAJzcQB+AAcAAAACdwQAAAACc3EAfgACc3EAfgAHAAAAAncEAAAAAnNxAH4AAnNxAH4ABwAAAAJ3BAAAAAJzcQB+AAJzcQB+AAcAAAACdwQAAAACc3EAfgACc3EAfgAHAAAAAHcEAAAAAHhzcQB+ADVACAAAAAAAAHEAfgDMc3EAfgACc3EAfgAHAAAAAHcEAAAAAHhxAH4A0HNxAH4AAnNxAH4ABwAAAAJ3BAAAAAJzcQB+AAJzcQB+AAcAAAAAdwQAAAAAeHNxAH4ADXQAA3gwMnEAfgDTcQB+ANF4cQB+AFBzcQB+AAJzcQB+AAcAAAACdwQAAAACcQB+ANNzcQB+AAJzcQB+AAcAAAAAdwQAAAAAeHEAfgDXc3EAfgACc3EAfgAHAAAAAncEAAAAAnNxAH4AAnNxAH4ABwAAAAJ3BAAAAAJzcQB+AAJzcQB+AAcAAAAAdwQAAAAAeHNxAH4ADXQAA3gxNXEAfgDfc3EAfgACc3EAfgAHAAAAAHcEAAAAAHhzcQB+AA10AAN4MTBxAH4A33hxAH4AhnEAfgDdcQB+ANt4cQB+AIZzcQB+AAJzcQB+AAcAAAACdwQAAAACcQB+AN1zcQB+AAJzcQB+AAcAAAAAdwQAAAAAeHEAfgDXcQB+AOl4cQB+AIZzcQB+AAJzcQB+AAcAAAACdwQAAAACcQB+AOlzcQB+AAJzcQB+AAcAAAAAdwQAAAAAeHEAfgDncQB+AO14cQB+AIZweHEAfgCGc3EAfgACc3EAfgAHAAAAAncEAAAAAnEAfgDZcQB+AOt4cQB+AIZzcQB+AAJzcQB+AAcAAAACdwQAAAACcQB+APFxAH4A73hxAH4AhnB4cQB+AFBxAH4AynEAfgDbeHEAfgCGcQB+AMhxAH4A63hxAH4AhnEAfgDGcQB+AO94cQB+AIZwc3EAfgACc3EAfgAHAAAAAncEAAAAAnNxAH4AAnNxAH4ABwAAAAB3BAAAAAB4c3EAfgANdAADeDA0cQB+APVzcQB+AAJzcQB+AAcAAAAAdwQAAAAAeHNxAH4ANUAAAAAAAAAAc3EAfgACc3EAfgAHAAAAAncEAAAAAnNxAH4AAnNxAH4ABwAAAAJ3BAAAAAJzcQB+AAJzcQB+AAcAAAAAdwQAAAAAeHEAfgD5cQB+AQBzcQB+AAJzcQB+AAcAAAAAdwQAAAAAeHEAfgD9cQB+AQB4fnEAfgAddAANUFJPVF9ESVZJU0lPTnEAfgD+cQB+APt4cQB+AQZweHEAfgEGcHg=";
    "rO0ABXNyABFqYXZhLnV0aWwuQ29sbFNlcleOq7Y6G6gRAwABSQADdGFneHAAAAAEdwQAAAAEc3IAN2lvLmdpdGh1Yi5lcmljbWVkdmV0LmpnZWEuY29yZS5yZXByZXNlbnRhdGlvbi50cmVlLlRyZWUKs7/qnQrEZQIAA0wACGNoaWxkcmVudAAQTGphdmEvdXRpbC9MaXN0O0wAB2NvbnRlbnR0ABJMamF2YS9sYW5nL09iamVjdDtMAAZwYXJlbnR0ADlMaW8vZ2l0aHViL2VyaWNtZWR2ZXQvamdlYS9jb3JlL3JlcHJlc2VudGF0aW9uL3RyZWUvVHJlZTt4cHNyABNqYXZhLnV0aWwuQXJyYXlMaXN0eIHSHZnHYZ0DAAFJAARzaXpleHAAAAACdwQAAAACc3EAfgACc3EAfgAHAAAAAncEAAAAAnNxAH4AAnNxAH4ABwAAAAB3BAAAAAB4c3IAS2lvLmdpdGh1Yi5lcmljbWVkdmV0LmpnZWEuY29yZS5yZXByZXNlbnRhdGlvbi50cmVlLm51bWVyaWMuRWxlbWVudCRWYXJpYWJsZQAAAAAAAAAAAgABTAAEbmFtZXQAEkxqYXZhL2xhbmcvU3RyaW5nO3hwdAADeDAxcQB+AAlzcQB+AAJzcQB+AAcAAAAAdwQAAAAAeHEAfgAPcQB+AAl4fnIAS2lvLmdpdGh1Yi5lcmljbWVkdmV0LmpnZWEuY29yZS5yZXByZXNlbnRhdGlvbi50cmVlLm51bWVyaWMuRWxlbWVudCRPcGVyYXRvcgAAAAAAAAAAEgAAeHIADmphdmEubGFuZy5FbnVtAAAAAAAAAAASAAB4cHQACEFERElUSU9OcQB+AAZzcQB+AAJzcQB+AAcAAAAAdwQAAAAAeHEAfgAPcQB+AAZ4cQB+ABVwc3EAfgACc3EAfgAHAAAAAncEAAAAAnNxAH4AAnNxAH4ABwAAAAJ3BAAAAAJzcQB+AAJzcQB+AAcAAAAAdwQAAAAAeHNyAEtpby5naXRodWIuZXJpY21lZHZldC5qZ2VhLmNvcmUucmVwcmVzZW50YXRpb24udHJlZS5udW1lcmljLkVsZW1lbnQkQ29uc3RhbnQAAAAAAAAAAAIAAUQABXZhbHVleHAAAAAAAAAAAHEAfgAbc3EAfgACc3EAfgAHAAAAAHcEAAAAAHhzcQB+AA10AAN4MTRxAH4AG3h+cQB+ABN0AAhQUk9UX0xPR3EAfgAZc3EAfgACc3EAfgAHAAAAAncEAAAAAnNxAH4AAnNxAH4ABwAAAAB3BAAAAAB4c3EAfgANdAADeDA1cQB+ACdzcQB+AAJzcQB+AAcAAAAAdwQAAAAAeHEAfgAgc3EAfgACc3EAfgAHAAAAAncEAAAAAnNxAH4AAnNxAH4ABwAAAAJ3BAAAAAJzcQB+AAJzcQB+AAcAAAAAdwQAAAAAeHNxAH4AHz/wAAAAAAAAcQB+ADFzcQB+AAJzcQB+AAcAAAAAdwQAAAAAeHEAfgAgcQB+ADF4fnEAfgATdAAOTVVMVElQTElDQVRJT05xAH4AL3EAfgAteHEAfgA4c3EAfgACc3EAfgAHAAAAAncEAAAAAnNxAH4AAnNxAH4ABwAAAAJ3BAAAAAJzcQB+AAJzcQB+AAcAAAAAdwQAAAAAeHEAfgAgcQB+ADxzcQB+AAJzcQB+AAcAAAAAdwQAAAAAeHEAfgAjcQB+ADx4cQB+ACVxAH4AOnEAfgAveHEAfgAlcHhxAH4AOHEAfgAZeHEAfgAlcHNxAH4AAnNxAH4ABwAAAAJ3BAAAAAJzcQB+AAJzcQB+AAcAAAACdwQAAAACc3EAfgACc3EAfgAHAAAAAncEAAAAAnNxAH4AAnNxAH4ABwAAAAJ3BAAAAAJzcQB+AAJzcQB+AAcAAAACdwQAAAACc3EAfgACc3EAfgAHAAAAAncEAAAAAnNxAH4AAnNxAH4ABwAAAAB3BAAAAAB4c3EAfgANdAADeDEzcQB+AExzcQB+AAJzcQB+AAcAAAACdwQAAAACc3EAfgACc3EAfgAHAAAAAHcEAAAAAHhxAH4AUHEAfgBSc3EAfgACc3EAfgAHAAAAAHcEAAAAAHhzcQB+AA10AAN4MDJxAH4AUnhxAH4AOHEAfgBMeHEAfgA4cQB+AEpzcQB+AAJzcQB+AAcAAAAAdwQAAAAAeHEAfgBYcQB+AEp4cQB+ADhxAH4ASHNxAH4AAnNxAH4ABwAAAAB3BAAAAAB4cQB+AFhxAH4ASHhxAH4AOHEAfgBGc3EAfgACc3EAfgAHAAAAAncEAAAAAnNxAH4AAnNxAH4ABwAAAAJ3BAAAAAJzcQB+AAJzcQB+AAcAAAAAdwQAAAAAeHNxAH4ADXQAA3gxNXEAfgBgc3EAfgACc3EAfgAHAAAAAHcEAAAAAHhxAH4AWHEAfgBgeHEAfgA4cQB+AF5zcQB+AAJzcQB+AAcAAAACdwQAAAACc3EAfgACc3EAfgAHAAAAAncEAAAAAnNxAH4AAnNxAH4ABwAAAAB3BAAAAAB4cQB+AGRxAH4AanNxAH4AAnNxAH4ABwAAAAB3BAAAAAB4cQB+AGRxAH4AanhxAH4AOHEAfgBoc3EAfgACc3EAfgAHAAAAAncEAAAAAnNxAH4AAnNxAH4ABwAAAAJ3BAAAAAJzcQB+AAJzcQB+AAcAAAACdwQAAAACc3EAfgACc3EAfgAHAAAAAHcEAAAAAHhxAH4AZHEAfgB0c3EAfgACc3EAfgAHAAAAAHcEAAAAAHhxAH4AWHEAfgB0eHEAfgA4cQB+AHJzcQB+AAJzcQB+AAcAAAACdwQAAAACc3EAfgACc3EAfgAHAAAAAHcEAAAAAHhxAH4AUHEAfgB6c3EAfgACc3EAfgAHAAAAAHcEAAAAAHhzcQB+AA10AAN4MDNxAH4AenhxAH4AOHEAfgByeHEAfgA4cQB+AHBzcQB+AAJzcQB+AAcAAAAAdwQAAAAAeHEAfgCAcQB+AHB4cQB+ADhxAH4AaHhxAH4AOHEAfgBeeHEAfgA4cQB+AEZ4cQB+ADhxAH4ARHNxAH4AAnNxAH4ABwAAAAB3BAAAAAB4cQB+AFhxAH4ARHhxAH4AOHEAfgBCc3EAfgACc3EAfgAHAAAAAHcEAAAAAHhzcQB+AA10AAN4MTBxAH4AQnhxAH4AOHBzcQB+AAJzcQB+AAcAAAACdwQAAAACc3EAfgACc3EAfgAHAAAAAHcEAAAAAHhzcQB+AA10AAN4MDRxAH4AinNxAH4AAnNxAH4ABwAAAAB3BAAAAAB4c3EAfgAfQAAAAAAAAABxAH4Ainh+cQB+ABN0AA1QUk9UX0RJVklTSU9OcHg=";
    "rO0ABXNyABFqYXZhLnV0aWwuQ29sbFNlcleOq7Y6G6gRAwABSQADdGFneHAAAAAEdwQAAAAEc3IAN2lvLmdpdGh1Yi5lcmljbWVkdmV0LmpnZWEuY29yZS5yZXByZXNlbnRhdGlvbi50cmVlLlRyZWUKs7/qnQrEZQIAA0wACGNoaWxkcmVudAAQTGphdmEvdXRpbC9MaXN0O0wAB2NvbnRlbnR0ABJMamF2YS9sYW5nL09iamVjdDtMAAZwYXJlbnR0ADlMaW8vZ2l0aHViL2VyaWNtZWR2ZXQvamdlYS9jb3JlL3JlcHJlc2VudGF0aW9uL3RyZWUvVHJlZTt4cHNyABNqYXZhLnV0aWwuQXJyYXlMaXN0eIHSHZnHYZ0DAAFJAARzaXpleHAAAAACdwQAAAACc3EAfgACc3EAfgAHAAAAAncEAAAAAnNxAH4AAnNxAH4ABwAAAAB3BAAAAAB4c3IAS2lvLmdpdGh1Yi5lcmljbWVkdmV0LmpnZWEuY29yZS5yZXByZXNlbnRhdGlvbi50cmVlLm51bWVyaWMuRWxlbWVudCRWYXJpYWJsZQAAAAAAAAAAAgABTAAEbmFtZXQAEkxqYXZhL2xhbmcvU3RyaW5nO3hwdAADeDAxcQB+AAlzcQB+AAJzcQB+AAcAAAAAdwQAAAAAeHEAfgAPc3EAfgACc3EAfgAHAAAAAncEAAAAAnNxAH4AAnNxAH4ABwAAAAJ3BAAAAAJzcQB+AAJzcQB+AAcAAAAAdwQAAAAAeHEAfgAPcQB+ABVzcQB+AAJzcQB+AAcAAAAAdwQAAAAAeHEAfgAPcQB+ABV4fnIAS2lvLmdpdGh1Yi5lcmljbWVkdmV0LmpnZWEuY29yZS5yZXByZXNlbnRhdGlvbi50cmVlLm51bWVyaWMuRWxlbWVudCRPcGVyYXRvcgAAAAAAAAAAEgAAeHIADmphdmEubGFuZy5FbnVtAAAAAAAAAAASAAB4cHQACEFERElUSU9OcQB+ABNxAH4AEXhxAH4AHXNxAH4AAnNxAH4ABwAAAAJ3BAAAAAJxAH4AE3NxAH4AAnNxAH4ABwAAAAB3BAAAAAB4cQB+AA9xAH4AH3hxAH4AHXB4cQB+AB1xAH4ABnEAfgAheHEAfgAdcHNxAH4AAnNxAH4ABwAAAAJ3BAAAAAJzcQB+AAJzcQB+AAcAAAACdwQAAAACc3EAfgACc3EAfgAHAAAAAncEAAAAAnNxAH4AAnNxAH4ABwAAAAJ3BAAAAAJzcQB+AAJzcQB+AAcAAAACdwQAAAACc3EAfgACc3EAfgAHAAAAAHcEAAAAAHhzcgBLaW8uZ2l0aHViLmVyaWNtZWR2ZXQuamdlYS5jb3JlLnJlcHJlc2VudGF0aW9uLnRyZWUubnVtZXJpYy5FbGVtZW50JENvbnN0YW50AAAAAAAAAAACAAFEAAV2YWx1ZXhwQBIAAAAAAABxAH4AK3NxAH4AAnNxAH4ABwAAAAB3BAAAAAB4c3EAfgAvP+AAAAAAAABzcQB+AAJzcQB+AAcAAAACdwQAAAACc3EAfgACc3EAfgAHAAAAAHcEAAAAAHhzcQB+AC8AAAAAAAAAAHEAfgA0cQB+ADF4fnEAfgAbdAAIUFJPVF9MT0dzcQB+AAJzcQB+AAcAAAACdwQAAAACcQB+ADRzcQB+AAJzcQB+AAcAAAAAdwQAAAAAeHNxAH4ADXQAA3gxNHNxAH4AAnNxAH4ABwAAAAJ3BAAAAAJzcQB+AAJzcQB+AAcAAAACdwQAAAACc3EAfgACc3EAfgAHAAAAAHcEAAAAAHhxAH4AP3EAfgBDc3EAfgACc3EAfgAHAAAAAHcEAAAAAHhxAH4AP3EAfgBDeHEAfgA5cQB+AEFxAH4APXhxAH4AOXNxAH4AAnNxAH4ABwAAAAJ3BAAAAAJxAH4AQXNxAH4AAnNxAH4ABwAAAAJ3BAAAAAJzcQB+AAJzcQB+AAcAAAAAdwQAAAAAeHNxAH4ALz/wAAAAAAAAcQB+AEtzcQB+AAJzcQB+AAcAAAACdwQAAAACc3EAfgACc3EAfgAHAAAAAHcEAAAAAHhxAH4AOHEAfgBQc3EAfgACc3EAfgAHAAAAAncEAAAAAnNxAH4AAnNxAH4ABwAAAAB3BAAAAAB4cQB+ADBxAH4AVHNxAH4AAnNxAH4ABwAAAAB3BAAAAAB4cQB+ADNzcQB+AAJzcQB+AAcAAAACdwQAAAACc3EAfgACc3EAfgAHAAAAAHcEAAAAAHhxAH4AT3EAfgBacQB+AFh4cQB+ADlzcQB+AAJzcQB+AAcAAAACdwQAAAACc3EAfgACc3EAfgAHAAAAAHcEAAAAAHhxAH4AOHEAfgBecQB+AFp4fnEAfgAbdAALU1VCVFJBQ1RJT05zcQB+AAJzcQB+AAcAAAACdwQAAAACc3EAfgACc3EAfgAHAAAAAHcEAAAAAHhxAH4AT3EAfgBkcQB+AF54fnEAfgAbdAAOTVVMVElQTElDQVRJT05zcQB+AAJzcQB+AAcAAAACdwQAAAACc3EAfgACc3EAfgAHAAAAAncEAAAAAnNxAH4AAnNxAH4ABwAAAAB3BAAAAAB4cQB+AD9xAH4AbHNxAH4AAnNxAH4ABwAAAAB3BAAAAAB4cQB+AD9xAH4AbHhxAH4AOXEAfgBqcQB+AGR4cQB+AGhzcQB+AAJzcQB+AAcAAAACdwQAAAACcQB+AGpzcQB+AAJzcQB+AAcAAAAAdwQAAAAAeHEAfgA4c3EAfgACc3EAfgAHAAAAAncEAAAAAnEAfgBJcQB+AHR4cQB+AGhzcQB+AAJzcQB+AAcAAAACdwQAAAACcQB+AHZzcQB+AAJzcQB+AAcAAAAAdwQAAAAAeHEAfgAzcQB+AHh4cQB+ADlweHEAfgBoc3EAfgACc3EAfgAHAAAAAncEAAAAAnEAfgBycQB+AHp4cQB+ADlweHEAfgA5c3EAfgACc3EAfgAHAAAAAncEAAAAAnNxAH4AAnNxAH4ABwAAAAJ3BAAAAAJzcQB+AAJzcQB+AAcAAAAAdwQAAAAAeHEAfgA4cQB+AIBzcQB+AAJzcQB+AAcAAAAAdwQAAAAAeHEAfgA4cQB+AIB4cQB+AGJxAH4AfnEAfgBUeHEAfgBic3EAfgACc3EAfgAHAAAAAncEAAAAAnNxAH4AAnNxAH4ABwAAAAB3BAAAAAB4cQB+AE9xAH4AhnEAfgB+eHEAfgBoc3EAfgACc3EAfgAHAAAAAncEAAAAAnNxAH4AAnNxAH4ABwAAAAJ3BAAAAAJzcQB+AAJzcQB+AAcAAAACdwQAAAACc3EAfgACc3EAfgAHAAAAAHcEAAAAAHhxAH4AMHEAfgCOc3EAfgACc3EAfgAHAAAAAHcEAAAAAHhxAH4AM3EAfgCOeHEAfgA5cQB+AIxzcQB+AAJzcQB+AAcAAAAAdwQAAAAAeHEAfgA/cQB+AIx4cQB+ADlxAH4AinEAfgCGeHEAfgBoc3EAfgACc3EAfgAHAAAAAncEAAAAAnEAfgCKcQB+AHR4cQB+AGhzcQB+AAJzcQB+AAcAAAACdwQAAAACcQB+AJZxAH4AenhxAH4AOXB4cQB+AGJzcQB+AAJzcQB+AAcAAAACdwQAAAACc3EAfgACc3EAfgAHAAAAAHcEAAAAAHhxAH4AMHEAfgCacQB+AFB4cQB+AGhzcQB+AAJzcQB+AAcAAAACdwQAAAACc3EAfgACc3EAfgAHAAAAAncEAAAAAnNxAH4AAnNxAH4ABwAAAAJ3BAAAAAJzcQB+AAJzcQB+AAcAAAAAdwQAAAAAeHEAfgAwcQB+AKJzcQB+AAJzcQB+AAcAAAAAdwQAAAAAeHEAfgAzcQB+AKJ4cQB+ADlxAH4AoHNxAH4AAnNxAH4ABwAAAAB3BAAAAAB4cQB+AD9xAH4AoHhxAH4AOXEAfgCecQB+AJp4cQB+AGhzcQB+AAJzcQB+AAcAAAACdwQAAAACcQB+AJ5xAH4AdHhxAH4AaHNxAH4AAnNxAH4ABwAAAAJ3BAAAAAJxAH4AqnEAfgB6eHEAfgA5cHhxAH4AaHEAfgBJeHEAfgBocQB+AHZ4cQB+ADlzcQB+AAJzcQB+AAcAAAACdwQAAAACcQB+ADtxAH4AS3hxAH4AaHNxAH4AAnNxAH4ABwAAAAJ3BAAAAAJxAH4ArnEAfgB0eHEAfgBoc3EAfgACc3EAfgAHAAAAAncEAAAAAnEAfgCwcQB+AHp4cQB+ADlweHEAfgA5cQB+AClxAH4APXhxAH4AOXEAfgAncQB+AEt4cQB+AGhxAH4AJXEAfgB0eHEAfgBocQB+ACNxAH4AenhxAH4AOXBzcQB+AAJzcQB+AAcAAAACdwQAAAACc3EAfgACc3EAfgAHAAAAAncEAAAAAnNxAH4AAnNxAH4ABwAAAAJ3BAAAAAJzcQB+AAJzcQB+AAcAAAACdwQAAAACc3EAfgACc3EAfgAHAAAAAncEAAAAAnNxAH4AAnNxAH4ABwAAAAB3BAAAAAB4c3EAfgANdAADeDE1cQB+ALxzcQB+AAJzcQB+AAcAAAAAdwQAAAAAeHEAfgDAc3EAfgACc3EAfgAHAAAAAncEAAAAAnNxAH4AAnNxAH4ABwAAAAB3BAAAAAB4c3EAfgANdAADeDAycQB+AMRxAH4AwnhxAH4AaHNxAH4AAnNxAH4ABwAAAAJ3BAAAAAJxAH4AxHNxAH4AAnNxAH4ABwAAAAJ3BAAAAAJzcQB+AAJzcQB+AAcAAAAAdwQAAAAAeHEAfgDAcQB+AMxzcQB+AAJzcQB+AAcAAAAAdwQAAAAAeHEAfgDIcQB+AMx4cQB+AGhzcQB+AAJzcQB+AAcAAAACdwQAAAACc3EAfgACc3EAfgAHAAAAAHcEAAAAAHhxAH4AwHEAfgDScQB+AMx4cQB+AGhzcQB+AAJzcQB+AAcAAAACdwQAAAACcQB+ANJzcQB+AAJzcQB+AAcAAAACdwQAAAACc3EAfgACc3EAfgAHAAAAAncEAAAAAnNxAH4AAnNxAH4ABwAAAAJ3BAAAAAJzcQB+AAJzcQB+AAcAAAAAdwQAAAAAeHEAfgDAcQB+ANxzcQB+AAJzcQB+AAcAAAAAdwQAAAAAeHEAfgDIcQB+ANx4cQB+AGhxAH4A2nNxAH4AAnNxAH4ABwAAAAB3BAAAAAB4cQB+AMBzcQB+AAJzcQB+AAcAAAACdwQAAAACc3EAfgACc3EAfgAHAAAAAHcEAAAAAHhzcQB+AA10AAN4MDNxAH4A5HEAfgDieHEAfgBoc3EAfgACc3EAfgAHAAAAAncEAAAAAnEAfgDkc3EAfgACc3EAfgAHAAAAAncEAAAAAnNxAH4AAnNxAH4ABwAAAAJ3BAAAAAJzcQB+AAJzcQB+AAcAAAAAdwQAAAAAeHEAfgDAcQB+AO5zcQB+AAJzcQB+AAcAAAAAdwQAAAAAeHEAfgDIcQB+AO54cQB+AGhxAH4A7HNxAH4AAnNxAH4ABwAAAAB3BAAAAAB4c3EAfgANdAADeDEwcQB+AOx4cQB+AGhxAH4A6nhxAH4AaHNxAH4AAnNxAH4ABwAAAAJ3BAAAAAJzcQB+AAJzcQB+AAcAAAACdwQAAAACc3EAfgACc3EAfgAHAAAAAncEAAAAAnNxAH4AAnNxAH4ABwAAAAB3BAAAAAB4cQB+AMBxAH4A/HNxAH4AAnNxAH4ABwAAAAB3BAAAAAB4cQB+AMBxAH4A/HhxAH4AaHEAfgD6c3EAfgACc3EAfgAHAAAAAHcEAAAAAHhxAH4AyHEAfgD6eHEAfgBocQB+APhxAH4A6nhxAH4AaHNxAH4AAnNxAH4ABwAAAAJ3BAAAAAJxAH4A+HNxAH4AAnNxAH4ABwAAAAB3BAAAAAB4cQB+AMhzcQB+AAJzcQB+AAcAAAACdwQAAAACc3EAfgACc3EAfgAHAAAAAncEAAAAAnNxAH4AAnNxAH4ABwAAAAJ3BAAAAAJzcQB+AAJzcQB+AAcAAAACdwQAAAACc3EAfgACc3EAfgAHAAAAAHcEAAAAAHhxAH4AwHEAfgEOc3EAfgACc3EAfgAHAAAAAHcEAAAAAHhxAH4AwHEAfgEOeHEAfgBocQB+AQxzcQB+AAJzcQB+AAcAAAACdwQAAAACc3EAfgACc3EAfgAHAAAAAHcEAAAAAHhxAH4AwHEAfgEUc3EAfgACc3EAfgAHAAAAAHcEAAAAAHhxAH4AyHEAfgEUeHEAfgBocQB+AQx4cQB+AGhxAH4BCnNxAH4AAnNxAH4ABwAAAAJ3BAAAAAJzcQB+AAJzcQB+AAcAAAACdwQAAAACc3EAfgACc3EAfgAHAAAAAncEAAAAAnNxAH4AAnNxAH4ABwAAAAB3BAAAAAB4cQB+AMBxAH4BHnNxAH4AAnNxAH4ABwAAAAB3BAAAAAB4cQB+AMhxAH4BHnhxAH4AaHEAfgEcc3EAfgACc3EAfgAHAAAAAHcEAAAAAHhxAH4AwHEAfgEceHEAfgBocQB+ARpzcQB+AAJzcQB+AAcAAAAAdwQAAAAAeHEAfgD2cQB+ARp4cQB+AGhxAH4BCnhxAH4AaHEAfgEIcQB+AQZ4cQB+AGhzcQB+AAJzcQB+AAcAAAACdwQAAAACcQB+AQhzcQB+AAJzcQB+AAcAAAAAdwQAAAAAeHEAfgD2cQB+ASh4cQB+AGhweHEAfgBoc3EAfgACc3EAfgAHAAAAAncEAAAAAnEAfgEEcQB+ASp4cQB+AGhweHEAfgBocQB+ANhxAH4A7HhxAH4AaHNxAH4AAnNxAH4ABwAAAAJ3BAAAAAJzcQB+AAJzcQB+AAcAAAACdwQAAAACc3EAfgACc3EAfgAHAAAAAncEAAAAAnNxAH4AAnNxAH4ABwAAAAB3BAAAAAB4cQB+AMBxAH4BMnNxAH4AAnNxAH4ABwAAAAB3BAAAAAB4cQB+AMBxAH4BMnhxAH4AaHEAfgEwc3EAfgACc3EAfgAHAAAAAncEAAAAAnNxAH4AAnNxAH4ABwAAAAB3BAAAAAB4cQB+AMBxAH4BOHNxAH4AAnNxAH4ABwAAAAJ3BAAAAAJzcQB+AAJzcQB+AAcAAAAAdwQAAAAAeHEAfgDAcQB+ATxzcQB+AAJzcQB+AAcAAAAAdwQAAAAAeHEAfgDIcQB+ATx4cQB+AGhxAH4BOHhxAH4AaHEAfgEweHEAfgBocQB+AS5xAH4A2HhxAH4AaHNxAH4AAnNxAH4ABwAAAAJ3BAAAAAJxAH4BLnEAfgEGeHEAfgBoc3EAfgACc3EAfgAHAAAAAncEAAAAAnEAfgFCcQB+ASp4cQB+AGhweHEAfgBoc3EAfgACc3EAfgAHAAAAAncEAAAAAnEAfgDWcQB+AQZ4cQB+AGhzcQB+AAJzcQB+AAcAAAACdwQAAAACcQB+AUZxAH4BKnhxAH4AaHB4cQB+AGhzcQB+AAJzcQB+AAcAAAACdwQAAAACcQB+AMpxAH4A2HhxAH4AaHNxAH4AAnNxAH4ABwAAAAJ3BAAAAAJxAH4BSnEAfgEGeHEAfgBoc3EAfgACc3EAfgAHAAAAAncEAAAAAnEAfgFMcQB+ASp4cQB+AGhweHEAfgBocQB+ALpxAH4AzHhxAH4AaHEAfgC4cQB+ANh4cQB+AGhxAH4AtnEAfgEGeHEAfgBocQB+ALRxAH4BKnhxAH4AaHBzcQB+AAJzcQB+AAcAAAACdwQAAAACc3EAfgACc3EAfgAHAAAAAHcEAAAAAHhzcQB+AA10AAN4MDRxAH4BUHNxAH4AAnNxAH4ABwAAAAB3BAAAAAB4c3EAfgAvQAAAAAAAAABzcQB+AAJzcQB+AAcAAAACdwQAAAACc3EAfgACc3EAfgAHAAAAAHcEAAAAAHhxAH4BWHEAfgFZcQB+AVZ4fnEAfgAbdAANUFJPVF9ESVZJU0lPTnB4cQB+AV1weA==";
