ea.runOutcome(
  index = 196;
  run = ea.run(
    problem = ea.p.mr.fromData(
      trainingDataset = ea.dataset.numerical.fromFile(
        filePath = "../phase2/data-ro-gp-3-004.txt";
        folds = [0];
        nFolds = 40;
        xVarNamePattern = "x.*";
        yVarNamePattern = "y.*"
      )
    );
    randomGenerator = ea.rg.defaultRG(seed = 2);
    solver = ea.s.multiSRTreeGP(
      crossoverP = 0.8;
      diversity = true;
      mapper = ea.m.treeMRF(
        dataset = ea.d.num.empty(
          xVars = [
            x0;
            x1;
            x2;
            x3;
            x4;
            x5;
            x6;
            x7;
            x8;
            x9;
            x10;
            x11;
            x12;
            x13;
            x14;
            x15
          ];
          yVars = [y0; y1; y2; y3]
        );
        postOperator = tanh
      );
      maxConst = 5;
      maxTreeH = 8;
      minConst = 0;
      minNTournament = 3;
      minTreeH = 3;
      nAttemptsDiversity = 100;
      nConst = 10;
      nEval = 10000;
      nPop = 100;
      operators = [addition; subtraction; multiplication; prot_division];
      tournamentRate = 0.05
    )
  );
  serializedGenotypes = [
    "rO0ABXNyABFqYXZhLnV0aWwuQ29sbFNlcleOq7Y6G6gRAwABSQADdGFneHAAAAAEdwQAAAAEc3IAN2lvLmdpdGh1Yi5lcmljbWVkdmV0LmpnZWEuY29yZS5yZXByZXNlbnRhdGlvbi50cmVlLlRyZWUKs7/qnQrEZQIAA0wACGNoaWxkcmVudAAQTGphdmEvdXRpbC9MaXN0O0wAB2NvbnRlbnR0ABJMamF2YS9sYW5nL09iamVjdDtMAAZwYXJlbnR0ADlMaW8vZ2l0aHViL2VyaWNtZWR2ZXQvamdlYS9jb3JlL3JlcHJlc2VudGF0aW9uL3RyZWUvVHJlZTt4cHNyABNqYXZhLnV0aWwuQXJyYXlMaXN0eIHSHZnHYZ0DAAFJAARzaXpleHAAAAACdwQAAAACc3EAfgACc3EAfgAHAAAAAncEAAAAAnNxAH4AAnNxAH4ABwAAAAJ3BAAAAAJzcQB+AAJzcQB+AAcAAAACdwQAAAACc3EAfgACc3EAfgAHAAAAAncEAAAAAnNxAH4AAnNxAH4ABwAAAAB3BAAAAAB4c3IAS2lvLmdpdGh1Yi5lcmljbWVkdmV0LmpnZWEuY29yZS5yZXByZXNlbnRhdGlvbi50cmVlLm51bWVyaWMuRWxlbWVudCRDb25zdGFudAAAAAAAAAAAAgABRAAFdmFsdWV4cEAIAAAAAAAAcQB+AA9zcQB+AAJzcQB+AAcAAAAAdwQAAAAAeHNxAH4AE0AAAAAAAAAAc3EAfgACc3EAfgAHAAAAAncEAAAAAnNxAH4AAnNxAH4ABwAAAAJ3BAAAAAJzcQB+AAJzcQB+AAcAAAAAdwQAAAAAeHNyAEtpby5naXRodWIuZXJpY21lZHZldC5qZ2VhLmNvcmUucmVwcmVzZW50YXRpb24udHJlZS5udW1lcmljLkVsZW1lbnQkVmFyaWFibGUAAAAAAAAAAAIAAUwABG5hbWV0ABJMamF2YS9sYW5nL1N0cmluZzt4cHQAA3gxMHEAfgAac3EAfgACc3EAfgAHAAAAAHcEAAAAAHhzcQB+AB50AAJ4N3EAfgAaeH5yAEtpby5naXRodWIuZXJpY21lZHZldC5qZ2VhLmNvcmUucmVwcmVzZW50YXRpb24udHJlZS5udW1lcmljLkVsZW1lbnQkT3BlcmF0b3IAAAAAAAAAABIAAHhyAA5qYXZhLmxhbmcuRW51bQAAAAAAAAAAEgAAeHB0AAtTVUJUUkFDVElPTnEAfgAYcQB+ABV4fnEAfgAmdAAIQURESVRJT05zcQB+AAJzcQB+AAcAAAACdwQAAAACcQB+ABhzcQB+AAJzcQB+AAcAAAACdwQAAAACc3EAfgACc3EAfgAHAAAAAncEAAAAAnNxAH4AAnNxAH4ABwAAAAB3BAAAAAB4c3EAfgATQBIAAAAAAABxAH4AMHNxAH4AAnNxAH4ABwAAAAB3BAAAAAB4cQB+ABdzcQB+AAJzcQB+AAcAAAACdwQAAAACc3EAfgACc3EAfgAHAAAAAncEAAAAAnNxAH4AAnNxAH4ABwAAAAB3BAAAAAB4c3EAfgAedAACeDhxAH4AOXNxAH4AAnNxAH4ABwAAAAB3BAAAAAB4c3EAfgATAAAAAAAAAABxAH4AOXhxAH4AKHEAfgA3cQB+ADV4fnEAfgAmdAAOTVVMVElQTElDQVRJT05zcQB+AAJzcQB+AAcAAAACdwQAAAACcQB+ADdzcQB+AAJzcQB+AAcAAAAAdwQAAAAAeHNxAH4AE0AMAAAAAAAAcQB+AER4cQB+AChzcQB+AAJzcQB+AAcAAAACdwQAAAACc3EAfgACc3EAfgAHAAAAAncEAAAAAnNxAH4AAnNxAH4ABwAAAAB3BAAAAAB4cQB+ABRxAH4AS3NxAH4AAnNxAH4ABwAAAAB3BAAAAAB4cQB+ABdxAH4AS3hxAH4AKnEAfgBJcQB+AER4cQB+ACpzcQB+AAJzcQB+AAcAAAACdwQAAAACcQB+AElzcQB+AAJzcQB+AAcAAAACdwQAAAACc3EAfgACc3EAfgAHAAAAAHcEAAAAAHhxAH4ASHEAfgBTc3EAfgACc3EAfgAHAAAAAncEAAAAAnNxAH4AAnNxAH4ABwAAAAJ3BAAAAAJzcQB+AAJzcQB+AAcAAAACdwQAAAACc3EAfgACc3EAfgAHAAAAAHcEAAAAAHhxAH4APXEAfgBbc3EAfgACc3EAfgAHAAAAAHcEAAAAAHhxAH4AQXNxAH4AAnNxAH4ABwAAAAJ3BAAAAAJzcQB+AAJzcQB+AAcAAAAAdwQAAAAAeHEAfgAXcQB+AGFxAH4AX3hxAH4AKHNxAH4AAnNxAH4ABwAAAAJ3BAAAAAJxAH4AYXNxAH4AAnNxAH4ABwAAAAB3BAAAAAB4c3EAfgAedAADeDEzc3EAfgACc3EAfgAHAAAAAncEAAAAAnNxAH4AAnNxAH4ABwAAAAJ3BAAAAAJzcQB+AAJzcQB+AAcAAAAAdwQAAAAAeHEAfgA9cQB+AG1zcQB+AAJzcQB+AAcAAAACdwQAAAACc3EAfgACc3EAfgAHAAAAAHcEAAAAAHhxAH4AFHEAfgBxc3EAfgACc3EAfgAHAAAAAHcEAAAAAHhxAH4AF3EAfgBxeHEAfgAqcQB+AG14cQB+AChxAH4Aa3EAfgBneHEAfgAoc3EAfgACc3EAfgAHAAAAAncEAAAAAnEAfgBrc3EAfgACc3EAfgAHAAAAAncEAAAAAnNxAH4AAnNxAH4ABwAAAAB3BAAAAAB4cQB+ACBxAH4AeXNxAH4AAnNxAH4ABwAAAAB3BAAAAAB4cQB+ACRzcQB+AAJzcQB+AAcAAAACdwQAAAACc3EAfgACc3EAfgAHAAAAAHcEAAAAAHhxAH4AQXEAfgB/cQB+AH14cQB+AChzcQB+AAJzcQB+AAcAAAACdwQAAAACc3EAfgACc3EAfgAHAAAAAncEAAAAAnNxAH4AAnNxAH4ABwAAAAJ3BAAAAAJzcQB+AAJzcQB+AAcAAAAAdwQAAAAAeHEAfgA9cQB+AIdzcQB+AAJzcQB+AAcAAAAAdwQAAAAAeHEAfgBBcQB+AId4cQB+AChxAH4AhXNxAH4AAnNxAH4ABwAAAAB3BAAAAAB4cQB+AGlxAH4AhXhxAH4AKHEAfgCDcQB+AH94cQB+AEJzcQB+AAJzcQB+AAcAAAACdwQAAAACc3EAfgACc3EAfgAHAAAAAHcEAAAAAHhxAH4ASHEAfgCPcQB+AIN4cQB+ACpzcQB+AAJzcQB+AAcAAAACdwQAAAACc3EAfgACc3EAfgAHAAAAAncEAAAAAnNxAH4AAnNxAH4ABwAAAAJ3BAAAAAJzcQB+AAJzcQB+AAcAAAAAdwQAAAAAeHEAfgAUcQB+AJdzcQB+AAJzcQB+AAcAAAAAdwQAAAAAeHEAfgAXcQB+AJd4cQB+ACpxAH4AlXNxAH4AAnNxAH4ABwAAAAJ3BAAAAAJzcQB+AAJzcQB+AAcAAAACdwQAAAACc3EAfgACc3EAfgAHAAAAAHcEAAAAAHhxAH4ANHEAfgCfc3EAfgACc3EAfgAHAAAAAHcEAAAAAHhxAH4AF3EAfgCfeHEAfgBCcQB+AJ1zcQB+AAJzcQB+AAcAAAAAdwQAAAAAeHEAfgBIcQB+AJ14cQB+AChxAH4AlXhxAH4AKnEAfgCTcQB+AI94fnEAfgAmdAANUFJPVF9ESVZJU0lPTnNxAH4AAnNxAH4ABwAAAAJ3BAAAAAJxAH4Ak3NxAH4AAnNxAH4ABwAAAAB3BAAAAAB4c3EAfgAedAACeDBzcQB+AAJzcQB+AAcAAAACdwQAAAACcQB+AFFxAH4Aq3hxAH4AQnNxAH4AAnNxAH4ABwAAAAJ3BAAAAAJxAH4Ar3NxAH4AAnNxAH4ABwAAAAB3BAAAAAB4cQB+AEFxAH4AsXhxAH4AKHB4cQB+AEJzcQB+AAJzcQB+AAcAAAACdwQAAAACcQB+AKlxAH4As3hxAH4AKHB4cQB+AChxAH4Ad3hxAH4AQnNxAH4AAnNxAH4ABwAAAAJ3BAAAAAJzcQB+AAJzcQB+AAcAAAAAdwQAAAAAeHEAfgBIcQB+ALdxAH4Ad3hxAH4AKnNxAH4AAnNxAH4ABwAAAAJ3BAAAAAJzcQB+AAJzcQB+AAcAAAACdwQAAAACc3EAfgACc3EAfgAHAAAAAncEAAAAAnNxAH4AAnNxAH4ABwAAAAB3BAAAAAB4cQB+ABRxAH4Av3NxAH4AAnNxAH4ABwAAAAB3BAAAAAB4cQB+ABdxAH4Av3hxAH4AKnEAfgC9c3EAfgACc3EAfgAHAAAAAncEAAAAAnNxAH4AAnNxAH4ABwAAAAJ3BAAAAAJzcQB+AAJzcQB+AAcAAAAAdwQAAAAAeHEAfgA0cQB+AMdzcQB+AAJzcQB+AAcAAAAAdwQAAAAAeHEAfgAXcQB+AMd4cQB+AEJxAH4AxXNxAH4AAnNxAH4ABwAAAAB3BAAAAAB4cQB+AEhxAH4AxXhxAH4AKHEAfgC9eHEAfgAqcQB+ALtxAH4At3hxAH4Ap3NxAH4AAnNxAH4ABwAAAAJ3BAAAAAJxAH4Au3EAfgCreHEAfgBCc3EAfgACc3EAfgAHAAAAAncEAAAAAnEAfgDPcQB+ALN4cQB+AChweHEAfgAoc3EAfgACc3EAfgAHAAAAAncEAAAAAnEAfgBlcQB+AHl4cQB+AEJzcQB+AAJzcQB+AAcAAAACdwQAAAACc3EAfgACc3EAfgAHAAAAAHcEAAAAAHhxAH4ASHEAfgDVcQB+ANN4cQB+ACpzcQB+AAJzcQB+AAcAAAACdwQAAAACc3EAfgACc3EAfgAHAAAAAncEAAAAAnNxAH4AAnNxAH4ABwAAAAJ3BAAAAAJzcQB+AAJzcQB+AAcAAAAAdwQAAAAAeHEAfgAUcQB+AN1zcQB+AAJzcQB+AAcAAAAAdwQAAAAAeHEAfgAXcQB+AN14cQB+ACpxAH4A23NxAH4AAnNxAH4ABwAAAAJ3BAAAAAJzcQB+AAJzcQB+AAcAAAACdwQAAAACc3EAfgACc3EAfgAHAAAAAHcEAAAAAHhxAH4ANHEAfgDlc3EAfgACc3EAfgAHAAAAAHcEAAAAAHhxAH4AF3EAfgDleHEAfgBCcQB+AONzcQB+AAJzcQB+AAcAAAAAdwQAAAAAeHEAfgBIcQB+AON4cQB+AChxAH4A23hxAH4AKnEAfgDZcQB+ANV4cQB+AKdzcQB+AAJzcQB+AAcAAAACdwQAAAACcQB+ANlxAH4Aq3hxAH4AQnNxAH4AAnNxAH4ABwAAAAJ3BAAAAAJxAH4A7XEAfgCzeHEAfgAocHhxAH4AKHEAfgBZcQB+AGd4cQB+AChxAH4AV3EAfgB5eHEAfgBCcQB+AFN4cQB+ACpxAH4AUXhxAH4Ap3EAfgCveHEAfgBCcQB+AC5xAH4ARnhxAH4AKHEAfgAseHEAfgAqc3EAfgACc3EAfgAHAAAAAncEAAAAAnEAfgAscQB+AFN4cQB+AKdzcQB+AAJzcQB+AAcAAAACdwQAAAACcQB+APFxAH4Aq3hxAH4AQnNxAH4AAnNxAH4ABwAAAAJ3BAAAAAJxAH4A83EAfgCzeHEAfgAocHhxAH4AKnEAfgANcQB+AC54cQB+ACpxAH4AC3EAfgBTeHEAfgCncQB+AAlxAH4Aq3hxAH4AQnEAfgAGcQB+ALN4cQB+AChwc3EAfgACc3EAfgAHAAAAAncEAAAAAnNxAH4AAnNxAH4ABwAAAAJ3BAAAAAJzcQB+AAJzcQB+AAcAAAACdwQAAAACc3EAfgACc3EAfgAHAAAAAHcEAAAAAHhxAH4ANHEAfgD7c3EAfgACc3EAfgAHAAAAAncEAAAAAnNxAH4AAnNxAH4ABwAAAAJ3BAAAAAJzcQB+AAJzcQB+AAcAAAAAdwQAAAAAeHEAfgBpcQB+AQFzcQB+AAJzcQB+AAcAAAAAdwQAAAAAeHNxAH4AE0AEAAAAAAAAc3EAfgACc3EAfgAHAAAAAncEAAAAAnNxAH4AAnNxAH4ABwAAAAJ3BAAAAAJzcQB+AAJzcQB+AAcAAAAAdwQAAAAAeHNxAH4AHnQAAngycQB+AQpzcQB+AAJzcQB+AAcAAAAAdwQAAAAAeHNxAH4AE0AQAAAAAAAAcQB+AQp4cQB+AChxAH4BCHEAfgEFeHEAfgAoc3EAfgACc3EAfgAHAAAAAncEAAAAAnEAfgEIc3EAfgACc3EAfgAHAAAAAHcEAAAAAHhzcQB+ABM/+AAAAAAAAHEAfgETeHEAfgAoc3EAfgACc3EAfgAHAAAAAncEAAAAAnNxAH4AAnNxAH4ABwAAAAB3BAAAAAB4cQB+ADRxAH4BGHEAfgETeHEAfgCnc3EAfgACc3EAfgAHAAAAAncEAAAAAnEAfgEYc3EAfgACc3EAfgAHAAAAAncEAAAAAnNxAH4AAnNxAH4ABwAAAAJ3BAAAAAJzcQB+AAJzcQB+AAcAAAAAdwQAAAAAeHNxAH4AEz/wAAAAAAAAcQB+ASBzcQB+AAJzcQB+AAcAAAAAdwQAAAAAeHEAfgEXc3EAfgACc3EAfgAHAAAAAncEAAAAAnNxAH4AAnNxAH4ABwAAAAJ3BAAAAAJzcQB+AAJzcQB+AAcAAAAAdwQAAAAAeHEAfgEXcQB+ASlzcQB+AAJzcQB+AAcAAAAAdwQAAAAAeHEAfgEHcQB+ASl4cQB+AChxAH4BJ3EAfgEleHEAfgAoc3EAfgACc3EAfgAHAAAAAncEAAAAAnEAfgEnc3EAfgACc3EAfgAHAAAAAncEAAAAAnNxAH4AAnNxAH4ABwAAAAB3BAAAAAB4cQB+AEhxAH4BMXNxAH4AAnNxAH4ABwAAAAB3BAAAAAB4cQB+ACRzcQB+AAJzcQB+AAcAAAACdwQAAAACc3EAfgACc3EAfgAHAAAAAHcEAAAAAHhzcQB+AB50AAN4MTRxAH4BN3EAfgE1eHEAfgAqc3EAfgACc3EAfgAHAAAAAncEAAAAAnNxAH4AAnNxAH4ABwAAAAJ3BAAAAAJzcQB+AAJzcQB+AAcAAAAAdwQAAAAAeHEAfgEkcQB+AT9zcQB+AAJzcQB+AAcAAAAAdwQAAAAAeHEAfgEXcQB+AT94cQB+AChxAH4BPXEAfgE3eHEAfgBCc3EAfgACc3EAfgAHAAAAAncEAAAAAnNxAH4AAnNxAH4ABwAAAAJ3BAAAAAJzcQB+AAJzcQB+AAcAAAAAdwQAAAAAeHEAfgA0cQB+AUdzcQB+AAJzcQB+AAcAAAACdwQAAAACc3EAfgACc3EAfgAHAAAAAncEAAAAAnNxAH4AAnNxAH4ABwAAAAB3BAAAAAB4cQB+AGlxAH4BTXNxAH4AAnNxAH4ABwAAAAB3BAAAAAB4cQB+AQdxAH4BTXhxAH4AKHEAfgFLc3EAfgACc3EAfgAHAAAAAHcEAAAAAHhxAH4BF3EAfgFLeHEAfgAocQB+AUd4cQB+AKdxAH4BRXEAfgE9eHEAfgBCc3EAfgACc3EAfgAHAAAAAncEAAAAAnEAfgFFc3EAfgACc3EAfgAHAAAAAncEAAAAAnNxAH4AAnNxAH4ABwAAAAJ3BAAAAAJzcQB+AAJzcQB+AAcAAAAAdwQAAAAAeHEAfgE7cQB+AVlzcQB+AAJzcQB+AAcAAAACdwQAAAACc3EAfgACc3EAfgAHAAAAAncEAAAAAnNxAH4AAnNxAH4ABwAAAAB3BAAAAAB4cQB+AD1xAH4BX3NxAH4AAnNxAH4ABwAAAAB3BAAAAAB4cQB+ADRzcQB+AAJzcQB+AAcAAAACdwQAAAACc3EAfgACc3EAfgAHAAAAAHcEAAAAAHhxAH4BDnEAfgFlcQB+AWN4cQB+AChzcQB+AAJzcQB+AAcAAAACdwQAAAACcQB+AWVzcQB+AAJzcQB+AAcAAAACdwQAAAACc3EAfgACc3EAfgAHAAAAAncEAAAAAnNxAH4AAnNxAH4ABwAAAAB3BAAAAAB4cQB+AQ5xAH4BbXNxAH4AAnNxAH4ABwAAAAB3BAAAAAB4cQB+ARJzcQB+AAJzcQB+AAcAAAACdwQAAAACc3EAfgACc3EAfgAHAAAAAHcEAAAAAHhxAH4AaXEAfgFzcQB+AXF4cQB+AChzcQB+AAJzcQB+AAcAAAACdwQAAAACcQB+AXNzcQB+AAJzcQB+AAcAAAAAdwQAAAAAeHEAfgBpc3EAfgACc3EAfgAHAAAAAncEAAAAAnNxAH4AAnNxAH4ABwAAAAB3BAAAAAB4cQB+ABRxAH4Be3EAfgF5eHEAfgAqc3EAfgACc3EAfgAHAAAAAncEAAAAAnNxAH4AAnNxAH4ABwAAAAJ3BAAAAAJzcQB+AAJzcQB+AAcAAAAAdwQAAAAAeHEAfgA9cQB+AYFzcQB+AAJzcQB+AAcAAAAAdwQAAAAAeHEAfgA0cQB+AYF4cQB+AChxAH4Bf3EAfgF7eHEAfgAoc3EAfgACc3EAfgAHAAAAAncEAAAAAnNxAH4AAnNxAH4ABwAAAAB3BAAAAAB4cQB+ATtxAH4Bh3EAfgF/eHEAfgCnc3EAfgACc3EAfgAHAAAAAncEAAAAAnEAfgGHc3EAfgACc3EAfgAHAAAAAncEAAAAAnNxAH4AAnNxAH4ABwAAAAJ3BAAAAAJzcQB+AAJzcQB+AAcAAAAAdwQAAAAAeHNxAH4AHnQAAng0cQB+AY9zcQB+AAJzcQB+AAcAAAAAdwQAAAAAeHEAfgAUc3EAfgACc3EAfgAHAAAAAncEAAAAAnNxAH4AAnNxAH4ABwAAAAB3BAAAAAB4cQB+ABRxAH4Bl3EAfgGVeHEAfgBCc3EAfgACc3EAfgAHAAAAAncEAAAAAnEAfgGXc3EAfgACc3EAfgAHAAAAAncEAAAAAnNxAH4AAnNxAH4ABwAAAAB3BAAAAAB4cQB+ABdxAH4BnXNxAH4AAnNxAH4ABwAAAAB3BAAAAAB4cQB+AQ5zcQB+AAJzcQB+AAcAAAACdwQAAAACc3EAfgACc3EAfgAHAAAAAncEAAAAAnNxAH4AAnNxAH4ABwAAAAJ3BAAAAAJzcQB+AAJzcQB+AAcAAAAAdwQAAAAAeHEAfgA9cQB+AadzcQB+AAJzcQB+AAcAAAAAdwQAAAAAeHEAfgA0cQB+Aad4cQB+AChxAH4BpXNxAH4AAnNxAH4ABwAAAAJ3BAAAAAJzcQB+AAJzcQB+AAcAAAACdwQAAAACc3EAfgACc3EAfgAHAAAAAHcEAAAAAHhxAH4BDnEAfgGvc3EAfgACc3EAfgAHAAAAAHcEAAAAAHhxAH4BEnEAfgGveHEAfgAocQB+Aa1zcQB+AAJzcQB+AAcAAAAAdwQAAAAAeHEAfgBpcQB+Aa14cQB+ACpxAH4BpXhxAH4AKHEAfgGjcQB+AaF4cQB+AKdzcQB+AAJzcQB+AAcAAAACdwQAAAACc3EAfgACc3EAfgAHAAAAAncEAAAAAnNxAH4AAnNxAH4ABwAAAAB3BAAAAAB4cQB+AZNxAH4BuXNxAH4AAnNxAH4ABwAAAAB3BAAAAAB4cQB+ABRxAH4BuXhxAH4AQnEAfgG3cQB+AaN4cQB+AKdzcQB+AAJzcQB+AAcAAAACdwQAAAACc3EAfgACc3EAfgAHAAAAAncEAAAAAnNxAH4AAnNxAH4ABwAAAAB3BAAAAAB4cQB+ATtxAH4BwXNxAH4AAnNxAH4ABwAAAAJ3BAAAAAJzcQB+AAJzcQB+AAcAAAACdwQAAAACc3EAfgACc3EAfgAHAAAAAHcEAAAAAHhxAH4APXEAfgHHc3EAfgACc3EAfgAHAAAAAHcEAAAAAHhxAH4ANHEAfgHHeHEAfgAocQB+AcVzcQB+AAJzcQB+AAcAAAACdwQAAAACc3EAfgACc3EAfgAHAAAAAncEAAAAAnNxAH4AAnNxAH4ABwAAAAB3BAAAAAB4cQB+AQ5xAH4Bz3NxAH4AAnNxAH4ABwAAAAB3BAAAAAB4cQB+ARJxAH4Bz3hxAH4AKHEAfgHNc3EAfgACc3EAfgAHAAAAAHcEAAAAAHhxAH4AaXEAfgHNeHEAfgAqcQB+AcV4cQB+AChxAH4BwXhxAH4Ap3EAfgG/cQB+Abd4cQB+AEJzcQB+AAJzcQB+AAcAAAACdwQAAAACc3EAfgACc3EAfgAHAAAAAncEAAAAAnNxAH4AAnNxAH4ABwAAAAJ3BAAAAAJzcQB+AAJzcQB+AAcAAAAAdwQAAAAAeHEAfgA0cQB+AdtzcQB+AAJzcQB+AAcAAAACdwQAAAACc3EAfgACc3EAfgAHAAAAAncEAAAAAnNxAH4AAnNxAH4ABwAAAAB3BAAAAAB4cQB+ARdxAH4B4XNxAH4AAnNxAH4ABwAAAAB3BAAAAAB4cQB+AQdxAH4B4XhxAH4AKHEAfgHfc3EAfgACc3EAfgAHAAAAAHcEAAAAAHhxAH4BF3EAfgHfeHEAfgAocQB+Adt4cQB+AKdxAH4B2XNxAH4AAnNxAH4ABwAAAAJ3BAAAAAJzcQB+AAJzcQB+AAcAAAACdwQAAAACc3EAfgACc3EAfgAHAAAAAHcEAAAAAHhxAH4BJHEAfgHrc3EAfgACc3EAfgAHAAAAAHcEAAAAAHhxAH4BF3EAfgHreHEAfgAocQB+AelzcQB+AAJzcQB+AAcAAAACdwQAAAACc3EAfgACc3EAfgAHAAAAAHcEAAAAAHhxAH4ASHEAfgHxc3EAfgACc3EAfgAHAAAAAHcEAAAAAHhxAH4AJHEAfgHxeHEAfgAqcQB+Ael4cQB+AEJxAH4B2XhxAH4AQnEAfgHXcQB+Ab94cQB+AEJweHEAfgCnc3EAfgACc3EAfgAHAAAAAncEAAAAAnNxAH4AAnNxAH4ABwAAAAJ3BAAAAAJzcQB+AAJzcQB+AAcAAAAAdwQAAAAAeHEAfgGTcQB+AflzcQB+AAJzcQB+AAcAAAAAdwQAAAAAeHEAfgEScQB+Afl4cQB+AEJxAH4B93EAfgGdeHEAfgCnc3EAfgACc3EAfgAHAAAAAncEAAAAAnNxAH4AAnNxAH4ABwAAAAJ3BAAAAAJzcQB+AAJzcQB+AAcAAAAAdwQAAAAAeHEAfgE7cQB+AgFzcQB+AAJzcQB+AAcAAAACdwQAAAACc3EAfgACc3EAfgAHAAAAAncEAAAAAnNxAH4AAnNxAH4ABwAAAAB3BAAAAAB4cQB+AD1xAH4CB3NxAH4AAnNxAH4ABwAAAAB3BAAAAAB4cQB+ADRxAH4CB3hxAH4AKHEAfgIFc3EAfgACc3EAfgAHAAAAAncEAAAAAnNxAH4AAnNxAH4ABwAAAAJ3BAAAAAJzcQB+AAJzcQB+AAcAAAAAdwQAAAAAeHEAfgEOcQB+Ag9zcQB+AAJzcQB+AAcAAAAAdwQAAAAAeHEAfgEScQB+Ag94cQB+AChxAH4CDXNxAH4AAnNxAH4ABwAAAAB3BAAAAAB4cQB+AGlxAH4CDXhxAH4AKnEAfgIFeHEAfgAocQB+AgF4cQB+AKdxAH4B/3EAfgH3eHEAfgBCc3EAfgACc3EAfgAHAAAAAncEAAAAAnNxAH4AAnNxAH4ABwAAAAJ3BAAAAAJzcQB+AAJzcQB+AAcAAAACdwQAAAACc3EAfgACc3EAfgAHAAAAAHcEAAAAAHhxAH4ANHEAfgIbc3EAfgACc3EAfgAHAAAAAncEAAAAAnNxAH4AAnNxAH4ABwAAAAJ3BAAAAAJzcQB+AAJzcQB+AAcAAAAAdwQAAAAAeHEAfgBpcQB+AiFzcQB+AAJzcQB+AAcAAAAAdwQAAAAAeHEAfgEHcQB+AiF4cQB+AChxAH4CH3NxAH4AAnNxAH4ABwAAAAB3BAAAAAB4cQB+ARdxAH4CH3hxAH4AKHEAfgIbeHEAfgCncQB+AhlzcQB+AAJzcQB+AAcAAAACdwQAAAACc3EAfgACc3EAfgAHAAAAAncEAAAAAnNxAH4AAnNxAH4ABwAAAAB3BAAAAAB4cQB+ASRxAH4CK3NxAH4AAnNxAH4ABwAAAAB3BAAAAAB4cQB+ARdxAH4CK3hxAH4AKHEAfgIpc3EAfgACc3EAfgAHAAAAAncEAAAAAnNxAH4AAnNxAH4ABwAAAAB3BAAAAAB4cQB+AEhxAH4CMXNxAH4AAnNxAH4ABwAAAAB3BAAAAAB4cQB+ACRxAH4CMXhxAH4AKnEAfgIpeHEAfgBCcQB+Ahl4cQB+AEJxAH4CF3EAfgH/eHEAfgBCcHhxAH4Ap3NxAH4AAnNxAH4ABwAAAAJ3BAAAAAJzcQB+AAJzcQB+AAcAAAACdwQAAAACc3EAfgACc3EAfgAHAAAAAHcEAAAAAHhxAH4BO3EAfgI5c3EAfgACc3EAfgAHAAAAAncEAAAAAnNxAH4AAnNxAH4ABwAAAAJ3BAAAAAJzcQB+AAJzcQB+AAcAAAAAdwQAAAAAeHEAfgA9cQB+Aj9zcQB+AAJzcQB+AAcAAAAAdwQAAAAAeHEAfgA0cQB+Aj94cQB+AChxAH4CPXNxAH4AAnNxAH4ABwAAAAJ3BAAAAAJzcQB+AAJzcQB+AAcAAAACdwQAAAACc3EAfgACc3EAfgAHAAAAAHcEAAAAAHhxAH4BDnEAfgJHc3EAfgACc3EAfgAHAAAAAHcEAAAAAHhxAH4BEnEAfgJHeHEAfgAocQB+AkVzcQB+AAJzcQB+AAcAAAAAdwQAAAAAeHEAfgBpcQB+AkV4cQB+ACpxAH4CPXhxAH4AKHEAfgI5eHEAfgCncQB+AjdxAH4Bm3hxAH4AQnNxAH4AAnNxAH4ABwAAAAJ3BAAAAAJzcQB+AAJzcQB+AAcAAAACdwQAAAACc3EAfgACc3EAfgAHAAAAAncEAAAAAnNxAH4AAnNxAH4ABwAAAAB3BAAAAAB4cQB+ADRxAH4CU3NxAH4AAnNxAH4ABwAAAAJ3BAAAAAJzcQB+AAJzcQB+AAcAAAACdwQAAAACc3EAfgACc3EAfgAHAAAAAHcEAAAAAHhxAH4BF3EAfgJZc3EAfgACc3EAfgAHAAAAAHcEAAAAAHhxAH4BB3EAfgJZeHEAfgAocQB+AldzcQB+AAJzcQB+AAcAAAAAdwQAAAAAeHEAfgEXcQB+Ald4cQB+AChxAH4CU3hxAH4Ap3EAfgJRc3EAfgACc3EAfgAHAAAAAncEAAAAAnNxAH4AAnNxAH4ABwAAAAJ3BAAAAAJzcQB+AAJzcQB+AAcAAAAAdwQAAAAAeHEAfgEkcQB+AmNzcQB+AAJzcQB+AAcAAAAAdwQAAAAAeHEAfgEXcQB+AmN4cQB+AChxAH4CYXNxAH4AAnNxAH4ABwAAAAJ3BAAAAAJzcQB+AAJzcQB+AAcAAAAAdwQAAAAAeHEAfgBIcQB+AmlzcQB+AAJzcQB+AAcAAAAAdwQAAAAAeHEAfgAkcQB+Aml4cQB+ACpxAH4CYXhxAH4AQnEAfgJReHEAfgBCcQB+Ak9xAH4CN3hxAH4AQnB4cQB+AEJxAH4BjXEAfgGdeHEAfgCncQB+AYt4cQB+AEJzcQB+AAJzcQB+AAcAAAACdwQAAAACc3EAfgACc3EAfgAHAAAAAncEAAAAAnNxAH4AAnNxAH4ABwAAAAJ3BAAAAAJzcQB+AAJzcQB+AAcAAAAAdwQAAAAAeHEAfgA0cQB+AnNzcQB+AAJzcQB+AAcAAAACdwQAAAACc3EAfgACc3EAfgAHAAAAAncEAAAAAnNxAH4AAnNxAH4ABwAAAAB3BAAAAAB4cQB+AGlxAH4CeXNxAH4AAnNxAH4ABwAAAAB3BAAAAAB4cQB+AQdxAH4CeXhxAH4AKHEAfgJ3c3EAfgACc3EAfgAHAAAAAHcEAAAAAHhxAH4BF3EAfgJ3eHEAfgAocQB+AnN4cQB+AKdxAH4CcXNxAH4AAnNxAH4ABwAAAAJ3BAAAAAJzcQB+AAJzcQB+AAcAAAACdwQAAAACc3EAfgACc3EAfgAHAAAAAHcEAAAAAHhxAH4BJHEAfgKDc3EAfgACc3EAfgAHAAAAAHcEAAAAAHhxAH4BF3EAfgKDeHEAfgAocQB+AoFzcQB+AAJzcQB+AAcAAAACdwQAAAACc3EAfgACc3EAfgAHAAAAAHcEAAAAAHhxAH4ASHEAfgKJc3EAfgACc3EAfgAHAAAAAHcEAAAAAHhxAH4AJHEAfgKJeHEAfgAqcQB+AoF4cQB+AEJxAH4CcXhxAH4AQnEAfgJvcQB+AYt4cQB+AEJweHEAfgAqc3EAfgACc3EAfgAHAAAAAncEAAAAAnNxAH4AAnNxAH4ABwAAAAJ3BAAAAAJzcQB+AAJzcQB+AAcAAAAAdwQAAAAAeHEAfgA9cQB+ApFzcQB+AAJzcQB+AAcAAAAAdwQAAAAAeHEAfgA0cQB+ApF4cQB+AChxAH4Cj3EAfgF3eHEAfgAoc3EAfgACc3EAfgAHAAAAAncEAAAAAnNxAH4AAnNxAH4ABwAAAAB3BAAAAAB4cQB+ATtxAH4Cl3EAfgKPeHEAfgCnc3EAfgACc3EAfgAHAAAAAncEAAAAAnEAfgKXcQB+AY14cQB+AEJzcQB+AAJzcQB+AAcAAAACdwQAAAACc3EAfgACc3EAfgAHAAAAAncEAAAAAnNxAH4AAnNxAH4ABwAAAAJ3BAAAAAJzcQB+AAJzcQB+AAcAAAAAdwQAAAAAeHEAfgA0cQB+AqFzcQB+AAJzcQB+AAcAAAACdwQAAAACc3EAfgACc3EAfgAHAAAAAncEAAAAAnNxAH4AAnNxAH4ABwAAAAB3BAAAAAB4cQB+AGlxAH4Cp3NxAH4AAnNxAH4ABwAAAAB3BAAAAAB4cQB+AQdxAH4Cp3hxAH4AKHEAfgKlc3EAfgACc3EAfgAHAAAAAHcEAAAAAHhxAH4BF3EAfgKleHEAfgAocQB+AqF4cQB+AKdxAH4Cn3NxAH4AAnNxAH4ABwAAAAJ3BAAAAAJzcQB+AAJzcQB+AAcAAAACdwQAAAACc3EAfgACc3EAfgAHAAAAAHcEAAAAAHhxAH4BJHEAfgKxc3EAfgACc3EAfgAHAAAAAHcEAAAAAHhxAH4BF3EAfgKxeHEAfgAocQB+Aq9zcQB+AAJzcQB+AAcAAAACdwQAAAACc3EAfgACc3EAfgAHAAAAAHcEAAAAAHhxAH4ASHEAfgK3c3EAfgACc3EAfgAHAAAAAHcEAAAAAHhxAH4AJHEAfgK3eHEAfgAqcQB+Aq94cQB+AEJxAH4Cn3hxAH4AQnEAfgKdcQB+Apt4cQB+AEJweHEAfgAocQB+AWtxAH4BeXhxAH4AKnNxAH4AAnNxAH4ABwAAAAJ3BAAAAAJzcQB+AAJzcQB+AAcAAAACdwQAAAACc3EAfgACc3EAfgAHAAAAAncEAAAAAnNxAH4AAnNxAH4ABwAAAAB3BAAAAAB4cQB+AD1xAH4CwXNxAH4AAnNxAH4ABwAAAAB3BAAAAAB4cQB+ADRxAH4CwXhxAH4AKHEAfgK/c3EAfgACc3EAfgAHAAAAAncEAAAAAnNxAH4AAnNxAH4ABwAAAAJ3BAAAAAJzcQB+AAJzcQB+AAcAAAAAdwQAAAAAeHEAfgEOcQB+AslzcQB+AAJzcQB+AAcAAAAAdwQAAAAAeHEAfgEScQB+Asl4cQB+AChxAH4Cx3NxAH4AAnNxAH4ABwAAAAB3BAAAAAB4cQB+AGlxAH4Cx3hxAH4AKnEAfgK/eHEAfgAocQB+Ar1xAH4Ba3hxAH4AKHNxAH4AAnNxAH4ABwAAAAJ3BAAAAAJzcQB+AAJzcQB+AAcAAAAAdwQAAAAAeHEAfgE7cQB+AtFxAH4CvXhxAH4Ap3NxAH4AAnNxAH4ABwAAAAJ3BAAAAAJxAH4C0XEAfgGNeHEAfgBCc3EAfgACc3EAfgAHAAAAAncEAAAAAnNxAH4AAnNxAH4ABwAAAAJ3BAAAAAJzcQB+AAJzcQB+AAcAAAACdwQAAAACc3EAfgACc3EAfgAHAAAAAHcEAAAAAHhxAH4ANHEAfgLbc3EAfgACc3EAfgAHAAAAAncEAAAAAnNxAH4AAnNxAH4ABwAAAAJ3BAAAAAJzcQB+AAJzcQB+AAcAAAAAdwQAAAAAeHEAfgBpcQB+AuFzcQB+AAJzcQB+AAcAAAAAdwQAAAAAeHEAfgEHcQB+AuF4cQB+AChxAH4C33NxAH4AAnNxAH4ABwAAAAB3BAAAAAB4cQB+ARdxAH4C33hxAH4AKHEAfgLbeHEAfgCncQB+AtlzcQB+AAJzcQB+AAcAAAACdwQAAAACc3EAfgACc3EAfgAHAAAAAncEAAAAAnNxAH4AAnNxAH4ABwAAAAB3BAAAAAB4cQB+ASRxAH4C63NxAH4AAnNxAH4ABwAAAAB3BAAAAAB4cQB+ARdxAH4C63hxAH4AKHEAfgLpc3EAfgACc3EAfgAHAAAAAncEAAAAAnNxAH4AAnNxAH4ABwAAAAB3BAAAAAB4cQB+AEhxAH4C8XNxAH4AAnNxAH4ABwAAAAB3BAAAAAB4cQB+ACRxAH4C8XhxAH4AKnEAfgLpeHEAfgBCcQB+Atl4cQB+AEJxAH4C13EAfgLVeHEAfgBCcHhxAH4AKHNxAH4AAnNxAH4ABwAAAAJ3BAAAAAJzcQB+AAJzcQB+AAcAAAAAdwQAAAAAeHEAfgE7cQB+AvdxAH4BaXhxAH4Ap3NxAH4AAnNxAH4ABwAAAAJ3BAAAAAJxAH4C93EAfgGNeHEAfgBCc3EAfgACc3EAfgAHAAAAAncEAAAAAnNxAH4AAnNxAH4ABwAAAAJ3BAAAAAJzcQB+AAJzcQB+AAcAAAACdwQAAAACc3EAfgACc3EAfgAHAAAAAHcEAAAAAHhxAH4ANHEAfgMBc3EAfgACc3EAfgAHAAAAAncEAAAAAnNxAH4AAnNxAH4ABwAAAAJ3BAAAAAJzcQB+AAJzcQB+AAcAAAAAdwQAAAAAeHEAfgBpcQB+AwdzcQB+AAJzcQB+AAcAAAAAdwQAAAAAeHEAfgEHcQB+Awd4cQB+AChxAH4DBXNxAH4AAnNxAH4ABwAAAAB3BAAAAAB4cQB+ARdxAH4DBXhxAH4AKHEAfgMBeHEAfgCncQB+Av9zcQB+AAJzcQB+AAcAAAACdwQAAAACc3EAfgACc3EAfgAHAAAAAncEAAAAAnNxAH4AAnNxAH4ABwAAAAB3BAAAAAB4cQB+ASRxAH4DEXNxAH4AAnNxAH4ABwAAAAB3BAAAAAB4cQB+ARdxAH4DEXhxAH4AKHEAfgMPc3EAfgACc3EAfgAHAAAAAncEAAAAAnNxAH4AAnNxAH4ABwAAAAB3BAAAAAB4cQB+AEhxAH4DF3NxAH4AAnNxAH4ABwAAAAB3BAAAAAB4cQB+ACRxAH4DF3hxAH4AKnEAfgMPeHEAfgBCcQB+Av94cQB+AEJxAH4C/XEAfgL7eHEAfgBCcHhxAH4AKHEAfgFdcQB+AWt4cQB+AChzcQB+AAJzcQB+AAcAAAACdwQAAAACc3EAfgACc3EAfgAHAAAAAncEAAAAAnNxAH4AAnNxAH4ABwAAAAJ3BAAAAAJzcQB+AAJzcQB+AAcAAAAAdwQAAAAAeHEAfgGTcQB+AyFzcQB+AAJzcQB+AAcAAAAAdwQAAAAAeHEAfgAUcQB+AyF4cQB+AEJxAH4DH3NxAH4AAnNxAH4ABwAAAAJ3BAAAAAJzcQB+AAJzcQB+AAcAAAAAdwQAAAAAeHEAfgAXcQB+AydzcQB+AAJzcQB+AAcAAAAAdwQAAAAAeHEAfgEOcQB+Ayd4cQB+AKdxAH4DH3hxAH4Ap3EAfgMdcQB+AV14cQB+AKdzcQB+AAJzcQB+AAcAAAACdwQAAAACcQB+Ax1xAH4BjXhxAH4AQnNxAH4AAnNxAH4ABwAAAAJ3BAAAAAJzcQB+AAJzcQB+AAcAAAACdwQAAAACc3EAfgACc3EAfgAHAAAAAncEAAAAAnNxAH4AAnNxAH4ABwAAAAB3BAAAAAB4cQB+ADRxAH4DM3NxAH4AAnNxAH4ABwAAAAJ3BAAAAAJzcQB+AAJzcQB+AAcAAAACdwQAAAACc3EAfgACc3EAfgAHAAAAAHcEAAAAAHhxAH4BF3EAfgM5c3EAfgACc3EAfgAHAAAAAHcEAAAAAHhxAH4BB3EAfgM5eHEAfgAocQB+AzdzcQB+AAJzcQB+AAcAAAAAdwQAAAAAeHEAfgEXcQB+Azd4cQB+AChxAH4DM3hxAH4Ap3EAfgMxc3EAfgACc3EAfgAHAAAAAncEAAAAAnNxAH4AAnNxAH4ABwAAAAJ3BAAAAAJzcQB+AAJzcQB+AAcAAAAAdwQAAAAAeHEAfgEkcQB+A0NzcQB+AAJzcQB+AAcAAAAAdwQAAAAAeHEAfgEXcQB+A0N4cQB+AChxAH4DQXNxAH4AAnNxAH4ABwAAAAJ3BAAAAAJzcQB+AAJzcQB+AAcAAAAAdwQAAAAAeHEAfgBIcQB+A0lzcQB+AAJzcQB+AAcAAAAAdwQAAAAAeHEAfgAkcQB+A0l4cQB+ACpxAH4DQXhxAH4AQnEAfgMxeHEAfgBCcQB+Ay9xAH4DLXhxAH4AQnB4cQB+AKdxAH4BV3EAfgGNeHEAfgBCc3EAfgACc3EAfgAHAAAAAncEAAAAAnNxAH4AAnNxAH4ABwAAAAJ3BAAAAAJzcQB+AAJzcQB+AAcAAAACdwQAAAACc3EAfgACc3EAfgAHAAAAAHcEAAAAAHhxAH4ANHEAfgNTc3EAfgACc3EAfgAHAAAAAncEAAAAAnNxAH4AAnNxAH4ABwAAAAJ3BAAAAAJzcQB+AAJzcQB+AAcAAAAAdwQAAAAAeHEAfgBpcQB+A1lzcQB+AAJzcQB+AAcAAAAAdwQAAAAAeHEAfgEHcQB+A1l4cQB+AChxAH4DV3NxAH4AAnNxAH4ABwAAAAJ3BAAAAAJzcQB+AAJzcQB+AAcAAAAAdwQAAAAAeHEAfgEOcQB+A19zcQB+AAJzcQB+AAcAAAAAdwQAAAAAeHEAfgEScQB+A194cQB+AChxAH4DV3hxAH4AKHEAfgNTeHEAfgCncQB+A1FxAH4BHnhxAH4AQnEAfgNPcQB+AVd4cQB+AEJweHEAfgBCcHhxAH4AKnNxAH4AAnNxAH4ABwAAAAJ3BAAAAAJzcQB+AAJzcQB+AAcAAAACdwQAAAACc3EAfgACc3EAfgAHAAAAAncEAAAAAnNxAH4AAnNxAH4ABwAAAAB3BAAAAAB4cQB+AZNxAH4DaXNxAH4AAnNxAH4ABwAAAAB3BAAAAAB4cQB+ABRxAH4DaXhxAH4AQnEAfgNnc3EAfgACc3EAfgAHAAAAAncEAAAAAnNxAH4AAnNxAH4ABwAAAAB3BAAAAAB4cQB+ABdxAH4Db3NxAH4AAnNxAH4ABwAAAAB3BAAAAAB4cQB+AQ5xAH4Db3hxAH4Ap3EAfgNneHEAfgCncQB+A2VxAH4BMXhxAH4AQnNxAH4AAnNxAH4ABwAAAAJ3BAAAAAJzcQB+AAJzcQB+AAcAAAACdwQAAAACc3EAfgACc3EAfgAHAAAAAHcEAAAAAHhxAH4ANHEAfgN3c3EAfgACc3EAfgAHAAAAAncEAAAAAnNxAH4AAnNxAH4ABwAAAAJ3BAAAAAJzcQB+AAJzcQB+AAcAAAAAdwQAAAAAeHEAfgBpcQB+A31zcQB+AAJzcQB+AAcAAAAAdwQAAAAAeHEAfgEHcQB+A314cQB+AChxAH4De3NxAH4AAnNxAH4ABwAAAAB3BAAAAAB4cQB+ARdxAH4De3hxAH4AKHEAfgN3eHEAfgCncQB+A3VxAH4DZXhxAH4AQnNxAH4AAnNxAH4ABwAAAAJ3BAAAAAJxAH4DdXEAfgFXeHEAfgBCcHhxAH4AQnNxAH4AAnNxAH4ABwAAAAJ3BAAAAAJzcQB+AAJzcQB+AAcAAAACdwQAAAACc3EAfgACc3EAfgAHAAAAAHcEAAAAAHhxAH4ANHEAfgOJc3EAfgACc3EAfgAHAAAAAncEAAAAAnNxAH4AAnNxAH4ABwAAAAJ3BAAAAAJzcQB+AAJzcQB+AAcAAAAAdwQAAAAAeHEAfgEXcQB+A49zcQB+AAJzcQB+AAcAAAAAdwQAAAAAeHEAfgEHcQB+A494cQB+AChxAH4DjXNxAH4AAnNxAH4ABwAAAAB3BAAAAAB4cQB+ARdxAH4DjXhxAH4AKHEAfgOJeHEAfgCncQB+A4dxAH4BL3hxAH4AQnNxAH4AAnNxAH4ABwAAAAJ3BAAAAAJxAH4Dh3EAfgFXeHEAfgBCcHhxAH4AKHEAfgEecQB+ATF4cQB+AEJxAH4DUXhxAH4AQnNxAH4AAnNxAH4ABwAAAAJ3BAAAAAJxAH4BHHEAfgFXeHEAfgBCcHhxAH4AKHEAfgD/cQB+ARV4cQB+AChzcQB+AAJzcQB+AAcAAAACdwQAAAACc3EAfgACc3EAfgAHAAAAAHcEAAAAAHhxAH4BJHEAfgObcQB+AP94cQB+AKdzcQB+AAJzcQB+AAcAAAACdwQAAAACcQB+A5txAH4BHnhxAH4AQnNxAH4AAnNxAH4ABwAAAAJ3BAAAAAJxAH4Dn3EAfgFXeHEAfgBCcHhxAH4Ap3EAfgD5cQB+AR54cQB+AEJxAH4A93EAfgFXeHEAfgBCcHNxAH4AAnNxAH4ABwAAAAJ3BAAAAAJzcQB+AAJzcQB+AAcAAAACdwQAAAACc3EAfgACc3EAfgAHAAAAAncEAAAAAnNxAH4AAnNxAH4ABwAAAAJ3BAAAAAJzcQB+AAJzcQB+AAcAAAAAdwQAAAAAeHEAfgAUcQB+A6lzcQB+AAJzcQB+AAcAAAACdwQAAAACc3EAfgACc3EAfgAHAAAAAHcEAAAAAHhzcQB+ABM/4AAAAAAAAHEAfgOtc3EAfgACc3EAfgAHAAAAAHcEAAAAAHhxAH4ANHNxAH4AAnNxAH4ABwAAAAJ3BAAAAAJzcQB+AAJzcQB+AAcAAAACdwQAAAACc3EAfgACc3EAfgAHAAAAAncEAAAAAnNxAH4AAnNxAH4ABwAAAAB3BAAAAAB4cQB+AGlxAH4DuHNxAH4AAnNxAH4ABwAAAAB3BAAAAAB4cQB+ASRxAH4DuHhxAH4AQnEAfgO2c3EAfgACc3EAfgAHAAAAAncEAAAAAnNxAH4AAnNxAH4ABwAAAAB3BAAAAAB4cQB+AZNxAH4DvnNxAH4AAnNxAH4ABwAAAAB3BAAAAAB4c3EAfgAedAACeDNxAH4DvnhxAH4Ap3EAfgO2eHEAfgAocQB+A7RxAH4DsnhxAH4AKnNxAH4AAnNxAH4ABwAAAAJ3BAAAAAJzcQB+AAJzcQB+AAcAAAAAdwQAAAAAeHEAfgAUcQB+A8ZxAH4DtHhxAH4AKHNxAH4AAnNxAH4ABwAAAAJ3BAAAAAJxAH4DxnNxAH4AAnNxAH4ABwAAAAB3BAAAAAB4c3EAfgAedAACeDlzcQB+AAJzcQB+AAcAAAACdwQAAAACc3EAfgACc3EAfgAHAAAAAncEAAAAAnNxAH4AAnNxAH4ABwAAAAB3BAAAAAB4cQB+ABRxAH4D0nNxAH4AAnNxAH4ABwAAAAJ3BAAAAAJzcQB+AAJzcQB+AAcAAAAAdwQAAAAAeHEAfgOxcQB+A9ZzcQB+AAJzcQB+AAcAAAAAdwQAAAAAeHEAfgOxcQB+A9Z4cQB+ACpxAH4D0nhxAH4AKHEAfgPQcQB+A8x4cQB+AKdzcQB+AAJzcQB+AAcAAAACdwQAAAACcQB+A9BzcQB+AAJzcQB+AAcAAAAAdwQAAAAAeHEAfgOxcQB+A9x4cQB+AChzcQB+AAJzcQB+AAcAAAACdwQAAAACcQB+A9xzcQB+AAJzcQB+AAcAAAACdwQAAAACc3EAfgACc3EAfgAHAAAAAncEAAAAAnNxAH4AAnNxAH4ABwAAAAJ3BAAAAAJzcQB+AAJzcQB+AAcAAAAAdwQAAAAAeHEAfgAUcQB+A+ZzcQB+AAJzcQB+AAcAAAACdwQAAAACc3EAfgACc3EAfgAHAAAAAHcEAAAAAHhxAH4DsXEAfgPqc3EAfgACc3EAfgAHAAAAAHcEAAAAAHhxAH4ANHEAfgPqeHEAfgAqcQB+A+Z4cQB+AChxAH4D5HNxAH4AAnNxAH4ABwAAAAB3BAAAAAB4cQB+A85xAH4D5HhxAH4Ap3EAfgPic3EAfgACc3EAfgAHAAAAAHcEAAAAAHhxAH4DsXEAfgPieHEAfgAocQB+A+B4cQB+AKdweHEAfgCnc3EAfgACc3EAfgAHAAAAAncEAAAAAnEAfgPKcQB+A954cQB+AChzcQB+AAJzcQB+AAcAAAACdwQAAAACcQB+A/RxAH4D4nhxAH4Ap3B4cQB+ACpzcQB+AAJzcQB+AAcAAAACdwQAAAACc3EAfgACc3EAfgAHAAAAAHcEAAAAAHhxAH4AaXEAfgP4cQB+A614cQB+AChzcQB+AAJzcQB+AAcAAAACdwQAAAACcQB+A/hxAH4DzHhxAH4Ap3NxAH4AAnNxAH4ABwAAAAJ3BAAAAAJxAH4D/HEAfgPeeHEAfgAoc3EAfgACc3EAfgAHAAAAAncEAAAAAnEAfgP+cQB+A+J4cQB+AKdweHEAfgAocQB+A6dxAH4DzHhxAH4Ap3EAfgOlcQB+A954cQB+AChxAH4Do3EAfgPieHEAfgCncHNxAH4AAnNxAH4ABwAAAAJ3BAAAAAJzcQB+AAJzcQB+AAcAAAACdwQAAAACc3EAfgACc3EAfgAHAAAAAncEAAAAAnNxAH4AAnNxAH4ABwAAAAJ3BAAAAAJzcQB+AAJzcQB+AAcAAAACdwQAAAACc3EAfgACc3EAfgAHAAAAAncEAAAAAnNxAH4AAnNxAH4ABwAAAAJ3BAAAAAJzcQB+AAJzcQB+AAcAAAACdwQAAAACc3EAfgACc3EAfgAHAAAAAncEAAAAAnNxAH4AAnNxAH4ABwAAAAJ3BAAAAAJzcQB+AAJzcQB+AAcAAAACdwQAAAACc3EAfgACc3EAfgAHAAAAAncEAAAAAnNxAH4AAnNxAH4ABwAAAAJ3BAAAAAJzcQB+AAJzcQB+AAcAAAACdwQAAAACc3EAfgACc3EAfgAHAAAAAncEAAAAAnNxAH4AAnNxAH4ABwAAAAJ3BAAAAAJzcQB+AAJzcQB+AAcAAAACdwQAAAACc3EAfgACc3EAfgAHAAAAAncEAAAAAnNxAH4AAnNxAH4ABwAAAAJ3BAAAAAJzcQB+AAJzcQB+AAcAAAACdwQAAAACc3EAfgACc3EAfgAHAAAAAncEAAAAAnNxAH4AAnNxAH4ABwAAAAJ3BAAAAAJzcQB+AAJzcQB+AAcAAAACdwQAAAACc3EAfgACc3EAfgAHAAAAAncEAAAAAnNxAH4AAnNxAH4ABwAAAAB3BAAAAAB4cQB+AGlxAH4EMHNxAH4AAnNxAH4ABwAAAAB3BAAAAAB4cQB+AZNzcQB+AAJzcQB+AAcAAAACdwQAAAACc3EAfgACc3EAfgAHAAAAAHcEAAAAAHhxAH4Bk3EAfgQ2cQB+BDR4cQB+AEJzcQB+AAJzcQB+AAcAAAACdwQAAAACcQB+BDZzcQB+AAJzcQB+AAcAAAAAdwQAAAAAeHEAfgBpcQB+BDp4cQB+AChzcQB+AAJzcQB+AAcAAAACdwQAAAACcQB+BDpzcQB+AAJzcQB+AAcAAAAAdwQAAAAAeHEAfgGTcQB+BD54cQB+AEJzcQB+AAJzcQB+AAcAAAACdwQAAAACcQB+BD5zcQB+AAJzcQB+AAcAAAAAdwQAAAAAeHEAfgGTcQB+BEJ4cQB+AEJzcQB+AAJzcQB+AAcAAAACdwQAAAACcQB+BEJzcQB+AAJzcQB+AAcAAAAAdwQAAAAAeHEAfgBpcQB+BEZ4cQB+AChzcQB+AAJzcQB+AAcAAAACdwQAAAACcQB+BEZzcQB+AAJzcQB+AAcAAAAAdwQAAAAAeHEAfgGTcQB+BEp4cQB+AEJzcQB+AAJzcQB+AAcAAAACdwQAAAACcQB+BEpzcQB+AAJzcQB+AAcAAAAAdwQAAAAAeHEAfgGTcQB+BE54cQB+AEJzcQB+AAJzcQB+AAcAAAACdwQAAAACcQB+BE5zcQB+AAJzcQB+AAcAAAAAdwQAAAAAeHEAfgBpcQB+BFJ4cQB+AChzcQB+AAJzcQB+AAcAAAACdwQAAAACcQB+BFJzcQB+AAJzcQB+AAcAAAAAdwQAAAAAeHEAfgBpcQB+BFZ4cQB+AChzcQB+AAJzcQB+AAcAAAACdwQAAAACcQB+BFZzcQB+AAJzcQB+AAcAAAAAdwQAAAAAeHEAfgGTcQB+BFp4cQB+AEJzcQB+AAJzcQB+AAcAAAACdwQAAAACcQB+BFpzcQB+AAJzcQB+AAcAAAAAdwQAAAAAeHEAfgGTcQB+BF54cQB+AEJzcQB+AAJzcQB+AAcAAAACdwQAAAACcQB+BF5zcQB+AAJzcQB+AAcAAAAAdwQAAAAAeHEAfgBpcQB+BGJ4cQB+AChzcQB+AAJzcQB+AAcAAAACdwQAAAACcQB+BGJzcQB+AAJzcQB+AAcAAAAAdwQAAAAAeHEAfgBpcQB+BGZ4cQB+AChzcQB+AAJzcQB+AAcAAAACdwQAAAACcQB+BGZzcQB+AAJzcQB+AAcAAAAAdwQAAAAAeHEAfgGTcQB+BGp4cQB+AEJzcQB+AAJzcQB+AAcAAAACdwQAAAACcQB+BGpzcQB+AAJzcQB+AAcAAAAAdwQAAAAAeHEAfgGTcQB+BG54cQB+AEJzcQB+AAJzcQB+AAcAAAACdwQAAAACcQB+BG5zcQB+AAJzcQB+AAcAAAAAdwQAAAAAeHEAfgBpcQB+BHJ4cQB+AChzcQB+AAJzcQB+AAcAAAACdwQAAAACcQB+BHJzcQB+AAJzcQB+AAcAAAAAdwQAAAAAeHEAfgGTcQB+BHZ4cQB+AEJzcQB+AAJzcQB+AAcAAAACdwQAAAACcQB+BHZzcQB+AAJzcQB+AAcAAAAAdwQAAAAAeHEAfgGTc3EAfgACc3EAfgAHAAAAAncEAAAAAnNxAH4AAnNxAH4ABwAAAAB3BAAAAAB4cQB+AZNxAH4EfnEAfgR8eHEAfgBCc3EAfgACc3EAfgAHAAAAAncEAAAAAnEAfgR+c3EAfgACc3EAfgAHAAAAAHcEAAAAAHhxAH4AaXEAfgSCeHEAfgAoc3EAfgACc3EAfgAHAAAAAncEAAAAAnEAfgSCc3EAfgACc3EAfgAHAAAAAHcEAAAAAHhxAH4Bk3EAfgSGeHEAfgBCc3EAfgACc3EAfgAHAAAAAncEAAAAAnEAfgSGc3EAfgACc3EAfgAHAAAAAHcEAAAAAHhxAH4Bk3EAfgSKeHEAfgBCc3EAfgACc3EAfgAHAAAAAncEAAAAAnEAfgSKc3EAfgACc3EAfgAHAAAAAHcEAAAAAHhxAH4AaXEAfgSOeHEAfgAoc3EAfgACc3EAfgAHAAAAAncEAAAAAnEAfgSOc3EAfgACc3EAfgAHAAAAAHcEAAAAAHhxAH4Bk3EAfgSSeHEAfgBCc3EAfgACc3EAfgAHAAAAAncEAAAAAnEAfgSSc3EAfgACc3EAfgAHAAAAAncEAAAAAnNxAH4AAnNxAH4ABwAAAAB3BAAAAAB4cQB+AGlxAH4EmHNxAH4AAnNxAH4ABwAAAAB3BAAAAAB4cQB+AZNxAH4EmHhxAH4AQnEAfgSWeHEAfgAocHhxAH4AQnNxAH4AAnNxAH4ABwAAAAJ3BAAAAAJxAH4EenEAfgSEeHEAfgAoc3EAfgACc3EAfgAHAAAAAncEAAAAAnEAfgSecQB+BIh4cQB+AEJzcQB+AAJzcQB+AAcAAAACdwQAAAACcQB+BKBxAH4EjHhxAH4AQnNxAH4AAnNxAH4ABwAAAAJ3BAAAAAJxAH4EonEAfgSQeHEAfgAoc3EAfgACc3EAfgAHAAAAAncEAAAAAnEAfgSkcQB+BJR4cQB+AEJzcQB+AAJzcQB+AAcAAAACdwQAAAACcQB+BKZxAH4EmHhxAH4AKHB4cQB+AEJxAH4ELnEAfgQ8eHEAfgAocQB+BCxxAH4EQHhxAH4AQnEAfgQqcQB+BER4cQB+AEJxAH4EKHEAfgRIeHEAfgAocQB+BCZxAH4ETHhxAH4AQnEAfgQkcQB+BFB4cQB+AEJxAH4EInEAfgRUeHEAfgAocQB+BCBxAH4EWHhxAH4AKHEAfgQecQB+BFx4cQB+AEJxAH4EHHEAfgRgeHEAfgBCcQB+BBpxAH4EZHhxAH4AKHEAfgQYcQB+BGh4cQB+AChxAH4EFnEAfgRseHEAfgBCcQB+BBRxAH4EcHhxAH4AQnEAfgQScQB+BHR4cQB+AChxAH4EEHEAfgR4eHEAfgBCcQB+BA5xAH4EfHhxAH4AQnEAfgQMcQB+BIR4cQB+AChxAH4ECnEAfgSIeHEAfgBCcQB+BAhxAH4EjHhxAH4AQnEAfgQGcQB+BJB4cQB+AChxAH4EBHEAfgSUeHEAfgBCcQB+BAJxAH4EmHhxAH4AKHB4";
    "rO0ABXNyABFqYXZhLnV0aWwuQ29sbFNlcleOq7Y6G6gRAwABSQADdGFneHAAAAAEdwQAAAAEc3IAN2lvLmdpdGh1Yi5lcmljbWVkdmV0LmpnZWEuY29yZS5yZXByZXNlbnRhdGlvbi50cmVlLlRyZWUKs7/qnQrEZQIAA0wACGNoaWxkcmVudAAQTGphdmEvdXRpbC9MaXN0O0wAB2NvbnRlbnR0ABJMamF2YS9sYW5nL09iamVjdDtMAAZwYXJlbnR0ADlMaW8vZ2l0aHViL2VyaWNtZWR2ZXQvamdlYS9jb3JlL3JlcHJlc2VudGF0aW9uL3RyZWUvVHJlZTt4cHNyABNqYXZhLnV0aWwuQXJyYXlMaXN0eIHSHZnHYZ0DAAFJAARzaXpleHAAAAACdwQAAAACc3EAfgACc3EAfgAHAAAAAncEAAAAAnNxAH4AAnNxAH4ABwAAAAJ3BAAAAAJzcQB+AAJzcQB+AAcAAAACdwQAAAACc3EAfgACc3EAfgAHAAAAAncEAAAAAnNxAH4AAnNxAH4ABwAAAAB3BAAAAAB4c3IAS2lvLmdpdGh1Yi5lcmljbWVkdmV0LmpnZWEuY29yZS5yZXByZXNlbnRhdGlvbi50cmVlLm51bWVyaWMuRWxlbWVudCRDb25zdGFudAAAAAAAAAAAAgABRAAFdmFsdWV4cEAIAAAAAAAAcQB+AA9zcQB+AAJzcQB+AAcAAAAAdwQAAAAAeHNxAH4AE0AAAAAAAAAAc3EAfgACc3EAfgAHAAAAAncEAAAAAnNxAH4AAnNxAH4ABwAAAAJ3BAAAAAJzcQB+AAJzcQB+AAcAAAAAdwQAAAAAeHNyAEtpby5naXRodWIuZXJpY21lZHZldC5qZ2VhLmNvcmUucmVwcmVzZW50YXRpb24udHJlZS5udW1lcmljLkVsZW1lbnQkVmFyaWFibGUAAAAAAAAAAAIAAUwABG5hbWV0ABJMamF2YS9sYW5nL1N0cmluZzt4cHQAA3gxMHEAfgAac3EAfgACc3EAfgAHAAAAAHcEAAAAAHhzcQB+AB50AAJ4N3EAfgAaeH5yAEtpby5naXRodWIuZXJpY21lZHZldC5qZ2VhLmNvcmUucmVwcmVzZW50YXRpb24udHJlZS5udW1lcmljLkVsZW1lbnQkT3BlcmF0b3IAAAAAAAAAABIAAHhyAA5qYXZhLmxhbmcuRW51bQAAAAAAAAAAEgAAeHB0AAtTVUJUUkFDVElPTnEAfgAYcQB+ABV4fnEAfgAmdAAIQURESVRJT05zcQB+AAJzcQB+AAcAAAACdwQAAAACcQB+ABhzcQB+AAJzcQB+AAcAAAACdwQAAAACc3EAfgACc3EAfgAHAAAAAncEAAAAAnNxAH4AAnNxAH4ABwAAAAB3BAAAAAB4c3EAfgATQBIAAAAAAABxAH4AMHNxAH4AAnNxAH4ABwAAAAB3BAAAAAB4cQB+ABdzcQB+AAJzcQB+AAcAAAACdwQAAAACc3EAfgACc3EAfgAHAAAAAncEAAAAAnNxAH4AAnNxAH4ABwAAAAB3BAAAAAB4c3EAfgAedAACeDhxAH4AOXNxAH4AAnNxAH4ABwAAAAB3BAAAAAB4c3EAfgATAAAAAAAAAABxAH4AOXhxAH4AKHEAfgA3cQB+ADV4fnEAfgAmdAAOTVVMVElQTElDQVRJT05zcQB+AAJzcQB+AAcAAAACdwQAAAACcQB+ADdzcQB+AAJzcQB+AAcAAAAAdwQAAAAAeHNxAH4AE0AMAAAAAAAAcQB+AER4cQB+AChzcQB+AAJzcQB+AAcAAAACdwQAAAACc3EAfgACc3EAfgAHAAAAAncEAAAAAnNxAH4AAnNxAH4ABwAAAAB3BAAAAAB4cQB+ABRxAH4AS3NxAH4AAnNxAH4ABwAAAAB3BAAAAAB4cQB+ABdxAH4AS3hxAH4AKnEAfgBJcQB+AER4cQB+ACpzcQB+AAJzcQB+AAcAAAACdwQAAAACcQB+AElzcQB+AAJzcQB+AAcAAAACdwQAAAACc3EAfgACc3EAfgAHAAAAAHcEAAAAAHhxAH4ASHEAfgBTc3EAfgACc3EAfgAHAAAAAncEAAAAAnNxAH4AAnNxAH4ABwAAAAJ3BAAAAAJzcQB+AAJzcQB+AAcAAAACdwQAAAACc3EAfgACc3EAfgAHAAAAAHcEAAAAAHhxAH4APXEAfgBbc3EAfgACc3EAfgAHAAAAAHcEAAAAAHhxAH4AQXNxAH4AAnNxAH4ABwAAAAJ3BAAAAAJzcQB+AAJzcQB+AAcAAAAAdwQAAAAAeHEAfgAXcQB+AGFxAH4AX3hxAH4AKHNxAH4AAnNxAH4ABwAAAAJ3BAAAAAJxAH4AYXNxAH4AAnNxAH4ABwAAAAB3BAAAAAB4c3EAfgAedAADeDEzc3EAfgACc3EAfgAHAAAAAncEAAAAAnNxAH4AAnNxAH4ABwAAAAJ3BAAAAAJzcQB+AAJzcQB+AAcAAAAAdwQAAAAAeHEAfgA9cQB+AG1zcQB+AAJzcQB+AAcAAAACdwQAAAACc3EAfgACc3EAfgAHAAAAAHcEAAAAAHhxAH4AFHEAfgBxc3EAfgACc3EAfgAHAAAAAHcEAAAAAHhxAH4AF3EAfgBxeHEAfgAqcQB+AG14cQB+AChxAH4Aa3EAfgBneHEAfgAoc3EAfgACc3EAfgAHAAAAAncEAAAAAnEAfgBrc3EAfgACc3EAfgAHAAAAAncEAAAAAnNxAH4AAnNxAH4ABwAAAAB3BAAAAAB4cQB+ACBxAH4AeXNxAH4AAnNxAH4ABwAAAAB3BAAAAAB4cQB+ACRzcQB+AAJzcQB+AAcAAAACdwQAAAACc3EAfgACc3EAfgAHAAAAAHcEAAAAAHhxAH4AQXEAfgB/cQB+AH14cQB+AChzcQB+AAJzcQB+AAcAAAACdwQAAAACc3EAfgACc3EAfgAHAAAAAncEAAAAAnNxAH4AAnNxAH4ABwAAAAJ3BAAAAAJzcQB+AAJzcQB+AAcAAAAAdwQAAAAAeHEAfgA9cQB+AIdzcQB+AAJzcQB+AAcAAAAAdwQAAAAAeHEAfgBBcQB+AId4cQB+AChxAH4AhXNxAH4AAnNxAH4ABwAAAAB3BAAAAAB4cQB+AGlxAH4AhXhxAH4AKHEAfgCDcQB+AH94cQB+AEJzcQB+AAJzcQB+AAcAAAACdwQAAAACc3EAfgACc3EAfgAHAAAAAHcEAAAAAHhxAH4ASHEAfgCPcQB+AIN4cQB+ACpzcQB+AAJzcQB+AAcAAAACdwQAAAACc3EAfgACc3EAfgAHAAAAAncEAAAAAnNxAH4AAnNxAH4ABwAAAAJ3BAAAAAJzcQB+AAJzcQB+AAcAAAAAdwQAAAAAeHEAfgAUcQB+AJdzcQB+AAJzcQB+AAcAAAAAdwQAAAAAeHEAfgAXcQB+AJd4cQB+ACpxAH4AlXNxAH4AAnNxAH4ABwAAAAJ3BAAAAAJzcQB+AAJzcQB+AAcAAAACdwQAAAACc3EAfgACc3EAfgAHAAAAAHcEAAAAAHhxAH4ANHEAfgCfc3EAfgACc3EAfgAHAAAAAHcEAAAAAHhxAH4AF3EAfgCfeHEAfgBCcQB+AJ1zcQB+AAJzcQB+AAcAAAAAdwQAAAAAeHEAfgBIcQB+AJ14cQB+AChxAH4AlXhxAH4AKnEAfgCTcQB+AI94fnEAfgAmdAANUFJPVF9ESVZJU0lPTnNxAH4AAnNxAH4ABwAAAAJ3BAAAAAJxAH4Ak3NxAH4AAnNxAH4ABwAAAAB3BAAAAAB4c3EAfgAedAACeDBzcQB+AAJzcQB+AAcAAAACdwQAAAACcQB+AFFxAH4Aq3hxAH4AQnNxAH4AAnNxAH4ABwAAAAJ3BAAAAAJxAH4Ar3NxAH4AAnNxAH4ABwAAAAB3BAAAAAB4cQB+AEFxAH4AsXhxAH4AKHB4cQB+AEJzcQB+AAJzcQB+AAcAAAACdwQAAAACcQB+AKlxAH4As3hxAH4AKHB4cQB+AChxAH4Ad3hxAH4AQnNxAH4AAnNxAH4ABwAAAAJ3BAAAAAJzcQB+AAJzcQB+AAcAAAAAdwQAAAAAeHEAfgBIcQB+ALdxAH4Ad3hxAH4AKnNxAH4AAnNxAH4ABwAAAAJ3BAAAAAJzcQB+AAJzcQB+AAcAAAACdwQAAAACc3EAfgACc3EAfgAHAAAAAncEAAAAAnNxAH4AAnNxAH4ABwAAAAB3BAAAAAB4cQB+ABRxAH4Av3NxAH4AAnNxAH4ABwAAAAB3BAAAAAB4cQB+ABdxAH4Av3hxAH4AKnEAfgC9c3EAfgACc3EAfgAHAAAAAncEAAAAAnNxAH4AAnNxAH4ABwAAAAJ3BAAAAAJzcQB+AAJzcQB+AAcAAAAAdwQAAAAAeHEAfgA0cQB+AMdzcQB+AAJzcQB+AAcAAAAAdwQAAAAAeHEAfgAXcQB+AMd4cQB+AEJxAH4AxXNxAH4AAnNxAH4ABwAAAAB3BAAAAAB4cQB+AEhxAH4AxXhxAH4AKHEAfgC9eHEAfgAqcQB+ALtxAH4At3hxAH4Ap3NxAH4AAnNxAH4ABwAAAAJ3BAAAAAJxAH4Au3EAfgCreHEAfgBCc3EAfgACc3EAfgAHAAAAAncEAAAAAnEAfgDPcQB+ALN4cQB+AChweHEAfgAoc3EAfgACc3EAfgAHAAAAAncEAAAAAnEAfgBlcQB+AHl4cQB+AEJzcQB+AAJzcQB+AAcAAAACdwQAAAACc3EAfgACc3EAfgAHAAAAAHcEAAAAAHhxAH4ASHEAfgDVcQB+ANN4cQB+ACpzcQB+AAJzcQB+AAcAAAACdwQAAAACc3EAfgACc3EAfgAHAAAAAncEAAAAAnNxAH4AAnNxAH4ABwAAAAJ3BAAAAAJzcQB+AAJzcQB+AAcAAAAAdwQAAAAAeHEAfgAUcQB+AN1zcQB+AAJzcQB+AAcAAAAAdwQAAAAAeHEAfgAXcQB+AN14cQB+ACpxAH4A23NxAH4AAnNxAH4ABwAAAAJ3BAAAAAJzcQB+AAJzcQB+AAcAAAACdwQAAAACc3EAfgACc3EAfgAHAAAAAHcEAAAAAHhxAH4ANHEAfgDlc3EAfgACc3EAfgAHAAAAAHcEAAAAAHhxAH4AF3EAfgDleHEAfgBCcQB+AONzcQB+AAJzcQB+AAcAAAAAdwQAAAAAeHEAfgBIcQB+AON4cQB+AChxAH4A23hxAH4AKnEAfgDZcQB+ANV4cQB+AKdzcQB+AAJzcQB+AAcAAAACdwQAAAACcQB+ANlxAH4Aq3hxAH4AQnNxAH4AAnNxAH4ABwAAAAJ3BAAAAAJxAH4A7XEAfgCzeHEAfgAocHhxAH4AKHEAfgBZcQB+AGd4cQB+AChxAH4AV3EAfgB5eHEAfgBCcQB+AFN4cQB+ACpxAH4AUXhxAH4Ap3EAfgCveHEAfgBCcQB+AC5xAH4ARnhxAH4AKHEAfgAseHEAfgAqc3EAfgACc3EAfgAHAAAAAncEAAAAAnEAfgAscQB+AFN4cQB+AKdzcQB+AAJzcQB+AAcAAAACdwQAAAACcQB+APFxAH4Aq3hxAH4AQnNxAH4AAnNxAH4ABwAAAAJ3BAAAAAJxAH4A83EAfgCzeHEAfgAocHhxAH4AKnEAfgANcQB+AC54cQB+ACpxAH4AC3EAfgBTeHEAfgCncQB+AAlxAH4Aq3hxAH4AQnEAfgAGcQB+ALN4cQB+AChwc3EAfgACc3EAfgAHAAAAAncEAAAAAnNxAH4AAnNxAH4ABwAAAAJ3BAAAAAJzcQB+AAJzcQB+AAcAAAACdwQAAAACc3EAfgACc3EAfgAHAAAAAHcEAAAAAHhxAH4ANHEAfgD7c3EAfgACc3EAfgAHAAAAAncEAAAAAnNxAH4AAnNxAH4ABwAAAAJ3BAAAAAJzcQB+AAJzcQB+AAcAAAAAdwQAAAAAeHEAfgBpcQB+AQFzcQB+AAJzcQB+AAcAAAAAdwQAAAAAeHNxAH4AE0AEAAAAAAAAc3EAfgACc3EAfgAHAAAAAncEAAAAAnNxAH4AAnNxAH4ABwAAAAJ3BAAAAAJzcQB+AAJzcQB+AAcAAAAAdwQAAAAAeHNxAH4AHnQAAngycQB+AQpzcQB+AAJzcQB+AAcAAAAAdwQAAAAAeHNxAH4AE0AQAAAAAAAAcQB+AQp4cQB+AChxAH4BCHEAfgEFeHEAfgAoc3EAfgACc3EAfgAHAAAAAncEAAAAAnEAfgEIc3EAfgACc3EAfgAHAAAAAHcEAAAAAHhzcQB+ABM/+AAAAAAAAHEAfgETeHEAfgAoc3EAfgACc3EAfgAHAAAAAncEAAAAAnNxAH4AAnNxAH4ABwAAAAB3BAAAAAB4cQB+ADRxAH4BGHEAfgETeHEAfgCnc3EAfgACc3EAfgAHAAAAAncEAAAAAnEAfgEYc3EAfgACc3EAfgAHAAAAAncEAAAAAnNxAH4AAnNxAH4ABwAAAAJ3BAAAAAJzcQB+AAJzcQB+AAcAAAAAdwQAAAAAeHNxAH4AEz/wAAAAAAAAcQB+ASBzcQB+AAJzcQB+AAcAAAAAdwQAAAAAeHEAfgEXc3EAfgACc3EAfgAHAAAAAncEAAAAAnNxAH4AAnNxAH4ABwAAAAJ3BAAAAAJzcQB+AAJzcQB+AAcAAAAAdwQAAAAAeHEAfgEXcQB+ASlzcQB+AAJzcQB+AAcAAAAAdwQAAAAAeHEAfgEHcQB+ASl4cQB+AChxAH4BJ3EAfgEleHEAfgAoc3EAfgACc3EAfgAHAAAAAncEAAAAAnEAfgEnc3EAfgACc3EAfgAHAAAAAncEAAAAAnNxAH4AAnNxAH4ABwAAAAB3BAAAAAB4cQB+AEhxAH4BMXNxAH4AAnNxAH4ABwAAAAB3BAAAAAB4cQB+ACRzcQB+AAJzcQB+AAcAAAACdwQAAAACc3EAfgACc3EAfgAHAAAAAHcEAAAAAHhzcQB+AB50AAN4MTRxAH4BN3EAfgE1eHEAfgAqc3EAfgACc3EAfgAHAAAAAncEAAAAAnNxAH4AAnNxAH4ABwAAAAJ3BAAAAAJzcQB+AAJzcQB+AAcAAAAAdwQAAAAAeHEAfgEkcQB+AT9zcQB+AAJzcQB+AAcAAAAAdwQAAAAAeHEAfgEXcQB+AT94cQB+AChxAH4BPXEAfgE3eHEAfgBCc3EAfgACc3EAfgAHAAAAAncEAAAAAnNxAH4AAnNxAH4ABwAAAAJ3BAAAAAJzcQB+AAJzcQB+AAcAAAAAdwQAAAAAeHEAfgA0cQB+AUdzcQB+AAJzcQB+AAcAAAACdwQAAAACc3EAfgACc3EAfgAHAAAAAncEAAAAAnNxAH4AAnNxAH4ABwAAAAB3BAAAAAB4cQB+AGlxAH4BTXNxAH4AAnNxAH4ABwAAAAB3BAAAAAB4cQB+AQdxAH4BTXhxAH4AKHEAfgFLc3EAfgACc3EAfgAHAAAAAHcEAAAAAHhxAH4BF3EAfgFLeHEAfgAocQB+AUd4cQB+AKdxAH4BRXEAfgE9eHEAfgBCc3EAfgACc3EAfgAHAAAAAncEAAAAAnEAfgFFc3EAfgACc3EAfgAHAAAAAncEAAAAAnNxAH4AAnNxAH4ABwAAAAJ3BAAAAAJzcQB+AAJzcQB+AAcAAAAAdwQAAAAAeHEAfgE7cQB+AVlzcQB+AAJzcQB+AAcAAAACdwQAAAACc3EAfgACc3EAfgAHAAAAAncEAAAAAnNxAH4AAnNxAH4ABwAAAAB3BAAAAAB4cQB+AD1xAH4BX3NxAH4AAnNxAH4ABwAAAAB3BAAAAAB4cQB+ADRzcQB+AAJzcQB+AAcAAAACdwQAAAACc3EAfgACc3EAfgAHAAAAAHcEAAAAAHhxAH4BDnEAfgFlcQB+AWN4cQB+AChzcQB+AAJzcQB+AAcAAAACdwQAAAACcQB+AWVzcQB+AAJzcQB+AAcAAAACdwQAAAACc3EAfgACc3EAfgAHAAAAAncEAAAAAnNxAH4AAnNxAH4ABwAAAAB3BAAAAAB4cQB+AQ5xAH4BbXNxAH4AAnNxAH4ABwAAAAB3BAAAAAB4cQB+ARJzcQB+AAJzcQB+AAcAAAACdwQAAAACc3EAfgACc3EAfgAHAAAAAHcEAAAAAHhxAH4AaXEAfgFzcQB+AXF4cQB+AChzcQB+AAJzcQB+AAcAAAACdwQAAAACcQB+AXNzcQB+AAJzcQB+AAcAAAAAdwQAAAAAeHEAfgBpc3EAfgACc3EAfgAHAAAAAncEAAAAAnNxAH4AAnNxAH4ABwAAAAB3BAAAAAB4cQB+ABRxAH4Be3EAfgF5eHEAfgAqc3EAfgACc3EAfgAHAAAAAncEAAAAAnNxAH4AAnNxAH4ABwAAAAJ3BAAAAAJzcQB+AAJzcQB+AAcAAAAAdwQAAAAAeHEAfgA9cQB+AYFzcQB+AAJzcQB+AAcAAAAAdwQAAAAAeHEAfgA0cQB+AYF4cQB+AChxAH4Bf3EAfgF7eHEAfgAoc3EAfgACc3EAfgAHAAAAAncEAAAAAnNxAH4AAnNxAH4ABwAAAAB3BAAAAAB4cQB+ATtxAH4Bh3EAfgF/eHEAfgCnc3EAfgACc3EAfgAHAAAAAncEAAAAAnEAfgGHc3EAfgACc3EAfgAHAAAAAncEAAAAAnNxAH4AAnNxAH4ABwAAAAJ3BAAAAAJzcQB+AAJzcQB+AAcAAAAAdwQAAAAAeHNxAH4AHnQAAng0cQB+AY9zcQB+AAJzcQB+AAcAAAAAdwQAAAAAeHEAfgAUc3EAfgACc3EAfgAHAAAAAncEAAAAAnNxAH4AAnNxAH4ABwAAAAB3BAAAAAB4cQB+ABRxAH4Bl3EAfgGVeHEAfgBCc3EAfgACc3EAfgAHAAAAAncEAAAAAnEAfgGXc3EAfgACc3EAfgAHAAAAAncEAAAAAnNxAH4AAnNxAH4ABwAAAAB3BAAAAAB4cQB+ABdxAH4BnXNxAH4AAnNxAH4ABwAAAAB3BAAAAAB4cQB+AQ5zcQB+AAJzcQB+AAcAAAACdwQAAAACc3EAfgACc3EAfgAHAAAAAncEAAAAAnNxAH4AAnNxAH4ABwAAAAJ3BAAAAAJzcQB+AAJzcQB+AAcAAAAAdwQAAAAAeHEAfgA9cQB+AadzcQB+AAJzcQB+AAcAAAAAdwQAAAAAeHEAfgA0cQB+Aad4cQB+AChxAH4BpXNxAH4AAnNxAH4ABwAAAAJ3BAAAAAJzcQB+AAJzcQB+AAcAAAACdwQAAAACc3EAfgACc3EAfgAHAAAAAHcEAAAAAHhxAH4BDnEAfgGvc3EAfgACc3EAfgAHAAAAAHcEAAAAAHhxAH4BEnEAfgGveHEAfgAocQB+Aa1zcQB+AAJzcQB+AAcAAAAAdwQAAAAAeHEAfgBpcQB+Aa14cQB+ACpxAH4BpXhxAH4AKHEAfgGjcQB+AaF4cQB+AKdzcQB+AAJzcQB+AAcAAAACdwQAAAACc3EAfgACc3EAfgAHAAAAAncEAAAAAnNxAH4AAnNxAH4ABwAAAAB3BAAAAAB4cQB+AZNxAH4BuXNxAH4AAnNxAH4ABwAAAAB3BAAAAAB4cQB+ABRxAH4BuXhxAH4AQnEAfgG3cQB+AaN4cQB+AKdzcQB+AAJzcQB+AAcAAAACdwQAAAACc3EAfgACc3EAfgAHAAAAAncEAAAAAnNxAH4AAnNxAH4ABwAAAAB3BAAAAAB4cQB+ATtxAH4BwXNxAH4AAnNxAH4ABwAAAAJ3BAAAAAJzcQB+AAJzcQB+AAcAAAACdwQAAAACc3EAfgACc3EAfgAHAAAAAHcEAAAAAHhxAH4APXEAfgHHc3EAfgACc3EAfgAHAAAAAHcEAAAAAHhxAH4ANHEAfgHHeHEAfgAocQB+AcVzcQB+AAJzcQB+AAcAAAACdwQAAAACc3EAfgACc3EAfgAHAAAAAncEAAAAAnNxAH4AAnNxAH4ABwAAAAB3BAAAAAB4cQB+AQ5xAH4Bz3NxAH4AAnNxAH4ABwAAAAB3BAAAAAB4cQB+ARJxAH4Bz3hxAH4AKHEAfgHNc3EAfgACc3EAfgAHAAAAAHcEAAAAAHhxAH4AaXEAfgHNeHEAfgAqcQB+AcV4cQB+AChxAH4BwXhxAH4Ap3EAfgG/cQB+Abd4cQB+AEJzcQB+AAJzcQB+AAcAAAACdwQAAAACc3EAfgACc3EAfgAHAAAAAncEAAAAAnNxAH4AAnNxAH4ABwAAAAJ3BAAAAAJzcQB+AAJzcQB+AAcAAAAAdwQAAAAAeHEAfgA0cQB+AdtzcQB+AAJzcQB+AAcAAAACdwQAAAACc3EAfgACc3EAfgAHAAAAAncEAAAAAnNxAH4AAnNxAH4ABwAAAAB3BAAAAAB4cQB+ARdxAH4B4XNxAH4AAnNxAH4ABwAAAAB3BAAAAAB4cQB+AQdxAH4B4XhxAH4AKHEAfgHfc3EAfgACc3EAfgAHAAAAAHcEAAAAAHhxAH4BF3EAfgHfeHEAfgAocQB+Adt4cQB+AKdxAH4B2XNxAH4AAnNxAH4ABwAAAAJ3BAAAAAJzcQB+AAJzcQB+AAcAAAACdwQAAAACc3EAfgACc3EAfgAHAAAAAHcEAAAAAHhxAH4BJHEAfgHrc3EAfgACc3EAfgAHAAAAAHcEAAAAAHhxAH4BF3EAfgHreHEAfgAocQB+AelzcQB+AAJzcQB+AAcAAAACdwQAAAACc3EAfgACc3EAfgAHAAAAAHcEAAAAAHhxAH4ASHEAfgHxc3EAfgACc3EAfgAHAAAAAHcEAAAAAHhxAH4AJHEAfgHxeHEAfgAqcQB+Ael4cQB+AEJxAH4B2XhxAH4AQnEAfgHXcQB+Ab94cQB+AEJweHEAfgCnc3EAfgACc3EAfgAHAAAAAncEAAAAAnNxAH4AAnNxAH4ABwAAAAJ3BAAAAAJzcQB+AAJzcQB+AAcAAAAAdwQAAAAAeHEAfgGTcQB+AflzcQB+AAJzcQB+AAcAAAAAdwQAAAAAeHEAfgEScQB+Afl4cQB+AEJxAH4B93EAfgGdeHEAfgCnc3EAfgACc3EAfgAHAAAAAncEAAAAAnNxAH4AAnNxAH4ABwAAAAJ3BAAAAAJzcQB+AAJzcQB+AAcAAAAAdwQAAAAAeHEAfgE7cQB+AgFzcQB+AAJzcQB+AAcAAAACdwQAAAACc3EAfgACc3EAfgAHAAAAAncEAAAAAnNxAH4AAnNxAH4ABwAAAAB3BAAAAAB4cQB+AD1xAH4CB3NxAH4AAnNxAH4ABwAAAAB3BAAAAAB4cQB+ADRxAH4CB3hxAH4AKHEAfgIFc3EAfgACc3EAfgAHAAAAAncEAAAAAnNxAH4AAnNxAH4ABwAAAAJ3BAAAAAJzcQB+AAJzcQB+AAcAAAAAdwQAAAAAeHEAfgEOcQB+Ag9zcQB+AAJzcQB+AAcAAAAAdwQAAAAAeHEAfgEScQB+Ag94cQB+AChxAH4CDXNxAH4AAnNxAH4ABwAAAAB3BAAAAAB4cQB+AGlxAH4CDXhxAH4AKnEAfgIFeHEAfgAocQB+AgF4cQB+AKdxAH4B/3EAfgH3eHEAfgBCc3EAfgACc3EAfgAHAAAAAncEAAAAAnNxAH4AAnNxAH4ABwAAAAJ3BAAAAAJzcQB+AAJzcQB+AAcAAAACdwQAAAACc3EAfgACc3EAfgAHAAAAAHcEAAAAAHhxAH4ANHEAfgIbc3EAfgACc3EAfgAHAAAAAncEAAAAAnNxAH4AAnNxAH4ABwAAAAJ3BAAAAAJzcQB+AAJzcQB+AAcAAAAAdwQAAAAAeHEAfgBpcQB+AiFzcQB+AAJzcQB+AAcAAAAAdwQAAAAAeHEAfgEHcQB+AiF4cQB+AChxAH4CH3NxAH4AAnNxAH4ABwAAAAB3BAAAAAB4cQB+ARdxAH4CH3hxAH4AKHEAfgIbeHEAfgCncQB+AhlzcQB+AAJzcQB+AAcAAAACdwQAAAACc3EAfgACc3EAfgAHAAAAAncEAAAAAnNxAH4AAnNxAH4ABwAAAAB3BAAAAAB4cQB+ASRxAH4CK3NxAH4AAnNxAH4ABwAAAAB3BAAAAAB4cQB+ARdxAH4CK3hxAH4AKHEAfgIpc3EAfgACc3EAfgAHAAAAAncEAAAAAnNxAH4AAnNxAH4ABwAAAAB3BAAAAAB4cQB+AEhxAH4CMXNxAH4AAnNxAH4ABwAAAAB3BAAAAAB4cQB+ACRxAH4CMXhxAH4AKnEAfgIpeHEAfgBCcQB+Ahl4cQB+AEJxAH4CF3EAfgH/eHEAfgBCcHhxAH4Ap3NxAH4AAnNxAH4ABwAAAAJ3BAAAAAJzcQB+AAJzcQB+AAcAAAACdwQAAAACc3EAfgACc3EAfgAHAAAAAHcEAAAAAHhxAH4BO3EAfgI5c3EAfgACc3EAfgAHAAAAAncEAAAAAnNxAH4AAnNxAH4ABwAAAAJ3BAAAAAJzcQB+AAJzcQB+AAcAAAAAdwQAAAAAeHEAfgA9cQB+Aj9zcQB+AAJzcQB+AAcAAAAAdwQAAAAAeHEAfgA0cQB+Aj94cQB+AChxAH4CPXNxAH4AAnNxAH4ABwAAAAJ3BAAAAAJzcQB+AAJzcQB+AAcAAAACdwQAAAACc3EAfgACc3EAfgAHAAAAAHcEAAAAAHhxAH4BDnEAfgJHc3EAfgACc3EAfgAHAAAAAHcEAAAAAHhxAH4BEnEAfgJHeHEAfgAocQB+AkVzcQB+AAJzcQB+AAcAAAAAdwQAAAAAeHEAfgBpcQB+AkV4cQB+ACpxAH4CPXhxAH4AKHEAfgI5eHEAfgCncQB+AjdxAH4Bm3hxAH4AQnNxAH4AAnNxAH4ABwAAAAJ3BAAAAAJzcQB+AAJzcQB+AAcAAAACdwQAAAACc3EAfgACc3EAfgAHAAAAAncEAAAAAnNxAH4AAnNxAH4ABwAAAAB3BAAAAAB4cQB+ADRxAH4CU3NxAH4AAnNxAH4ABwAAAAJ3BAAAAAJzcQB+AAJzcQB+AAcAAAACdwQAAAACc3EAfgACc3EAfgAHAAAAAHcEAAAAAHhxAH4BF3EAfgJZc3EAfgACc3EAfgAHAAAAAHcEAAAAAHhxAH4BB3EAfgJZeHEAfgAocQB+AldzcQB+AAJzcQB+AAcAAAAAdwQAAAAAeHEAfgEXcQB+Ald4cQB+AChxAH4CU3hxAH4Ap3EAfgJRc3EAfgACc3EAfgAHAAAAAncEAAAAAnNxAH4AAnNxAH4ABwAAAAJ3BAAAAAJzcQB+AAJzcQB+AAcAAAAAdwQAAAAAeHEAfgEkcQB+AmNzcQB+AAJzcQB+AAcAAAAAdwQAAAAAeHEAfgEXcQB+AmN4cQB+AChxAH4CYXNxAH4AAnNxAH4ABwAAAAJ3BAAAAAJzcQB+AAJzcQB+AAcAAAAAdwQAAAAAeHEAfgBIcQB+AmlzcQB+AAJzcQB+AAcAAAAAdwQAAAAAeHEAfgAkcQB+Aml4cQB+ACpxAH4CYXhxAH4AQnEAfgJReHEAfgBCcQB+Ak9xAH4CN3hxAH4AQnB4cQB+AEJxAH4BjXEAfgGdeHEAfgCncQB+AYt4cQB+AEJzcQB+AAJzcQB+AAcAAAACdwQAAAACc3EAfgACc3EAfgAHAAAAAncEAAAAAnNxAH4AAnNxAH4ABwAAAAJ3BAAAAAJzcQB+AAJzcQB+AAcAAAAAdwQAAAAAeHEAfgA0cQB+AnNzcQB+AAJzcQB+AAcAAAACdwQAAAACc3EAfgACc3EAfgAHAAAAAncEAAAAAnNxAH4AAnNxAH4ABwAAAAB3BAAAAAB4cQB+AGlxAH4CeXNxAH4AAnNxAH4ABwAAAAB3BAAAAAB4cQB+AQdxAH4CeXhxAH4AKHEAfgJ3c3EAfgACc3EAfgAHAAAAAHcEAAAAAHhxAH4BF3EAfgJ3eHEAfgAocQB+AnN4cQB+AKdxAH4CcXNxAH4AAnNxAH4ABwAAAAJ3BAAAAAJzcQB+AAJzcQB+AAcAAAACdwQAAAACc3EAfgACc3EAfgAHAAAAAHcEAAAAAHhxAH4BJHEAfgKDc3EAfgACc3EAfgAHAAAAAHcEAAAAAHhxAH4BF3EAfgKDeHEAfgAocQB+AoFzcQB+AAJzcQB+AAcAAAACdwQAAAACc3EAfgACc3EAfgAHAAAAAHcEAAAAAHhxAH4ASHEAfgKJc3EAfgACc3EAfgAHAAAAAHcEAAAAAHhxAH4AJHEAfgKJeHEAfgAqcQB+AoF4cQB+AEJxAH4CcXhxAH4AQnEAfgJvcQB+AYt4cQB+AEJweHEAfgAqc3EAfgACc3EAfgAHAAAAAncEAAAAAnNxAH4AAnNxAH4ABwAAAAJ3BAAAAAJzcQB+AAJzcQB+AAcAAAAAdwQAAAAAeHEAfgA9cQB+ApFzcQB+AAJzcQB+AAcAAAAAdwQAAAAAeHEAfgA0cQB+ApF4cQB+AChxAH4Cj3EAfgF3eHEAfgAoc3EAfgACc3EAfgAHAAAAAncEAAAAAnNxAH4AAnNxAH4ABwAAAAB3BAAAAAB4cQB+ATtxAH4Cl3EAfgKPeHEAfgCnc3EAfgACc3EAfgAHAAAAAncEAAAAAnEAfgKXcQB+AY14cQB+AEJzcQB+AAJzcQB+AAcAAAACdwQAAAACc3EAfgACc3EAfgAHAAAAAncEAAAAAnNxAH4AAnNxAH4ABwAAAAJ3BAAAAAJzcQB+AAJzcQB+AAcAAAAAdwQAAAAAeHEAfgA0cQB+AqFzcQB+AAJzcQB+AAcAAAACdwQAAAACc3EAfgACc3EAfgAHAAAAAncEAAAAAnNxAH4AAnNxAH4ABwAAAAB3BAAAAAB4cQB+AGlxAH4Cp3NxAH4AAnNxAH4ABwAAAAB3BAAAAAB4cQB+AQdxAH4Cp3hxAH4AKHEAfgKlc3EAfgACc3EAfgAHAAAAAHcEAAAAAHhxAH4BF3EAfgKleHEAfgAocQB+AqF4cQB+AKdxAH4Cn3NxAH4AAnNxAH4ABwAAAAJ3BAAAAAJzcQB+AAJzcQB+AAcAAAACdwQAAAACc3EAfgACc3EAfgAHAAAAAHcEAAAAAHhxAH4BJHEAfgKxc3EAfgACc3EAfgAHAAAAAHcEAAAAAHhxAH4BF3EAfgKxeHEAfgAocQB+Aq9zcQB+AAJzcQB+AAcAAAACdwQAAAACc3EAfgACc3EAfgAHAAAAAHcEAAAAAHhxAH4ASHEAfgK3c3EAfgACc3EAfgAHAAAAAHcEAAAAAHhxAH4AJHEAfgK3eHEAfgAqcQB+Aq94cQB+AEJxAH4Cn3hxAH4AQnEAfgKdcQB+Apt4cQB+AEJweHEAfgAocQB+AWtxAH4BeXhxAH4AKnNxAH4AAnNxAH4ABwAAAAJ3BAAAAAJzcQB+AAJzcQB+AAcAAAACdwQAAAACc3EAfgACc3EAfgAHAAAAAncEAAAAAnNxAH4AAnNxAH4ABwAAAAB3BAAAAAB4cQB+AD1xAH4CwXNxAH4AAnNxAH4ABwAAAAB3BAAAAAB4cQB+ADRxAH4CwXhxAH4AKHEAfgK/c3EAfgACc3EAfgAHAAAAAncEAAAAAnNxAH4AAnNxAH4ABwAAAAJ3BAAAAAJzcQB+AAJzcQB+AAcAAAAAdwQAAAAAeHEAfgEOcQB+AslzcQB+AAJzcQB+AAcAAAAAdwQAAAAAeHEAfgEScQB+Asl4cQB+AChxAH4Cx3NxAH4AAnNxAH4ABwAAAAB3BAAAAAB4cQB+AGlxAH4Cx3hxAH4AKnEAfgK/eHEAfgAocQB+Ar1xAH4Ba3hxAH4AKHNxAH4AAnNxAH4ABwAAAAJ3BAAAAAJzcQB+AAJzcQB+AAcAAAAAdwQAAAAAeHEAfgE7cQB+AtFxAH4CvXhxAH4Ap3NxAH4AAnNxAH4ABwAAAAJ3BAAAAAJxAH4C0XEAfgGNeHEAfgBCc3EAfgACc3EAfgAHAAAAAncEAAAAAnNxAH4AAnNxAH4ABwAAAAJ3BAAAAAJzcQB+AAJzcQB+AAcAAAACdwQAAAACc3EAfgACc3EAfgAHAAAAAHcEAAAAAHhxAH4ANHEAfgLbc3EAfgACc3EAfgAHAAAAAncEAAAAAnNxAH4AAnNxAH4ABwAAAAJ3BAAAAAJzcQB+AAJzcQB+AAcAAAAAdwQAAAAAeHEAfgBpcQB+AuFzcQB+AAJzcQB+AAcAAAAAdwQAAAAAeHEAfgEHcQB+AuF4cQB+AChxAH4C33NxAH4AAnNxAH4ABwAAAAB3BAAAAAB4cQB+ARdxAH4C33hxAH4AKHEAfgLbeHEAfgCncQB+AtlzcQB+AAJzcQB+AAcAAAACdwQAAAACc3EAfgACc3EAfgAHAAAAAncEAAAAAnNxAH4AAnNxAH4ABwAAAAB3BAAAAAB4cQB+ASRxAH4C63NxAH4AAnNxAH4ABwAAAAB3BAAAAAB4cQB+ARdxAH4C63hxAH4AKHEAfgLpc3EAfgACc3EAfgAHAAAAAncEAAAAAnNxAH4AAnNxAH4ABwAAAAB3BAAAAAB4cQB+AEhxAH4C8XNxAH4AAnNxAH4ABwAAAAB3BAAAAAB4cQB+ACRxAH4C8XhxAH4AKnEAfgLpeHEAfgBCcQB+Atl4cQB+AEJxAH4C13EAfgLVeHEAfgBCcHhxAH4AKHNxAH4AAnNxAH4ABwAAAAJ3BAAAAAJzcQB+AAJzcQB+AAcAAAAAdwQAAAAAeHEAfgE7cQB+AvdxAH4BaXhxAH4Ap3NxAH4AAnNxAH4ABwAAAAJ3BAAAAAJxAH4C93EAfgGNeHEAfgBCc3EAfgACc3EAfgAHAAAAAncEAAAAAnNxAH4AAnNxAH4ABwAAAAJ3BAAAAAJzcQB+AAJzcQB+AAcAAAACdwQAAAACc3EAfgACc3EAfgAHAAAAAHcEAAAAAHhxAH4ANHEAfgMBc3EAfgACc3EAfgAHAAAAAncEAAAAAnNxAH4AAnNxAH4ABwAAAAJ3BAAAAAJzcQB+AAJzcQB+AAcAAAAAdwQAAAAAeHEAfgBpcQB+AwdzcQB+AAJzcQB+AAcAAAAAdwQAAAAAeHEAfgEHcQB+Awd4cQB+AChxAH4DBXNxAH4AAnNxAH4ABwAAAAB3BAAAAAB4cQB+ARdxAH4DBXhxAH4AKHEAfgMBeHEAfgCncQB+Av9zcQB+AAJzcQB+AAcAAAACdwQAAAACc3EAfgACc3EAfgAHAAAAAncEAAAAAnNxAH4AAnNxAH4ABwAAAAB3BAAAAAB4cQB+ASRxAH4DEXNxAH4AAnNxAH4ABwAAAAB3BAAAAAB4cQB+ARdxAH4DEXhxAH4AKHEAfgMPc3EAfgACc3EAfgAHAAAAAncEAAAAAnNxAH4AAnNxAH4ABwAAAAB3BAAAAAB4cQB+AEhxAH4DF3NxAH4AAnNxAH4ABwAAAAB3BAAAAAB4cQB+ACRxAH4DF3hxAH4AKnEAfgMPeHEAfgBCcQB+Av94cQB+AEJxAH4C/XEAfgL7eHEAfgBCcHhxAH4AKHEAfgFdcQB+AWt4cQB+AChzcQB+AAJzcQB+AAcAAAACdwQAAAACc3EAfgACc3EAfgAHAAAAAncEAAAAAnNxAH4AAnNxAH4ABwAAAAJ3BAAAAAJzcQB+AAJzcQB+AAcAAAAAdwQAAAAAeHEAfgGTcQB+AyFzcQB+AAJzcQB+AAcAAAAAdwQAAAAAeHEAfgAUcQB+AyF4cQB+AEJxAH4DH3NxAH4AAnNxAH4ABwAAAAJ3BAAAAAJzcQB+AAJzcQB+AAcAAAAAdwQAAAAAeHEAfgAXcQB+AydzcQB+AAJzcQB+AAcAAAAAdwQAAAAAeHEAfgEOcQB+Ayd4cQB+AKdxAH4DH3hxAH4Ap3EAfgMdcQB+AV14cQB+AKdzcQB+AAJzcQB+AAcAAAACdwQAAAACcQB+Ax1xAH4BjXhxAH4AQnNxAH4AAnNxAH4ABwAAAAJ3BAAAAAJzcQB+AAJzcQB+AAcAAAACdwQAAAACc3EAfgACc3EAfgAHAAAAAncEAAAAAnNxAH4AAnNxAH4ABwAAAAB3BAAAAAB4cQB+ADRxAH4DM3NxAH4AAnNxAH4ABwAAAAJ3BAAAAAJzcQB+AAJzcQB+AAcAAAACdwQAAAACc3EAfgACc3EAfgAHAAAAAHcEAAAAAHhxAH4BF3EAfgM5c3EAfgACc3EAfgAHAAAAAHcEAAAAAHhxAH4BB3EAfgM5eHEAfgAocQB+AzdzcQB+AAJzcQB+AAcAAAAAdwQAAAAAeHEAfgEXcQB+Azd4cQB+AChxAH4DM3hxAH4Ap3EAfgMxc3EAfgACc3EAfgAHAAAAAncEAAAAAnNxAH4AAnNxAH4ABwAAAAJ3BAAAAAJzcQB+AAJzcQB+AAcAAAAAdwQAAAAAeHEAfgEkcQB+A0NzcQB+AAJzcQB+AAcAAAAAdwQAAAAAeHEAfgEXcQB+A0N4cQB+AChxAH4DQXNxAH4AAnNxAH4ABwAAAAJ3BAAAAAJzcQB+AAJzcQB+AAcAAAAAdwQAAAAAeHEAfgBIcQB+A0lzcQB+AAJzcQB+AAcAAAAAdwQAAAAAeHEAfgAkcQB+A0l4cQB+ACpxAH4DQXhxAH4AQnEAfgMxeHEAfgBCcQB+Ay9xAH4DLXhxAH4AQnB4cQB+AKdxAH4BV3EAfgGNeHEAfgBCc3EAfgACc3EAfgAHAAAAAncEAAAAAnNxAH4AAnNxAH4ABwAAAAJ3BAAAAAJzcQB+AAJzcQB+AAcAAAACdwQAAAACc3EAfgACc3EAfgAHAAAAAHcEAAAAAHhxAH4ANHEAfgNTc3EAfgACc3EAfgAHAAAAAncEAAAAAnNxAH4AAnNxAH4ABwAAAAJ3BAAAAAJzcQB+AAJzcQB+AAcAAAAAdwQAAAAAeHEAfgBpcQB+A1lzcQB+AAJzcQB+AAcAAAAAdwQAAAAAeHEAfgEHcQB+A1l4cQB+AChxAH4DV3NxAH4AAnNxAH4ABwAAAAJ3BAAAAAJzcQB+AAJzcQB+AAcAAAAAdwQAAAAAeHEAfgEOcQB+A19zcQB+AAJzcQB+AAcAAAAAdwQAAAAAeHEAfgEScQB+A194cQB+AChxAH4DV3hxAH4AKHEAfgNTeHEAfgCncQB+A1FxAH4BHnhxAH4AQnEAfgNPcQB+AVd4cQB+AEJweHEAfgBCcHhxAH4AKnNxAH4AAnNxAH4ABwAAAAJ3BAAAAAJzcQB+AAJzcQB+AAcAAAACdwQAAAACc3EAfgACc3EAfgAHAAAAAncEAAAAAnNxAH4AAnNxAH4ABwAAAAB3BAAAAAB4cQB+AZNxAH4DaXNxAH4AAnNxAH4ABwAAAAB3BAAAAAB4cQB+ABRxAH4DaXhxAH4AQnEAfgNnc3EAfgACc3EAfgAHAAAAAncEAAAAAnNxAH4AAnNxAH4ABwAAAAB3BAAAAAB4cQB+ABdxAH4Db3NxAH4AAnNxAH4ABwAAAAB3BAAAAAB4cQB+AQ5xAH4Db3hxAH4Ap3EAfgNneHEAfgCncQB+A2VxAH4BMXhxAH4AQnNxAH4AAnNxAH4ABwAAAAJ3BAAAAAJzcQB+AAJzcQB+AAcAAAACdwQAAAACc3EAfgACc3EAfgAHAAAAAHcEAAAAAHhxAH4ANHEAfgN3c3EAfgACc3EAfgAHAAAAAncEAAAAAnNxAH4AAnNxAH4ABwAAAAJ3BAAAAAJzcQB+AAJzcQB+AAcAAAAAdwQAAAAAeHEAfgBpcQB+A31zcQB+AAJzcQB+AAcAAAAAdwQAAAAAeHEAfgEHcQB+A314cQB+AChxAH4De3NxAH4AAnNxAH4ABwAAAAB3BAAAAAB4cQB+ARdxAH4De3hxAH4AKHEAfgN3eHEAfgCncQB+A3VxAH4DZXhxAH4AQnNxAH4AAnNxAH4ABwAAAAJ3BAAAAAJxAH4DdXEAfgFXeHEAfgBCcHhxAH4AQnNxAH4AAnNxAH4ABwAAAAJ3BAAAAAJzcQB+AAJzcQB+AAcAAAACdwQAAAACc3EAfgACc3EAfgAHAAAAAHcEAAAAAHhxAH4ANHEAfgOJc3EAfgACc3EAfgAHAAAAAncEAAAAAnNxAH4AAnNxAH4ABwAAAAJ3BAAAAAJzcQB+AAJzcQB+AAcAAAAAdwQAAAAAeHEAfgEXcQB+A49zcQB+AAJzcQB+AAcAAAAAdwQAAAAAeHEAfgEHcQB+A494cQB+AChxAH4DjXNxAH4AAnNxAH4ABwAAAAB3BAAAAAB4cQB+ARdxAH4DjXhxAH4AKHEAfgOJeHEAfgCncQB+A4dxAH4BL3hxAH4AQnNxAH4AAnNxAH4ABwAAAAJ3BAAAAAJxAH4Dh3EAfgFXeHEAfgBCcHhxAH4AKHEAfgEecQB+ATF4cQB+AEJxAH4DUXhxAH4AQnNxAH4AAnNxAH4ABwAAAAJ3BAAAAAJxAH4BHHEAfgFXeHEAfgBCcHhxAH4AKHEAfgD/cQB+ARV4cQB+AChzcQB+AAJzcQB+AAcAAAACdwQAAAACc3EAfgACc3EAfgAHAAAAAHcEAAAAAHhxAH4BJHEAfgObcQB+AP94cQB+AKdzcQB+AAJzcQB+AAcAAAACdwQAAAACcQB+A5txAH4BHnhxAH4AQnNxAH4AAnNxAH4ABwAAAAJ3BAAAAAJxAH4Dn3EAfgFXeHEAfgBCcHhxAH4Ap3EAfgD5cQB+AR54cQB+AEJxAH4A93EAfgFXeHEAfgBCcHNxAH4AAnNxAH4ABwAAAAJ3BAAAAAJzcQB+AAJzcQB+AAcAAAACdwQAAAACc3EAfgACc3EAfgAHAAAAAncEAAAAAnNxAH4AAnNxAH4ABwAAAAJ3BAAAAAJzcQB+AAJzcQB+AAcAAAAAdwQAAAAAeHEAfgAUcQB+A6lzcQB+AAJzcQB+AAcAAAACdwQAAAACc3EAfgACc3EAfgAHAAAAAncEAAAAAnNxAH4AAnNxAH4ABwAAAAB3BAAAAAB4cQB+ASRxAH4Dr3NxAH4AAnNxAH4ABwAAAAB3BAAAAAB4c3EAfgAedAACeDlzcQB+AAJzcQB+AAcAAAACdwQAAAACc3EAfgACc3EAfgAHAAAAAncEAAAAAnNxAH4AAnNxAH4ABwAAAAJ3BAAAAAJzcQB+AAJzcQB+AAcAAAAAdwQAAAAAeHEAfgEScQB+A7tzcQB+AAJzcQB+AAcAAAAAdwQAAAAAeHEAfgBBcQB+A7t4cQB+AKdxAH4DuXNxAH4AAnNxAH4ABwAAAAB3BAAAAAB4cQB+ABRxAH4DuXhxAH4AKnEAfgO3cQB+A7N4cQB+AChzcQB+AAJzcQB+AAcAAAACdwQAAAACcQB+A7dzcQB+AAJzcQB+AAcAAAAAdwQAAAAAeHEAfgA0c3EAfgACc3EAfgAHAAAAAncEAAAAAnNxAH4AAnNxAH4ABwAAAAJ3BAAAAAJzcQB+AAJzcQB+AAcAAAAAdwQAAAAAeHEAfgEkcQB+A8lzcQB+AAJzcQB+AAcAAAAAdwQAAAAAeHNxAH4AHnQAAngzcQB+A8l4cQB+AChxAH4Dx3EAfgPFeHEAfgAqc3EAfgACc3EAfgAHAAAAAncEAAAAAnNxAH4AAnNxAH4ABwAAAAB3BAAAAAB4cQB+ABRxAH4D0XEAfgPHeHEAfgAoc3EAfgACc3EAfgAHAAAAAncEAAAAAnEAfgPRc3EAfgACc3EAfgAHAAAAAHcEAAAAAHhxAH4DtXEAfgPVeHEAfgCnc3EAfgACc3EAfgAHAAAAAncEAAAAAnEAfgPVc3EAfgACc3EAfgAHAAAAAncEAAAAAnNxAH4AAnNxAH4ABwAAAAB3BAAAAAB4cQB+ASRxAH4D23NxAH4AAnNxAH4ABwAAAAB3BAAAAAB4cQB+A7VxAH4D23hxAH4AKHEAfgPZeHEAfgAoc3EAfgACc3EAfgAHAAAAAncEAAAAAnEAfgPZc3EAfgACc3EAfgAHAAAAAncEAAAAAnNxAH4AAnNxAH4ABwAAAAJ3BAAAAAJzcQB+AAJzcQB+AAcAAAACdwQAAAACc3EAfgACc3EAfgAHAAAAAHcEAAAAAHhxAH4AFHEAfgPnc3EAfgACc3EAfgAHAAAAAncEAAAAAnNxAH4AAnNxAH4ABwAAAAJ3BAAAAAJzcQB+AAJzcQB+AAcAAAAAdwQAAAAAeHEAfgEkcQB+A+1zcQB+AAJzcQB+AAcAAAAAdwQAAAAAeHEAfgO1cQB+A+14cQB+AChxAH4D63NxAH4AAnNxAH4ABwAAAAB3BAAAAAB4cQB+ADRxAH4D63hxAH4AKnEAfgPneHEAfgAocQB+A+VzcQB+AAJzcQB+AAcAAAAAdwQAAAAAeHEAfgO1cQB+A+V4cQB+AKdxAH4D43NxAH4AAnNxAH4ABwAAAAJ3BAAAAAJzcQB+AAJzcQB+AAcAAAAAdwQAAAAAeHEAfgEkcQB+A/dzcQB+AAJzcQB+AAcAAAAAdwQAAAAAeHEAfgO1cQB+A/d4cQB+AChxAH4D43hxAH4AKHEAfgPheHEAfgCncHhxAH4AKnNxAH4AAnNxAH4ABwAAAAJ3BAAAAAJzcQB+AAJzcQB+AAcAAAAAdwQAAAAAeHEAfgAUcQB+A/1xAH4Dw3hxAH4AKHNxAH4AAnNxAH4ABwAAAAJ3BAAAAAJxAH4D/XEAfgPXeHEAfgCnc3EAfgACc3EAfgAHAAAAAncEAAAAAnEAfgQBcQB+A9t4cQB+AChzcQB+AAJzcQB+AAcAAAACdwQAAAACcQB+BANxAH4D43hxAH4Ap3B4cQB+AChxAH4DrXEAfgPFeHEAfgAqc3EAfgACc3EAfgAHAAAAAncEAAAAAnNxAH4AAnNxAH4ABwAAAAJ3BAAAAAJzcQB+AAJzcQB+AAcAAAAAdwQAAAAAeHNxAH4AEz/gAAAAAAAAcQB+BAlzcQB+AAJzcQB+AAcAAAAAdwQAAAAAeHEAfgEScQB+BAl4cQB+AEJxAH4EB3EAfgOteHEAfgAoc3EAfgACc3EAfgAHAAAAAncEAAAAAnEAfgQHcQB+A9d4cQB+AKdzcQB+AAJzcQB+AAcAAAACdwQAAAACcQB+BBBxAH4D23hxAH4AKHNxAH4AAnNxAH4ABwAAAAJ3BAAAAAJxAH4EEnEAfgPjeHEAfgCncHhxAH4AKHEAfgOncQB+A9d4cQB+AKdxAH4DpXEAfgPbeHEAfgAocQB+A6NxAH4D43hxAH4Ap3BzcQB+AAJzcQB+AAcAAAACdwQAAAACc3EAfgACc3EAfgAHAAAAAncEAAAAAnNxAH4AAnNxAH4ABwAAAAJ3BAAAAAJzcQB+AAJzcQB+AAcAAAACdwQAAAACc3EAfgACc3EAfgAHAAAAAncEAAAAAnNxAH4AAnNxAH4ABwAAAAJ3BAAAAAJzcQB+AAJzcQB+AAcAAAACdwQAAAACc3EAfgACc3EAfgAHAAAAAncEAAAAAnNxAH4AAnNxAH4ABwAAAAJ3BAAAAAJzcQB+AAJzcQB+AAcAAAACdwQAAAACc3EAfgACc3EAfgAHAAAAAncEAAAAAnNxAH4AAnNxAH4ABwAAAAJ3BAAAAAJzcQB+AAJzcQB+AAcAAAACdwQAAAACc3EAfgACc3EAfgAHAAAAAncEAAAAAnNxAH4AAnNxAH4ABwAAAAJ3BAAAAAJzcQB+AAJzcQB+AAcAAAACdwQAAAACc3EAfgACc3EAfgAHAAAAAncEAAAAAnNxAH4AAnNxAH4ABwAAAAJ3BAAAAAJzcQB+AAJzcQB+AAcAAAACdwQAAAACc3EAfgACc3EAfgAHAAAAAncEAAAAAnNxAH4AAnNxAH4ABwAAAAJ3BAAAAAJzcQB+AAJzcQB+AAcAAAACdwQAAAACc3EAfgACc3EAfgAHAAAAAncEAAAAAnNxAH4AAnNxAH4ABwAAAAJ3BAAAAAJzcQB+AAJzcQB+AAcAAAAAdwQAAAAAeHEAfgBpcQB+BERzcQB+AAJzcQB+AAcAAAAAdwQAAAAAeHEAfgGTc3EAfgACc3EAfgAHAAAAAncEAAAAAnNxAH4AAnNxAH4ABwAAAAB3BAAAAAB4cQB+AZNxAH4ESnEAfgRIeHEAfgBCc3EAfgACc3EAfgAHAAAAAncEAAAAAnEAfgRKc3EAfgACc3EAfgAHAAAAAHcEAAAAAHhxAH4AaXEAfgROeHEAfgAoc3EAfgACc3EAfgAHAAAAAncEAAAAAnEAfgROc3EAfgACc3EAfgAHAAAAAHcEAAAAAHhxAH4Bk3EAfgRSeHEAfgBCc3EAfgACc3EAfgAHAAAAAncEAAAAAnEAfgRSc3EAfgACc3EAfgAHAAAAAHcEAAAAAHhxAH4Bk3EAfgRWeHEAfgBCc3EAfgACc3EAfgAHAAAAAncEAAAAAnEAfgRWc3EAfgACc3EAfgAHAAAAAHcEAAAAAHhxAH4AaXEAfgRaeHEAfgAoc3EAfgACc3EAfgAHAAAAAncEAAAAAnEAfgRac3EAfgACc3EAfgAHAAAAAHcEAAAAAHhxAH4Bk3EAfgReeHEAfgBCc3EAfgACc3EAfgAHAAAAAncEAAAAAnEAfgRec3EAfgACc3EAfgAHAAAAAHcEAAAAAHhxAH4Bk3EAfgRieHEAfgBCc3EAfgACc3EAfgAHAAAAAncEAAAAAnEAfgRic3EAfgACc3EAfgAHAAAAAHcEAAAAAHhxAH4AaXEAfgRmeHEAfgAoc3EAfgACc3EAfgAHAAAAAncEAAAAAnEAfgRmc3EAfgACc3EAfgAHAAAAAHcEAAAAAHhxAH4AaXEAfgRqeHEAfgAoc3EAfgACc3EAfgAHAAAAAncEAAAAAnEAfgRqc3EAfgACc3EAfgAHAAAAAHcEAAAAAHhxAH4Bk3EAfgRueHEAfgBCc3EAfgACc3EAfgAHAAAAAncEAAAAAnEAfgRuc3EAfgACc3EAfgAHAAAAAHcEAAAAAHhxAH4Bk3EAfgRyeHEAfgBCc3EAfgACc3EAfgAHAAAAAncEAAAAAnEAfgRyc3EAfgACc3EAfgAHAAAAAHcEAAAAAHhxAH4AaXEAfgR2eHEAfgAoc3EAfgACc3EAfgAHAAAAAncEAAAAAnEAfgR2c3EAfgACc3EAfgAHAAAAAHcEAAAAAHhxAH4AaXEAfgR6eHEAfgAoc3EAfgACc3EAfgAHAAAAAncEAAAAAnEAfgR6c3EAfgACc3EAfgAHAAAAAHcEAAAAAHhxAH4Bk3EAfgR+eHEAfgBCc3EAfgACc3EAfgAHAAAAAncEAAAAAnEAfgR+c3EAfgACc3EAfgAHAAAAAHcEAAAAAHhxAH4Bk3EAfgSCeHEAfgBCc3EAfgACc3EAfgAHAAAAAncEAAAAAnEAfgSCc3EAfgACc3EAfgAHAAAAAHcEAAAAAHhxAH4AaXEAfgSGeHEAfgAoc3EAfgACc3EAfgAHAAAAAncEAAAAAnEAfgSGc3EAfgACc3EAfgAHAAAAAHcEAAAAAHhxAH4Bk3EAfgSKeHEAfgBCc3EAfgACc3EAfgAHAAAAAncEAAAAAnEAfgSKc3EAfgACc3EAfgAHAAAAAHcEAAAAAHhxAH4Bk3NxAH4AAnNxAH4ABwAAAAJ3BAAAAAJzcQB+AAJzcQB+AAcAAAAAdwQAAAAAeHEAfgGTcQB+BJJxAH4EkHhxAH4AQnNxAH4AAnNxAH4ABwAAAAJ3BAAAAAJxAH4EknNxAH4AAnNxAH4ABwAAAAB3BAAAAAB4cQB+AGlxAH4ElnhxAH4AKHNxAH4AAnNxAH4ABwAAAAJ3BAAAAAJxAH4ElnNxAH4AAnNxAH4ABwAAAAB3BAAAAAB4cQB+AZNxAH4EmnhxAH4AQnNxAH4AAnNxAH4ABwAAAAJ3BAAAAAJxAH4EmnNxAH4AAnNxAH4ABwAAAAB3BAAAAAB4cQB+AZNxAH4EnnhxAH4AQnNxAH4AAnNxAH4ABwAAAAJ3BAAAAAJxAH4EnnNxAH4AAnNxAH4ABwAAAAB3BAAAAAB4cQB+AGlxAH4EonhxAH4AKHNxAH4AAnNxAH4ABwAAAAJ3BAAAAAJxAH4EonNxAH4AAnNxAH4ABwAAAAB3BAAAAAB4cQB+AZNxAH4EpnhxAH4AQnNxAH4AAnNxAH4ABwAAAAJ3BAAAAAJxAH4EpnNxAH4AAnNxAH4ABwAAAAJ3BAAAAAJzcQB+AAJzcQB+AAcAAAAAdwQAAAAAeHEAfgBpcQB+BKxzcQB+AAJzcQB+AAcAAAAAdwQAAAAAeHEAfgGTcQB+BKx4cQB+AEJxAH4EqnhxAH4AKHB4cQB+AEJzcQB+AAJzcQB+AAcAAAACdwQAAAACcQB+BI5xAH4EmHhxAH4AKHNxAH4AAnNxAH4ABwAAAAJ3BAAAAAJxAH4EsnEAfgSceHEAfgBCc3EAfgACc3EAfgAHAAAAAncEAAAAAnEAfgS0cQB+BKB4cQB+AEJzcQB+AAJzcQB+AAcAAAACdwQAAAACcQB+BLZxAH4EpHhxAH4AKHNxAH4AAnNxAH4ABwAAAAJ3BAAAAAJxAH4EuHEAfgSoeHEAfgBCc3EAfgACc3EAfgAHAAAAAncEAAAAAnEAfgS6cQB+BKx4cQB+AChweHEAfgBCcQB+BEJxAH4EUHhxAH4AKHEAfgRAcQB+BFR4cQB+AEJxAH4EPnEAfgRYeHEAfgBCcQB+BDxxAH4EXHhxAH4AKHEAfgQ6cQB+BGB4cQB+AEJxAH4EOHEAfgRkeHEAfgBCcQB+BDZxAH4EaHhxAH4AKHEAfgQ0cQB+BGx4cQB+AChxAH4EMnEAfgRweHEAfgBCcQB+BDBxAH4EdHhxAH4AQnEAfgQucQB+BHh4cQB+AChxAH4ELHEAfgR8eHEAfgAocQB+BCpxAH4EgHhxAH4AQnEAfgQocQB+BIR4cQB+AEJxAH4EJnEAfgSIeHEAfgAocQB+BCRxAH4EjHhxAH4AQnEAfgQicQB+BJB4cQB+AEJxAH4EIHEAfgSYeHEAfgAocQB+BB5xAH4EnHhxAH4AQnEAfgQccQB+BKB4cQB+AEJxAH4EGnEAfgSkeHEAfgAocQB+BBhxAH4EqHhxAH4AQnEAfgQWcQB+BKx4cQB+AChweA==";
    "rO0ABXNyABFqYXZhLnV0aWwuQ29sbFNlcleOq7Y6G6gRAwABSQADdGFneHAAAAAEdwQAAAAEc3IAN2lvLmdpdGh1Yi5lcmljbWVkdmV0LmpnZWEuY29yZS5yZXByZXNlbnRhdGlvbi50cmVlLlRyZWUKs7/qnQrEZQIAA0wACGNoaWxkcmVudAAQTGphdmEvdXRpbC9MaXN0O0wAB2NvbnRlbnR0ABJMamF2YS9sYW5nL09iamVjdDtMAAZwYXJlbnR0ADlMaW8vZ2l0aHViL2VyaWNtZWR2ZXQvamdlYS9jb3JlL3JlcHJlc2VudGF0aW9uL3RyZWUvVHJlZTt4cHNyABNqYXZhLnV0aWwuQXJyYXlMaXN0eIHSHZnHYZ0DAAFJAARzaXpleHAAAAACdwQAAAACc3EAfgACc3EAfgAHAAAAAncEAAAAAnNxAH4AAnNxAH4ABwAAAAJ3BAAAAAJzcQB+AAJzcQB+AAcAAAACdwQAAAACc3EAfgACc3EAfgAHAAAAAncEAAAAAnNxAH4AAnNxAH4ABwAAAAB3BAAAAAB4c3IAS2lvLmdpdGh1Yi5lcmljbWVkdmV0LmpnZWEuY29yZS5yZXByZXNlbnRhdGlvbi50cmVlLm51bWVyaWMuRWxlbWVudCRDb25zdGFudAAAAAAAAAAAAgABRAAFdmFsdWV4cEAIAAAAAAAAcQB+AA9zcQB+AAJzcQB+AAcAAAAAdwQAAAAAeHNxAH4AE0AAAAAAAAAAc3EAfgACc3EAfgAHAAAAAncEAAAAAnNxAH4AAnNxAH4ABwAAAAJ3BAAAAAJzcQB+AAJzcQB+AAcAAAAAdwQAAAAAeHNyAEtpby5naXRodWIuZXJpY21lZHZldC5qZ2VhLmNvcmUucmVwcmVzZW50YXRpb24udHJlZS5udW1lcmljLkVsZW1lbnQkVmFyaWFibGUAAAAAAAAAAAIAAUwABG5hbWV0ABJMamF2YS9sYW5nL1N0cmluZzt4cHQAA3gxMHEAfgAac3EAfgACc3EAfgAHAAAAAHcEAAAAAHhzcQB+AB50AAJ4N3EAfgAaeH5yAEtpby5naXRodWIuZXJpY21lZHZldC5qZ2VhLmNvcmUucmVwcmVzZW50YXRpb24udHJlZS5udW1lcmljLkVsZW1lbnQkT3BlcmF0b3IAAAAAAAAAABIAAHhyAA5qYXZhLmxhbmcuRW51bQAAAAAAAAAAEgAAeHB0AAtTVUJUUkFDVElPTnEAfgAYcQB+ABV4fnEAfgAmdAAIQURESVRJT05zcQB+AAJzcQB+AAcAAAACdwQAAAACcQB+ABhzcQB+AAJzcQB+AAcAAAACdwQAAAACc3EAfgACc3EAfgAHAAAAAncEAAAAAnNxAH4AAnNxAH4ABwAAAAB3BAAAAAB4c3EAfgATQBIAAAAAAABxAH4AMHNxAH4AAnNxAH4ABwAAAAB3BAAAAAB4cQB+ABdzcQB+AAJzcQB+AAcAAAACdwQAAAACc3EAfgACc3EAfgAHAAAAAncEAAAAAnNxAH4AAnNxAH4ABwAAAAB3BAAAAAB4c3EAfgAedAACeDhxAH4AOXNxAH4AAnNxAH4ABwAAAAB3BAAAAAB4c3EAfgATAAAAAAAAAABxAH4AOXhxAH4AKHEAfgA3cQB+ADV4fnEAfgAmdAAOTVVMVElQTElDQVRJT05zcQB+AAJzcQB+AAcAAAACdwQAAAACcQB+ADdzcQB+AAJzcQB+AAcAAAAAdwQAAAAAeHNxAH4AE0AMAAAAAAAAcQB+AER4cQB+AChzcQB+AAJzcQB+AAcAAAACdwQAAAACc3EAfgACc3EAfgAHAAAAAncEAAAAAnNxAH4AAnNxAH4ABwAAAAB3BAAAAAB4cQB+ABRxAH4AS3NxAH4AAnNxAH4ABwAAAAB3BAAAAAB4cQB+ABdxAH4AS3hxAH4AKnEAfgBJcQB+AER4cQB+ACpzcQB+AAJzcQB+AAcAAAACdwQAAAACcQB+AElzcQB+AAJzcQB+AAcAAAACdwQAAAACc3EAfgACc3EAfgAHAAAAAHcEAAAAAHhxAH4ASHEAfgBTc3EAfgACc3EAfgAHAAAAAncEAAAAAnNxAH4AAnNxAH4ABwAAAAJ3BAAAAAJzcQB+AAJzcQB+AAcAAAACdwQAAAACc3EAfgACc3EAfgAHAAAAAHcEAAAAAHhxAH4APXEAfgBbc3EAfgACc3EAfgAHAAAAAHcEAAAAAHhxAH4AQXNxAH4AAnNxAH4ABwAAAAJ3BAAAAAJzcQB+AAJzcQB+AAcAAAAAdwQAAAAAeHEAfgAXcQB+AGFxAH4AX3hxAH4AKHNxAH4AAnNxAH4ABwAAAAJ3BAAAAAJxAH4AYXNxAH4AAnNxAH4ABwAAAAB3BAAAAAB4c3EAfgAedAADeDEzc3EAfgACc3EAfgAHAAAAAncEAAAAAnNxAH4AAnNxAH4ABwAAAAJ3BAAAAAJzcQB+AAJzcQB+AAcAAAAAdwQAAAAAeHEAfgA9cQB+AG1zcQB+AAJzcQB+AAcAAAACdwQAAAACc3EAfgACc3EAfgAHAAAAAHcEAAAAAHhxAH4AFHEAfgBxc3EAfgACc3EAfgAHAAAAAHcEAAAAAHhxAH4AF3EAfgBxeHEAfgAqcQB+AG14cQB+AChxAH4Aa3EAfgBneHEAfgAoc3EAfgACc3EAfgAHAAAAAncEAAAAAnEAfgBrc3EAfgACc3EAfgAHAAAAAncEAAAAAnNxAH4AAnNxAH4ABwAAAAB3BAAAAAB4cQB+ACBxAH4AeXNxAH4AAnNxAH4ABwAAAAB3BAAAAAB4cQB+ACRzcQB+AAJzcQB+AAcAAAACdwQAAAACc3EAfgACc3EAfgAHAAAAAHcEAAAAAHhxAH4AQXEAfgB/cQB+AH14cQB+AChzcQB+AAJzcQB+AAcAAAACdwQAAAACc3EAfgACc3EAfgAHAAAAAncEAAAAAnNxAH4AAnNxAH4ABwAAAAJ3BAAAAAJzcQB+AAJzcQB+AAcAAAAAdwQAAAAAeHEAfgA9cQB+AIdzcQB+AAJzcQB+AAcAAAAAdwQAAAAAeHEAfgBBcQB+AId4cQB+AChxAH4AhXNxAH4AAnNxAH4ABwAAAAB3BAAAAAB4cQB+AGlxAH4AhXhxAH4AKHEAfgCDcQB+AH94cQB+AEJzcQB+AAJzcQB+AAcAAAACdwQAAAACc3EAfgACc3EAfgAHAAAAAHcEAAAAAHhxAH4ASHEAfgCPcQB+AIN4cQB+ACpzcQB+AAJzcQB+AAcAAAACdwQAAAACc3EAfgACc3EAfgAHAAAAAncEAAAAAnNxAH4AAnNxAH4ABwAAAAJ3BAAAAAJzcQB+AAJzcQB+AAcAAAAAdwQAAAAAeHEAfgAUcQB+AJdzcQB+AAJzcQB+AAcAAAAAdwQAAAAAeHEAfgAXcQB+AJd4cQB+ACpxAH4AlXNxAH4AAnNxAH4ABwAAAAJ3BAAAAAJzcQB+AAJzcQB+AAcAAAACdwQAAAACc3EAfgACc3EAfgAHAAAAAHcEAAAAAHhxAH4ANHEAfgCfc3EAfgACc3EAfgAHAAAAAHcEAAAAAHhxAH4AF3EAfgCfeHEAfgBCcQB+AJ1zcQB+AAJzcQB+AAcAAAAAdwQAAAAAeHEAfgBIcQB+AJ14cQB+AChxAH4AlXhxAH4AKnEAfgCTcQB+AI94fnEAfgAmdAANUFJPVF9ESVZJU0lPTnNxAH4AAnNxAH4ABwAAAAJ3BAAAAAJxAH4Ak3NxAH4AAnNxAH4ABwAAAAB3BAAAAAB4c3EAfgAedAACeDBzcQB+AAJzcQB+AAcAAAACdwQAAAACcQB+AFFxAH4Aq3hxAH4AQnNxAH4AAnNxAH4ABwAAAAJ3BAAAAAJxAH4Ar3NxAH4AAnNxAH4ABwAAAAB3BAAAAAB4cQB+AEFxAH4AsXhxAH4AKHB4cQB+AEJzcQB+AAJzcQB+AAcAAAACdwQAAAACcQB+AKlxAH4As3hxAH4AKHB4cQB+AChxAH4Ad3hxAH4AQnNxAH4AAnNxAH4ABwAAAAJ3BAAAAAJzcQB+AAJzcQB+AAcAAAAAdwQAAAAAeHEAfgBIcQB+ALdxAH4Ad3hxAH4AKnNxAH4AAnNxAH4ABwAAAAJ3BAAAAAJzcQB+AAJzcQB+AAcAAAACdwQAAAACc3EAfgACc3EAfgAHAAAAAncEAAAAAnNxAH4AAnNxAH4ABwAAAAB3BAAAAAB4cQB+ABRxAH4Av3NxAH4AAnNxAH4ABwAAAAB3BAAAAAB4cQB+ABdxAH4Av3hxAH4AKnEAfgC9c3EAfgACc3EAfgAHAAAAAncEAAAAAnNxAH4AAnNxAH4ABwAAAAJ3BAAAAAJzcQB+AAJzcQB+AAcAAAAAdwQAAAAAeHEAfgA0cQB+AMdzcQB+AAJzcQB+AAcAAAAAdwQAAAAAeHEAfgAXcQB+AMd4cQB+AEJxAH4AxXNxAH4AAnNxAH4ABwAAAAB3BAAAAAB4cQB+AEhxAH4AxXhxAH4AKHEAfgC9eHEAfgAqcQB+ALtxAH4At3hxAH4Ap3NxAH4AAnNxAH4ABwAAAAJ3BAAAAAJxAH4Au3EAfgCreHEAfgBCc3EAfgACc3EAfgAHAAAAAncEAAAAAnEAfgDPcQB+ALN4cQB+AChweHEAfgAoc3EAfgACc3EAfgAHAAAAAncEAAAAAnEAfgBlcQB+AHl4cQB+AEJzcQB+AAJzcQB+AAcAAAACdwQAAAACc3EAfgACc3EAfgAHAAAAAHcEAAAAAHhxAH4ASHEAfgDVcQB+ANN4cQB+ACpzcQB+AAJzcQB+AAcAAAACdwQAAAACc3EAfgACc3EAfgAHAAAAAncEAAAAAnNxAH4AAnNxAH4ABwAAAAJ3BAAAAAJzcQB+AAJzcQB+AAcAAAAAdwQAAAAAeHEAfgAUcQB+AN1zcQB+AAJzcQB+AAcAAAAAdwQAAAAAeHEAfgAXcQB+AN14cQB+ACpxAH4A23NxAH4AAnNxAH4ABwAAAAJ3BAAAAAJzcQB+AAJzcQB+AAcAAAACdwQAAAACc3EAfgACc3EAfgAHAAAAAHcEAAAAAHhxAH4ANHEAfgDlc3EAfgACc3EAfgAHAAAAAHcEAAAAAHhxAH4AF3EAfgDleHEAfgBCcQB+AONzcQB+AAJzcQB+AAcAAAAAdwQAAAAAeHEAfgBIcQB+AON4cQB+AChxAH4A23hxAH4AKnEAfgDZcQB+ANV4cQB+AKdzcQB+AAJzcQB+AAcAAAACdwQAAAACcQB+ANlxAH4Aq3hxAH4AQnNxAH4AAnNxAH4ABwAAAAJ3BAAAAAJxAH4A7XEAfgCzeHEAfgAocHhxAH4AKHEAfgBZcQB+AGd4cQB+AChxAH4AV3EAfgB5eHEAfgBCcQB+AFN4cQB+ACpxAH4AUXhxAH4Ap3EAfgCveHEAfgBCcQB+AC5xAH4ARnhxAH4AKHEAfgAseHEAfgAqc3EAfgACc3EAfgAHAAAAAncEAAAAAnEAfgAscQB+AFN4cQB+AKdzcQB+AAJzcQB+AAcAAAACdwQAAAACcQB+APFxAH4Aq3hxAH4AQnNxAH4AAnNxAH4ABwAAAAJ3BAAAAAJxAH4A83EAfgCzeHEAfgAocHhxAH4AKnEAfgANcQB+AC54cQB+ACpxAH4AC3EAfgBTeHEAfgCncQB+AAlxAH4Aq3hxAH4AQnEAfgAGcQB+ALN4cQB+AChwc3EAfgACc3EAfgAHAAAAAncEAAAAAnNxAH4AAnNxAH4ABwAAAAJ3BAAAAAJzcQB+AAJzcQB+AAcAAAACdwQAAAACc3EAfgACc3EAfgAHAAAAAHcEAAAAAHhxAH4ANHEAfgD7c3EAfgACc3EAfgAHAAAAAncEAAAAAnNxAH4AAnNxAH4ABwAAAAJ3BAAAAAJzcQB+AAJzcQB+AAcAAAAAdwQAAAAAeHEAfgBpcQB+AQFzcQB+AAJzcQB+AAcAAAAAdwQAAAAAeHNxAH4AE0AEAAAAAAAAc3EAfgACc3EAfgAHAAAAAncEAAAAAnNxAH4AAnNxAH4ABwAAAAJ3BAAAAAJzcQB+AAJzcQB+AAcAAAAAdwQAAAAAeHNxAH4AHnQAAngycQB+AQpzcQB+AAJzcQB+AAcAAAAAdwQAAAAAeHNxAH4AE0AQAAAAAAAAcQB+AQp4cQB+AChxAH4BCHEAfgEFeHEAfgAoc3EAfgACc3EAfgAHAAAAAncEAAAAAnEAfgEIc3EAfgACc3EAfgAHAAAAAHcEAAAAAHhzcQB+ABM/+AAAAAAAAHEAfgETeHEAfgAoc3EAfgACc3EAfgAHAAAAAncEAAAAAnNxAH4AAnNxAH4ABwAAAAB3BAAAAAB4cQB+ADRxAH4BGHEAfgETeHEAfgCnc3EAfgACc3EAfgAHAAAAAncEAAAAAnEAfgEYc3EAfgACc3EAfgAHAAAAAncEAAAAAnNxAH4AAnNxAH4ABwAAAAJ3BAAAAAJzcQB+AAJzcQB+AAcAAAAAdwQAAAAAeHNxAH4AEz/wAAAAAAAAcQB+ASBzcQB+AAJzcQB+AAcAAAAAdwQAAAAAeHEAfgEXc3EAfgACc3EAfgAHAAAAAncEAAAAAnNxAH4AAnNxAH4ABwAAAAJ3BAAAAAJzcQB+AAJzcQB+AAcAAAAAdwQAAAAAeHEAfgEXcQB+ASlzcQB+AAJzcQB+AAcAAAAAdwQAAAAAeHEAfgEHcQB+ASl4cQB+AChxAH4BJ3EAfgEleHEAfgAoc3EAfgACc3EAfgAHAAAAAncEAAAAAnEAfgEnc3EAfgACc3EAfgAHAAAAAncEAAAAAnNxAH4AAnNxAH4ABwAAAAB3BAAAAAB4cQB+AEhxAH4BMXNxAH4AAnNxAH4ABwAAAAB3BAAAAAB4cQB+ACRzcQB+AAJzcQB+AAcAAAACdwQAAAACc3EAfgACc3EAfgAHAAAAAHcEAAAAAHhzcQB+AB50AAN4MTRxAH4BN3EAfgE1eHEAfgAqc3EAfgACc3EAfgAHAAAAAncEAAAAAnNxAH4AAnNxAH4ABwAAAAJ3BAAAAAJzcQB+AAJzcQB+AAcAAAAAdwQAAAAAeHEAfgEkcQB+AT9zcQB+AAJzcQB+AAcAAAAAdwQAAAAAeHEAfgEXcQB+AT94cQB+AChxAH4BPXEAfgE3eHEAfgBCc3EAfgACc3EAfgAHAAAAAncEAAAAAnNxAH4AAnNxAH4ABwAAAAJ3BAAAAAJzcQB+AAJzcQB+AAcAAAAAdwQAAAAAeHEAfgA0cQB+AUdzcQB+AAJzcQB+AAcAAAACdwQAAAACc3EAfgACc3EAfgAHAAAAAncEAAAAAnNxAH4AAnNxAH4ABwAAAAB3BAAAAAB4cQB+AGlxAH4BTXNxAH4AAnNxAH4ABwAAAAB3BAAAAAB4cQB+AQdxAH4BTXhxAH4AKHEAfgFLc3EAfgACc3EAfgAHAAAAAHcEAAAAAHhxAH4BF3EAfgFLeHEAfgAocQB+AUd4cQB+AKdxAH4BRXEAfgE9eHEAfgBCc3EAfgACc3EAfgAHAAAAAncEAAAAAnEAfgFFc3EAfgACc3EAfgAHAAAAAncEAAAAAnNxAH4AAnNxAH4ABwAAAAJ3BAAAAAJzcQB+AAJzcQB+AAcAAAAAdwQAAAAAeHEAfgE7cQB+AVlzcQB+AAJzcQB+AAcAAAACdwQAAAACc3EAfgACc3EAfgAHAAAAAncEAAAAAnNxAH4AAnNxAH4ABwAAAAB3BAAAAAB4cQB+AD1xAH4BX3NxAH4AAnNxAH4ABwAAAAB3BAAAAAB4cQB+ADRzcQB+AAJzcQB+AAcAAAACdwQAAAACc3EAfgACc3EAfgAHAAAAAHcEAAAAAHhxAH4BDnEAfgFlcQB+AWN4cQB+AChzcQB+AAJzcQB+AAcAAAACdwQAAAACcQB+AWVzcQB+AAJzcQB+AAcAAAACdwQAAAACc3EAfgACc3EAfgAHAAAAAncEAAAAAnNxAH4AAnNxAH4ABwAAAAB3BAAAAAB4cQB+AQ5xAH4BbXNxAH4AAnNxAH4ABwAAAAB3BAAAAAB4cQB+ARJzcQB+AAJzcQB+AAcAAAACdwQAAAACc3EAfgACc3EAfgAHAAAAAHcEAAAAAHhxAH4AaXEAfgFzcQB+AXF4cQB+AChzcQB+AAJzcQB+AAcAAAACdwQAAAACcQB+AXNzcQB+AAJzcQB+AAcAAAAAdwQAAAAAeHEAfgBpc3EAfgACc3EAfgAHAAAAAncEAAAAAnNxAH4AAnNxAH4ABwAAAAB3BAAAAAB4cQB+ABRxAH4Be3EAfgF5eHEAfgAqc3EAfgACc3EAfgAHAAAAAncEAAAAAnNxAH4AAnNxAH4ABwAAAAJ3BAAAAAJzcQB+AAJzcQB+AAcAAAAAdwQAAAAAeHEAfgA9cQB+AYFzcQB+AAJzcQB+AAcAAAAAdwQAAAAAeHEAfgA0cQB+AYF4cQB+AChxAH4Bf3EAfgF7eHEAfgAoc3EAfgACc3EAfgAHAAAAAncEAAAAAnNxAH4AAnNxAH4ABwAAAAB3BAAAAAB4cQB+ATtxAH4Bh3EAfgF/eHEAfgCnc3EAfgACc3EAfgAHAAAAAncEAAAAAnEAfgGHc3EAfgACc3EAfgAHAAAAAncEAAAAAnNxAH4AAnNxAH4ABwAAAAJ3BAAAAAJzcQB+AAJzcQB+AAcAAAAAdwQAAAAAeHNxAH4AHnQAAng0cQB+AY9zcQB+AAJzcQB+AAcAAAAAdwQAAAAAeHEAfgAUc3EAfgACc3EAfgAHAAAAAncEAAAAAnNxAH4AAnNxAH4ABwAAAAB3BAAAAAB4cQB+ABRxAH4Bl3EAfgGVeHEAfgBCc3EAfgACc3EAfgAHAAAAAncEAAAAAnEAfgGXc3EAfgACc3EAfgAHAAAAAncEAAAAAnNxAH4AAnNxAH4ABwAAAAB3BAAAAAB4cQB+ABdxAH4BnXNxAH4AAnNxAH4ABwAAAAB3BAAAAAB4cQB+AQ5zcQB+AAJzcQB+AAcAAAACdwQAAAACc3EAfgACc3EAfgAHAAAAAncEAAAAAnNxAH4AAnNxAH4ABwAAAAJ3BAAAAAJzcQB+AAJzcQB+AAcAAAAAdwQAAAAAeHEAfgA9cQB+AadzcQB+AAJzcQB+AAcAAAAAdwQAAAAAeHEAfgA0cQB+Aad4cQB+AChxAH4BpXNxAH4AAnNxAH4ABwAAAAJ3BAAAAAJzcQB+AAJzcQB+AAcAAAACdwQAAAACc3EAfgACc3EAfgAHAAAAAHcEAAAAAHhxAH4BDnEAfgGvc3EAfgACc3EAfgAHAAAAAHcEAAAAAHhxAH4BEnEAfgGveHEAfgAocQB+Aa1zcQB+AAJzcQB+AAcAAAAAdwQAAAAAeHEAfgBpcQB+Aa14cQB+ACpxAH4BpXhxAH4AKHEAfgGjcQB+AaF4cQB+AKdzcQB+AAJzcQB+AAcAAAACdwQAAAACc3EAfgACc3EAfgAHAAAAAncEAAAAAnNxAH4AAnNxAH4ABwAAAAB3BAAAAAB4cQB+AZNxAH4BuXNxAH4AAnNxAH4ABwAAAAB3BAAAAAB4cQB+ABRxAH4BuXhxAH4AQnEAfgG3cQB+AaN4cQB+AKdzcQB+AAJzcQB+AAcAAAACdwQAAAACc3EAfgACc3EAfgAHAAAAAncEAAAAAnNxAH4AAnNxAH4ABwAAAAB3BAAAAAB4cQB+ATtxAH4BwXNxAH4AAnNxAH4ABwAAAAJ3BAAAAAJzcQB+AAJzcQB+AAcAAAACdwQAAAACc3EAfgACc3EAfgAHAAAAAHcEAAAAAHhxAH4APXEAfgHHc3EAfgACc3EAfgAHAAAAAHcEAAAAAHhxAH4ANHEAfgHHeHEAfgAocQB+AcVzcQB+AAJzcQB+AAcAAAACdwQAAAACc3EAfgACc3EAfgAHAAAAAncEAAAAAnNxAH4AAnNxAH4ABwAAAAB3BAAAAAB4cQB+AQ5xAH4Bz3NxAH4AAnNxAH4ABwAAAAB3BAAAAAB4cQB+ARJxAH4Bz3hxAH4AKHEAfgHNc3EAfgACc3EAfgAHAAAAAHcEAAAAAHhxAH4AaXEAfgHNeHEAfgAqcQB+AcV4cQB+AChxAH4BwXhxAH4Ap3EAfgG/cQB+Abd4cQB+AEJzcQB+AAJzcQB+AAcAAAACdwQAAAACc3EAfgACc3EAfgAHAAAAAncEAAAAAnNxAH4AAnNxAH4ABwAAAAJ3BAAAAAJzcQB+AAJzcQB+AAcAAAAAdwQAAAAAeHEAfgA0cQB+AdtzcQB+AAJzcQB+AAcAAAACdwQAAAACc3EAfgACc3EAfgAHAAAAAncEAAAAAnNxAH4AAnNxAH4ABwAAAAB3BAAAAAB4cQB+ARdxAH4B4XNxAH4AAnNxAH4ABwAAAAB3BAAAAAB4cQB+AQdxAH4B4XhxAH4AKHEAfgHfc3EAfgACc3EAfgAHAAAAAHcEAAAAAHhxAH4BF3EAfgHfeHEAfgAocQB+Adt4cQB+AKdxAH4B2XNxAH4AAnNxAH4ABwAAAAJ3BAAAAAJzcQB+AAJzcQB+AAcAAAACdwQAAAACc3EAfgACc3EAfgAHAAAAAHcEAAAAAHhxAH4BJHEAfgHrc3EAfgACc3EAfgAHAAAAAHcEAAAAAHhxAH4BF3EAfgHreHEAfgAocQB+AelzcQB+AAJzcQB+AAcAAAACdwQAAAACc3EAfgACc3EAfgAHAAAAAHcEAAAAAHhxAH4ASHEAfgHxc3EAfgACc3EAfgAHAAAAAHcEAAAAAHhxAH4AJHEAfgHxeHEAfgAqcQB+Ael4cQB+AEJxAH4B2XhxAH4AQnEAfgHXcQB+Ab94cQB+AEJweHEAfgCnc3EAfgACc3EAfgAHAAAAAncEAAAAAnNxAH4AAnNxAH4ABwAAAAJ3BAAAAAJzcQB+AAJzcQB+AAcAAAAAdwQAAAAAeHEAfgGTcQB+AflzcQB+AAJzcQB+AAcAAAAAdwQAAAAAeHEAfgEScQB+Afl4cQB+AEJxAH4B93EAfgGdeHEAfgCnc3EAfgACc3EAfgAHAAAAAncEAAAAAnNxAH4AAnNxAH4ABwAAAAJ3BAAAAAJzcQB+AAJzcQB+AAcAAAAAdwQAAAAAeHEAfgE7cQB+AgFzcQB+AAJzcQB+AAcAAAACdwQAAAACc3EAfgACc3EAfgAHAAAAAncEAAAAAnNxAH4AAnNxAH4ABwAAAAB3BAAAAAB4cQB+AD1xAH4CB3NxAH4AAnNxAH4ABwAAAAB3BAAAAAB4cQB+ADRxAH4CB3hxAH4AKHEAfgIFc3EAfgACc3EAfgAHAAAAAncEAAAAAnNxAH4AAnNxAH4ABwAAAAJ3BAAAAAJzcQB+AAJzcQB+AAcAAAAAdwQAAAAAeHEAfgEOcQB+Ag9zcQB+AAJzcQB+AAcAAAAAdwQAAAAAeHEAfgEScQB+Ag94cQB+AChxAH4CDXNxAH4AAnNxAH4ABwAAAAB3BAAAAAB4cQB+AGlxAH4CDXhxAH4AKnEAfgIFeHEAfgAocQB+AgF4cQB+AKdxAH4B/3EAfgH3eHEAfgBCc3EAfgACc3EAfgAHAAAAAncEAAAAAnNxAH4AAnNxAH4ABwAAAAJ3BAAAAAJzcQB+AAJzcQB+AAcAAAACdwQAAAACc3EAfgACc3EAfgAHAAAAAHcEAAAAAHhxAH4ANHEAfgIbc3EAfgACc3EAfgAHAAAAAncEAAAAAnNxAH4AAnNxAH4ABwAAAAJ3BAAAAAJzcQB+AAJzcQB+AAcAAAAAdwQAAAAAeHEAfgBpcQB+AiFzcQB+AAJzcQB+AAcAAAAAdwQAAAAAeHEAfgEHcQB+AiF4cQB+AChxAH4CH3NxAH4AAnNxAH4ABwAAAAB3BAAAAAB4cQB+ARdxAH4CH3hxAH4AKHEAfgIbeHEAfgCncQB+AhlzcQB+AAJzcQB+AAcAAAACdwQAAAACc3EAfgACc3EAfgAHAAAAAncEAAAAAnNxAH4AAnNxAH4ABwAAAAB3BAAAAAB4cQB+ASRxAH4CK3NxAH4AAnNxAH4ABwAAAAB3BAAAAAB4cQB+ARdxAH4CK3hxAH4AKHEAfgIpc3EAfgACc3EAfgAHAAAAAncEAAAAAnNxAH4AAnNxAH4ABwAAAAB3BAAAAAB4cQB+AEhxAH4CMXNxAH4AAnNxAH4ABwAAAAB3BAAAAAB4cQB+ACRxAH4CMXhxAH4AKnEAfgIpeHEAfgBCcQB+Ahl4cQB+AEJxAH4CF3EAfgH/eHEAfgBCcHhxAH4Ap3NxAH4AAnNxAH4ABwAAAAJ3BAAAAAJzcQB+AAJzcQB+AAcAAAACdwQAAAACc3EAfgACc3EAfgAHAAAAAHcEAAAAAHhxAH4BO3EAfgI5c3EAfgACc3EAfgAHAAAAAncEAAAAAnNxAH4AAnNxAH4ABwAAAAJ3BAAAAAJzcQB+AAJzcQB+AAcAAAAAdwQAAAAAeHEAfgA9cQB+Aj9zcQB+AAJzcQB+AAcAAAAAdwQAAAAAeHEAfgA0cQB+Aj94cQB+AChxAH4CPXNxAH4AAnNxAH4ABwAAAAJ3BAAAAAJzcQB+AAJzcQB+AAcAAAACdwQAAAACc3EAfgACc3EAfgAHAAAAAHcEAAAAAHhxAH4BDnEAfgJHc3EAfgACc3EAfgAHAAAAAHcEAAAAAHhxAH4BEnEAfgJHeHEAfgAocQB+AkVzcQB+AAJzcQB+AAcAAAAAdwQAAAAAeHEAfgBpcQB+AkV4cQB+ACpxAH4CPXhxAH4AKHEAfgI5eHEAfgCncQB+AjdxAH4Bm3hxAH4AQnNxAH4AAnNxAH4ABwAAAAJ3BAAAAAJzcQB+AAJzcQB+AAcAAAACdwQAAAACc3EAfgACc3EAfgAHAAAAAncEAAAAAnNxAH4AAnNxAH4ABwAAAAB3BAAAAAB4cQB+ADRxAH4CU3NxAH4AAnNxAH4ABwAAAAJ3BAAAAAJzcQB+AAJzcQB+AAcAAAACdwQAAAACc3EAfgACc3EAfgAHAAAAAHcEAAAAAHhxAH4BF3EAfgJZc3EAfgACc3EAfgAHAAAAAHcEAAAAAHhxAH4BB3EAfgJZeHEAfgAocQB+AldzcQB+AAJzcQB+AAcAAAAAdwQAAAAAeHEAfgEXcQB+Ald4cQB+AChxAH4CU3hxAH4Ap3EAfgJRc3EAfgACc3EAfgAHAAAAAncEAAAAAnNxAH4AAnNxAH4ABwAAAAJ3BAAAAAJzcQB+AAJzcQB+AAcAAAAAdwQAAAAAeHEAfgEkcQB+AmNzcQB+AAJzcQB+AAcAAAAAdwQAAAAAeHEAfgEXcQB+AmN4cQB+AChxAH4CYXNxAH4AAnNxAH4ABwAAAAJ3BAAAAAJzcQB+AAJzcQB+AAcAAAAAdwQAAAAAeHEAfgBIcQB+AmlzcQB+AAJzcQB+AAcAAAAAdwQAAAAAeHEAfgAkcQB+Aml4cQB+ACpxAH4CYXhxAH4AQnEAfgJReHEAfgBCcQB+Ak9xAH4CN3hxAH4AQnB4cQB+AEJxAH4BjXEAfgGdeHEAfgCncQB+AYt4cQB+AEJzcQB+AAJzcQB+AAcAAAACdwQAAAACc3EAfgACc3EAfgAHAAAAAncEAAAAAnNxAH4AAnNxAH4ABwAAAAJ3BAAAAAJzcQB+AAJzcQB+AAcAAAAAdwQAAAAAeHEAfgA0cQB+AnNzcQB+AAJzcQB+AAcAAAACdwQAAAACc3EAfgACc3EAfgAHAAAAAncEAAAAAnNxAH4AAnNxAH4ABwAAAAB3BAAAAAB4cQB+AGlxAH4CeXNxAH4AAnNxAH4ABwAAAAB3BAAAAAB4cQB+AQdxAH4CeXhxAH4AKHEAfgJ3c3EAfgACc3EAfgAHAAAAAHcEAAAAAHhxAH4BF3EAfgJ3eHEAfgAocQB+AnN4cQB+AKdxAH4CcXNxAH4AAnNxAH4ABwAAAAJ3BAAAAAJzcQB+AAJzcQB+AAcAAAACdwQAAAACc3EAfgACc3EAfgAHAAAAAHcEAAAAAHhxAH4BJHEAfgKDc3EAfgACc3EAfgAHAAAAAHcEAAAAAHhxAH4BF3EAfgKDeHEAfgAocQB+AoFzcQB+AAJzcQB+AAcAAAACdwQAAAACc3EAfgACc3EAfgAHAAAAAHcEAAAAAHhxAH4ASHEAfgKJc3EAfgACc3EAfgAHAAAAAHcEAAAAAHhxAH4AJHEAfgKJeHEAfgAqcQB+AoF4cQB+AEJxAH4CcXhxAH4AQnEAfgJvcQB+AYt4cQB+AEJweHEAfgAqc3EAfgACc3EAfgAHAAAAAncEAAAAAnNxAH4AAnNxAH4ABwAAAAJ3BAAAAAJzcQB+AAJzcQB+AAcAAAAAdwQAAAAAeHEAfgA9cQB+ApFzcQB+AAJzcQB+AAcAAAAAdwQAAAAAeHEAfgA0cQB+ApF4cQB+AChxAH4Cj3EAfgF3eHEAfgAoc3EAfgACc3EAfgAHAAAAAncEAAAAAnNxAH4AAnNxAH4ABwAAAAB3BAAAAAB4cQB+ATtxAH4Cl3EAfgKPeHEAfgCnc3EAfgACc3EAfgAHAAAAAncEAAAAAnEAfgKXcQB+AY14cQB+AEJzcQB+AAJzcQB+AAcAAAACdwQAAAACc3EAfgACc3EAfgAHAAAAAncEAAAAAnNxAH4AAnNxAH4ABwAAAAJ3BAAAAAJzcQB+AAJzcQB+AAcAAAAAdwQAAAAAeHEAfgA0cQB+AqFzcQB+AAJzcQB+AAcAAAACdwQAAAACc3EAfgACc3EAfgAHAAAAAncEAAAAAnNxAH4AAnNxAH4ABwAAAAB3BAAAAAB4cQB+AGlxAH4Cp3NxAH4AAnNxAH4ABwAAAAB3BAAAAAB4cQB+AQdxAH4Cp3hxAH4AKHEAfgKlc3EAfgACc3EAfgAHAAAAAHcEAAAAAHhxAH4BF3EAfgKleHEAfgAocQB+AqF4cQB+AKdxAH4Cn3NxAH4AAnNxAH4ABwAAAAJ3BAAAAAJzcQB+AAJzcQB+AAcAAAACdwQAAAACc3EAfgACc3EAfgAHAAAAAHcEAAAAAHhxAH4BJHEAfgKxc3EAfgACc3EAfgAHAAAAAHcEAAAAAHhxAH4BF3EAfgKxeHEAfgAocQB+Aq9zcQB+AAJzcQB+AAcAAAACdwQAAAACc3EAfgACc3EAfgAHAAAAAHcEAAAAAHhxAH4ASHEAfgK3c3EAfgACc3EAfgAHAAAAAHcEAAAAAHhxAH4AJHEAfgK3eHEAfgAqcQB+Aq94cQB+AEJxAH4Cn3hxAH4AQnEAfgKdcQB+Apt4cQB+AEJweHEAfgAocQB+AWtxAH4BeXhxAH4AKnNxAH4AAnNxAH4ABwAAAAJ3BAAAAAJzcQB+AAJzcQB+AAcAAAACdwQAAAACc3EAfgACc3EAfgAHAAAAAncEAAAAAnNxAH4AAnNxAH4ABwAAAAB3BAAAAAB4cQB+AD1xAH4CwXNxAH4AAnNxAH4ABwAAAAB3BAAAAAB4cQB+ADRxAH4CwXhxAH4AKHEAfgK/c3EAfgACc3EAfgAHAAAAAncEAAAAAnNxAH4AAnNxAH4ABwAAAAJ3BAAAAAJzcQB+AAJzcQB+AAcAAAAAdwQAAAAAeHEAfgEOcQB+AslzcQB+AAJzcQB+AAcAAAAAdwQAAAAAeHEAfgEScQB+Asl4cQB+AChxAH4Cx3NxAH4AAnNxAH4ABwAAAAB3BAAAAAB4cQB+AGlxAH4Cx3hxAH4AKnEAfgK/eHEAfgAocQB+Ar1xAH4Ba3hxAH4AKHNxAH4AAnNxAH4ABwAAAAJ3BAAAAAJzcQB+AAJzcQB+AAcAAAAAdwQAAAAAeHEAfgE7cQB+AtFxAH4CvXhxAH4Ap3NxAH4AAnNxAH4ABwAAAAJ3BAAAAAJxAH4C0XEAfgGNeHEAfgBCc3EAfgACc3EAfgAHAAAAAncEAAAAAnNxAH4AAnNxAH4ABwAAAAJ3BAAAAAJzcQB+AAJzcQB+AAcAAAACdwQAAAACc3EAfgACc3EAfgAHAAAAAHcEAAAAAHhxAH4ANHEAfgLbc3EAfgACc3EAfgAHAAAAAncEAAAAAnNxAH4AAnNxAH4ABwAAAAJ3BAAAAAJzcQB+AAJzcQB+AAcAAAAAdwQAAAAAeHEAfgBpcQB+AuFzcQB+AAJzcQB+AAcAAAAAdwQAAAAAeHEAfgEHcQB+AuF4cQB+AChxAH4C33NxAH4AAnNxAH4ABwAAAAB3BAAAAAB4cQB+ARdxAH4C33hxAH4AKHEAfgLbeHEAfgCncQB+AtlzcQB+AAJzcQB+AAcAAAACdwQAAAACc3EAfgACc3EAfgAHAAAAAncEAAAAAnNxAH4AAnNxAH4ABwAAAAB3BAAAAAB4cQB+ASRxAH4C63NxAH4AAnNxAH4ABwAAAAB3BAAAAAB4cQB+ARdxAH4C63hxAH4AKHEAfgLpc3EAfgACc3EAfgAHAAAAAncEAAAAAnNxAH4AAnNxAH4ABwAAAAB3BAAAAAB4cQB+AEhxAH4C8XNxAH4AAnNxAH4ABwAAAAB3BAAAAAB4cQB+ACRxAH4C8XhxAH4AKnEAfgLpeHEAfgBCcQB+Atl4cQB+AEJxAH4C13EAfgLVeHEAfgBCcHhxAH4AKHNxAH4AAnNxAH4ABwAAAAJ3BAAAAAJzcQB+AAJzcQB+AAcAAAAAdwQAAAAAeHEAfgE7cQB+AvdxAH4BaXhxAH4Ap3NxAH4AAnNxAH4ABwAAAAJ3BAAAAAJxAH4C93EAfgGNeHEAfgBCc3EAfgACc3EAfgAHAAAAAncEAAAAAnNxAH4AAnNxAH4ABwAAAAJ3BAAAAAJzcQB+AAJzcQB+AAcAAAACdwQAAAACc3EAfgACc3EAfgAHAAAAAHcEAAAAAHhxAH4ANHEAfgMBc3EAfgACc3EAfgAHAAAAAncEAAAAAnNxAH4AAnNxAH4ABwAAAAJ3BAAAAAJzcQB+AAJzcQB+AAcAAAAAdwQAAAAAeHEAfgBpcQB+AwdzcQB+AAJzcQB+AAcAAAAAdwQAAAAAeHEAfgEHcQB+Awd4cQB+AChxAH4DBXNxAH4AAnNxAH4ABwAAAAB3BAAAAAB4cQB+ARdxAH4DBXhxAH4AKHEAfgMBeHEAfgCncQB+Av9zcQB+AAJzcQB+AAcAAAACdwQAAAACc3EAfgACc3EAfgAHAAAAAncEAAAAAnNxAH4AAnNxAH4ABwAAAAB3BAAAAAB4cQB+ASRxAH4DEXNxAH4AAnNxAH4ABwAAAAB3BAAAAAB4cQB+ARdxAH4DEXhxAH4AKHEAfgMPc3EAfgACc3EAfgAHAAAAAncEAAAAAnNxAH4AAnNxAH4ABwAAAAB3BAAAAAB4cQB+AEhxAH4DF3NxAH4AAnNxAH4ABwAAAAB3BAAAAAB4cQB+ACRxAH4DF3hxAH4AKnEAfgMPeHEAfgBCcQB+Av94cQB+AEJxAH4C/XEAfgL7eHEAfgBCcHhxAH4AKHEAfgFdcQB+AWt4cQB+AChzcQB+AAJzcQB+AAcAAAACdwQAAAACc3EAfgACc3EAfgAHAAAAAncEAAAAAnNxAH4AAnNxAH4ABwAAAAJ3BAAAAAJzcQB+AAJzcQB+AAcAAAAAdwQAAAAAeHEAfgGTcQB+AyFzcQB+AAJzcQB+AAcAAAAAdwQAAAAAeHEAfgAUcQB+AyF4cQB+AEJxAH4DH3NxAH4AAnNxAH4ABwAAAAJ3BAAAAAJzcQB+AAJzcQB+AAcAAAAAdwQAAAAAeHEAfgAXcQB+AydzcQB+AAJzcQB+AAcAAAAAdwQAAAAAeHEAfgEOcQB+Ayd4cQB+AKdxAH4DH3hxAH4Ap3EAfgMdcQB+AV14cQB+AKdzcQB+AAJzcQB+AAcAAAACdwQAAAACcQB+Ax1xAH4BjXhxAH4AQnNxAH4AAnNxAH4ABwAAAAJ3BAAAAAJzcQB+AAJzcQB+AAcAAAACdwQAAAACc3EAfgACc3EAfgAHAAAAAncEAAAAAnNxAH4AAnNxAH4ABwAAAAB3BAAAAAB4cQB+ADRxAH4DM3NxAH4AAnNxAH4ABwAAAAJ3BAAAAAJzcQB+AAJzcQB+AAcAAAACdwQAAAACc3EAfgACc3EAfgAHAAAAAHcEAAAAAHhxAH4BF3EAfgM5c3EAfgACc3EAfgAHAAAAAHcEAAAAAHhxAH4BB3EAfgM5eHEAfgAocQB+AzdzcQB+AAJzcQB+AAcAAAAAdwQAAAAAeHEAfgEXcQB+Azd4cQB+AChxAH4DM3hxAH4Ap3EAfgMxc3EAfgACc3EAfgAHAAAAAncEAAAAAnNxAH4AAnNxAH4ABwAAAAJ3BAAAAAJzcQB+AAJzcQB+AAcAAAAAdwQAAAAAeHEAfgEkcQB+A0NzcQB+AAJzcQB+AAcAAAAAdwQAAAAAeHEAfgEXcQB+A0N4cQB+AChxAH4DQXNxAH4AAnNxAH4ABwAAAAJ3BAAAAAJzcQB+AAJzcQB+AAcAAAAAdwQAAAAAeHEAfgBIcQB+A0lzcQB+AAJzcQB+AAcAAAAAdwQAAAAAeHEAfgAkcQB+A0l4cQB+ACpxAH4DQXhxAH4AQnEAfgMxeHEAfgBCcQB+Ay9xAH4DLXhxAH4AQnB4cQB+AKdxAH4BV3EAfgGNeHEAfgBCc3EAfgACc3EAfgAHAAAAAncEAAAAAnNxAH4AAnNxAH4ABwAAAAJ3BAAAAAJzcQB+AAJzcQB+AAcAAAACdwQAAAACc3EAfgACc3EAfgAHAAAAAHcEAAAAAHhxAH4ANHEAfgNTc3EAfgACc3EAfgAHAAAAAncEAAAAAnNxAH4AAnNxAH4ABwAAAAJ3BAAAAAJzcQB+AAJzcQB+AAcAAAAAdwQAAAAAeHEAfgBpcQB+A1lzcQB+AAJzcQB+AAcAAAAAdwQAAAAAeHEAfgEHcQB+A1l4cQB+AChxAH4DV3NxAH4AAnNxAH4ABwAAAAJ3BAAAAAJzcQB+AAJzcQB+AAcAAAAAdwQAAAAAeHEAfgEOcQB+A19zcQB+AAJzcQB+AAcAAAAAdwQAAAAAeHEAfgEScQB+A194cQB+AChxAH4DV3hxAH4AKHEAfgNTeHEAfgCncQB+A1FxAH4BHnhxAH4AQnEAfgNPcQB+AVd4cQB+AEJweHEAfgBCcHhxAH4AKnNxAH4AAnNxAH4ABwAAAAJ3BAAAAAJzcQB+AAJzcQB+AAcAAAACdwQAAAACc3EAfgACc3EAfgAHAAAAAncEAAAAAnNxAH4AAnNxAH4ABwAAAAB3BAAAAAB4cQB+AZNxAH4DaXNxAH4AAnNxAH4ABwAAAAB3BAAAAAB4cQB+ABRxAH4DaXhxAH4AQnEAfgNnc3EAfgACc3EAfgAHAAAAAncEAAAAAnNxAH4AAnNxAH4ABwAAAAB3BAAAAAB4cQB+ABdxAH4Db3NxAH4AAnNxAH4ABwAAAAB3BAAAAAB4cQB+AQ5xAH4Db3hxAH4Ap3EAfgNneHEAfgCncQB+A2VxAH4BMXhxAH4AQnNxAH4AAnNxAH4ABwAAAAJ3BAAAAAJzcQB+AAJzcQB+AAcAAAACdwQAAAACc3EAfgACc3EAfgAHAAAAAHcEAAAAAHhxAH4ANHEAfgN3c3EAfgACc3EAfgAHAAAAAncEAAAAAnNxAH4AAnNxAH4ABwAAAAJ3BAAAAAJzcQB+AAJzcQB+AAcAAAAAdwQAAAAAeHEAfgBpcQB+A31zcQB+AAJzcQB+AAcAAAAAdwQAAAAAeHEAfgEHcQB+A314cQB+AChxAH4De3NxAH4AAnNxAH4ABwAAAAB3BAAAAAB4cQB+ARdxAH4De3hxAH4AKHEAfgN3eHEAfgCncQB+A3VxAH4DZXhxAH4AQnNxAH4AAnNxAH4ABwAAAAJ3BAAAAAJxAH4DdXEAfgFXeHEAfgBCcHhxAH4AQnNxAH4AAnNxAH4ABwAAAAJ3BAAAAAJzcQB+AAJzcQB+AAcAAAACdwQAAAACc3EAfgACc3EAfgAHAAAAAHcEAAAAAHhxAH4ANHEAfgOJc3EAfgACc3EAfgAHAAAAAncEAAAAAnNxAH4AAnNxAH4ABwAAAAJ3BAAAAAJzcQB+AAJzcQB+AAcAAAAAdwQAAAAAeHEAfgEXcQB+A49zcQB+AAJzcQB+AAcAAAAAdwQAAAAAeHEAfgEHcQB+A494cQB+AChxAH4DjXNxAH4AAnNxAH4ABwAAAAB3BAAAAAB4cQB+ARdxAH4DjXhxAH4AKHEAfgOJeHEAfgCncQB+A4dxAH4BL3hxAH4AQnNxAH4AAnNxAH4ABwAAAAJ3BAAAAAJxAH4Dh3EAfgFXeHEAfgBCcHhxAH4AKHEAfgEecQB+ATF4cQB+AEJxAH4DUXhxAH4AQnNxAH4AAnNxAH4ABwAAAAJ3BAAAAAJxAH4BHHEAfgFXeHEAfgBCcHhxAH4AKHEAfgD/cQB+ARV4cQB+AChzcQB+AAJzcQB+AAcAAAACdwQAAAACc3EAfgACc3EAfgAHAAAAAHcEAAAAAHhxAH4BJHEAfgObcQB+AP94cQB+AKdzcQB+AAJzcQB+AAcAAAACdwQAAAACcQB+A5txAH4BHnhxAH4AQnNxAH4AAnNxAH4ABwAAAAJ3BAAAAAJxAH4Dn3EAfgFXeHEAfgBCcHhxAH4Ap3EAfgD5cQB+AR54cQB+AEJxAH4A93EAfgFXeHEAfgBCcHNxAH4AAnNxAH4ABwAAAAJ3BAAAAAJzcQB+AAJzcQB+AAcAAAACdwQAAAACc3EAfgACc3EAfgAHAAAAAncEAAAAAnNxAH4AAnNxAH4ABwAAAAJ3BAAAAAJzcQB+AAJzcQB+AAcAAAACdwQAAAACc3EAfgACc3EAfgAHAAAAAncEAAAAAnNxAH4AAnNxAH4ABwAAAAJ3BAAAAAJzcQB+AAJzcQB+AAcAAAAAdwQAAAAAeHEAfgAUcQB+A69zcQB+AAJzcQB+AAcAAAAAdwQAAAAAeHEAfgESc3EAfgACc3EAfgAHAAAAAncEAAAAAnNxAH4AAnNxAH4ABwAAAAB3BAAAAAB4c3EAfgAedAACeDFxAH4DtXEAfgOzeHEAfgBCc3EAfgACc3EAfgAHAAAAAncEAAAAAnEAfgO1c3EAfgACc3EAfgAHAAAAAHcEAAAAAHhxAH4DuXNxAH4AAnNxAH4ABwAAAAJ3BAAAAAJzcQB+AAJzcQB+AAcAAAAAdwQAAAAAeHEAfgA0cQB+A79xAH4DvXhxAH4Ap3NxAH4AAnNxAH4ABwAAAAJ3BAAAAAJxAH4Dv3NxAH4AAnNxAH4ABwAAAAB3BAAAAAB4c3EAfgAedAACeDZxAH4Dw3hxAH4AKHNxAH4AAnNxAH4ABwAAAAJ3BAAAAAJxAH4Dw3NxAH4AAnNxAH4ABwAAAAJ3BAAAAAJzcQB+AAJzcQB+AAcAAAAAdwQAAAAAeHEAfgAXcQB+A8tzcQB+AAJzcQB+AAcAAAAAdwQAAAAAeHEAfgEOc3EAfgACc3EAfgAHAAAAAncEAAAAAnNxAH4AAnNxAH4ABwAAAAJ3BAAAAAJzcQB+AAJzcQB+AAcAAAAAdwQAAAAAeHEAfgAUcQB+A9NzcQB+AAJzcQB+AAcAAAACdwQAAAACc3EAfgACc3EAfgAHAAAAAHcEAAAAAHhzcQB+ABM/4AAAAAAAAHEAfgPXc3EAfgACc3EAfgAHAAAAAHcEAAAAAHhxAH4ANHEAfgPXeHEAfgAqcQB+A9N4cQB+AChxAH4D0XEAfgPPeHEAfgAoc3EAfgACc3EAfgAHAAAAAncEAAAAAnNxAH4AAnNxAH4ABwAAAAJ3BAAAAAJzcQB+AAJzcQB+AAcAAAACdwQAAAACc3EAfgACc3EAfgAHAAAAAncEAAAAAnNxAH4AAnNxAH4ABwAAAAB3BAAAAAB4cQB+ABRxAH4D5HNxAH4AAnNxAH4ABwAAAAB3BAAAAAB4cQB+ARJxAH4D5HhxAH4AQnEAfgPic3EAfgACc3EAfgAHAAAAAHcEAAAAAHhxAH4DuXEAfgPieHEAfgCncQB+A+BzcQB+AAJzcQB+AAcAAAAAdwQAAAAAeHEAfgPHcQB+A+B4cQB+AChxAH4D3nEAfgPReHEAfgCnc3EAfgACc3EAfgAHAAAAAncEAAAAAnEAfgPec3EAfgACc3EAfgAHAAAAAncEAAAAAnNxAH4AAnNxAH4ABwAAAAJ3BAAAAAJzcQB+AAJzcQB+AAcAAAAAdwQAAAAAeHEAfgAUcQB+A/JzcQB+AAJzcQB+AAcAAAAAdwQAAAAAeHEAfgBIcQB+A/J4cQB+AKdxAH4D8HNxAH4AAnNxAH4ABwAAAAJ3BAAAAAJzcQB+AAJzcQB+AAcAAAAAdwQAAAAAeHEAfgBpcQB+A/hzcQB+AAJzcQB+AAcAAAAAdwQAAAAAeHNxAH4AHnQAAng5c3EAfgACc3EAfgAHAAAAAncEAAAAAnNxAH4AAnNxAH4ABwAAAAB3BAAAAAB4cQB+AQ5xAH4EAHEAfgP8eHEAfgAqc3EAfgACc3EAfgAHAAAAAncEAAAAAnNxAH4AAnNxAH4ABwAAAAJ3BAAAAAJzcQB+AAJzcQB+AAcAAAAAdwQAAAAAeHEAfgAUcQB+BAZzcQB+AAJzcQB+AAcAAAAAdwQAAAAAeHEAfgBIcQB+BAZ4cQB+AKdxAH4EBHEAfgQAeHEAfgCnc3EAfgACc3EAfgAHAAAAAncEAAAAAnNxAH4AAnNxAH4ABwAAAAJ3BAAAAAJzcQB+AAJzcQB+AAcAAAACdwQAAAACc3EAfgACc3EAfgAHAAAAAncEAAAAAnNxAH4AAnNxAH4ABwAAAAJ3BAAAAAJzcQB+AAJzcQB+AAcAAAAAdwQAAAAAeHEAfgAUcQB+BBRzcQB+AAJzcQB+AAcAAAAAdwQAAAAAeHEAfgEScQB+BBR4cQB+AEJxAH4EEnNxAH4AAnNxAH4ABwAAAAB3BAAAAAB4cQB+A7lxAH4EEnhxAH4Ap3EAfgQQc3EAfgACc3EAfgAHAAAAAHcEAAAAAHhxAH4Dx3EAfgQQeHEAfgAocQB+BA5zcQB+AAJzcQB+AAcAAAACdwQAAAACc3EAfgACc3EAfgAHAAAAAHcEAAAAAHhxAH4AF3EAfgQec3EAfgACc3EAfgAHAAAAAHcEAAAAAHhxAH4BDnEAfgQeeHEAfgAocQB+BA54cQB+AKdxAH4EDHEAfgQEeHEAfgBCc3EAfgACc3EAfgAHAAAAAncEAAAAAnEAfgQMc3EAfgACc3EAfgAHAAAAAncEAAAAAnNxAH4AAnNxAH4ABwAAAAJ3BAAAAAJzcQB+AAJzcQB+AAcAAAACdwQAAAACc3EAfgACc3EAfgAHAAAAAHcEAAAAAHhxAH4AFHEAfgQqc3EAfgACc3EAfgAHAAAAAHcEAAAAAHhxAH4BEnEAfgQqeHEAfgBCcQB+BChzcQB+AAJzcQB+AAcAAAACdwQAAAACc3EAfgACc3EAfgAHAAAAAHcEAAAAAHhxAH4AIHEAfgQwc3EAfgACc3EAfgAHAAAAAHcEAAAAAHhzcQB+AB50AAN4MTVzcQB+AAJzcQB+AAcAAAACdwQAAAACc3EAfgACc3EAfgAHAAAAAHcEAAAAAHhxAH4BF3EAfgQ4cQB+BDR4cQB+ACpzcQB+AAJzcQB+AAcAAAACdwQAAAACc3EAfgACc3EAfgAHAAAAAncEAAAAAnNxAH4AAnNxAH4ABwAAAAB3BAAAAAB4cQB+ABRxAH4EPnNxAH4AAnNxAH4ABwAAAAB3BAAAAAB4cQB+ARJxAH4EPnhxAH4AQnEAfgQ8cQB+BDh4cQB+AKdzcQB+AAJzcQB+AAcAAAACdwQAAAACcQB+BDxzcQB+AAJzcQB+AAcAAAAAdwQAAAAAeHEAfgEXc3EAfgACc3EAfgAHAAAAAncEAAAAAnNxAH4AAnNxAH4ABwAAAAJ3BAAAAAJzcQB+AAJzcQB+AAcAAAAAdwQAAAAAeHEAfgAUcQB+BEpzcQB+AAJzcQB+AAcAAAACdwQAAAACc3EAfgACc3EAfgAHAAAAAncEAAAAAnNxAH4AAnNxAH4ABwAAAAB3BAAAAAB4cQB+ASRxAH4EUHNxAH4AAnNxAH4ABwAAAAB3BAAAAAB4cQB+A/5xAH4EUHhxAH4AKHEAfgROc3EAfgACc3EAfgAHAAAAAHcEAAAAAHhxAH4ANHEAfgROeHEAfgAqcQB+BEp4cQB+AChxAH4ESHEAfgRGeHEAfgAqc3EAfgACc3EAfgAHAAAAAncEAAAAAnNxAH4AAnNxAH4ABwAAAAJ3BAAAAAJzcQB+AAJzcQB+AAcAAAACdwQAAAACc3EAfgACc3EAfgAHAAAAAncEAAAAAnNxAH4AAnNxAH4ABwAAAAJ3BAAAAAJzcQB+AAJzcQB+AAcAAAACdwQAAAACc3EAfgACc3EAfgAHAAAAAHcEAAAAAHhxAH4AFHEAfgRic3EAfgACc3EAfgAHAAAAAHcEAAAAAHhxAH4BEnEAfgRieHEAfgBCcQB+BGBzcQB+AAJzcQB+AAcAAAAAdwQAAAAAeHEAfgO5cQB+BGB4cQB+AKdxAH4EXnNxAH4AAnNxAH4ABwAAAAB3BAAAAAB4cQB+A8dxAH4EXnhxAH4AKHEAfgRcc3EAfgACc3EAfgAHAAAAAncEAAAAAnNxAH4AAnNxAH4ABwAAAAB3BAAAAAB4cQB+ABdxAH4EbHNxAH4AAnNxAH4ABwAAAAB3BAAAAAB4cQB+AQ5xAH4EbHhxAH4AKHEAfgRceHEAfgCncQB+BFpzcQB+AAJzcQB+AAcAAAACdwQAAAACc3EAfgACc3EAfgAHAAAAAncEAAAAAnNxAH4AAnNxAH4ABwAAAAB3BAAAAAB4cQB+ABRxAH4EdHNxAH4AAnNxAH4ABwAAAAB3BAAAAAB4cQB+AEhxAH4EdHhxAH4Ap3EAfgRyc3EAfgACc3EAfgAHAAAAAncEAAAAAnNxAH4AAnNxAH4ABwAAAAB3BAAAAAB4cQB+AGlxAH4EenNxAH4AAnNxAH4ABwAAAAB3BAAAAAB4cQB+A/5xAH4EenhxAH4AKnEAfgRyeHEAfgCncQB+BFp4cQB+AEJxAH4EWHEAfgRIeHEAfgAoc3EAfgACc3EAfgAHAAAAAncEAAAAAnEAfgRYc3EAfgACc3EAfgAHAAAAAncEAAAAAnNxAH4AAnNxAH4ABwAAAAJ3BAAAAAJzcQB+AAJzcQB+AAcAAAACdwQAAAACc3EAfgACc3EAfgAHAAAAAncEAAAAAnNxAH4AAnNxAH4ABwAAAAJ3BAAAAAJzcQB+AAJzcQB+AAcAAAACdwQAAAACc3EAfgACc3EAfgAHAAAAAHcEAAAAAHhxAH4AFHEAfgSMc3EAfgACc3EAfgAHAAAAAHcEAAAAAHhxAH4BEnEAfgSMeHEAfgBCcQB+BIpzcQB+AAJzcQB+AAcAAAAAdwQAAAAAeHEAfgO5cQB+BIp4cQB+AKdxAH4EiHNxAH4AAnNxAH4ABwAAAAB3BAAAAAB4cQB+A8dxAH4EiHhxAH4AKHEAfgSGc3EAfgACc3EAfgAHAAAAAncEAAAAAnNxAH4AAnNxAH4ABwAAAAB3BAAAAAB4cQB+ABdxAH4ElnNxAH4AAnNxAH4ABwAAAAB3BAAAAAB4cQB+AQ5xAH4ElnhxAH4AKHEAfgSGeHEAfgCncQB+BIRzcQB+AAJzcQB+AAcAAAACdwQAAAACc3EAfgACc3EAfgAHAAAAAncEAAAAAnNxAH4AAnNxAH4ABwAAAAB3BAAAAAB4cQB+ABRxAH4EnnNxAH4AAnNxAH4ABwAAAAB3BAAAAAB4cQB+AEhxAH4EnnhxAH4Ap3EAfgScc3EAfgACc3EAfgAHAAAAAncEAAAAAnNxAH4AAnNxAH4ABwAAAAB3BAAAAAB4cQB+AGlxAH4EpHNxAH4AAnNxAH4ABwAAAAB3BAAAAAB4cQB+A/5xAH4EpHhxAH4AKnEAfgSceHEAfgCncQB+BIR4cQB+AEJxAH4EgnNxAH4AAnNxAH4ABwAAAAJ3BAAAAAJzcQB+AAJzcQB+AAcAAAACdwQAAAACc3EAfgACc3EAfgAHAAAAAncEAAAAAnNxAH4AAnNxAH4ABwAAAAB3BAAAAAB4cQB+ABRxAH4ErnNxAH4AAnNxAH4ABwAAAAB3BAAAAAB4cQB+ARJxAH4ErnhxAH4AQnEAfgSsc3EAfgACc3EAfgAHAAAAAncEAAAAAnNxAH4AAnNxAH4ABwAAAAB3BAAAAAB4cQB+ACBxAH4EtHNxAH4AAnNxAH4ABwAAAAB3BAAAAAB4cQB+BDZxAH4EtHhxAH4AKnEAfgSseHEAfgCncQB+BKpzcQB+AAJzcQB+AAcAAAAAdwQAAAAAeHEAfgEXcQB+BKp4cQB+ACpxAH4EgnhxAH4AKHNxAH4AAnNxAH4ABwAAAAJ3BAAAAAJzcQB+AAJzcQB+AAcAAAACdwQAAAACc3EAfgACc3EAfgAHAAAAAncEAAAAAnNxAH4AAnNxAH4ABwAAAAJ3BAAAAAJzcQB+AAJzcQB+AAcAAAACdwQAAAACc3EAfgACc3EAfgAHAAAAAncEAAAAAnNxAH4AAnNxAH4ABwAAAAJ3BAAAAAJzcQB+AAJzcQB+AAcAAAAAdwQAAAAAeHEAfgAUcQB+BMhzcQB+AAJzcQB+AAcAAAAAdwQAAAAAeHEAfgEScQB+BMh4cQB+AEJxAH4ExnNxAH4AAnNxAH4ABwAAAAB3BAAAAAB4cQB+A7lxAH4ExnhxAH4Ap3EAfgTEc3EAfgACc3EAfgAHAAAAAHcEAAAAAHhxAH4Dx3EAfgTEeHEAfgAocQB+BMJzcQB+AAJzcQB+AAcAAAACdwQAAAACc3EAfgACc3EAfgAHAAAAAHcEAAAAAHhxAH4AF3EAfgTSc3EAfgACc3EAfgAHAAAAAHcEAAAAAHhxAH4BDnEAfgTSeHEAfgAocQB+BMJ4cQB+AKdxAH4EwHNxAH4AAnNxAH4ABwAAAAJ3BAAAAAJzcQB+AAJzcQB+AAcAAAACdwQAAAACc3EAfgACc3EAfgAHAAAAAHcEAAAAAHhxAH4AFHEAfgTac3EAfgACc3EAfgAHAAAAAHcEAAAAAHhxAH4ASHEAfgTaeHEAfgCncQB+BNhzcQB+AAJzcQB+AAcAAAACdwQAAAACc3EAfgACc3EAfgAHAAAAAHcEAAAAAHhxAH4AaXEAfgTgc3EAfgACc3EAfgAHAAAAAHcEAAAAAHhxAH4D/nEAfgTgeHEAfgAqcQB+BNh4cQB+AKdxAH4EwHhxAH4AQnEAfgS+c3EAfgACc3EAfgAHAAAAAncEAAAAAnNxAH4AAnNxAH4ABwAAAAJ3BAAAAAJzcQB+AAJzcQB+AAcAAAACdwQAAAACc3EAfgACc3EAfgAHAAAAAHcEAAAAAHhxAH4AFHEAfgTqc3EAfgACc3EAfgAHAAAAAHcEAAAAAHhxAH4BEnEAfgTqeHEAfgBCcQB+BOhzcQB+AAJzcQB+AAcAAAACdwQAAAACc3EAfgACc3EAfgAHAAAAAHcEAAAAAHhxAH4AIHEAfgTwc3EAfgACc3EAfgAHAAAAAHcEAAAAAHhxAH4ENnEAfgTweHEAfgAqcQB+BOh4cQB+AKdxAH4E5nNxAH4AAnNxAH4ABwAAAAB3BAAAAAB4cQB+A/5xAH4E5nhxAH4AKnEAfgS+eHEAfgAocQB+BLxxAH4EgnhxAH4Ap3B4cQB+AKdweHEAfgAqc3EAfgACc3EAfgAHAAAAAncEAAAAAnNxAH4AAnNxAH4ABwAAAAJ3BAAAAAJzcQB+AAJzcQB+AAcAAAACdwQAAAACc3EAfgACc3EAfgAHAAAAAncEAAAAAnNxAH4AAnNxAH4ABwAAAAJ3BAAAAAJzcQB+AAJzcQB+AAcAAAACdwQAAAACc3EAfgACc3EAfgAHAAAAAHcEAAAAAHhxAH4AFHEAfgUCc3EAfgACc3EAfgAHAAAAAHcEAAAAAHhxAH4BEnEAfgUCeHEAfgBCcQB+BQBzcQB+AAJzcQB+AAcAAAAAdwQAAAAAeHEAfgO5cQB+BQB4cQB+AKdxAH4E/nNxAH4AAnNxAH4ABwAAAAB3BAAAAAB4cQB+A8dxAH4E/nhxAH4AKHEAfgT8c3EAfgACc3EAfgAHAAAAAncEAAAAAnNxAH4AAnNxAH4ABwAAAAB3BAAAAAB4cQB+ABdxAH4FDHNxAH4AAnNxAH4ABwAAAAB3BAAAAAB4cQB+AQ5xAH4FDHhxAH4AKHEAfgT8eHEAfgCncQB+BPpzcQB+AAJzcQB+AAcAAAACdwQAAAACc3EAfgACc3EAfgAHAAAAAncEAAAAAnNxAH4AAnNxAH4ABwAAAAB3BAAAAAB4cQB+ABRxAH4FFHNxAH4AAnNxAH4ABwAAAAB3BAAAAAB4cQB+AEhxAH4FFHhxAH4Ap3EAfgUSc3EAfgACc3EAfgAHAAAAAncEAAAAAnNxAH4AAnNxAH4ABwAAAAB3BAAAAAB4cQB+AGlxAH4FGnNxAH4AAnNxAH4ABwAAAAB3BAAAAAB4cQB+A/5xAH4FGnhxAH4AKnEAfgUSeHEAfgCncQB+BPp4cQB+AEJxAH4E+HEAfgREeHEAfgAoc3EAfgACc3EAfgAHAAAAAncEAAAAAnEAfgT4cQB+BIJ4cQB+AKdweHEAfgAqcQB+BCh4cQB+AKdxAH4EJnEAfgRGeHEAfgAqc3EAfgACc3EAfgAHAAAAAncEAAAAAnNxAH4AAnNxAH4ABwAAAAJ3BAAAAAJzcQB+AAJzcQB+AAcAAAACdwQAAAACc3EAfgACc3EAfgAHAAAAAncEAAAAAnNxAH4AAnNxAH4ABwAAAAJ3BAAAAAJzcQB+AAJzcQB+AAcAAAACdwQAAAACc3EAfgACc3EAfgAHAAAAAHcEAAAAAHhxAH4AFHEAfgUsc3EAfgACc3EAfgAHAAAAAHcEAAAAAHhxAH4BEnEAfgUseHEAfgBCcQB+BSpzcQB+AAJzcQB+AAcAAAAAdwQAAAAAeHEAfgO5cQB+BSp4cQB+AKdxAH4FKHNxAH4AAnNxAH4ABwAAAAB3BAAAAAB4cQB+A8dxAH4FKHhxAH4AKHEAfgUmc3EAfgACc3EAfgAHAAAAAHcEAAAAAHhxAH4BJHEAfgUmeHEAfgCncQB+BSRxAH4D8HhxAH4AQnEAfgUicQB+BCZ4cQB+AChzcQB+AAJzcQB+AAcAAAACdwQAAAACcQB+BSJxAH4EgnhxAH4Ap3B4cQB+AChzcQB+AAJzcQB+AAcAAAACdwQAAAACcQB+BCRxAH4EgnhxAH4Ap3B4cQB+ACpzcQB+AAJzcQB+AAcAAAACdwQAAAACc3EAfgACc3EAfgAHAAAAAHcEAAAAAHhxAH4D23EAfgU8cQB+A/h4cQB+AKdzcQB+AAJzcQB+AAcAAAACdwQAAAACc3EAfgACc3EAfgAHAAAAAncEAAAAAnNxAH4AAnNxAH4ABwAAAAJ3BAAAAAJzcQB+AAJzcQB+AAcAAAACdwQAAAACc3EAfgACc3EAfgAHAAAAAncEAAAAAnNxAH4AAnNxAH4ABwAAAAB3BAAAAAB4cQB+ABRxAH4FSHNxAH4AAnNxAH4ABwAAAAB3BAAAAAB4cQB+ARJxAH4FSHhxAH4AQnEAfgVGc3EAfgACc3EAfgAHAAAAAHcEAAAAAHhxAH4DuXEAfgVGeHEAfgCncQB+BURzcQB+AAJzcQB+AAcAAAAAdwQAAAAAeHEAfgPHcQB+BUR4cQB+AChxAH4FQnNxAH4AAnNxAH4ABwAAAAJ3BAAAAAJzcQB+AAJzcQB+AAcAAAAAdwQAAAAAeHEAfgAXcQB+BVJzcQB+AAJzcQB+AAcAAAAAdwQAAAAAeHEAfgEOcQB+BVJ4cQB+AChxAH4FQnhxAH4Ap3EAfgVAcQB+BTx4cQB+AEJzcQB+AAJzcQB+AAcAAAACdwQAAAACcQB+BUBxAH4EJnhxAH4AKHNxAH4AAnNxAH4ABwAAAAJ3BAAAAAJxAH4FWHEAfgSCeHEAfgCncHhxAH4Ap3EAfgUkeHEAfgBCc3EAfgACc3EAfgAHAAAAAncEAAAAAnEAfgPucQB+BCZ4cQB+AChzcQB+AAJzcQB+AAcAAAACdwQAAAACcQB+BVxxAH4EgnhxAH4Ap3B4cQB+AChxAH4DyXhxAH4Ap3NxAH4AAnNxAH4ABwAAAAJ3BAAAAAJxAH4DyXEAfgPweHEAfgBCc3EAfgACc3EAfgAHAAAAAncEAAAAAnEAfgVgcQB+BCZ4cQB+AChzcQB+AAJzcQB+AAcAAAACdwQAAAACcQB+BWJxAH4EgnhxAH4Ap3B4cQB+AKdzcQB+AAJzcQB+AAcAAAACdwQAAAACcQB+A7txAH4DxXhxAH4AKHNxAH4AAnNxAH4ABwAAAAJ3BAAAAAJxAH4FZnEAfgPLeHEAfgCnc3EAfgACc3EAfgAHAAAAAncEAAAAAnEAfgVocQB+A/B4cQB+AEJzcQB+AAJzcQB+AAcAAAACdwQAAAACcQB+BWpxAH4EJnhxAH4AKHNxAH4AAnNxAH4ABwAAAAJ3BAAAAAJxAH4FbHEAfgSCeHEAfgCncHhxAH4AQnEAfgOtcQB+A714cQB+AKdxAH4Dq3EAfgPFeHEAfgAocQB+A6lxAH4Dy3hxAH4Ap3EAfgOncQB+A/B4cQB+AEJxAH4DpXEAfgQmeHEAfgAocQB+A6NxAH4EgnhxAH4Ap3BzcQB+AAJzcQB+AAcAAAACdwQAAAACc3EAfgACc3EAfgAHAAAAAncEAAAAAnNxAH4AAnNxAH4ABwAAAAJ3BAAAAAJzcQB+AAJzcQB+AAcAAAACdwQAAAACc3EAfgACc3EAfgAHAAAAAncEAAAAAnNxAH4AAnNxAH4ABwAAAAJ3BAAAAAJzcQB+AAJzcQB+AAcAAAACdwQAAAACc3EAfgACc3EAfgAHAAAAAncEAAAAAnNxAH4AAnNxAH4ABwAAAAJ3BAAAAAJzcQB+AAJzcQB+AAcAAAACdwQAAAACc3EAfgACc3EAfgAHAAAAAncEAAAAAnNxAH4AAnNxAH4ABwAAAAJ3BAAAAAJzcQB+AAJzcQB+AAcAAAACdwQAAAACc3EAfgACc3EAfgAHAAAAAncEAAAAAnNxAH4AAnNxAH4ABwAAAAJ3BAAAAAJzcQB+AAJzcQB+AAcAAAACdwQAAAACc3EAfgACc3EAfgAHAAAAAncEAAAAAnNxAH4AAnNxAH4ABwAAAAJ3BAAAAAJzcQB+AAJzcQB+AAcAAAACdwQAAAACc3EAfgACc3EAfgAHAAAAAncEAAAAAnNxAH4AAnNxAH4ABwAAAAJ3BAAAAAJzcQB+AAJzcQB+AAcAAAACdwQAAAACc3EAfgACc3EAfgAHAAAAAncEAAAAAnNxAH4AAnNxAH4ABwAAAAJ3BAAAAAJzcQB+AAJzcQB+AAcAAAAAdwQAAAAAeHEAfgBpcQB+BZ5zcQB+AAJzcQB+AAcAAAAAdwQAAAAAeHEAfgGTc3EAfgACc3EAfgAHAAAAAncEAAAAAnNxAH4AAnNxAH4ABwAAAAB3BAAAAAB4cQB+AZNxAH4FpHEAfgWieHEAfgBCc3EAfgACc3EAfgAHAAAAAncEAAAAAnEAfgWkc3EAfgACc3EAfgAHAAAAAHcEAAAAAHhxAH4AaXEAfgWoeHEAfgAoc3EAfgACc3EAfgAHAAAAAncEAAAAAnEAfgWoc3EAfgACc3EAfgAHAAAAAHcEAAAAAHhxAH4Bk3EAfgWseHEAfgBCc3EAfgACc3EAfgAHAAAAAncEAAAAAnEAfgWsc3EAfgACc3EAfgAHAAAAAHcEAAAAAHhxAH4Bk3EAfgWweHEAfgBCc3EAfgACc3EAfgAHAAAAAncEAAAAAnEAfgWwc3EAfgACc3EAfgAHAAAAAHcEAAAAAHhxAH4AaXEAfgW0eHEAfgAoc3EAfgACc3EAfgAHAAAAAncEAAAAAnEAfgW0c3EAfgACc3EAfgAHAAAAAHcEAAAAAHhxAH4Bk3EAfgW4eHEAfgBCc3EAfgACc3EAfgAHAAAAAncEAAAAAnEAfgW4c3EAfgACc3EAfgAHAAAAAHcEAAAAAHhxAH4Bk3EAfgW8eHEAfgBCc3EAfgACc3EAfgAHAAAAAncEAAAAAnEAfgW8c3EAfgACc3EAfgAHAAAAAHcEAAAAAHhxAH4AaXEAfgXAeHEAfgAoc3EAfgACc3EAfgAHAAAAAncEAAAAAnEAfgXAc3EAfgACc3EAfgAHAAAAAHcEAAAAAHhxAH4AaXEAfgXEeHEAfgAoc3EAfgACc3EAfgAHAAAAAncEAAAAAnEAfgXEc3EAfgACc3EAfgAHAAAAAHcEAAAAAHhxAH4Bk3EAfgXIeHEAfgBCc3EAfgACc3EAfgAHAAAAAncEAAAAAnEAfgXIc3EAfgACc3EAfgAHAAAAAHcEAAAAAHhxAH4Bk3EAfgXMeHEAfgBCc3EAfgACc3EAfgAHAAAAAncEAAAAAnEAfgXMc3EAfgACc3EAfgAHAAAAAHcEAAAAAHhxAH4AaXEAfgXQeHEAfgAoc3EAfgACc3EAfgAHAAAAAncEAAAAAnEAfgXQc3EAfgACc3EAfgAHAAAAAHcEAAAAAHhxAH4AaXEAfgXUeHEAfgAoc3EAfgACc3EAfgAHAAAAAncEAAAAAnEAfgXUc3EAfgACc3EAfgAHAAAAAHcEAAAAAHhxAH4Bk3EAfgXYeHEAfgBCc3EAfgACc3EAfgAHAAAAAncEAAAAAnEAfgXYc3EAfgACc3EAfgAHAAAAAHcEAAAAAHhxAH4Bk3EAfgXceHEAfgBCc3EAfgACc3EAfgAHAAAAAncEAAAAAnEAfgXcc3EAfgACc3EAfgAHAAAAAHcEAAAAAHhxAH4AaXEAfgXgeHEAfgAoc3EAfgACc3EAfgAHAAAAAncEAAAAAnEAfgXgc3EAfgACc3EAfgAHAAAAAHcEAAAAAHhxAH4Bk3EAfgXkeHEAfgBCc3EAfgACc3EAfgAHAAAAAncEAAAAAnEAfgXkc3EAfgACc3EAfgAHAAAAAHcEAAAAAHhxAH4Bk3NxAH4AAnNxAH4ABwAAAAJ3BAAAAAJzcQB+AAJzcQB+AAcAAAAAdwQAAAAAeHEAfgGTcQB+BexxAH4F6nhxAH4AQnNxAH4AAnNxAH4ABwAAAAJ3BAAAAAJxAH4F7HNxAH4AAnNxAH4ABwAAAAB3BAAAAAB4cQB+AGlxAH4F8HhxAH4AKHNxAH4AAnNxAH4ABwAAAAJ3BAAAAAJxAH4F8HNxAH4AAnNxAH4ABwAAAAB3BAAAAAB4cQB+AZNxAH4F9HhxAH4AQnNxAH4AAnNxAH4ABwAAAAJ3BAAAAAJxAH4F9HNxAH4AAnNxAH4ABwAAAAB3BAAAAAB4cQB+AZNxAH4F+HhxAH4AQnNxAH4AAnNxAH4ABwAAAAJ3BAAAAAJxAH4F+HNxAH4AAnNxAH4ABwAAAAB3BAAAAAB4cQB+AGlxAH4F/HhxAH4AKHNxAH4AAnNxAH4ABwAAAAJ3BAAAAAJxAH4F/HNxAH4AAnNxAH4ABwAAAAB3BAAAAAB4cQB+AZNxAH4GAHhxAH4AQnNxAH4AAnNxAH4ABwAAAAJ3BAAAAAJxAH4GAHNxAH4AAnNxAH4ABwAAAAJ3BAAAAAJzcQB+AAJzcQB+AAcAAAAAdwQAAAAAeHEAfgBpcQB+BgZzcQB+AAJzcQB+AAcAAAAAdwQAAAAAeHEAfgGTcQB+BgZ4cQB+AEJxAH4GBHhxAH4AKHB4cQB+AEJzcQB+AAJzcQB+AAcAAAACdwQAAAACcQB+BehxAH4F8nhxAH4AKHNxAH4AAnNxAH4ABwAAAAJ3BAAAAAJxAH4GDHEAfgX2eHEAfgBCc3EAfgACc3EAfgAHAAAAAncEAAAAAnEAfgYOcQB+Bfp4cQB+AEJzcQB+AAJzcQB+AAcAAAACdwQAAAACcQB+BhBxAH4F/nhxAH4AKHNxAH4AAnNxAH4ABwAAAAJ3BAAAAAJxAH4GEnEAfgYCeHEAfgBCc3EAfgACc3EAfgAHAAAAAncEAAAAAnEAfgYUcQB+BgZ4cQB+AChweHEAfgBCcQB+BZxxAH4FqnhxAH4AKHEAfgWacQB+Ba54cQB+AEJxAH4FmHEAfgWyeHEAfgBCcQB+BZZxAH4FtnhxAH4AKHEAfgWUcQB+Bbp4cQB+AEJxAH4FknEAfgW+eHEAfgBCcQB+BZBxAH4FwnhxAH4AKHEAfgWOcQB+BcZ4cQB+AChxAH4FjHEAfgXKeHEAfgBCcQB+BYpxAH4FznhxAH4AQnEAfgWIcQB+BdJ4cQB+AChxAH4FhnEAfgXWeHEAfgAocQB+BYRxAH4F2nhxAH4AQnEAfgWCcQB+Bd54cQB+AEJxAH4FgHEAfgXieHEAfgAocQB+BX5xAH4F5nhxAH4AQnEAfgV8cQB+Bep4cQB+AEJxAH4FenEAfgXyeHEAfgAocQB+BXhxAH4F9nhxAH4AQnEAfgV2cQB+Bfp4cQB+AEJxAH4FdHEAfgX+eHEAfgAocQB+BXJxAH4GAnhxAH4AQnEAfgVwcQB+BgZ4cQB+AChweA==";
