ea.runOutcome(
  index = 254;
  run = ea.run(
    problem = ea.p.mr.fromData(
      trainingDataset = ea.dataset.numerical.fromFile(
        filePath = "../phase2/data-ro-gp-3-007.txt";
        folds = [0];
        nFolds = 50;
        xVarNamePattern = "x.*";
        yVarNamePattern = "y.*"
      )
    );
    randomGenerator = ea.rg.defaultRG(seed = 5);
    solver = ea.s.oGraphea(
      arcAdditionRate = 3;
      arcRemovalRate = 0.1;
      mapper = ea.m.oGraphMRF(
        dataset = ea.d.num.empty(
          xVars = [
            x01;
            x02;
            x03;
            x04;
            x05;
            x06;
            x07;
            x08;
            x09;
            x10;
            x11;
            x12;
            x13;
            x14;
            x15;
            x16
          ];
          yVars = [y1; y2; y3; y4]
        );
        postOperator = tanh
      );
      maxConst = 5;
      minConst = 0;
      nConst = 10;
      nEval = 10000;
      nPop = 100;
      nodeAdditionRate = 1;
      operators = [
        addition;
        subtraction;
        multiplication;
        prot_division;
        prot_log
      ];
      rankBase = 0.75
    )
  );
  serializedGenotypes = [
    "rO0ABXNyAENpby5naXRodWIuZXJpY21lZHZldC5qZ2VhLmNvcmUucmVwcmVzZW50YXRpb24uZ3JhcGguTGlua2VkSGFzaEdyYXBo8kE6+k8gs3gCAAJMAARhcmNzdAAPTGphdmEvdXRpbC9NYXA7TAAFbm9kZXN0AA9MamF2YS91dGlsL1NldDt4cHNyABdqYXZhLnV0aWwuTGlua2VkSGFzaE1hcDTATlwQbMD7AgABWgALYWNjZXNzT3JkZXJ4cgARamF2YS51dGlsLkhhc2hNYXAFB9rBwxZg0QMAAkYACmxvYWRGYWN0b3JJAAl0aHJlc2hvbGR4cD9AAAAAAAAwdwgAAABAAAAAJnNyAD1pby5naXRodWIuZXJpY21lZHZldC5qZ2VhLmNvcmUucmVwcmVzZW50YXRpb24uZ3JhcGguR3JhcGgkQXJjdMoFPXw1b5ECAAJMAAZzb3VyY2V0ABJMamF2YS9sYW5nL09iamVjdDtMAAZ0YXJnZXRxAH4ACHhwc3IARGlvLmdpdGh1Yi5lcmljbWVkdmV0LmpnZWEuY29yZS5yZXByZXNlbnRhdGlvbi5ncmFwaC5udW1lcmljLkNvbnN0YW50TGSPkxwUCVACAAFEAAV2YWx1ZXhyADhpby5naXRodWIuZXJpY21lZHZldC5qZ2VhLmNvcmUucmVwcmVzZW50YXRpb24uZ3JhcGguTm9kZa6IESkrhGebAgABSQAFaW5kZXh4cAAAAAAAAAAAAAAAAHNyAFZpby5naXRodWIuZXJpY21lZHZldC5qZ2VhLmNvcmUucmVwcmVzZW50YXRpb24uZ3JhcGgubnVtZXJpYy5vcGVyYXRvcmdyYXBoLk9wZXJhdG9yTm9kZfQSzj3+KfssAgABTAAIb3BlcmF0b3J0AFhMaW8vZ2l0aHViL2VyaWNtZWR2ZXQvamdlYS9jb3JlL3JlcHJlc2VudGF0aW9uL2dyYXBoL251bWVyaWMvb3BlcmF0b3JncmFwaC9CYXNlT3BlcmF0b3I7eHEAfgALAAABKn5yAFZpby5naXRodWIuZXJpY21lZHZldC5qZ2VhLmNvcmUucmVwcmVzZW50YXRpb24uZ3JhcGgubnVtZXJpYy5vcGVyYXRvcmdyYXBoLkJhc2VPcGVyYXRvcgAAAAAAAAAAEgAAeHIADmphdmEubGFuZy5FbnVtAAAAAAAAAAASAAB4cHQAC1NVQlRSQUNUSU9Oc3IAZGlvLmdpdGh1Yi5lcmljbWVkdmV0LmpnZWEuY29yZS5yZXByZXNlbnRhdGlvbi5ncmFwaC5udW1lcmljLm9wZXJhdG9yZ3JhcGguT3BlcmF0b3JHcmFwaCROb25WYWx1ZWRBcmPxJjlbaAJekAIAAHhwc3EAfgAHc3EAfgANAAABQ35xAH4AEHQACEFERElUSU9Oc3EAfgANAAACr35xAH4AEHQADVBST1RfRElWSVNJT05xAH4AFXNxAH4AB3EAfgAac3EAfgANAAACZnEAfgAbcQB+ABVzcQB+AAdzcgBBaW8uZ2l0aHViLmVyaWNtZWR2ZXQuamdlYS5jb3JlLnJlcHJlc2VudGF0aW9uLmdyYXBoLm51bWVyaWMuSW5wdXSR6eVyc65orgIAAUwABG5hbWV0ABJMamF2YS9sYW5nL1N0cmluZzt4cQB+AAsAAAALdAADeDEyc3EAfgANAAACyXEAfgAScQB+ABVzcQB+AAdxAH4AJHNxAH4ADQAAAj5xAH4AG3EAfgAVc3EAfgAHc3EAfgAgAAAAAHQAA3gwMXEAfgAXcQB+ABVzcQB+AAdxAH4AHnNxAH4ADQAAAz1xAH4AG3EAfgAVc3EAfgAHcQB+ACtzcgBCaW8uZ2l0aHViLmVyaWNtZWR2ZXQuamdlYS5jb3JlLnJlcHJlc2VudGF0aW9uLmdyYXBoLm51bWVyaWMuT3V0cHV0q2IuuNm/R3ICAAFMAARuYW1lcQB+ACF4cQB+AAsAAAACdAACeTNxAH4AFXNxAH4AB3EAfgAPc3EAfgANAAADpXEAfgAScQB+ABVzcQB+AAdzcQB+AAoAAAABP+AAAAAAAABzcQB+AA0AAAPgfnEAfgAQdAAOTVVMVElQTElDQVRJT05xAH4AFXNxAH4AB3EAfgA0c3EAfgANAAACInEAfgAYcQB+ABVzcQB+AAdzcQB+AA0AAAQycQB+ADVxAH4AJHEAfgAVc3EAfgAHcQB+ADhzcQB+AA0AAARecQB+ADVxAH4AFXNxAH4AB3EAfgA8cQB+AA9xAH4AFXNxAH4AB3NxAH4ACgAAAAM/+AAAAAAAAHNxAH4ADQAABTZxAH4AEnEAfgAVc3EAfgAHc3EAfgAgAAAACnQAA3gxMXNxAH4ADQAABU5xAH4AEnEAfgAVc3EAfgAHcQB+AERxAH4AOnEAfgAVc3EAfgAHcQB+ACRxAH4AOHEAfgAVc3EAfgAHc3EAfgANAAAF63EAfgAYc3EAfgAtAAAAAHQAAnkxcQB+ABVzcQB+AAdxAH4AKHNxAH4ADQAABg1xAH4ANXEAfgAVc3EAfgAHcQB+AExxAH4ASHEAfgAVc3EAfgAHcQB+ADFzcQB+AA0AAAZncQB+ABhxAH4AFXNxAH4AB3EAfgBPc3EAfgAtAAAAA3QAAnk0cQB+ABVzcQB+AAdzcQB+AA0AAAb0cQB+ABJxAH4AF3EAfgAVc3EAfgAHcQB+AD9zcQB+AA0AAAdEcQB+ABhxAH4AFXNxAH4AB3EAfgBWcQB+ADRxAH4AFXNxAH4AB3EAfgBAc3EAfgANAAAHa3EAfgAScQB+ABVzcQB+AAdxAH4AWXEAfgBUcQB+ABVzcQB+AAdzcQB+AA0AAAeZcQB+ABtxAH4AF3EAfgAVc3EAfgAHcQB+ACZzcQB+AA0AAAficQB+ADVxAH4AFXNxAH4AB3EAfgBEcQB+AFZxAH4AFXNxAH4AB3EAfgBWcQB+AExxAH4AFXNxAH4AB3NxAH4AIAAAAAh0AAN4MDlxAH4AVnEAfgAVc3EAfgAHcQB+AF5zcQB+AA0AAAjJcQB+ABhxAH4AFXNxAH4AB3EAfgBlcQB+AFxxAH4AFXNxAH4AB3EAfgBWcQB+ABpxAH4AFXNxAH4AB3NxAH4ACgAAAAZACAAAAAAAAHNxAH4ADQAACR9xAH4AGHEAfgAVc3EAfgAHcQB+AGpxAH4ATHEAfgAVeABzcgAXamF2YS51dGlsLkxpbmtlZEhhc2hTZXTYbNdald0qHgIAAHhyABFqYXZhLnV0aWwuSGFzaFNldLpEhZWWuLc0AwAAeHB3DAAAAIA/QAAAAAAANnEAfgAoc3EAfgAgAAAAAXQAA3gwMnNxAH4AIAAAAAJ0AAN4MDNzcQB+ACAAAAADdAADeDA0c3EAfgAgAAAABHQAA3gwNXNxAH4AIAAAAAV0AAN4MDZzcQB+ACAAAAAGdAADeDA3c3EAfgAgAAAAB3QAA3gwOHEAfgBic3EAfgAgAAAACXQAA3gxMHEAfgBCcQB+ACJzcQB+ACAAAAAMdAADeDEzc3EAfgAgAAAADXQAA3gxNHNxAH4AIAAAAA50AAN4MTVzcQB+ACAAAAAPdAADeDE2cQB+AElzcQB+AC0AAAABdAACeTJxAH4ALnEAfgBRcQB+AAxxAH4AM3NxAH4ACgAAAAI/8AAAAAAAAHEAfgA/c3EAfgAKAAAABEAAAAAAAAAAc3EAfgAKAAAABUAEAAAAAAAAcQB+AGlzcQB+AAoAAAAHQAwAAAAAAABzcQB+AAoAAAAIQBAAAAAAAABzcQB+AAoAAAAJQBIAAAAAAABxAH4AD3EAfgAXcQB+ADhxAH4AJnEAfgAecQB+ABpxAH4AJHEAfgArcQB+ADFxAH4ANHEAfgA6cQB+ADxxAH4AQHEAfgBEcQB+AEhxAH4ATHEAfgBPcQB+AFRxAH4AVnEAfgBZcQB+AFxxAH4AXnEAfgBlcQB+AGp4";
    "rO0ABXNyAENpby5naXRodWIuZXJpY21lZHZldC5qZ2VhLmNvcmUucmVwcmVzZW50YXRpb24uZ3JhcGguTGlua2VkSGFzaEdyYXBo8kE6+k8gs3gCAAJMAARhcmNzdAAPTGphdmEvdXRpbC9NYXA7TAAFbm9kZXN0AA9MamF2YS91dGlsL1NldDt4cHNyABdqYXZhLnV0aWwuTGlua2VkSGFzaE1hcDTATlwQbMD7AgABWgALYWNjZXNzT3JkZXJ4cgARamF2YS51dGlsLkhhc2hNYXAFB9rBwxZg0QMAAkYACmxvYWRGYWN0b3JJAAl0aHJlc2hvbGR4cD9AAAAAAAAwdwgAAABAAAAAJnNyAD1pby5naXRodWIuZXJpY21lZHZldC5qZ2VhLmNvcmUucmVwcmVzZW50YXRpb24uZ3JhcGguR3JhcGgkQXJjdMoFPXw1b5ECAAJMAAZzb3VyY2V0ABJMamF2YS9sYW5nL09iamVjdDtMAAZ0YXJnZXRxAH4ACHhwc3IARGlvLmdpdGh1Yi5lcmljbWVkdmV0LmpnZWEuY29yZS5yZXByZXNlbnRhdGlvbi5ncmFwaC5udW1lcmljLkNvbnN0YW50TGSPkxwUCVACAAFEAAV2YWx1ZXhyADhpby5naXRodWIuZXJpY21lZHZldC5qZ2VhLmNvcmUucmVwcmVzZW50YXRpb24uZ3JhcGguTm9kZa6IESkrhGebAgABSQAFaW5kZXh4cAAAAAAAAAAAAAAAAHNyAFZpby5naXRodWIuZXJpY21lZHZldC5qZ2VhLmNvcmUucmVwcmVzZW50YXRpb24uZ3JhcGgubnVtZXJpYy5vcGVyYXRvcmdyYXBoLk9wZXJhdG9yTm9kZfQSzj3+KfssAgABTAAIb3BlcmF0b3J0AFhMaW8vZ2l0aHViL2VyaWNtZWR2ZXQvamdlYS9jb3JlL3JlcHJlc2VudGF0aW9uL2dyYXBoL251bWVyaWMvb3BlcmF0b3JncmFwaC9CYXNlT3BlcmF0b3I7eHEAfgALAAABKn5yAFZpby5naXRodWIuZXJpY21lZHZldC5qZ2VhLmNvcmUucmVwcmVzZW50YXRpb24uZ3JhcGgubnVtZXJpYy5vcGVyYXRvcmdyYXBoLkJhc2VPcGVyYXRvcgAAAAAAAAAAEgAAeHIADmphdmEubGFuZy5FbnVtAAAAAAAAAAASAAB4cHQAC1NVQlRSQUNUSU9Oc3IAZGlvLmdpdGh1Yi5lcmljbWVkdmV0LmpnZWEuY29yZS5yZXByZXNlbnRhdGlvbi5ncmFwaC5udW1lcmljLm9wZXJhdG9yZ3JhcGguT3BlcmF0b3JHcmFwaCROb25WYWx1ZWRBcmPxJjlbaAJekAIAAHhwc3EAfgAHc3EAfgANAAABQ35xAH4AEHQACEFERElUSU9Oc3EAfgANAAACr35xAH4AEHQADVBST1RfRElWSVNJT05xAH4AFXNxAH4AB3EAfgAac3EAfgANAAACZnEAfgAbcQB+ABVzcQB+AAdzcgBBaW8uZ2l0aHViLmVyaWNtZWR2ZXQuamdlYS5jb3JlLnJlcHJlc2VudGF0aW9uLmdyYXBoLm51bWVyaWMuSW5wdXSR6eVyc65orgIAAUwABG5hbWV0ABJMamF2YS9sYW5nL1N0cmluZzt4cQB+AAsAAAALdAADeDEyc3EAfgANAAACyXEAfgAScQB+ABVzcQB+AAdxAH4AJHNxAH4ADQAAAj5xAH4AG3EAfgAVc3EAfgAHc3EAfgAgAAAAAHQAA3gwMXEAfgAXcQB+ABVzcQB+AAdxAH4AHnNxAH4ADQAAAz1xAH4AG3EAfgAVc3EAfgAHcQB+ACtzcgBCaW8uZ2l0aHViLmVyaWNtZWR2ZXQuamdlYS5jb3JlLnJlcHJlc2VudGF0aW9uLmdyYXBoLm51bWVyaWMuT3V0cHV0q2IuuNm/R3ICAAFMAARuYW1lcQB+ACF4cQB+AAsAAAACdAACeTNxAH4AFXNxAH4AB3EAfgAPc3EAfgANAAADpXEAfgAScQB+ABVzcQB+AAdzcQB+AAoAAAABP+AAAAAAAABzcQB+AA0AAAPgfnEAfgAQdAAOTVVMVElQTElDQVRJT05xAH4AFXNxAH4AB3EAfgA0c3EAfgANAAACInEAfgAYcQB+ABVzcQB+AAdzcQB+AA0AAAQycQB+ADVxAH4AJHEAfgAVc3EAfgAHcQB+ADhzcQB+AA0AAARecQB+ADVxAH4AFXNxAH4AB3EAfgA8cQB+AA9xAH4AFXNxAH4AB3NxAH4ACgAAAAM/+AAAAAAAAHNxAH4ADQAABTZxAH4AEnEAfgAVc3EAfgAHc3EAfgAgAAAACnQAA3gxMXNxAH4ADQAABU5xAH4AEnEAfgAVc3EAfgAHcQB+AERxAH4AOnEAfgAVc3EAfgAHcQB+ACRxAH4AOHEAfgAVc3EAfgAHc3EAfgANAAAF63EAfgAYc3EAfgAtAAAAAHQAAnkxcQB+ABVzcQB+AAdzcQB+AA0AAAYNcQB+ADVxAH4ASHEAfgAVc3EAfgAHcQB+ADFzcQB+AA0AAAZncQB+ABhxAH4AFXNxAH4AB3EAfgBOc3EAfgAtAAAAA3QAAnk0cQB+ABVzcQB+AAdzcQB+AA0AAAb0cQB+ABJxAH4AF3EAfgAVc3EAfgAHc3EAfgAKAAAABkAIAAAAAAAAcQB+AExxAH4AFXNxAH4AB3EAfgA/c3EAfgANAAAHRHEAfgAYcQB+ABVzcQB+AAdxAH4AV3EAfgA0cQB+ABVzcQB+AAdxAH4AQHNxAH4ADQAAB2txAH4AEnEAfgAVc3EAfgAHcQB+AFpxAH4AU3EAfgAVc3EAfgAHc3EAfgANAAAHmXEAfgAbcQB+ABdxAH4AFXNxAH4AB3EAfgAmc3EAfgANAAAH4nEAfgA1cQB+ABVzcQB+AAdxAH4ARHEAfgBXcQB+ABVzcQB+AAdxAH4AV3EAfgBMcQB+ABVzcQB+AAdzcQB+ACAAAAAIdAADeDA5cQB+AFdxAH4AFXNxAH4AB3EAfgBfc3EAfgANAAAIyXEAfgAYcQB+ABVzcQB+AAdxAH4AZnEAfgBdcQB+ABVzcQB+AAdxAH4AV3EAfgAacQB+ABVzcQB+AAdxAH4AKHNxAH4ADQAACUhxAH4AEnEAfgAVc3EAfgAHcQB+AGpxAH4ATHEAfgAVeABzcgAXamF2YS51dGlsLkxpbmtlZEhhc2hTZXTYbNdald0qHgIAAHhyABFqYXZhLnV0aWwuSGFzaFNldLpEhZWWuLc0AwAAeHB3DAAAAIA/QAAAAAAANnEAfgAoc3EAfgAgAAAAAXQAA3gwMnNxAH4AIAAAAAJ0AAN4MDNzcQB+ACAAAAADdAADeDA0c3EAfgAgAAAABHQAA3gwNXNxAH4AIAAAAAV0AAN4MDZzcQB+ACAAAAAGdAADeDA3c3EAfgAgAAAAB3QAA3gwOHEAfgBjc3EAfgAgAAAACXQAA3gxMHEAfgBCcQB+ACJzcQB+ACAAAAAMdAADeDEzc3EAfgAgAAAADXQAA3gxNHNxAH4AIAAAAA50AAN4MTVzcQB+ACAAAAAPdAADeDE2cQB+AElzcQB+AC0AAAABdAACeTJxAH4ALnEAfgBQcQB+AAxxAH4AM3NxAH4ACgAAAAI/8AAAAAAAAHEAfgA/c3EAfgAKAAAABEAAAAAAAAAAc3EAfgAKAAAABUAEAAAAAAAAcQB+AFVzcQB+AAoAAAAHQAwAAAAAAABzcQB+AAoAAAAIQBAAAAAAAABzcQB+AAoAAAAJQBIAAAAAAABxAH4AD3EAfgAXcQB+ADhxAH4AJnEAfgAecQB+ABpxAH4AJHEAfgArcQB+ADFxAH4ANHEAfgA6cQB+ADxxAH4AQHEAfgBEcQB+AEhxAH4ATHEAfgBOcQB+AFNxAH4AV3EAfgBacQB+AF1xAH4AX3EAfgBmcQB+AGp4";
    "rO0ABXNyAENpby5naXRodWIuZXJpY21lZHZldC5qZ2VhLmNvcmUucmVwcmVzZW50YXRpb24uZ3JhcGguTGlua2VkSGFzaEdyYXBo8kE6+k8gs3gCAAJMAARhcmNzdAAPTGphdmEvdXRpbC9NYXA7TAAFbm9kZXN0AA9MamF2YS91dGlsL1NldDt4cHNyABdqYXZhLnV0aWwuTGlua2VkSGFzaE1hcDTATlwQbMD7AgABWgALYWNjZXNzT3JkZXJ4cgARamF2YS51dGlsLkhhc2hNYXAFB9rBwxZg0QMAAkYACmxvYWRGYWN0b3JJAAl0aHJlc2hvbGR4cD9AAAAAAAAwdwgAAABAAAAAJnNyAD1pby5naXRodWIuZXJpY21lZHZldC5qZ2VhLmNvcmUucmVwcmVzZW50YXRpb24uZ3JhcGguR3JhcGgkQXJjdMoFPXw1b5ECAAJMAAZzb3VyY2V0ABJMamF2YS9sYW5nL09iamVjdDtMAAZ0YXJnZXRxAH4ACHhwc3IARGlvLmdpdGh1Yi5lcmljbWVkdmV0LmpnZWEuY29yZS5yZXByZXNlbnRhdGlvbi5ncmFwaC5udW1lcmljLkNvbnN0YW50TGSPkxwUCVACAAFEAAV2YWx1ZXhyADhpby5naXRodWIuZXJpY21lZHZldC5qZ2VhLmNvcmUucmVwcmVzZW50YXRpb24uZ3JhcGguTm9kZa6IESkrhGebAgABSQAFaW5kZXh4cAAAAAAAAAAAAAAAAHNyAFZpby5naXRodWIuZXJpY21lZHZldC5qZ2VhLmNvcmUucmVwcmVzZW50YXRpb24uZ3JhcGgubnVtZXJpYy5vcGVyYXRvcmdyYXBoLk9wZXJhdG9yTm9kZfQSzj3+KfssAgABTAAIb3BlcmF0b3J0AFhMaW8vZ2l0aHViL2VyaWNtZWR2ZXQvamdlYS9jb3JlL3JlcHJlc2VudGF0aW9uL2dyYXBoL251bWVyaWMvb3BlcmF0b3JncmFwaC9CYXNlT3BlcmF0b3I7eHEAfgALAAABKn5yAFZpby5naXRodWIuZXJpY21lZHZldC5qZ2VhLmNvcmUucmVwcmVzZW50YXRpb24uZ3JhcGgubnVtZXJpYy5vcGVyYXRvcmdyYXBoLkJhc2VPcGVyYXRvcgAAAAAAAAAAEgAAeHIADmphdmEubGFuZy5FbnVtAAAAAAAAAAASAAB4cHQAC1NVQlRSQUNUSU9Oc3IAZGlvLmdpdGh1Yi5lcmljbWVkdmV0LmpnZWEuY29yZS5yZXByZXNlbnRhdGlvbi5ncmFwaC5udW1lcmljLm9wZXJhdG9yZ3JhcGguT3BlcmF0b3JHcmFwaCROb25WYWx1ZWRBcmPxJjlbaAJekAIAAHhwc3EAfgAHc3EAfgANAAABQ35xAH4AEHQACEFERElUSU9Oc3EAfgANAAACr35xAH4AEHQADVBST1RfRElWSVNJT05xAH4AFXNxAH4AB3EAfgAac3EAfgANAAACZnEAfgAbcQB+ABVzcQB+AAdzcgBBaW8uZ2l0aHViLmVyaWNtZWR2ZXQuamdlYS5jb3JlLnJlcHJlc2VudGF0aW9uLmdyYXBoLm51bWVyaWMuSW5wdXSR6eVyc65orgIAAUwABG5hbWV0ABJMamF2YS9sYW5nL1N0cmluZzt4cQB+AAsAAAALdAADeDEyc3EAfgANAAACyXEAfgAScQB+ABVzcQB+AAdxAH4AJHNxAH4ADQAAAj5xAH4AG3EAfgAVc3EAfgAHc3EAfgAgAAAAAHQAA3gwMXEAfgAXcQB+ABVzcQB+AAdxAH4AHnNxAH4ADQAAAz1xAH4AG3EAfgAVc3EAfgAHcQB+ACtzcgBCaW8uZ2l0aHViLmVyaWNtZWR2ZXQuamdlYS5jb3JlLnJlcHJlc2VudGF0aW9uLmdyYXBoLm51bWVyaWMuT3V0cHV0q2IuuNm/R3ICAAFMAARuYW1lcQB+ACF4cQB+AAsAAAACdAACeTNxAH4AFXNxAH4AB3EAfgAPc3EAfgANAAADpXEAfgAScQB+ABVzcQB+AAdzcQB+AAoAAAABP+AAAAAAAABzcQB+AA0AAAPgfnEAfgAQdAAOTVVMVElQTElDQVRJT05xAH4AFXNxAH4AB3EAfgA0c3EAfgANAAACInEAfgAYcQB+ABVzcQB+AAdzcQB+AA0AAAQycQB+ADVxAH4AJHEAfgAVc3EAfgAHcQB+ADhzcQB+AA0AAARecQB+ADVxAH4AFXNxAH4AB3EAfgA8cQB+AA9xAH4AFXNxAH4AB3NxAH4ACgAAAAM/+AAAAAAAAHNxAH4ADQAABTZxAH4AEnEAfgAVc3EAfgAHc3EAfgAgAAAACnQAA3gxMXNxAH4ADQAABU5xAH4AEnEAfgAVc3EAfgAHcQB+AERxAH4AOnEAfgAVc3EAfgAHcQB+ACRxAH4AOHEAfgAVc3EAfgAHc3EAfgANAAAF63EAfgAYc3EAfgAtAAAAAHQAAnkxcQB+ABVzcQB+AAdxAH4AKHNxAH4ADQAABg1xAH4ANXEAfgAVc3EAfgAHcQB+AExxAH4ASHEAfgAVc3EAfgAHcQB+ADFzcQB+AA0AAAZncQB+ABhxAH4AFXNxAH4AB3EAfgBPc3EAfgAtAAAAA3QAAnk0cQB+ABVzcQB+AAdzcQB+AA0AAAb0cQB+ABJxAH4AF3EAfgAVc3EAfgAHcQB+AD9zcQB+AA0AAAdEcQB+ABhxAH4AFXNxAH4AB3EAfgBWcQB+ADRxAH4AFXNxAH4AB3EAfgBAc3EAfgANAAAHa3EAfgAScQB+ABVzcQB+AAdxAH4AWXEAfgBUcQB+ABVzcQB+AAdzcQB+AA0AAAeZcQB+ABtxAH4AF3EAfgAVc3EAfgAHcQB+ACZzcQB+AA0AAAficQB+ADVxAH4AFXNxAH4AB3EAfgBEcQB+AFZxAH4AFXNxAH4AB3EAfgBWcQB+AExxAH4AFXNxAH4AB3NxAH4AIAAAAAh0AAN4MDlxAH4AVnEAfgAVc3EAfgAHcQB+AF5zcQB+AA0AAAjJcQB+ABhxAH4AFXNxAH4AB3EAfgBlcQB+AFxxAH4AFXNxAH4AB3EAfgBWcQB+ABpxAH4AFXNxAH4AB3NxAH4ACgAAAAZACAAAAAAAAHNxAH4ADQAACR9xAH4AGHEAfgAVc3EAfgAHcQB+AGpxAH4ATHEAfgAVeABzcgAXamF2YS51dGlsLkxpbmtlZEhhc2hTZXTYbNdald0qHgIAAHhyABFqYXZhLnV0aWwuSGFzaFNldLpEhZWWuLc0AwAAeHB3DAAAAIA/QAAAAAAANnEAfgAoc3EAfgAgAAAAAXQAA3gwMnNxAH4AIAAAAAJ0AAN4MDNzcQB+ACAAAAADdAADeDA0c3EAfgAgAAAABHQAA3gwNXNxAH4AIAAAAAV0AAN4MDZzcQB+ACAAAAAGdAADeDA3c3EAfgAgAAAAB3QAA3gwOHEAfgBic3EAfgAgAAAACXQAA3gxMHEAfgBCcQB+ACJzcQB+ACAAAAAMdAADeDEzc3EAfgAgAAAADXQAA3gxNHNxAH4AIAAAAA50AAN4MTVzcQB+ACAAAAAPdAADeDE2cQB+AElzcQB+AC0AAAABdAACeTJxAH4ALnEAfgBRcQB+AAxxAH4AM3NxAH4ACgAAAAI/8AAAAAAAAHEAfgA/c3EAfgAKAAAABEAAAAAAAAAAc3EAfgAKAAAABUAEAAAAAAAAcQB+AGlzcQB+AAoAAAAHQAwAAAAAAABzcQB+AAoAAAAIQBAAAAAAAABzcQB+AAoAAAAJQBIAAAAAAABxAH4AD3EAfgAXcQB+ADhxAH4AJnEAfgAecQB+ABpxAH4AJHEAfgArcQB+ADFxAH4ANHEAfgA6cQB+ADxxAH4AQHEAfgBEcQB+AEhxAH4ATHEAfgBPcQB+AFRxAH4AVnEAfgBZcQB+AFxxAH4AXnEAfgBlcQB+AGp4"
  ]
)