ea.runOutcome(
  index = 164;
  run = ea.run(
    problem = ea.p.mr.fromData(
      trainingDataset = ea.dataset.numerical.fromFile(
        filePath = "../phase2/data-ro-ga-3-001.txt";
        folds = [0];
        nFolds = 40;
        xVarNamePattern = "x.*";
        yVarNamePattern = "y.*"
      )
    );
    randomGenerator = ea.rg.defaultRG(seed = 5);
    solver = ea.s.oGraphea(
      arcAdditionRate = 3;
      arcRemovalRate = 0.1;
      mapper = ea.m.oGraphMRF(
        dataset = ea.d.num.empty(
          xVars = [
            x0;
            x1;
            x2;
            x3;
            x4;
            x5;
            x6;
            x7;
            x8;
            x9;
            x10;
            x11;
            x12;
            x13;
            x14;
            x15
          ];
          yVars = [y0; y1; y2; y3]
        );
        postOperator = tanh
      );
      maxConst = 5;
      minConst = 0;
      nConst = 10;
      nEval = 10000;
      nPop = 100;
      nodeAdditionRate = 1;
      operators = [
        addition;
        subtraction;
        multiplication;
        prot_division;
        prot_log
      ];
      rankBase = 0.75
    )
  );
  serializedGenotypes = [
    "rO0ABXNyAENpby5naXRodWIuZXJpY21lZHZldC5qZ2VhLmNvcmUucmVwcmVzZW50YXRpb24uZ3JhcGguTGlua2VkSGFzaEdyYXBo8kE6+k8gs3gCAAJMAARhcmNzdAAPTGphdmEvdXRpbC9NYXA7TAAFbm9kZXN0AA9MamF2YS91dGlsL1NldDt4cHNyABdqYXZhLnV0aWwuTGlua2VkSGFzaE1hcDTATlwQbMD7AgABWgALYWNjZXNzT3JkZXJ4cgARamF2YS51dGlsLkhhc2hNYXAFB9rBwxZg0QMAAkYACmxvYWRGYWN0b3JJAAl0aHJlc2hvbGR4cD9AAAAAAAAwdwgAAABAAAAAHnNyAD1pby5naXRodWIuZXJpY21lZHZldC5qZ2VhLmNvcmUucmVwcmVzZW50YXRpb24uZ3JhcGguR3JhcGgkQXJjdMoFPXw1b5ECAAJMAAZzb3VyY2V0ABJMamF2YS9sYW5nL09iamVjdDtMAAZ0YXJnZXRxAH4ACHhwc3IAQWlvLmdpdGh1Yi5lcmljbWVkdmV0LmpnZWEuY29yZS5yZXByZXNlbnRhdGlvbi5ncmFwaC5udW1lcmljLklucHV0kenlcnOuaK4CAAFMAARuYW1ldAASTGphdmEvbGFuZy9TdHJpbmc7eHIAOGlvLmdpdGh1Yi5lcmljbWVkdmV0LmpnZWEuY29yZS5yZXByZXNlbnRhdGlvbi5ncmFwaC5Ob2RlrogRKSuEZ5sCAAFJAAVpbmRleHhwAAAAB3QAAng3c3IAQmlvLmdpdGh1Yi5lcmljbWVkdmV0LmpnZWEuY29yZS5yZXByZXNlbnRhdGlvbi5ncmFwaC5udW1lcmljLk91dHB1dKtiLrjZv0dyAgABTAAEbmFtZXEAfgALeHEAfgAMAAAAAnQAAnkyc3IAZGlvLmdpdGh1Yi5lcmljbWVkdmV0LmpnZWEuY29yZS5yZXByZXNlbnRhdGlvbi5ncmFwaC5udW1lcmljLm9wZXJhdG9yZ3JhcGguT3BlcmF0b3JHcmFwaCROb25WYWx1ZWRBcmPxJjlbaAJekAIAAHhwc3EAfgAHc3EAfgAKAAAAA3QAAngzc3IAVmlvLmdpdGh1Yi5lcmljbWVkdmV0LmpnZWEuY29yZS5yZXByZXNlbnRhdGlvbi5ncmFwaC5udW1lcmljLm9wZXJhdG9yZ3JhcGguT3BlcmF0b3JOb2Rl9BLOPf4p+ywCAAFMAAhvcGVyYXRvcnQAWExpby9naXRodWIvZXJpY21lZHZldC9qZ2VhL2NvcmUvcmVwcmVzZW50YXRpb24vZ3JhcGgvbnVtZXJpYy9vcGVyYXRvcmdyYXBoL0Jhc2VPcGVyYXRvcjt4cQB+AAwAAADAfnIAVmlvLmdpdGh1Yi5lcmljbWVkdmV0LmpnZWEuY29yZS5yZXByZXNlbnRhdGlvbi5ncmFwaC5udW1lcmljLm9wZXJhdG9yZ3JhcGguQmFzZU9wZXJhdG9yAAAAAAAAAAASAAB4cgAOamF2YS5sYW5nLkVudW0AAAAAAAAAABIAAHhwdAANUFJPVF9ESVZJU0lPTnEAfgATc3EAfgAHc3EAfgAKAAAAAnQAAngyc3EAfgAXAAABFn5xAH4AGnQAC1NVQlRSQUNUSU9OcQB+ABNzcQB+AAdzcQB+ABcAAAJsfnEAfgAadAAIQURESVRJT05zcQB+AA8AAAAAdAACeTBxAH4AE3NxAH4AB3NxAH4AFwAAAqZxAH4AHHNxAH4ADwAAAAF0AAJ5MXEAfgATc3EAfgAHc3EAfgAXAAACvnEAfgAcc3EAfgAPAAAAA3QAAnkzcQB+ABNzcQB+AAdzcQB+ABcAAANXcQB+ACZxAH4AL3EAfgATc3EAfgAHc3EAfgAXAAADdXEAfgAmcQB+ADNxAH4AE3NxAH4AB3NxAH4AFwAAAV5xAH4AJnNxAH4AFwAAA5dxAH4AJnEAfgATc3EAfgAHcQB+ADhxAH4AIXEAfgATc3EAfgAHcQB+ABlzcQB+ABcAAAPBfnEAfgAadAAOTVVMVElQTElDQVRJT05xAH4AE3NxAH4AB3NxAH4AFwAABE1xAH4AInEAfgA3cQB+ABNzcQB+AAdxAH4AO3NxAH4AFwAABKBxAH4AInEAfgATc3EAfgAHc3EAfgAXAAAFp3EAfgAicQB+ACtxAH4AE3NxAH4AB3EAfgAfc3EAfgAXAAAGF3EAfgAccQB+ABNzcQB+AAdxAH4ARXEAfgA4cQB+ABNzcQB+AAdzcgBEaW8uZ2l0aHViLmVyaWNtZWR2ZXQuamdlYS5jb3JlLnJlcHJlc2VudGF0aW9uLmdyYXBoLm51bWVyaWMuQ29uc3RhbnRMZI+THBQJUAIAAUQABXZhbHVleHEAfgAMAAAAAj/wAAAAAAAAc3EAfgAXAAAGjXEAfgAicQB+ABNzcQB+AAdxAH4ASnEAfgA1cQB+ABNzcQB+AAdxAH4AQXNxAH4AFwAABvZxAH4AJnEAfgATc3EAfgAHcQB+AE1xAH4AN3EAfgATc3EAfgAHc3EAfgAKAAAABXQAAng1c3EAfgAXAAAHxXEAfgA8cQB+ABNzcQB+AAdxAH4AUnEAfgA/cQB+ABNzcQB+AAdzcQB+AAoAAAABdAACeDFzcQB+ABcAAAglcQB+ABxxAH4AE3NxAH4AB3EAfgBXcQB+AENxAH4AE3NxAH4AB3NxAH4AFwAAB2NxAH4AInNxAH4AFwAACG1xAH4AInEAfgATc3EAfgAHcQB+AFtzcQB+ABcAAAQdcQB+ACJxAH4AE3NxAH4AB3EAfgAhc3EAfgAXAAAIyXEAfgAmcQB+ABNzcQB+AAdxAH4AX3EAfgBacQB+ABNzcQB+AAdxAH4AXXNxAH4AFwAACQxxAH4AHHEAfgATc3EAfgAHcQB+AGJxAH4AJXEAfgATeABzcgAXamF2YS51dGlsLkxpbmtlZEhhc2hTZXTYbNdald0qHgIAAHhyABFqYXZhLnV0aWwuSGFzaFNldLpEhZWWuLc0AwAAeHB3DAAAAIA/QAAAAAAANXNxAH4ACgAAAAB0AAJ4MHEAfgBVcQB+AB9xAH4AFXNxAH4ACgAAAAR0AAJ4NHEAfgBQc3EAfgAKAAAABnQAAng2cQB+AA1zcQB+AAoAAAAIdAACeDhzcQB+AAoAAAAJdAACeDlzcQB+AAoAAAAKdAADeDEwc3EAfgAKAAAAC3QAA3gxMXNxAH4ACgAAAAx0AAN4MTJzcQB+AAoAAAANdAADeDEzc3EAfgAKAAAADnQAA3gxNHNxAH4ACgAAAA90AAN4MTVxAH4AKHEAfgAscQB+ABBxAH4AMHNxAH4ASAAAAAAAAAAAAAAAAHNxAH4ASAAAAAE/4AAAAAAAAHEAfgBJc3EAfgBIAAAAAz/4AAAAAAAAc3EAfgBIAAAABEAAAAAAAAAAc3EAfgBIAAAABUAEAAAAAAAAc3EAfgBIAAAABkAIAAAAAAAAc3EAfgBIAAAAB0AMAAAAAAAAc3EAfgBIAAAACEAQAAAAAAAAc3EAfgBIAAAACUASAAAAAAAAcQB+ABlxAH4AIXEAfgA3cQB+ACVxAH4AK3EAfgAvcQB+ADNxAH4ANXEAfgA4cQB+ADtxAH4AXXEAfgA/cQB+AEFxAH4AQ3EAfgBFcQB+AEpxAH4ATXEAfgBacQB+AFJxAH4AV3EAfgBbcQB+AF9xAH4AYng=";
    "rO0ABXNyAENpby5naXRodWIuZXJpY21lZHZldC5qZ2VhLmNvcmUucmVwcmVzZW50YXRpb24uZ3JhcGguTGlua2VkSGFzaEdyYXBo8kE6+k8gs3gCAAJMAARhcmNzdAAPTGphdmEvdXRpbC9NYXA7TAAFbm9kZXN0AA9MamF2YS91dGlsL1NldDt4cHNyABdqYXZhLnV0aWwuTGlua2VkSGFzaE1hcDTATlwQbMD7AgABWgALYWNjZXNzT3JkZXJ4cgARamF2YS51dGlsLkhhc2hNYXAFB9rBwxZg0QMAAkYACmxvYWRGYWN0b3JJAAl0aHJlc2hvbGR4cD9AAAAAAAAwdwgAAABAAAAAHnNyAD1pby5naXRodWIuZXJpY21lZHZldC5qZ2VhLmNvcmUucmVwcmVzZW50YXRpb24uZ3JhcGguR3JhcGgkQXJjdMoFPXw1b5ECAAJMAAZzb3VyY2V0ABJMamF2YS9sYW5nL09iamVjdDtMAAZ0YXJnZXRxAH4ACHhwc3IAQWlvLmdpdGh1Yi5lcmljbWVkdmV0LmpnZWEuY29yZS5yZXByZXNlbnRhdGlvbi5ncmFwaC5udW1lcmljLklucHV0kenlcnOuaK4CAAFMAARuYW1ldAASTGphdmEvbGFuZy9TdHJpbmc7eHIAOGlvLmdpdGh1Yi5lcmljbWVkdmV0LmpnZWEuY29yZS5yZXByZXNlbnRhdGlvbi5ncmFwaC5Ob2RlrogRKSuEZ5sCAAFJAAVpbmRleHhwAAAAB3QAAng3c3IAQmlvLmdpdGh1Yi5lcmljbWVkdmV0LmpnZWEuY29yZS5yZXByZXNlbnRhdGlvbi5ncmFwaC5udW1lcmljLk91dHB1dKtiLrjZv0dyAgABTAAEbmFtZXEAfgALeHEAfgAMAAAAAnQAAnkyc3IAZGlvLmdpdGh1Yi5lcmljbWVkdmV0LmpnZWEuY29yZS5yZXByZXNlbnRhdGlvbi5ncmFwaC5udW1lcmljLm9wZXJhdG9yZ3JhcGguT3BlcmF0b3JHcmFwaCROb25WYWx1ZWRBcmPxJjlbaAJekAIAAHhwc3EAfgAHc3EAfgAKAAAAA3QAAngzc3IAVmlvLmdpdGh1Yi5lcmljbWVkdmV0LmpnZWEuY29yZS5yZXByZXNlbnRhdGlvbi5ncmFwaC5udW1lcmljLm9wZXJhdG9yZ3JhcGguT3BlcmF0b3JOb2Rl9BLOPf4p+ywCAAFMAAhvcGVyYXRvcnQAWExpby9naXRodWIvZXJpY21lZHZldC9qZ2VhL2NvcmUvcmVwcmVzZW50YXRpb24vZ3JhcGgvbnVtZXJpYy9vcGVyYXRvcmdyYXBoL0Jhc2VPcGVyYXRvcjt4cQB+AAwAAADAfnIAVmlvLmdpdGh1Yi5lcmljbWVkdmV0LmpnZWEuY29yZS5yZXByZXNlbnRhdGlvbi5ncmFwaC5udW1lcmljLm9wZXJhdG9yZ3JhcGguQmFzZU9wZXJhdG9yAAAAAAAAAAASAAB4cgAOamF2YS5sYW5nLkVudW0AAAAAAAAAABIAAHhwdAANUFJPVF9ESVZJU0lPTnEAfgATc3EAfgAHc3EAfgAKAAAAAnQAAngyc3EAfgAXAAABFn5xAH4AGnQAC1NVQlRSQUNUSU9OcQB+ABNzcQB+AAdzcQB+ABcAAAKmcQB+ABxzcQB+AA8AAAABdAACeTFxAH4AE3NxAH4AB3NxAH4AFwAAAr5xAH4AHHNxAH4ADwAAAAN0AAJ5M3EAfgATc3EAfgAHc3EAfgAXAAADV35xAH4AGnQACEFERElUSU9OcQB+AClxAH4AE3NxAH4AB3NxAH4AFwAAA3VxAH4ALnEAfgAtcQB+ABNzcQB+AAdzcQB+ABcAAAFecQB+AC5zcQB+ABcAAAOXcQB+AC5xAH4AE3NxAH4AB3EAfgA0cQB+ACFxAH4AE3NxAH4AB3EAfgAZc3EAfgAXAAADwX5xAH4AGnQADk1VTFRJUExJQ0FUSU9OcQB+ABNzcQB+AAdzcQB+ABcAAAQdcQB+ACJzcQB+ABcAAAJscQB+AC5xAH4AE3NxAH4AB3NxAH4AFwAABE1xAH4AInEAfgAzcQB+ABNzcQB+AAdxAH4AN3NxAH4AFwAABKBxAH4AInEAfgATc3EAfgAHc3EAfgAXAAAFp3EAfgAicQB+ACVxAH4AE3NxAH4AB3EAfgAfc3EAfgAXAAAGF3EAfgAccQB+ABNzcQB+AAdxAH4ARHEAfgA0cQB+ABNzcQB+AAdzcgBEaW8uZ2l0aHViLmVyaWNtZWR2ZXQuamdlYS5jb3JlLnJlcHJlc2VudGF0aW9uLmdyYXBoLm51bWVyaWMuQ29uc3RhbnRMZI+THBQJUAIAAUQABXZhbHVleHEAfgAMAAAAAj/wAAAAAAAAc3EAfgAXAAAGjXEAfgAicQB+ABNzcQB+AAdxAH4ASXEAfgAxcQB+ABNzcQB+AAdxAH4AQHNxAH4AFwAABvZxAH4ALnEAfgATc3EAfgAHcQB+AExxAH4AM3EAfgATc3EAfgAHcQB+ACFzcQB+ABcAAAdjcQB+ACJxAH4AE3NxAH4AB3NxAH4ACgAAAAV0AAJ4NXNxAH4AFwAAB8VxAH4AOHEAfgATc3EAfgAHcQB+AFNxAH4APnEAfgATc3EAfgAHc3EAfgAKAAAAAXQAAngxc3EAfgAXAAAIJXEAfgAccQB+ABNzcQB+AAdxAH4AT3NxAH4AFwAACG1xAH4AInEAfgATc3EAfgAHcQB+AFpxAH4AO3EAfgATc3EAfgAHcQB+ADxzcQB+ABcAAAjHcQB+ADhxAH4AE3NxAH4AB3EAfgBdc3EAfgAPAAAAAHQAAnkwcQB+ABNzcQB+AAdxAH4AWHNxAH4AFwAACQtxAH4AInEAfgATc3EAfgAHcQB+AGJxAH4AQnEAfgATeABzcgAXamF2YS51dGlsLkxpbmtlZEhhc2hTZXTYbNdald0qHgIAAHhyABFqYXZhLnV0aWwuSGFzaFNldLpEhZWWuLc0AwAAeHB3DAAAAIA/QAAAAAAANXNxAH4ACgAAAAB0AAJ4MHEAfgBWcQB+AB9xAH4AFXNxAH4ACgAAAAR0AAJ4NHEAfgBRc3EAfgAKAAAABnQAAng2cQB+AA1zcQB+AAoAAAAIdAACeDhzcQB+AAoAAAAJdAACeDlzcQB+AAoAAAAKdAADeDEwc3EAfgAKAAAAC3QAA3gxMXNxAH4ACgAAAAx0AAN4MTJzcQB+AAoAAAANdAADeDEzc3EAfgAKAAAADnQAA3gxNHNxAH4ACgAAAA90AAN4MTVxAH4AX3EAfgAmcQB+ABBxAH4AKnNxAH4ARwAAAAAAAAAAAAAAAHNxAH4ARwAAAAE/4AAAAAAAAHEAfgBIc3EAfgBHAAAAAz/4AAAAAAAAc3EAfgBHAAAABEAAAAAAAAAAc3EAfgBHAAAABUAEAAAAAAAAc3EAfgBHAAAABkAIAAAAAAAAc3EAfgBHAAAAB0AMAAAAAAAAc3EAfgBHAAAACEAQAAAAAAAAc3EAfgBHAAAACUASAAAAAAAAcQB+ABlxAH4AIXEAfgAzcQB+ADxxAH4AJXEAfgApcQB+AC1xAH4AMXEAfgA0cQB+ADdxAH4AO3EAfgA+cQB+AEBxAH4AQnEAfgBEcQB+AElxAH4ATHEAfgBPcQB+AFNxAH4AWHEAfgBacQB+AF1xAH4AYng=";
    "rO0ABXNyAENpby5naXRodWIuZXJpY21lZHZldC5qZ2VhLmNvcmUucmVwcmVzZW50YXRpb24uZ3JhcGguTGlua2VkSGFzaEdyYXBo8kE6+k8gs3gCAAJMAARhcmNzdAAPTGphdmEvdXRpbC9NYXA7TAAFbm9kZXN0AA9MamF2YS91dGlsL1NldDt4cHNyABdqYXZhLnV0aWwuTGlua2VkSGFzaE1hcDTATlwQbMD7AgABWgALYWNjZXNzT3JkZXJ4cgARamF2YS51dGlsLkhhc2hNYXAFB9rBwxZg0QMAAkYACmxvYWRGYWN0b3JJAAl0aHJlc2hvbGR4cD9AAAAAAAAwdwgAAABAAAAAHXNyAD1pby5naXRodWIuZXJpY21lZHZldC5qZ2VhLmNvcmUucmVwcmVzZW50YXRpb24uZ3JhcGguR3JhcGgkQXJjdMoFPXw1b5ECAAJMAAZzb3VyY2V0ABJMamF2YS9sYW5nL09iamVjdDtMAAZ0YXJnZXRxAH4ACHhwc3IAQWlvLmdpdGh1Yi5lcmljbWVkdmV0LmpnZWEuY29yZS5yZXByZXNlbnRhdGlvbi5ncmFwaC5udW1lcmljLklucHV0kenlcnOuaK4CAAFMAARuYW1ldAASTGphdmEvbGFuZy9TdHJpbmc7eHIAOGlvLmdpdGh1Yi5lcmljbWVkdmV0LmpnZWEuY29yZS5yZXByZXNlbnRhdGlvbi5ncmFwaC5Ob2RlrogRKSuEZ5sCAAFJAAVpbmRleHhwAAAAB3QAAng3c3IAQmlvLmdpdGh1Yi5lcmljbWVkdmV0LmpnZWEuY29yZS5yZXByZXNlbnRhdGlvbi5ncmFwaC5udW1lcmljLk91dHB1dKtiLrjZv0dyAgABTAAEbmFtZXEAfgALeHEAfgAMAAAAAnQAAnkyc3IAZGlvLmdpdGh1Yi5lcmljbWVkdmV0LmpnZWEuY29yZS5yZXByZXNlbnRhdGlvbi5ncmFwaC5udW1lcmljLm9wZXJhdG9yZ3JhcGguT3BlcmF0b3JHcmFwaCROb25WYWx1ZWRBcmPxJjlbaAJekAIAAHhwc3EAfgAHc3EAfgAKAAAAA3QAAngzc3IAVmlvLmdpdGh1Yi5lcmljbWVkdmV0LmpnZWEuY29yZS5yZXByZXNlbnRhdGlvbi5ncmFwaC5udW1lcmljLm9wZXJhdG9yZ3JhcGguT3BlcmF0b3JOb2Rl9BLOPf4p+ywCAAFMAAhvcGVyYXRvcnQAWExpby9naXRodWIvZXJpY21lZHZldC9qZ2VhL2NvcmUvcmVwcmVzZW50YXRpb24vZ3JhcGgvbnVtZXJpYy9vcGVyYXRvcmdyYXBoL0Jhc2VPcGVyYXRvcjt4cQB+AAwAAADAfnIAVmlvLmdpdGh1Yi5lcmljbWVkdmV0LmpnZWEuY29yZS5yZXByZXNlbnRhdGlvbi5ncmFwaC5udW1lcmljLm9wZXJhdG9yZ3JhcGguQmFzZU9wZXJhdG9yAAAAAAAAAAASAAB4cgAOamF2YS5sYW5nLkVudW0AAAAAAAAAABIAAHhwdAANUFJPVF9ESVZJU0lPTnEAfgATc3EAfgAHc3EAfgAKAAAAAnQAAngyc3EAfgAXAAABFn5xAH4AGnQAC1NVQlRSQUNUSU9OcQB+ABNzcQB+AAdzcQB+ABcAAAJsfnEAfgAadAAIQURESVRJT05zcQB+AA8AAAAAdAACeTBxAH4AE3NxAH4AB3NxAH4AFwAAAqZxAH4AHHNxAH4ADwAAAAF0AAJ5MXEAfgATc3EAfgAHc3EAfgAXAAACvnEAfgAcc3EAfgAPAAAAA3QAAnkzcQB+ABNzcQB+AAdzcQB+ABcAAANXcQB+ACZxAH4AL3EAfgATc3EAfgAHc3EAfgAXAAADdXEAfgAmcQB+ADNxAH4AE3NxAH4AB3NxAH4AFwAAAV5xAH4AJnNxAH4AFwAAA5dxAH4AJnEAfgATc3EAfgAHcQB+ADhxAH4AIXEAfgATc3EAfgAHcQB+ABlzcQB+ABcAAAPBfnEAfgAadAAOTVVMVElQTElDQVRJT05xAH4AE3NxAH4AB3NxAH4AFwAABB1xAH4AInEAfgAlcQB+ABNzcQB+AAdxAH4AO3NxAH4AFwAABKBxAH4AInEAfgATc3EAfgAHc3EAfgAXAAAFp3EAfgAicQB+ACtxAH4AE3NxAH4AB3EAfgAfc3EAfgAXAAAGF3EAfgAccQB+ABNzcQB+AAdxAH4ARXEAfgA4cQB+ABNzcQB+AAdzcgBEaW8uZ2l0aHViLmVyaWNtZWR2ZXQuamdlYS5jb3JlLnJlcHJlc2VudGF0aW9uLmdyYXBoLm51bWVyaWMuQ29uc3RhbnRMZI+THBQJUAIAAUQABXZhbHVleHEAfgAMAAAAAj/wAAAAAAAAc3EAfgAXAAAGjXEAfgAicQB+ABNzcQB+AAdxAH4ASnEAfgA1cQB+ABNzcQB+AAdxAH4AQXNxAH4AFwAABvZxAH4AJnEAfgATc3EAfgAHcQB+AE1xAH4AN3EAfgATc3EAfgAHcQB+ACFzcQB+ABcAAAdjcQB+ACJxAH4AE3NxAH4AB3EAfgBQcQB+AD9xAH4AE3NxAH4AB3NxAH4AFwAAB8VxAH4APHNxAH4AFwAABE1xAH4AInEAfgATc3EAfgAHc3EAfgAKAAAAAXQAAngxc3EAfgAXAAAIJXEAfgAccQB+ABNzcQB+AAdxAH4AWHEAfgBDcQB+ABNzcQB+AAdzcQB+AAoAAAAFdAACeDVzcQB+ABcAAAiGcQB+ABxxAH4AE3NxAH4AB3EAfgBdcQB+AFNxAH4AE3NxAH4AB3EAfgBUc3EAfgAXAAAIyHEAfgA8cQB+ABNzcQB+AAdxAH4AYHEAfgA3cQB+ABN4AHNyABdqYXZhLnV0aWwuTGlua2VkSGFzaFNldNhs11qV3SoeAgAAeHIAEWphdmEudXRpbC5IYXNoU2V0ukSFlZa4tzQDAAB4cHcMAAAAgD9AAAAAAAA0c3EAfgAKAAAAAHQAAngwcQB+AFZxAH4AH3EAfgAVc3EAfgAKAAAABHQAAng0cQB+AFtzcQB+AAoAAAAGdAACeDZxAH4ADXNxAH4ACgAAAAh0AAJ4OHNxAH4ACgAAAAl0AAJ4OXNxAH4ACgAAAAp0AAN4MTBzcQB+AAoAAAALdAADeDExc3EAfgAKAAAADHQAA3gxMnNxAH4ACgAAAA10AAN4MTNzcQB+AAoAAAAOdAADeDE0c3EAfgAKAAAAD3QAA3gxNXEAfgAocQB+ACxxAH4AEHEAfgAwc3EAfgBIAAAAAAAAAAAAAAAAc3EAfgBIAAAAAT/gAAAAAAAAcQB+AElzcQB+AEgAAAADP/gAAAAAAABzcQB+AEgAAAAEQAAAAAAAAABzcQB+AEgAAAAFQAQAAAAAAABzcQB+AEgAAAAGQAgAAAAAAABzcQB+AEgAAAAHQAwAAAAAAABzcQB+AEgAAAAIQBAAAAAAAABzcQB+AEgAAAAJQBIAAAAAAABxAH4AGXEAfgAhcQB+ADdxAH4AJXEAfgArcQB+AC9xAH4AM3EAfgA1cQB+ADhxAH4AO3EAfgA/cQB+AFRxAH4AQXEAfgBDcQB+AEVxAH4ASnEAfgBNcQB+AFBxAH4AU3EAfgBYcQB+AF1xAH4AYHg=";
    "rO0ABXNyAENpby5naXRodWIuZXJpY21lZHZldC5qZ2VhLmNvcmUucmVwcmVzZW50YXRpb24uZ3JhcGguTGlua2VkSGFzaEdyYXBo8kE6+k8gs3gCAAJMAARhcmNzdAAPTGphdmEvdXRpbC9NYXA7TAAFbm9kZXN0AA9MamF2YS91dGlsL1NldDt4cHNyABdqYXZhLnV0aWwuTGlua2VkSGFzaE1hcDTATlwQbMD7AgABWgALYWNjZXNzT3JkZXJ4cgARamF2YS51dGlsLkhhc2hNYXAFB9rBwxZg0QMAAkYACmxvYWRGYWN0b3JJAAl0aHJlc2hvbGR4cD9AAAAAAAAwdwgAAABAAAAAHnNyAD1pby5naXRodWIuZXJpY21lZHZldC5qZ2VhLmNvcmUucmVwcmVzZW50YXRpb24uZ3JhcGguR3JhcGgkQXJjdMoFPXw1b5ECAAJMAAZzb3VyY2V0ABJMamF2YS9sYW5nL09iamVjdDtMAAZ0YXJnZXRxAH4ACHhwc3IAQWlvLmdpdGh1Yi5lcmljbWVkdmV0LmpnZWEuY29yZS5yZXByZXNlbnRhdGlvbi5ncmFwaC5udW1lcmljLklucHV0kenlcnOuaK4CAAFMAARuYW1ldAASTGphdmEvbGFuZy9TdHJpbmc7eHIAOGlvLmdpdGh1Yi5lcmljbWVkdmV0LmpnZWEuY29yZS5yZXByZXNlbnRhdGlvbi5ncmFwaC5Ob2RlrogRKSuEZ5sCAAFJAAVpbmRleHhwAAAAB3QAAng3c3IAQmlvLmdpdGh1Yi5lcmljbWVkdmV0LmpnZWEuY29yZS5yZXByZXNlbnRhdGlvbi5ncmFwaC5udW1lcmljLk91dHB1dKtiLrjZv0dyAgABTAAEbmFtZXEAfgALeHEAfgAMAAAAAnQAAnkyc3IAZGlvLmdpdGh1Yi5lcmljbWVkdmV0LmpnZWEuY29yZS5yZXByZXNlbnRhdGlvbi5ncmFwaC5udW1lcmljLm9wZXJhdG9yZ3JhcGguT3BlcmF0b3JHcmFwaCROb25WYWx1ZWRBcmPxJjlbaAJekAIAAHhwc3EAfgAHc3EAfgAKAAAAA3QAAngzc3IAVmlvLmdpdGh1Yi5lcmljbWVkdmV0LmpnZWEuY29yZS5yZXByZXNlbnRhdGlvbi5ncmFwaC5udW1lcmljLm9wZXJhdG9yZ3JhcGguT3BlcmF0b3JOb2Rl9BLOPf4p+ywCAAFMAAhvcGVyYXRvcnQAWExpby9naXRodWIvZXJpY21lZHZldC9qZ2VhL2NvcmUvcmVwcmVzZW50YXRpb24vZ3JhcGgvbnVtZXJpYy9vcGVyYXRvcmdyYXBoL0Jhc2VPcGVyYXRvcjt4cQB+AAwAAADAfnIAVmlvLmdpdGh1Yi5lcmljbWVkdmV0LmpnZWEuY29yZS5yZXByZXNlbnRhdGlvbi5ncmFwaC5udW1lcmljLm9wZXJhdG9yZ3JhcGguQmFzZU9wZXJhdG9yAAAAAAAAAAASAAB4cgAOamF2YS5sYW5nLkVudW0AAAAAAAAAABIAAHhwdAANUFJPVF9ESVZJU0lPTnEAfgATc3EAfgAHc3EAfgAKAAAAAnQAAngyc3EAfgAXAAABFn5xAH4AGnQAC1NVQlRSQUNUSU9OcQB+ABNzcQB+AAdzcQB+ABcAAAJsfnEAfgAadAAIQURESVRJT05zcQB+AA8AAAAAdAACeTBxAH4AE3NxAH4AB3NxAH4AFwAAAqZxAH4AHHNxAH4ADwAAAAF0AAJ5MXEAfgATc3EAfgAHc3EAfgAXAAACvnEAfgAcc3EAfgAPAAAAA3QAAnkzcQB+ABNzcQB+AAdzcQB+ABcAAANXcQB+ACZxAH4AL3EAfgATc3EAfgAHc3EAfgAXAAADdXEAfgAmcQB+ADNxAH4AE3NxAH4AB3NxAH4AFwAAAV5xAH4AJnNxAH4AFwAAA5dxAH4AJnEAfgATc3EAfgAHcQB+ADhxAH4AIXEAfgATc3EAfgAHcQB+ABlzcQB+ABcAAAPBfnEAfgAadAAOTVVMVElQTElDQVRJT05xAH4AE3NxAH4AB3NxAH4AFwAABE1xAH4AInEAfgA3cQB+ABNzcQB+AAdxAH4AO3NxAH4AFwAABKBxAH4AInEAfgATc3EAfgAHc3EAfgAXAAAFp3EAfgAicQB+ACtxAH4AE3NxAH4AB3EAfgAfc3EAfgAXAAAGF3EAfgAccQB+ABNzcQB+AAdxAH4ARXEAfgA4cQB+ABNzcQB+AAdzcgBEaW8uZ2l0aHViLmVyaWNtZWR2ZXQuamdlYS5jb3JlLnJlcHJlc2VudGF0aW9uLmdyYXBoLm51bWVyaWMuQ29uc3RhbnRMZI+THBQJUAIAAUQABXZhbHVleHEAfgAMAAAAAj/wAAAAAAAAc3EAfgAXAAAGjXEAfgAicQB+ABNzcQB+AAdxAH4ASnEAfgA1cQB+ABNzcQB+AAdxAH4AQXNxAH4AFwAABvZxAH4AJnEAfgATc3EAfgAHcQB+AE1xAH4AN3EAfgATc3EAfgAHc3EAfgAKAAAABXQAAng1c3EAfgAXAAAHxXEAfgA8cQB+ABNzcQB+AAdxAH4AUnEAfgA/cQB+ABNzcQB+AAdzcQB+AAoAAAABdAACeDFzcQB+ABcAAAglcQB+ABxxAH4AE3NxAH4AB3EAfgBXcQB+AENxAH4AE3NxAH4AB3NxAH4AFwAAB2NxAH4AInNxAH4AFwAACG1xAH4AInEAfgATc3EAfgAHcQB+AFtzcQB+ABcAAAQdcQB+ACJxAH4AE3NxAH4AB3EAfgAhc3EAfgAXAAAIyXEAfgAmcQB+ABNzcQB+AAdxAH4AX3EAfgBacQB+ABNzcQB+AAdxAH4AXXNxAH4AFwAACQxxAH4AHHEAfgATc3EAfgAHcQB+AGJxAH4AJXEAfgATeABzcgAXamF2YS51dGlsLkxpbmtlZEhhc2hTZXTYbNdald0qHgIAAHhyABFqYXZhLnV0aWwuSGFzaFNldLpEhZWWuLc0AwAAeHB3DAAAAIA/QAAAAAAANXNxAH4ACgAAAAB0AAJ4MHEAfgBVcQB+AB9xAH4AFXNxAH4ACgAAAAR0AAJ4NHEAfgBQc3EAfgAKAAAABnQAAng2cQB+AA1zcQB+AAoAAAAIdAACeDhzcQB+AAoAAAAJdAACeDlzcQB+AAoAAAAKdAADeDEwc3EAfgAKAAAAC3QAA3gxMXNxAH4ACgAAAAx0AAN4MTJzcQB+AAoAAAANdAADeDEzc3EAfgAKAAAADnQAA3gxNHNxAH4ACgAAAA90AAN4MTVxAH4AKHEAfgAscQB+ABBxAH4AMHNxAH4ASAAAAAAAAAAAAAAAAHNxAH4ASAAAAAE/4AAAAAAAAHEAfgBJc3EAfgBIAAAAAz/4AAAAAAAAc3EAfgBIAAAABEAAAAAAAAAAc3EAfgBIAAAABUAEAAAAAAAAc3EAfgBIAAAABkAIAAAAAAAAc3EAfgBIAAAAB0AMAAAAAAAAc3EAfgBIAAAACEAQAAAAAAAAc3EAfgBIAAAACUASAAAAAAAAcQB+ABlxAH4AIXEAfgA3cQB+ACVxAH4AK3EAfgAvcQB+ADNxAH4ANXEAfgA4cQB+ADtxAH4AXXEAfgA/cQB+AEFxAH4AQ3EAfgBFcQB+AEpxAH4ATXEAfgBacQB+AFJxAH4AV3EAfgBbcQB+AF9xAH4AYng="
  ]
)