ea.runOutcome(
  index = 244;
  run = ea.run(
    problem = ea.p.mr.fromData(
      trainingDataset = ea.dataset.numerical.fromFile(
        filePath = "../phase2/data-ro-gp-3-007.txt";
        folds = [0];
        nFolds = 40;
        xVarNamePattern = "x.*";
        yVarNamePattern = "y.*"
      )
    );
    randomGenerator = ea.rg.defaultRG(seed = 5);
    solver = ea.s.multiSRTreeGP(
      crossoverP = 0.8;
      diversity = true;
      mapper = ea.m.treeMRF(
        dataset = ea.d.num.empty(
          xVars = [
            x0;
            x1;
            x2;
            x3;
            x4;
            x5;
            x6;
            x7;
            x8;
            x9;
            x10;
            x11;
            x12;
            x13;
            x14;
            x15
          ];
          yVars = [y0; y1; y2; y3]
        );
        postOperator = tanh
      );
      maxConst = 5;
      maxTreeH = 8;
      minConst = 0;
      minNTournament = 3;
      minTreeH = 3;
      nAttemptsDiversity = 100;
      nConst = 10;
      nEval = 10000;
      nPop = 100;
      operators = [addition; subtraction; multiplication; prot_division];
      tournamentRate = 0.05
    )
  );
  serializedGenotypes = [
    "rO0ABXNyABFqYXZhLnV0aWwuQ29sbFNlcleOq7Y6G6gRAwABSQADdGFneHAAAAAEdwQAAAAEc3IAN2lvLmdpdGh1Yi5lcmljbWVkdmV0LmpnZWEuY29yZS5yZXByZXNlbnRhdGlvbi50cmVlLlRyZWUKs7/qnQrEZQIAA0wACGNoaWxkcmVudAAQTGphdmEvdXRpbC9MaXN0O0wAB2NvbnRlbnR0ABJMamF2YS9sYW5nL09iamVjdDtMAAZwYXJlbnR0ADlMaW8vZ2l0aHViL2VyaWNtZWR2ZXQvamdlYS9jb3JlL3JlcHJlc2VudGF0aW9uL3RyZWUvVHJlZTt4cHNyABNqYXZhLnV0aWwuQXJyYXlMaXN0eIHSHZnHYZ0DAAFJAARzaXpleHAAAAACdwQAAAACc3EAfgACc3EAfgAHAAAAAncEAAAAAnNxAH4AAnNxAH4ABwAAAAJ3BAAAAAJzcQB+AAJzcQB+AAcAAAAAdwQAAAAAeHNyAEtpby5naXRodWIuZXJpY21lZHZldC5qZ2VhLmNvcmUucmVwcmVzZW50YXRpb24udHJlZS5udW1lcmljLkVsZW1lbnQkQ29uc3RhbnQAAAAAAAAAAAIAAUQABXZhbHVleHBADAAAAAAAAHEAfgALc3EAfgACc3EAfgAHAAAAAncEAAAAAnNxAH4AAnNxAH4ABwAAAAB3BAAAAAB4c3IAS2lvLmdpdGh1Yi5lcmljbWVkdmV0LmpnZWEuY29yZS5yZXByZXNlbnRhdGlvbi50cmVlLm51bWVyaWMuRWxlbWVudCRWYXJpYWJsZQAAAAAAAAAAAgABTAAEbmFtZXQAEkxqYXZhL2xhbmcvU3RyaW5nO3hwdAADeDExcQB+ABFzcQB+AAJzcQB+AAcAAAAAdwQAAAAAeHNxAH4ADz/gAAAAAAAAcQB+ABF4fnIAS2lvLmdpdGh1Yi5lcmljbWVkdmV0LmpnZWEuY29yZS5yZXByZXNlbnRhdGlvbi50cmVlLm51bWVyaWMuRWxlbWVudCRPcGVyYXRvcgAAAAAAAAAAEgAAeHIADmphdmEubGFuZy5FbnVtAAAAAAAAAAASAAB4cHQADk1VTFRJUExJQ0FUSU9OcQB+AAt4fnEAfgAcdAAIQURESVRJT05xAH4ACXNxAH4AAnNxAH4ABwAAAAJ3BAAAAAJzcQB+AAJzcQB+AAcAAAACdwQAAAACc3EAfgACc3EAfgAHAAAAAncEAAAAAnNxAH4AAnNxAH4ABwAAAAJ3BAAAAAJzcQB+AAJzcQB+AAcAAAAAdwQAAAAAeHNxAH4AFXQAAngwcQB+AChzcQB+AAJzcQB+AAcAAAAAdwQAAAAAeHNxAH4AD0AIAAAAAAAAcQB+ACh4cQB+AB5xAH4AJnNxAH4AAnNxAH4ABwAAAAJ3BAAAAAJzcQB+AAJzcQB+AAcAAAAAdwQAAAAAeHNxAH4AFXQAAng1cQB+ADFzcQB+AAJzcQB+AAcAAAACdwQAAAACc3EAfgACc3EAfgAHAAAAAHcEAAAAAHhxAH4AF3EAfgA3c3EAfgACc3EAfgAHAAAAAHcEAAAAAHhzcQB+ABV0AAJ4MXEAfgA3eH5xAH4AHHQAC1NVQlRSQUNUSU9Oc3EAfgACc3EAfgAHAAAAAncEAAAAAnNxAH4AAnNxAH4ABwAAAAJ3BAAAAAJzcQB+AAJzcQB+AAcAAAAAdwQAAAAAeHNxAH4AFXQAAng0cQB+AENzcQB+AAJzcQB+AAcAAAAAdwQAAAAAeHNxAH4AD0AAAAAAAAAAcQB+AEN4cQB+AB5xAH4AQXEAfgA3eHEAfgAec3EAfgACc3EAfgAHAAAAAncEAAAAAnNxAH4AAnNxAH4ABwAAAAJ3BAAAAAJzcQB+AAJzcQB+AAcAAAAAdwQAAAAAeHEAfgAscQB+AE5zcQB+AAJzcQB+AAcAAAAAdwQAAAAAeHEAfgAwcQB+AE54cQB+AB5xAH4ATHEAfgBBeHEAfgAgc3EAfgACc3EAfgAHAAAAAncEAAAAAnEAfgBMc3EAfgACc3EAfgAHAAAAAncEAAAAAnNxAH4AAnNxAH4ABwAAAAJ3BAAAAAJzcQB+AAJzcQB+AAcAAAACdwQAAAACc3EAfgACc3EAfgAHAAAAAHcEAAAAAHhzcQB+ABV0AAJ4OHEAfgBac3EAfgACc3EAfgAHAAAAAHcEAAAAAHhzcQB+ABV0AAJ4OXEAfgBaeHEAfgAgcQB+AFhzcQB+AAJzcQB+AAcAAAACdwQAAAACc3EAfgACc3EAfgAHAAAAAHcEAAAAAHhxAH4AMHEAfgBkc3EAfgACc3EAfgAHAAAAAHcEAAAAAHhzcQB+AA8/8AAAAAAAAHEAfgBkeHEAfgAgc3EAfgACc3EAfgAHAAAAAncEAAAAAnNxAH4AAnNxAH4ABwAAAAJ3BAAAAAJzcQB+AAJzcQB+AAcAAAAAdwQAAAAAeHEAfgBecQB+AG1zcQB+AAJzcQB+AAcAAAAAdwQAAAAAeHEAfgAXcQB+AG14cQB+ACBxAH4Aa3EAfgBkeHEAfgA/c3EAfgACc3EAfgAHAAAAAncEAAAAAnEAfgBrc3EAfgACc3EAfgAHAAAAAncEAAAAAnNxAH4AAnNxAH4ABwAAAAB3BAAAAAB4cQB+ADBxAH4AdXNxAH4AAnNxAH4ABwAAAAB3BAAAAAB4cQB+AGpxAH4AdXhxAH4AIHNxAH4AAnNxAH4ABwAAAAJ3BAAAAAJzcQB+AAJzcQB+AAcAAAACdwQAAAACc3EAfgACc3EAfgAHAAAAAncEAAAAAnNxAH4AAnNxAH4ABwAAAAB3BAAAAAB4cQB+AF5xAH4Af3NxAH4AAnNxAH4ABwAAAAB3BAAAAAB4cQB+AGJxAH4Af3hxAH4AIHEAfgB9c3EAfgACc3EAfgAHAAAAAHcEAAAAAHhzcQB+ABV0AAJ4M3EAfgB9eHEAfgA/cQB+AHtxAH4AdXh+cQB+ABx0AA1QUk9UX0RJVklTSU9Oc3EAfgACc3EAfgAHAAAAAncEAAAAAnNxAH4AAnNxAH4ABwAAAAJ3BAAAAAJzcQB+AAJzcQB+AAcAAAACdwQAAAACc3EAfgACc3EAfgAHAAAAAHcEAAAAAHhxAH4ALHEAfgCPc3EAfgACc3EAfgAHAAAAAHcEAAAAAHhxAH4AMHEAfgCPeHEAfgAecQB+AI1zcQB+AAJzcQB+AAcAAAACdwQAAAACc3EAfgACc3EAfgAHAAAAAHcEAAAAAHhxAH4ANXEAfgCVc3EAfgACc3EAfgAHAAAAAncEAAAAAnNxAH4AAnNxAH4ABwAAAAB3BAAAAAB4cQB+ABdxAH4AmXNxAH4AAnNxAH4ABwAAAAB3BAAAAAB4cQB+AD1xAH4AmXhxAH4AP3EAfgCVeHEAfgAecQB+AI14cQB+ACBxAH4Ai3EAfgB7eHEAfgAec3EAfgACc3EAfgAHAAAAAncEAAAAAnEAfgCLc3EAfgACc3EAfgAHAAAAAncEAAAAAnNxAH4AAnNxAH4ABwAAAAB3BAAAAAB4cQB+AGpxAH4AoXNxAH4AAnNxAH4ABwAAAAJ3BAAAAAJzcQB+AAJzcQB+AAcAAAAAdwQAAAAAeHEAfgAbcQB+AKVzcQB+AAJzcQB+AAcAAAACdwQAAAACc3EAfgACc3EAfgAHAAAAAHcEAAAAAHhxAH4AanEAfgCpc3EAfgACc3EAfgAHAAAAAHcEAAAAAHhzcQB+AA9ABAAAAAAAAHEAfgCpeHEAfgAec3EAfgACc3EAfgAHAAAAAncEAAAAAnNxAH4AAnNxAH4ABwAAAAB3BAAAAAB4cQB+AD1xAH4AsHEAfgCpeHEAfgAgc3EAfgACc3EAfgAHAAAAAncEAAAAAnNxAH4AAnNxAH4ABwAAAAB3BAAAAAB4cQB+AGpxAH4AtHEAfgCweHEAfgAec3EAfgACc3EAfgAHAAAAAncEAAAAAnNxAH4AAnNxAH4ABwAAAAJ3BAAAAAJzcQB+AAJzcQB+AAcAAAACdwQAAAACc3EAfgACc3EAfgAHAAAAAncEAAAAAnNxAH4AAnNxAH4ABwAAAAB3BAAAAAB4cQB+ACxxAH4AvnNxAH4AAnNxAH4ABwAAAAB3BAAAAAB4cQB+ADBxAH4AvnhxAH4AHnEAfgC8c3EAfgACc3EAfgAHAAAAAncEAAAAAnNxAH4AAnNxAH4ABwAAAAB3BAAAAAB4cQB+ADVxAH4AxHNxAH4AAnNxAH4ABwAAAAJ3BAAAAAJzcQB+AAJzcQB+AAcAAAAAdwQAAAAAeHEAfgAXcQB+AMhzcQB+AAJzcQB+AAcAAAAAdwQAAAAAeHEAfgA9cQB+AMh4cQB+AD9xAH4AxHhxAH4AHnEAfgC8eHEAfgAgcQB+ALpzcQB+AAJzcQB+AAcAAAACdwQAAAACc3EAfgACc3EAfgAHAAAAAncEAAAAAnNxAH4AAnNxAH4ABwAAAAJ3BAAAAAJzcQB+AAJzcQB+AAcAAAAAdwQAAAAAeHEAfgBecQB+ANJzcQB+AAJzcQB+AAcAAAAAdwQAAAAAeHEAfgBicQB+ANJ4cQB+ACBxAH4A0HNxAH4AAnNxAH4ABwAAAAJ3BAAAAAJzcQB+AAJzcQB+AAcAAAAAdwQAAAAAeHEAfgAwcQB+ANhzcQB+AAJzcQB+AAcAAAAAdwQAAAAAeHEAfgBqcQB+ANh4cQB+ACBxAH4A0HhxAH4AP3EAfgDOc3EAfgACc3EAfgAHAAAAAncEAAAAAnNxAH4AAnNxAH4ABwAAAAB3BAAAAAB4cQB+ADBxAH4A3nNxAH4AAnNxAH4ABwAAAAB3BAAAAAB4cQB+AGpxAH4A3nhxAH4AIHEAfgDOeHEAfgCJcQB+ALp4cQB+AB5xAH4AuHEAfgC0eHEAfgAgc3EAfgACc3EAfgAHAAAAAncEAAAAAnNxAH4AAnNxAH4ABwAAAAJ3BAAAAAJzcQB+AAJzcQB+AAcAAAAAdwQAAAAAeHEAfgAQcQB+AOZzcQB+AAJzcQB+AAcAAAACdwQAAAACc3EAfgACc3EAfgAHAAAAAHcEAAAAAHhxAH4AF3EAfgDqc3EAfgACc3EAfgAHAAAAAncEAAAAAnNxAH4AAnNxAH4ABwAAAAB3BAAAAAB4cQB+AGpxAH4A7nNxAH4AAnNxAH4ABwAAAAJ3BAAAAAJzcQB+AAJzcQB+AAcAAAAAdwQAAAAAeHEAfgBHcQB+APJzcQB+AAJzcQB+AAcAAAAAdwQAAAAAeHEAfgBLcQB+APJ4cQB+AB5xAH4A7nhxAH4AIHEAfgDqeHEAfgAecQB+AOZ4cQB+ACBxAH4A5HEAfgC4eHEAfgA/c3EAfgACc3EAfgAHAAAAAncEAAAAAnEAfgDkc3EAfgACc3EAfgAHAAAAAncEAAAAAnNxAH4AAnNxAH4ABwAAAAB3BAAAAAB4cQB+AGpxAH4A+nNxAH4AAnNxAH4ABwAAAAJ3BAAAAAJzcQB+AAJzcQB+AAcAAAACdwQAAAACc3EAfgACc3EAfgAHAAAAAHcEAAAAAHhxAH4Ah3EAfgEAc3EAfgACc3EAfgAHAAAAAHcEAAAAAHhxAH4AanEAfgEAeHEAfgAecQB+AP5zcQB+AAJzcQB+AAcAAAACdwQAAAACc3EAfgACc3EAfgAHAAAAAncEAAAAAnNxAH4AAnNxAH4ABwAAAAB3BAAAAAB4c3EAfgAVdAADeDE1cQB+AQhzcQB+AAJzcQB+AAcAAAAAdwQAAAAAeHNxAH4ADwAAAAAAAAAAcQB+AQh4cQB+AB5xAH4BBnNxAH4AAnNxAH4ABwAAAAB3BAAAAAB4cQB+AGpzcQB+AAJzcQB+AAcAAAACdwQAAAACc3EAfgACc3EAfgAHAAAAAncEAAAAAnNxAH4AAnNxAH4ABwAAAAB3BAAAAAB4cQB+AQxxAH4BFXNxAH4AAnNxAH4ABwAAAAB3BAAAAAB4cQB+ADBxAH4BFXhxAH4AHnEAfgETcQB+ARF4cQB+AIlzcQB+AAJzcQB+AAcAAAACdwQAAAACc3EAfgACc3EAfgAHAAAAAncEAAAAAnNxAH4AAnNxAH4ABwAAAAB3BAAAAAB4cQB+AIdxAH4BHXNxAH4AAnNxAH4ABwAAAAB3BAAAAAB4cQB+AGpxAH4BHXhxAH4AHnEAfgEbcQB+ARN4cQB+AB5zcQB+AAJzcQB+AAcAAAACdwQAAAACc3EAfgACc3EAfgAHAAAAAHcEAAAAAHhxAH4AanEAfgEjcQB+ARt4cQB+AIlzcQB+AAJzcQB+AAcAAAACdwQAAAACc3EAfgACc3EAfgAHAAAAAncEAAAAAnNxAH4AAnNxAH4ABwAAAAJ3BAAAAAJzcQB+AAJzcQB+AAcAAAAAdwQAAAAAeHEAfgAQcQB+AStzcQB+AAJzcQB+AAcAAAACdwQAAAACc3EAfgACc3EAfgAHAAAAAHcEAAAAAHhxAH4AF3EAfgEvc3EAfgACc3EAfgAHAAAAAncEAAAAAnNxAH4AAnNxAH4ABwAAAAB3BAAAAAB4cQB+AGpxAH4BM3NxAH4AAnNxAH4ABwAAAAJ3BAAAAAJzcQB+AAJzcQB+AAcAAAAAdwQAAAAAeHEAfgBHcQB+ATdzcQB+AAJzcQB+AAcAAAAAdwQAAAAAeHEAfgBLcQB+ATd4cQB+AB5xAH4BM3hxAH4AIHEAfgEveHEAfgAecQB+ASt4cQB+ACBxAH4BKXNxAH4AAnNxAH4ABwAAAAJ3BAAAAAJzcQB+AAJzcQB+AAcAAAACdwQAAAACc3EAfgACc3EAfgAHAAAAAncEAAAAAnNxAH4AAnNxAH4ABwAAAAJ3BAAAAAJzcQB+AAJzcQB+AAcAAAAAdwQAAAAAeHEAfgAscQB+AUNzcQB+AAJzcQB+AAcAAAAAdwQAAAAAeHEAfgAwcQB+AUN4cQB+AB5xAH4BQXNxAH4AAnNxAH4ABwAAAAJ3BAAAAAJzcQB+AAJzcQB+AAcAAAAAdwQAAAAAeHEAfgA1cQB+AUlzcQB+AAJzcQB+AAcAAAACdwQAAAACc3EAfgACc3EAfgAHAAAAAHcEAAAAAHhxAH4AF3EAfgFNc3EAfgACc3EAfgAHAAAAAHcEAAAAAHhxAH4APXEAfgFNeHEAfgA/cQB+AUl4cQB+AB5xAH4BQXhxAH4AIHEAfgE/c3EAfgACc3EAfgAHAAAAAncEAAAAAnNxAH4AAnNxAH4ABwAAAAJ3BAAAAAJzcQB+AAJzcQB+AAcAAAACdwQAAAACc3EAfgACc3EAfgAHAAAAAHcEAAAAAHhxAH4AXnEAfgFXc3EAfgACc3EAfgAHAAAAAHcEAAAAAHhxAH4AYnEAfgFXeHEAfgAgcQB+AVVzcQB+AAJzcQB+AAcAAAACdwQAAAACc3EAfgACc3EAfgAHAAAAAHcEAAAAAHhxAH4AMHEAfgFdc3EAfgACc3EAfgAHAAAAAHcEAAAAAHhxAH4AanEAfgFdeHEAfgAgcQB+AVV4cQB+AD9xAH4BU3NxAH4AAnNxAH4ABwAAAAJ3BAAAAAJzcQB+AAJzcQB+AAcAAAAAdwQAAAAAeHEAfgAwcQB+AWNzcQB+AAJzcQB+AAcAAAAAdwQAAAAAeHEAfgBqcQB+AWN4cQB+ACBxAH4BU3hxAH4AiXEAfgE/eHEAfgAecQB+AT1zcQB+AAJzcQB+AAcAAAACdwQAAAACc3EAfgACc3EAfgAHAAAAAHcEAAAAAHhxAH4AanEAfgFpc3EAfgACc3EAfgAHAAAAAncEAAAAAnNxAH4AAnNxAH4ABwAAAAB3BAAAAAB4cQB+ABtxAH4BbXNxAH4AAnNxAH4ABwAAAAJ3BAAAAAJzcQB+AAJzcQB+AAcAAAAAdwQAAAAAeHEAfgBqcQB+AXFzcQB+AAJzcQB+AAcAAAAAdwQAAAAAeHEAfgCvcQB+AXF4cQB+AB5xAH4BbXhxAH4AIHEAfgFpeHEAfgAecQB+AT14cQB+ACBxAH4BKXhxAH4AP3EAfgEncQB+ASN4cQB+AIlweHEAfgCJcQB+AP54cQB+AB5xAH4A+nhxAH4AiXNxAH4AAnNxAH4ABwAAAAJ3BAAAAAJzcQB+AAJzcQB+AAcAAAACdwQAAAACc3EAfgACc3EAfgAHAAAAAncEAAAAAnNxAH4AAnNxAH4ABwAAAAB3BAAAAAB4cQB+ABBxAH4Be3NxAH4AAnNxAH4ABwAAAAJ3BAAAAAJzcQB+AAJzcQB+AAcAAAAAdwQAAAAAeHEAfgAXcQB+AX9zcQB+AAJzcQB+AAcAAAACdwQAAAACc3EAfgACc3EAfgAHAAAAAHcEAAAAAHhxAH4AanEAfgGDc3EAfgACc3EAfgAHAAAAAncEAAAAAnNxAH4AAnNxAH4ABwAAAAB3BAAAAAB4cQB+AEdxAH4Bh3NxAH4AAnNxAH4ABwAAAAB3BAAAAAB4cQB+AEtxAH4Bh3hxAH4AHnEAfgGDeHEAfgAgcQB+AX94cQB+AB5xAH4Be3hxAH4AIHEAfgF5c3EAfgACc3EAfgAHAAAAAncEAAAAAnNxAH4AAnNxAH4ABwAAAAJ3BAAAAAJzcQB+AAJzcQB+AAcAAAACdwQAAAACc3EAfgACc3EAfgAHAAAAAncEAAAAAnNxAH4AAnNxAH4ABwAAAAB3BAAAAAB4cQB+ACxxAH4Bk3NxAH4AAnNxAH4ABwAAAAB3BAAAAAB4cQB+ADBxAH4Bk3hxAH4AHnEAfgGRc3EAfgACc3EAfgAHAAAAAncEAAAAAnNxAH4AAnNxAH4ABwAAAAB3BAAAAAB4cQB+ADVxAH4BmXNxAH4AAnNxAH4ABwAAAAJ3BAAAAAJzcQB+AAJzcQB+AAcAAAAAdwQAAAAAeHEAfgAXcQB+AZ1zcQB+AAJzcQB+AAcAAAAAdwQAAAAAeHEAfgA9cQB+AZ14cQB+AD9xAH4BmXhxAH4AHnEAfgGReHEAfgAgcQB+AY9zcQB+AAJzcQB+AAcAAAACdwQAAAACc3EAfgACc3EAfgAHAAAAAncEAAAAAnNxAH4AAnNxAH4ABwAAAAJ3BAAAAAJzcQB+AAJzcQB+AAcAAAAAdwQAAAAAeHEAfgBecQB+AadzcQB+AAJzcQB+AAcAAAAAdwQAAAAAeHEAfgBicQB+Aad4cQB+ACBxAH4BpXNxAH4AAnNxAH4ABwAAAAJ3BAAAAAJzcQB+AAJzcQB+AAcAAAAAdwQAAAAAeHEAfgAwcQB+Aa1zcQB+AAJzcQB+AAcAAAAAdwQAAAAAeHEAfgBqcQB+Aa14cQB+ACBxAH4BpXhxAH4AP3EAfgGjc3EAfgACc3EAfgAHAAAAAncEAAAAAnNxAH4AAnNxAH4ABwAAAAB3BAAAAAB4cQB+ADBxAH4Bs3NxAH4AAnNxAH4ABwAAAAB3BAAAAAB4cQB+AGpxAH4Bs3hxAH4AIHEAfgGjeHEAfgCJcQB+AY94cQB+AB5xAH4BjXNxAH4AAnNxAH4ABwAAAAJ3BAAAAAJzcQB+AAJzcQB+AAcAAAAAdwQAAAAAeHEAfgBqcQB+AblzcQB+AAJzcQB+AAcAAAACdwQAAAACc3EAfgACc3EAfgAHAAAAAHcEAAAAAHhxAH4AanEAfgG9c3EAfgACc3EAfgAHAAAAAncEAAAAAnNxAH4AAnNxAH4ABwAAAAB3BAAAAAB4cQB+ABtxAH4BwXNxAH4AAnNxAH4ABwAAAAJ3BAAAAAJzcQB+AAJzcQB+AAcAAAAAdwQAAAAAeHEAfgBqcQB+AcVzcQB+AAJzcQB+AAcAAAAAdwQAAAAAeHEAfgCvcQB+AcV4cQB+AB5xAH4BwXhxAH4AIHEAfgG9eHEAfgAecQB+Abl4cQB+AB5xAH4BjXhxAH4AIHEAfgF5eHEAfgA/cQB+AXdxAH4A+nhxAH4AiXB4cQB+AIlweHEAfgAgcQB+AKF4cQB+AB5xAH4An3hxAH4AIHNxAH4AAnNxAH4ABwAAAAJ3BAAAAAJzcQB+AAJzcQB+AAcAAAACdwQAAAACc3EAfgACc3EAfgAHAAAAAHcEAAAAAHhxAH4AEHEAfgHNc3EAfgACc3EAfgAHAAAAAncEAAAAAnNxAH4AAnNxAH4ABwAAAAB3BAAAAAB4cQB+ABdxAH4B0XNxAH4AAnNxAH4ABwAAAAJ3BAAAAAJzcQB+AAJzcQB+AAcAAAAAdwQAAAAAeHEAfgBqcQB+AdVzcQB+AAJzcQB+AAcAAAACdwQAAAACc3EAfgACc3EAfgAHAAAAAHcEAAAAAHhxAH4AR3EAfgHZc3EAfgACc3EAfgAHAAAAAHcEAAAAAHhxAH4AS3EAfgHZeHEAfgAecQB+AdV4cQB+ACBxAH4B0XhxAH4AHnEAfgHNeHEAfgAgcQB+ActxAH4An3hxAH4AP3NxAH4AAnNxAH4ABwAAAAJ3BAAAAAJxAH4By3EAfgD6eHEAfgCJcHhxAH4AiXNxAH4AAnNxAH4ABwAAAAJ3BAAAAAJzcQB+AAJzcQB+AAcAAAACdwQAAAACc3EAfgACc3EAfgAHAAAAAncEAAAAAnNxAH4AAnNxAH4ABwAAAAB3BAAAAAB4cQB+ACxxAH4B5XNxAH4AAnNxAH4ABwAAAAB3BAAAAAB4cQB+ADBxAH4B5XhxAH4AHnEAfgHjc3EAfgACc3EAfgAHAAAAAncEAAAAAnNxAH4AAnNxAH4ABwAAAAB3BAAAAAB4cQB+ADVxAH4B63NxAH4AAnNxAH4ABwAAAAJ3BAAAAAJzcQB+AAJzcQB+AAcAAAAAdwQAAAAAeHEAfgAXcQB+Ae9zcQB+AAJzcQB+AAcAAAAAdwQAAAAAeHEAfgA9cQB+Ae94cQB+AD9xAH4B63hxAH4AHnEAfgHjeHEAfgAgcQB+AeFxAH4Ac3hxAH4AHnNxAH4AAnNxAH4ABwAAAAJ3BAAAAAJxAH4B4XEAfgCheHEAfgAgc3EAfgACc3EAfgAHAAAAAncEAAAAAnNxAH4AAnNxAH4ABwAAAAJ3BAAAAAJzcQB+AAJzcQB+AAcAAAAAdwQAAAAAeHEAfgAQcQB+AflzcQB+AAJzcQB+AAcAAAACdwQAAAACc3EAfgACc3EAfgAHAAAAAHcEAAAAAHhxAH4AF3EAfgH9c3EAfgACc3EAfgAHAAAAAncEAAAAAnNxAH4AAnNxAH4ABwAAAAB3BAAAAAB4cQB+AGpxAH4CAXNxAH4AAnNxAH4ABwAAAAJ3BAAAAAJzcQB+AAJzcQB+AAcAAAAAdwQAAAAAeHEAfgBHcQB+AgVzcQB+AAJzcQB+AAcAAAAAdwQAAAAAeHEAfgBLcQB+AgV4cQB+AB5xAH4CAXhxAH4AIHEAfgH9eHEAfgAecQB+Afl4cQB+ACBxAH4B93EAfgH1eHEAfgA/c3EAfgACc3EAfgAHAAAAAncEAAAAAnEAfgH3cQB+APp4cQB+AIlweHEAfgA/cQB+AFZxAH4AdXhxAH4AiXNxAH4AAnNxAH4ABwAAAAJ3BAAAAAJzcQB+AAJzcQB+AAcAAAACdwQAAAACc3EAfgACc3EAfgAHAAAAAncEAAAAAnNxAH4AAnNxAH4ABwAAAAB3BAAAAAB4cQB+ACxxAH4CEXNxAH4AAnNxAH4ABwAAAAJ3BAAAAAJzcQB+AAJzcQB+AAcAAAAAdwQAAAAAeHEAfgBHcQB+AhVzcQB+AAJzcQB+AAcAAAAAdwQAAAAAeHEAfgBLcQB+AhV4cQB+AB5xAH4CEXhxAH4AHnEAfgIPcQB+ADF4cQB+ACBxAH4CDXEAfgBWeHEAfgAec3EAfgACc3EAfgAHAAAAAncEAAAAAnEAfgINcQB+AKF4cQB+ACBzcQB+AAJzcQB+AAcAAAACdwQAAAACc3EAfgACc3EAfgAHAAAAAncEAAAAAnNxAH4AAnNxAH4ABwAAAAB3BAAAAAB4cQB+ABBxAH4CH3NxAH4AAnNxAH4ABwAAAAJ3BAAAAAJzcQB+AAJzcQB+AAcAAAAAdwQAAAAAeHEAfgAXcQB+AiNzcQB+AAJzcQB+AAcAAAACdwQAAAACc3EAfgACc3EAfgAHAAAAAHcEAAAAAHhxAH4AanEAfgInc3EAfgACc3EAfgAHAAAAAncEAAAAAnNxAH4AAnNxAH4ABwAAAAB3BAAAAAB4cQB+AEdxAH4CK3NxAH4AAnNxAH4ABwAAAAB3BAAAAAB4cQB+AEtxAH4CK3hxAH4AHnEAfgIneHEAfgAgcQB+AiN4cQB+AB5xAH4CH3hxAH4AIHEAfgIdcQB+Aht4cQB+AD9zcQB+AAJzcQB+AAcAAAACdwQAAAACcQB+Ah1xAH4A+nhxAH4AiXB4cQB+AB5zcQB+AAJzcQB+AAcAAAACdwQAAAACcQB+AFRxAH4AoXhxAH4AIHNxAH4AAnNxAH4ABwAAAAJ3BAAAAAJzcQB+AAJzcQB+AAcAAAACdwQAAAACc3EAfgACc3EAfgAHAAAAAHcEAAAAAHhxAH4AEHEAfgI3c3EAfgACc3EAfgAHAAAAAncEAAAAAnNxAH4AAnNxAH4ABwAAAAB3BAAAAAB4cQB+ABdxAH4CO3NxAH4AAnNxAH4ABwAAAAJ3BAAAAAJzcQB+AAJzcQB+AAcAAAAAdwQAAAAAeHEAfgBqcQB+Aj9zcQB+AAJzcQB+AAcAAAACdwQAAAACc3EAfgACc3EAfgAHAAAAAHcEAAAAAHhxAH4AR3EAfgJDc3EAfgACc3EAfgAHAAAAAHcEAAAAAHhxAH4AS3EAfgJDeHEAfgAecQB+Aj94cQB+ACBxAH4CO3hxAH4AHnEAfgI3eHEAfgAgcQB+AjVxAH4CM3hxAH4AP3NxAH4AAnNxAH4ABwAAAAJ3BAAAAAJxAH4CNXEAfgD6eHEAfgCJcHhxAH4AHnEAfgIPeHEAfgAgcQB+ACRxAH4AVnhxAH4AHnEAfgAicQB+AKF4cQB+ACBzcQB+AAJzcQB+AAcAAAACdwQAAAACc3EAfgACc3EAfgAHAAAAAncEAAAAAnNxAH4AAnNxAH4ABwAAAAB3BAAAAAB4cQB+AGpxAH4CTXNxAH4AAnNxAH4ABwAAAAJ3BAAAAAJzcQB+AAJzcQB+AAcAAAAAdwQAAAAAeHEAfgAXcQB+AlFzcQB+AAJzcQB+AAcAAAACdwQAAAACc3EAfgACc3EAfgAHAAAAAHcEAAAAAHhxAH4AanEAfgJVc3EAfgACc3EAfgAHAAAAAncEAAAAAnNxAH4AAnNxAH4ABwAAAAB3BAAAAAB4cQB+AEdxAH4CWXNxAH4AAnNxAH4ABwAAAAB3BAAAAAB4cQB+AEtzcQB+AAJzcQB+AAcAAAACdwQAAAACc3EAfgACc3EAfgAHAAAAAHcEAAAAAHhxAH4AXnEAfgJfcQB+Al14cQB+AB5zcQB+AAJzcQB+AAcAAAACdwQAAAACc3EAfgACc3EAfgAHAAAAAHcEAAAAAHhxAH4AanEAfgJjcQB+Al94cQB+ACBzcQB+AAJzcQB+AAcAAAACdwQAAAACc3EAfgACc3EAfgAHAAAAAHcEAAAAAHhxAH4AF3EAfgJncQB+AmN4cQB+AB5zcQB+AAJzcQB+AAcAAAACdwQAAAACc3EAfgACc3EAfgAHAAAAAHcEAAAAAHhxAH4AEHEAfgJrcQB+Amd4cQB+ACBzcQB+AAJzcQB+AAcAAAACdwQAAAACcQB+AmtxAH4AInhxAH4AP3NxAH4AAnNxAH4ABwAAAAJ3BAAAAAJxAH4Cb3EAfgD6eHEAfgCJcHhxAH4AHnNxAH4AAnNxAH4ABwAAAAJ3BAAAAAJzcQB+AAJzcQB+AAcAAAAAdwQAAAAAeHEAfgAwcQB+AnNxAH4CWXhxAH4AIHNxAH4AAnNxAH4ABwAAAAJ3BAAAAAJzcQB+AAJzcQB+AAcAAAAAdwQAAAAAeHEAfgAXcQB+AndxAH4Cc3hxAH4AHnNxAH4AAnNxAH4ABwAAAAJ3BAAAAAJzcQB+AAJzcQB+AAcAAAAAdwQAAAAAeHEAfgAQcQB+AntxAH4Cd3hxAH4AIHNxAH4AAnNxAH4ABwAAAAJ3BAAAAAJxAH4Ce3EAfgAieHEAfgA/c3EAfgACc3EAfgAHAAAAAncEAAAAAnEAfgJ/cQB+APp4cQB+AIlweHEAfgAgc3EAfgACc3EAfgAHAAAAAncEAAAAAnNxAH4AAnNxAH4ABwAAAAJ3BAAAAAJzcQB+AAJzcQB+AAcAAAACdwQAAAACc3EAfgACc3EAfgAHAAAAAHcEAAAAAHhxAH4ALHEAfgKHc3EAfgACc3EAfgAHAAAAAHcEAAAAAHhxAH4AMHEAfgKHeHEAfgAecQB+AoVzcQB+AAJzcQB+AAcAAAACdwQAAAACc3EAfgACc3EAfgAHAAAAAHcEAAAAAHhxAH4ANXEAfgKNc3EAfgACc3EAfgAHAAAAAncEAAAAAnNxAH4AAnNxAH4ABwAAAAB3BAAAAAB4cQB+ABdxAH4CkXNxAH4AAnNxAH4ABwAAAAB3BAAAAAB4cQB+AD1xAH4CkXhxAH4AP3EAfgKNeHEAfgAecQB+AoV4cQB+ACBxAH4Cg3EAfgJVeHEAfgAec3EAfgACc3EAfgAHAAAAAncEAAAAAnNxAH4AAnNxAH4ABwAAAAB3BAAAAAB4cQB+ABBxAH4Cl3EAfgKDeHEAfgAgc3EAfgACc3EAfgAHAAAAAncEAAAAAnEAfgKXcQB+ACJ4cQB+AD9zcQB+AAJzcQB+AAcAAAACdwQAAAACcQB+AptxAH4A+nhxAH4AiXB4cQB+AB5xAH4CTXhxAH4AIHEAfgJLcQB+ACJ4cQB+AD9zcQB+AAJzcQB+AAcAAAACdwQAAAACcQB+AktxAH4A+nhxAH4AiXB4cQB+AD9xAH4ABnEAfgD6eHEAfgCJcHNxAH4AAnNxAH4ABwAAAAJ3BAAAAAJzcQB+AAJzcQB+AAcAAAACdwQAAAACc3EAfgACc3EAfgAHAAAAAncEAAAAAnNxAH4AAnNxAH4ABwAAAAB3BAAAAAB4c3EAfgAVdAACeDZxAH4CpXNxAH4AAnNxAH4ABwAAAAB3BAAAAAB4cQB+ADVzcQB+AAJzcQB+AAcAAAACdwQAAAACc3EAfgACc3EAfgAHAAAAAHcEAAAAAHhxAH4Ar3EAfgKtcQB+Aqt4cQB+AIlzcQB+AAJzcQB+AAcAAAACdwQAAAACcQB+Aq1zcQB+AAJzcQB+AAcAAAACdwQAAAACc3EAfgACc3EAfgAHAAAAAHcEAAAAAHhzcQB+AA9AEAAAAAAAAHEAfgKzc3EAfgACc3EAfgAHAAAAAHcEAAAAAHhxAH4AMHNxAH4AAnNxAH4ABwAAAAJ3BAAAAAJzcQB+AAJzcQB+AAcAAAACdwQAAAACc3EAfgACc3EAfgAHAAAAAncEAAAAAnNxAH4AAnNxAH4ABwAAAAB3BAAAAAB4cQB+ABtxAH4CvnNxAH4AAnNxAH4ABwAAAAB3BAAAAAB4c3EAfgAPQBIAAAAAAABxAH4CvnhxAH4AP3EAfgK8c3EAfgACc3EAfgAHAAAAAHcEAAAAAHhxAH4BEHEAfgK8eHEAfgCJcQB+ArpxAH4CuHhxAH4AIHNxAH4AAnNxAH4ABwAAAAJ3BAAAAAJzcQB+AAJzcQB+AAcAAAACdwQAAAACc3EAfgACc3EAfgAHAAAAAHcEAAAAAHhxAH4CqXEAfgLJc3EAfgACc3EAfgAHAAAAAHcEAAAAAHhxAH4ANXEAfgLJeHEAfgCJcQB+AsdxAH4CunhxAH4AiXNxAH4AAnNxAH4ABwAAAAJ3BAAAAAJxAH4Cx3NxAH4AAnNxAH4ABwAAAAJ3BAAAAAJzcQB+AAJzcQB+AAcAAAACdwQAAAACc3EAfgACc3EAfgAHAAAAAHcEAAAAAHhxAH4AS3EAfgLTc3EAfgACc3EAfgAHAAAAAHcEAAAAAHhxAH4AS3NxAH4AAnNxAH4ABwAAAAJ3BAAAAAJzcQB+AAJzcQB+AAcAAAAAdwQAAAAAeHEAfgA1cQB+AtlxAH4C13hxAH4AIHNxAH4AAnNxAH4ABwAAAAJ3BAAAAAJxAH4C2XNxAH4AAnNxAH4ABwAAAAJ3BAAAAAJzcQB+AAJzcQB+AAcAAAACdwQAAAACc3EAfgACc3EAfgAHAAAAAncEAAAAAnNxAH4AAnNxAH4ABwAAAAB3BAAAAAB4cQB+AqlxAH4C43NxAH4AAnNxAH4ABwAAAAB3BAAAAAB4cQB+ADVxAH4C43hxAH4AiXEAfgLhc3EAfgACc3EAfgAHAAAAAncEAAAAAnNxAH4AAnNxAH4ABwAAAAB3BAAAAAB4cQB+ArdxAH4C6XNxAH4AAnNxAH4ABwAAAAJ3BAAAAAJzcQB+AAJzcQB+AAcAAAACdwQAAAACc3EAfgACc3EAfgAHAAAAAHcEAAAAAHhxAH4AG3EAfgLvc3EAfgACc3EAfgAHAAAAAHcEAAAAAHhxAH4CxHEAfgLveHEAfgA/cQB+Au1zcQB+AAJzcQB+AAcAAAAAdwQAAAAAeHEAfgBic3EAfgACc3EAfgAHAAAAAncEAAAAAnNxAH4AAnNxAH4ABwAAAAB3BAAAAAB4cQB+ADBxAH4C93EAfgL1eHEAfgCJc3EAfgACc3EAfgAHAAAAAncEAAAAAnNxAH4AAnNxAH4ABwAAAAB3BAAAAAB4cQB+ArdxAH4C+3EAfgL3eHEAfgAgc3EAfgACc3EAfgAHAAAAAncEAAAAAnNxAH4AAnNxAH4ABwAAAAJ3BAAAAAJzcQB+AAJzcQB+AAcAAAAAdwQAAAAAeHEAfgKpcQB+AwFzcQB+AAJzcQB+AAcAAAAAdwQAAAAAeHEAfgA1cQB+AwF4cQB+AIlxAH4C/3EAfgL7eHEAfgCJc3EAfgACc3EAfgAHAAAAAncEAAAAAnEAfgL/c3EAfgACc3EAfgAHAAAAAncEAAAAAnNxAH4AAnNxAH4ABwAAAAB3BAAAAAB4c3EAfgAVdAACeDdxAH4DCXNxAH4AAnNxAH4ABwAAAAJ3BAAAAAJzcQB+AAJzcQB+AAcAAAAAdwQAAAAAeHEAfgA1cQB+Aw9zcQB+AAJzcQB+AAcAAAAAdwQAAAAAeHEAfgMNcQB+Aw94cQB+ACBzcQB+AAJzcQB+AAcAAAACdwQAAAACc3EAfgACc3EAfgAHAAAAAHcEAAAAAHhxAH4Ct3EAfgMVcQB+Aw94cQB+ACBzcQB+AAJzcQB+AAcAAAACdwQAAAACc3EAfgACc3EAfgAHAAAAAncEAAAAAnNxAH4AAnNxAH4ABwAAAAJ3BAAAAAJzcQB+AAJzcQB+AAcAAAAAdwQAAAAAeHEAfgKpcQB+Ax1zcQB+AAJzcQB+AAcAAAAAdwQAAAAAeHEAfgA1cQB+Ax14cQB+AIlxAH4DG3NxAH4AAnNxAH4ABwAAAAJ3BAAAAAJzcQB+AAJzcQB+AAcAAAAAdwQAAAAAeHEAfgK3cQB+AyNzcQB+AAJzcQB+AAcAAAACdwQAAAACc3EAfgACc3EAfgAHAAAAAncEAAAAAnNxAH4AAnNxAH4ABwAAAAB3BAAAAAB4cQB+ABtxAH4DKXNxAH4AAnNxAH4ABwAAAAB3BAAAAAB4cQB+AsRxAH4DKXhxAH4AP3EAfgMnc3EAfgACc3EAfgAHAAAAAHcEAAAAAHhxAH4AYnEAfgMneHEAfgCJcQB+AyN4cQB+ACBxAH4DG3hxAH4AiXEAfgMZcQB+AxV4cQB+AIlzcQB+AAJzcQB+AAcAAAACdwQAAAACc3EAfgACc3EAfgAHAAAAAncEAAAAAnNxAH4AAnNxAH4ABwAAAAB3BAAAAAB4cQB+AEtxAH4DM3NxAH4AAnNxAH4ABwAAAAB3BAAAAAB4cQB+AEtxAH4DM3hxAH4AIHEAfgMxcQB+Axl4cQB+ACBzcQB+AAJzcQB+AAcAAAACdwQAAAACc3EAfgACc3EAfgAHAAAAAncEAAAAAnNxAH4AAnNxAH4ABwAAAAJ3BAAAAAJzcQB+AAJzcQB+AAcAAAAAdwQAAAAAeHEAfgKpcQB+Az1zcQB+AAJzcQB+AAcAAAAAdwQAAAAAeHEAfgA1cQB+Az14cQB+AIlxAH4DO3NxAH4AAnNxAH4ABwAAAAJ3BAAAAAJzcQB+AAJzcQB+AAcAAAAAdwQAAAAAeHEAfgK3cQB+A0NzcQB+AAJzcQB+AAcAAAAAdwQAAAAAeHEAfgAwcQB+A0N4cQB+ACBxAH4DO3hxAH4AiXEAfgM5cQB+AzF4cQB+AIlweHEAfgAgcQB+Awd4cQB+AIlzcQB+AAJzcQB+AAcAAAACdwQAAAACc3EAfgACc3EAfgAHAAAAAncEAAAAAnNxAH4AAnNxAH4ABwAAAAB3BAAAAAB4cQB+AEtxAH4DS3NxAH4AAnNxAH4ABwAAAAB3BAAAAAB4cQB+AEtxAH4DS3hxAH4AIHEAfgNJcQB+Awd4cQB+ACBzcQB+AAJzcQB+AAcAAAACdwQAAAACc3EAfgACc3EAfgAHAAAAAncEAAAAAnNxAH4AAnNxAH4ABwAAAAJ3BAAAAAJzcQB+AAJzcQB+AAcAAAAAdwQAAAAAeHEAfgKpcQB+A1VzcQB+AAJzcQB+AAcAAAAAdwQAAAAAeHEAfgA1cQB+A1V4cQB+AIlxAH4DU3NxAH4AAnNxAH4ABwAAAAJ3BAAAAAJzcQB+AAJzcQB+AAcAAAAAdwQAAAAAeHEAfgK3cQB+A1tzcQB+AAJzcQB+AAcAAAAAdwQAAAAAeHEAfgAwcQB+A1t4cQB+ACBxAH4DU3hxAH4AiXEAfgNRcQB+A0l4cQB+AIlweHEAfgCJcQB+Aul4cQB+ACBxAH4C4XhxAH4AiXEAfgLfcQB+Awl4cQB+AIlxAH4C3XhxAH4AIHNxAH4AAnNxAH4ABwAAAAJ3BAAAAAJzcQB+AAJzcQB+AAcAAAACdwQAAAACc3EAfgACc3EAfgAHAAAAAncEAAAAAnNxAH4AAnNxAH4ABwAAAAB3BAAAAAB4cQB+AqlxAH4DZXNxAH4AAnNxAH4ABwAAAAB3BAAAAAB4cQB+ADVxAH4DZXhxAH4AiXEAfgNjc3EAfgACc3EAfgAHAAAAAncEAAAAAnNxAH4AAnNxAH4ABwAAAAB3BAAAAAB4cQB+ArdxAH4Da3NxAH4AAnNxAH4ABwAAAAB3BAAAAAB4cQB+ADBxAH4Da3hxAH4AIHEAfgNjeHEAfgCJcQB+A2FxAH4C3XhxAH4AiXB4cQB+ACBxAH4C0XEAfgLfeHEAfgAgc3EAfgACc3EAfgAHAAAAAncEAAAAAnNxAH4AAnNxAH4ABwAAAAJ3BAAAAAJzcQB+AAJzcQB+AAcAAAACdwQAAAACc3EAfgACc3EAfgAHAAAAAHcEAAAAAHhxAH4CqXEAfgN1c3EAfgACc3EAfgAHAAAAAHcEAAAAAHhxAH4ANXEAfgN1eHEAfgCJcQB+A3NzcQB+AAJzcQB+AAcAAAACdwQAAAACc3EAfgACc3EAfgAHAAAAAHcEAAAAAHhxAH4DDXEAfgN7c3EAfgACc3EAfgAHAAAAAncEAAAAAnNxAH4AAnNxAH4ABwAAAAB3BAAAAAB4cQB+ADVxAH4Df3NxAH4AAnNxAH4ABwAAAAB3BAAAAAB4cQB+Aw1xAH4Df3hxAH4AIHEAfgN7eHEAfgAgcQB+A3N4cQB+AIlxAH4DcXEAfgLReHEAfgCJcHhxAH4AiXB4cQB+ACBzcQB+AAJzcQB+AAcAAAACdwQAAAACc3EAfgACc3EAfgAHAAAAAncEAAAAAnNxAH4AAnNxAH4ABwAAAAB3BAAAAAB4cQB+AqlxAH4Dh3NxAH4AAnNxAH4ABwAAAAJ3BAAAAAJzcQB+AAJzcQB+AAcAAAAAdwQAAAAAeHEAfgBLcQB+A4tzcQB+AAJzcQB+AAcAAAAAdwQAAAAAeHEAfgBLcQB+A4t4cQB+ACBxAH4Dh3hxAH4AiXEAfgOFcQB+ArN4cQB+AIlzcQB+AAJzcQB+AAcAAAACdwQAAAACcQB+A4VxAH4C0XhxAH4AiXB4cQB+AIlzcQB+AAJzcQB+AAcAAAACdwQAAAACcQB+ArFxAH4C0XhxAH4AiXB4cQB+AIlxAH4Co3EAfgKzeHEAfgCJcQB+AqFxAH4C0XhxAH4AiXBzcQB+AAJzcQB+AAcAAAACdwQAAAACc3EAfgACc3EAfgAHAAAAAncEAAAAAnNxAH4AAnNxAH4ABwAAAAB3BAAAAAB4cQB+ACxxAH4Dl3NxAH4AAnNxAH4ABwAAAAB3BAAAAAB4cQB+ADBzcQB+AAJzcQB+AAcAAAACdwQAAAACc3EAfgACc3EAfgAHAAAAAHcEAAAAAHhxAH4AanEAfgOdcQB+A5t4cQB+ACBzcQB+AAJzcQB+AAcAAAACdwQAAAACcQB+A51zcQB+AAJzcQB+AAcAAAACdwQAAAACc3EAfgACc3EAfgAHAAAAAHcEAAAAAHhxAH4ALHEAfgOjc3EAfgACc3EAfgAHAAAAAHcEAAAAAHhxAH4AMHEAfgOjeHEAfgAgc3EAfgACc3EAfgAHAAAAAncEAAAAAnNxAH4AAnNxAH4ABwAAAAJ3BAAAAAJzcQB+AAJzcQB+AAcAAAAAdwQAAAAAeHEAfgBHcQB+A6tzcQB+AAJzcQB+AAcAAAAAdwQAAAAAeHEAfgA9cQB+A6t4cQB+AB5xAH4DqXEAfgOjeHEAfgCJcHhxAH4AiXB4cQB+ACBxAH4DlXEAfgOjeHEAfgCJcHNxAH4AAnNxAH4ABwAAAAJ3BAAAAAJzcQB+AAJzcQB+AAcAAAACdwQAAAACc3EAfgACc3EAfgAHAAAAAHcEAAAAAHhxAH4DDXEAfgOzc3EAfgACc3EAfgAHAAAAAncEAAAAAnNxAH4AAnNxAH4ABwAAAAJ3BAAAAAJzcQB+AAJzcQB+AAcAAAACdwQAAAACc3EAfgACc3EAfgAHAAAAAHcEAAAAAHhzcQB+ABV0AAN4MTBxAH4Du3NxAH4AAnNxAH4ABwAAAAB3BAAAAAB4cQB+ADBxAH4Du3hxAH4AP3EAfgO5c3EAfgACc3EAfgAHAAAAAncEAAAAAnNxAH4AAnNxAH4ABwAAAAJ3BAAAAAJzcQB+AAJzcQB+AAcAAAAAdwQAAAAAeHEAfgBecQB+A8VzcQB+AAJzcQB+AAcAAAAAdwQAAAAAeHEAfgO/cQB+A8V4cQB+ACBxAH4Dw3NxAH4AAnNxAH4ABwAAAAB3BAAAAAB4cQB+AD1zcQB+AAJzcQB+AAcAAAACdwQAAAACc3EAfgACc3EAfgAHAAAAAncEAAAAAnNxAH4AAnNxAH4ABwAAAAB3BAAAAAB4cQB+AF5xAH4Dz3NxAH4AAnNxAH4ABwAAAAJ3BAAAAAJzcQB+AAJzcQB+AAcAAAACdwQAAAACc3EAfgACc3EAfgAHAAAAAHcEAAAAAHhxAH4AXnEAfgPVc3EAfgACc3EAfgAHAAAAAHcEAAAAAHhzcQB+ABV0AAJ4MnEAfgPVeHEAfgAgcQB+A9NzcQB+AAJzcQB+AAcAAAAAdwQAAAAAeHEAfgBqcQB+A9N4cQB+AB5xAH4Dz3hxAH4AIHEAfgPNcQB+A8t4cQB+AD9zcQB+AAJzcQB+AAcAAAACdwQAAAACc3EAfgACc3EAfgAHAAAAAncEAAAAAnNxAH4AAnNxAH4ABwAAAAB3BAAAAAB4cQB+A79xAH4D4XNxAH4AAnNxAH4ABwAAAAB3BAAAAAB4cQB+ADBxAH4D4XhxAH4AP3EAfgPfcQB+A814cQB+AD9zcQB+AAJzcQB+AAcAAAACdwQAAAACcQB+A99zcQB+AAJzcQB+AAcAAAACdwQAAAACc3EAfgACc3EAfgAHAAAAAncEAAAAAnNxAH4AAnNxAH4ABwAAAAB3BAAAAAB4cQB+ABtxAH4D63NxAH4AAnNxAH4ABwAAAAB3BAAAAAB4cQB+ArdzcQB+AAJzcQB+AAcAAAACdwQAAAACc3EAfgACc3EAfgAHAAAAAncEAAAAAnNxAH4AAnNxAH4ABwAAAAB3BAAAAAB4cQB+ABBxAH4D83NxAH4AAnNxAH4ABwAAAAB3BAAAAAB4cQB+ADBxAH4D83hxAH4AiXEAfgPxcQB+A+94cQB+AD9zcQB+AAJzcQB+AAcAAAACdwQAAAACcQB+A/FzcQB+AAJzcQB+AAcAAAACdwQAAAACc3EAfgACc3EAfgAHAAAAAncEAAAAAnNxAH4AAnNxAH4ABwAAAAB3BAAAAAB4cQB+AK9xAH4D/XNxAH4AAnNxAH4ABwAAAAJ3BAAAAAJzcQB+AAJzcQB+AAcAAAAAdwQAAAAAeHNxAH4AFXQAA3gxMnEAfgQBc3EAfgACc3EAfgAHAAAAAHcEAAAAAHhxAH4AanEAfgQBeHEAfgAec3EAfgACc3EAfgAHAAAAAncEAAAAAnNxAH4AAnNxAH4ABwAAAAB3BAAAAAB4cQB+ArdxAH4ECXEAfgQBeHEAfgAgc3EAfgACc3EAfgAHAAAAAncEAAAAAnEAfgQJc3EAfgACc3EAfgAHAAAAAHcEAAAAAHhzcQB+ABV0AAN4MTNzcQB+AAJzcQB+AAcAAAACdwQAAAACc3EAfgACc3EAfgAHAAAAAHcEAAAAAHhxAH4Dv3EAfgQTcQB+BA94cQB+AIlzcQB+AAJzcQB+AAcAAAACdwQAAAACc3EAfgACc3EAfgAHAAAAAncEAAAAAnNxAH4AAnNxAH4ABwAAAAB3BAAAAAB4cQB+ABtxAH4EGXNxAH4AAnNxAH4ABwAAAAB3BAAAAAB4cQB+ArdxAH4EGXhxAH4AP3EAfgQXcQB+BBN4cQB+AD9zcQB+AAJzcQB+AAcAAAACdwQAAAACc3EAfgACc3EAfgAHAAAAAncEAAAAAnNxAH4AAnNxAH4ABwAAAAJ3BAAAAAJzcQB+AAJzcQB+AAcAAAAAdwQAAAAAeHEAfgO/cQB+BCNzcQB+AAJzcQB+AAcAAAAAdwQAAAAAeHEAfgAwcQB+BCN4cQB+AD9xAH4EIXNxAH4AAnNxAH4ABwAAAAJ3BAAAAAJzcQB+AAJzcQB+AAcAAAACdwQAAAACc3EAfgACc3EAfgAHAAAAAHcEAAAAAHhxAH4AXnEAfgQrc3EAfgACc3EAfgAHAAAAAncEAAAAAnNxAH4AAnNxAH4ABwAAAAB3BAAAAAB4cQB+BAVxAH4EL3NxAH4AAnNxAH4ABwAAAAB3BAAAAAB4cQB+AGpxAH4EL3hxAH4AHnEAfgQreHEAfgAgcQB+BClzcQB+AAJzcQB+AAcAAAAAdwQAAAAAeHEAfgA9cQB+BCl4cQB+AD9xAH4EIXhxAH4AP3EAfgQfcQB+BBd4cQB+ACBzcQB+AAJzcQB+AAcAAAACdwQAAAACc3EAfgACc3EAfgAHAAAAAHcEAAAAAHhxAH4DDXEAfgQ3cQB+BB94cQB+AD9zcQB+AAJzcQB+AAcAAAACdwQAAAACcQB+BDdzcQB+AAJzcQB+AAcAAAACdwQAAAACc3EAfgACc3EAfgAHAAAAAncEAAAAAnNxAH4AAnNxAH4ABwAAAAJ3BAAAAAJzcQB+AAJzcQB+AAcAAAAAdwQAAAAAeHEAfgO/cQB+BEFzcQB+AAJzcQB+AAcAAAAAdwQAAAAAeHEAfgAwcQB+BEF4cQB+AD9xAH4EP3NxAH4AAnNxAH4ABwAAAAJ3BAAAAAJzcQB+AAJzcQB+AAcAAAACdwQAAAACc3EAfgACc3EAfgAHAAAAAHcEAAAAAHhxAH4AXnEAfgRJc3EAfgACc3EAfgAHAAAAAncEAAAAAnNxAH4AAnNxAH4ABwAAAAB3BAAAAAB4cQB+BAVxAH4ETXNxAH4AAnNxAH4ABwAAAAB3BAAAAAB4cQB+AGpxAH4ETXhxAH4AHnEAfgRJeHEAfgAgcQB+BEdzcQB+AAJzcQB+AAcAAAAAdwQAAAAAeHEAfgA9cQB+BEd4cQB+AD9xAH4EP3hxAH4AP3EAfgQ9c3EAfgACc3EAfgAHAAAAAncEAAAAAnNxAH4AAnNxAH4ABwAAAAJ3BAAAAAJzcQB+AAJzcQB+AAcAAAAAdwQAAAAAeHEAfgAbcQB+BFdzcQB+AAJzcQB+AAcAAAAAdwQAAAAAeHEAfgK3cQB+BFd4cQB+AD9xAH4EVXNxAH4AAnNxAH4ABwAAAAJ3BAAAAAJzcQB+AAJzcQB+AAcAAAACdwQAAAACc3EAfgACc3EAfgAHAAAAAHcEAAAAAHhxAH4Ar3EAfgRfc3EAfgACc3EAfgAHAAAAAncEAAAAAnNxAH4AAnNxAH4ABwAAAAB3BAAAAAB4cQB+BAVxAH4EY3NxAH4AAnNxAH4ABwAAAAB3BAAAAAB4cQB+AGpxAH4EY3hxAH4AHnEAfgRfeHEAfgAgcQB+BF1zcQB+AAJzcQB+AAcAAAAAdwQAAAAAeHEAfgQRcQB+BF14cQB+AIlxAH4EVXhxAH4AP3EAfgQ9eHEAfgAgc3EAfgACc3EAfgAHAAAAAncEAAAAAnNxAH4AAnNxAH4ABwAAAAJ3BAAAAAJzcQB+AAJzcQB+AAcAAAAAdwQAAAAAeHEAfgMNcQB+BG1xAH4D53hxAH4AP3EAfgRrcQB+BD14cQB+AIlweHEAfgCJcHhxAH4AiXNxAH4AAnNxAH4ABwAAAAJ3BAAAAAJzcQB+AAJzcQB+AAcAAAACdwQAAAACc3EAfgACc3EAfgAHAAAAAHcEAAAAAHhxAH4AG3EAfgRzc3EAfgACc3EAfgAHAAAAAHcEAAAAAHhxAH4Ct3EAfgRzeHEAfgA/cQB+BHFxAH4EDXhxAH4AP3NxAH4AAnNxAH4ABwAAAAJ3BAAAAAJzcQB+AAJzcQB+AAcAAAACdwQAAAACc3EAfgACc3EAfgAHAAAAAncEAAAAAnNxAH4AAnNxAH4ABwAAAAB3BAAAAAB4cQB+A79xAH4EfXNxAH4AAnNxAH4ABwAAAAB3BAAAAAB4cQB+ADBxAH4EfXhxAH4AP3EAfgR7c3EAfgACc3EAfgAHAAAAAncEAAAAAnNxAH4AAnNxAH4ABwAAAAJ3BAAAAAJzcQB+AAJzcQB+AAcAAAAAdwQAAAAAeHEAfgBecQB+BIVzcQB+AAJzcQB+AAcAAAACdwQAAAACc3EAfgACc3EAfgAHAAAAAHcEAAAAAHhxAH4EBXEAfgSJc3EAfgACc3EAfgAHAAAAAHcEAAAAAHhxAH4AanEAfgSJeHEAfgAecQB+BIV4cQB+ACBxAH4Eg3NxAH4AAnNxAH4ABwAAAAB3BAAAAAB4cQB+AD1xAH4Eg3hxAH4AP3EAfgR7eHEAfgA/cQB+BHlxAH4EcXhxAH4AIHNxAH4AAnNxAH4ABwAAAAJ3BAAAAAJzcQB+AAJzcQB+AAcAAAAAdwQAAAAAeHEAfgMNcQB+BJFxAH4EeXhxAH4AP3NxAH4AAnNxAH4ABwAAAAJ3BAAAAAJxAH4EkXEAfgQ9eHEAfgCJcHhxAH4AIHEAfgP7cQB+BA94cQB+AIlzcQB+AAJzcQB+AAcAAAACdwQAAAACc3EAfgACc3EAfgAHAAAAAncEAAAAAnNxAH4AAnNxAH4ABwAAAAB3BAAAAAB4cQB+ABtxAH4EmXNxAH4AAnNxAH4ABwAAAAJ3BAAAAAJzcQB+AAJzcQB+AAcAAAAAdwQAAAAAeHEAfgCvcQB+BJ1zcQB+AAJzcQB+AAcAAAACdwQAAAACc3EAfgACc3EAfgAHAAAAAHcEAAAAAHhxAH4EBXEAfgShc3EAfgACc3EAfgAHAAAAAHcEAAAAAHhxAH4AanEAfgSheHEAfgAecQB+BJ14cQB+ACBxAH4EmXhxAH4AP3EAfgSXcQB+A/t4cQB+AD9zcQB+AAJzcQB+AAcAAAACdwQAAAACc3EAfgACc3EAfgAHAAAAAncEAAAAAnNxAH4AAnNxAH4ABwAAAAJ3BAAAAAJzcQB+AAJzcQB+AAcAAAAAdwQAAAAAeHEAfgO/cQB+BKtzcQB+AAJzcQB+AAcAAAAAdwQAAAAAeHEAfgAwcQB+BKt4cQB+AD9xAH4EqXNxAH4AAnNxAH4ABwAAAAJ3BAAAAAJzcQB+AAJzcQB+AAcAAAACdwQAAAACc3EAfgACc3EAfgAHAAAAAHcEAAAAAHhxAH4AXnEAfgSzc3EAfgACc3EAfgAHAAAAAncEAAAAAnNxAH4AAnNxAH4ABwAAAAB3BAAAAAB4cQB+BAVxAH4Et3NxAH4AAnNxAH4ABwAAAAB3BAAAAAB4cQB+AGpxAH4Et3hxAH4AHnEAfgSzeHEAfgAgcQB+BLFzcQB+AAJzcQB+AAcAAAAAdwQAAAAAeHEAfgA9cQB+BLF4cQB+AD9xAH4EqXhxAH4AP3EAfgSncQB+BJd4cQB+ACBzcQB+AAJzcQB+AAcAAAACdwQAAAACc3EAfgACc3EAfgAHAAAAAHcEAAAAAHhxAH4DDXEAfgS/cQB+BKd4cQB+AD9zcQB+AAJzcQB+AAcAAAACdwQAAAACcQB+BL9xAH4EPXhxAH4AiXB4cQB+AD9zcQB+AAJzcQB+AAcAAAACdwQAAAACc3EAfgACc3EAfgAHAAAAAncEAAAAAnNxAH4AAnNxAH4ABwAAAAJ3BAAAAAJzcQB+AAJzcQB+AAcAAAAAdwQAAAAAeHEAfgO/cQB+BMlzcQB+AAJzcQB+AAcAAAAAdwQAAAAAeHEAfgAwcQB+BMl4cQB+AD9xAH4Ex3NxAH4AAnNxAH4ABwAAAAJ3BAAAAAJzcQB+AAJzcQB+AAcAAAACdwQAAAACc3EAfgACc3EAfgAHAAAAAHcEAAAAAHhxAH4AXnEAfgTRc3EAfgACc3EAfgAHAAAAAncEAAAAAnNxAH4AAnNxAH4ABwAAAAB3BAAAAAB4cQB+BAVxAH4E1XNxAH4AAnNxAH4ABwAAAAB3BAAAAAB4cQB+AGpxAH4E1XhxAH4AHnEAfgTReHEAfgAgcQB+BM9zcQB+AAJzcQB+AAcAAAAAdwQAAAAAeHEAfgA9cQB+BM94cQB+AD9xAH4Ex3hxAH4AP3EAfgTFcQB+A/l4cQB+ACBzcQB+AAJzcQB+AAcAAAACdwQAAAACc3EAfgACc3EAfgAHAAAAAHcEAAAAAHhxAH4DDXEAfgTdcQB+BMV4cQB+AD9zcQB+AAJzcQB+AAcAAAACdwQAAAACcQB+BN1xAH4EPXhxAH4AiXB4cQB+AD9xAH4D6XEAfgP7eHEAfgA/cQB+A+d4cQB+ACBxAH4EbXhxAH4AP3EAfgO5eHEAfgA/cQB+A7dxAH4D6XhxAH4AIHEAfgOzeHEAfgA/cQB+A7FxAH4EPXhxAH4AiXB4"
  ]
)